JMolnar6/NonAnthroHands_User_Study/HandsLoggerWithURDF/tempdata/PID 0 (test)/files/Reachy_JointMotion_gesture_9_43.csv
Time,r_shoulder,r_shoulder_x,r_upper_arm,r_forearm,r_wrist,r_wrist2hand,
853.9661,-0.01401039,0.0004101628,NaN,-0.9053755,0.0003891073,NaN,-1.562568,-14.61829,NaN,-2.108426,-1.471131,0.3776036,14.10508,NaN,NaN,-0.09213597,0.8155854,-8.170206E-08,1.051244,3.341361E-08,1.325753
853.9825,-0.01400954,0.0004095616,NaN,-0.9054481,0.0003884523,NaN,-1.562046,-14.61872,NaN,-2.108995,-1.473368,0.3788991,14.1075,NaN,NaN,-0.09201086,0.8152161,-8.691747E-08,1.054521,3.57978E-08,1.329198
853.9966,-0.01400954,0.0004095616,NaN,-0.9054481,0.0003884523,NaN,-1.562046,-14.61872,NaN,-2.108995,-1.473368,0.3788991,14.1075,NaN,NaN,-0.09201086,0.8152161,-8.691747E-08,1.054521,3.57978E-08,1.329198
854.0096,-0.01400859,0.0004088696,NaN,-0.9055631,0.0003880592,NaN,-1.561609,-14.61807,NaN,-2.10985,-1.470403,0.380427,14.10426,NaN,NaN,-0.09188864,0.8157659,-8.021195E-08,1.050167,3.341361E-08,1.324415
854.025,-0.01400758,0.0004086726,NaN,-0.9057038,0.0003875545,NaN,-1.561292,-14.61948,NaN,-2.110835,-1.476458,0.3819255,14.11088,NaN,NaN,-0.09176875,0.8145532,-7.462401E-08,1.059063,2.864524E-08,1.333907
854.0397,-0.01400758,0.0004086726,NaN,-0.9057038,0.0003875545,NaN,-1.561292,-14.61948,NaN,-2.110835,-1.476458,0.3819255,14.11088,NaN,NaN,-0.09176875,0.8145532,-7.462401E-08,1.059063,2.864524E-08,1.333907
854.0541,-0.01400665,0.0004085602,NaN,-0.9057904,0.0003866972,NaN,-1.561569,-14.6196,NaN,-2.111283,-1.479123,0.3820257,14.11371,NaN,NaN,-0.09178036,0.8145034,-6.583232E-08,1.06295,2.626106E-08,1.334359
854.0694,-0.01400579,0.0004088864,NaN,-0.9058432,0.0003859281,NaN,-1.561799,-14.61968,NaN,-2.111463,-1.48102,0.3818485,14.11573,NaN,NaN,-0.09179124,0.8144641,-6.952036E-08,1.065715,2.626106E-08,1.335177
854.0843,-0.01400498,0.0004090704,NaN,-0.905875,0.0003859669,NaN,-1.561929,-14.61821,NaN,-2.111515,-1.473843,0.3816663,14.10795,NaN,NaN,-0.09180196,0.8157626,-7.305939E-08,1.055209,2.864524E-08,1.324118
854.0992,-0.01400498,0.0004090704,NaN,-0.905875,0.0003859669,NaN,-1.561929,-14.61821,NaN,-2.111515,-1.473843,0.3816663,14.10795,NaN,NaN,-0.09180196,0.8157626,-7.305939E-08,1.055209,2.864524E-08,1.324118
854.1135,-0.01400421,0.0004092253,NaN,-0.9058936,0.0003851851,NaN,-1.561998,-14.6193,NaN,-2.111504,-1.481429,0.3815082,14.11614,NaN,NaN,-0.09181256,0.8149058,-7.507104E-08,1.066321,2.864524E-08,1.331698
854.129,-0.01400359,0.0004093403,NaN,-0.9058366,0.0003845892,NaN,-1.562559,-14.61965,NaN,-2.11087,-1.47772,0.3800231,14.11224,NaN,NaN,-0.09195226,0.8144609,-7.142026E-08,1.060924,3.102943E-08,1.333065
854.1437,-0.01400308,0.0004092874,NaN,-0.9057332,0.0003848159,NaN,-1.563022,-14.61893,NaN,-2.109936,-1.469772,0.378314,14.10372,NaN,NaN,-0.0920888,0.8149731,-7.90571E-08,1.049315,3.57978E-08,1.327944
854.1584,-0.01400308,0.0004092874,NaN,-0.9057332,0.0003848159,NaN,-1.563022,-14.61893,NaN,-2.109936,-1.469772,0.378314,14.10372,NaN,NaN,-0.0920888,0.8149731,-7.90571E-08,1.049315,3.57978E-08,1.327944
854.1725,-0.01400264,0.0004096106,NaN,-0.9056016,0.0003843856,NaN,-1.563355,-14.61979,NaN,-2.108865,-1.480637,0.3766408,14.11535,NaN,NaN,-0.09222276,0.8144772,-8.524108E-08,1.065185,4.295036E-08,1.335473
854.188,-0.01400225,0.0004102377,NaN,-0.9054532,0.0003839222,NaN,-1.563611,-14.61971,NaN,-2.107736,-1.482439,0.3750258,14.11724,NaN,NaN,-0.0923542,0.8145866,-8.986044E-08,1.067804,4.533455E-08,1.335412
854.2026,-0.01400201,0.0004104658,NaN,-0.9052258,0.0003839437,NaN,-1.564346,-14.61862,NaN,-2.105997,-1.474762,0.3721096,14.10897,NaN,NaN,-0.09261239,0.8155019,-8.740175E-08,1.056579,5.487129E-08,1.32762
854.2194,-0.01400201,0.0004104658,NaN,-0.9052258,0.0003839437,NaN,-1.564346,-14.61862,NaN,-2.105997,-1.474762,0.3721096,14.10897,NaN,NaN,-0.09261239,0.8155019,-8.740175E-08,1.056579,5.487129E-08,1.32762
854.2324,-0.01400189,0.0004100992,NaN,-0.9049507,0.0003839041,NaN,-1.564968,-14.61834,NaN,-2.10397,-1.468978,0.3690022,14.10278,NaN,NaN,-0.09286513,0.8156116,-9.686399E-08,1.048129,5.487129E-08,1.323134
854.247,-0.01400185,0.0004095431,NaN,-0.9046473,0.0003839991,NaN,-1.565452,-14.61835,NaN,-2.101821,-1.467787,0.3659601,14.10151,NaN,NaN,-0.09311303,0.8155577,-1.052831E-07,1.046388,5.725547E-08,1.32281
854.2618,-0.01400186,0.000409559,NaN,-0.9043279,0.0003834153,NaN,-1.565852,-14.61828,NaN,-2.099631,-1.479648,0.3630031,14.11408,NaN,NaN,-0.09335618,0.8160473,-1.116906E-07,1.063675,5.010292E-08,1.326958
854.2767,-0.01400186,0.000409559,NaN,-0.9043279,0.0003834153,NaN,-1.565852,-14.61828,NaN,-2.099631,-1.479648,0.3630031,14.11408,NaN,NaN,-0.09335618,0.8160473,-1.116906E-07,1.063675,5.010292E-08,1.326958
854.2906,-0.01400202,0.0004092675,NaN,-0.9039307,0.0003834429,NaN,-1.566717,-14.61833,NaN,-2.096845,-1.469374,0.3587608,14.10316,NaN,NaN,-0.09372389,0.8157455,-1.132553E-07,1.048681,5.725547E-08,1.323743
854.3059,-0.0140023,0.0004092332,NaN,-0.9034872,0.0003835468,NaN,-1.567457,-14.61936,NaN,-2.093787,-1.472285,0.3543611,14.10638,NaN,NaN,-0.09408404,0.81482,-1.236116E-07,1.052971,5.487129E-08,1.330057
854.3209,-0.01400267,0.0004095351,NaN,-0.9030172,0.0003829523,NaN,-1.568051,-14.61863,NaN,-2.090623,-1.481783,0.3500547,14.11634,NaN,NaN,-0.09443724,0.8158255,-1.332228E-07,1.066774,4.771873E-08,1.329312
854.3383,-0.01400267,0.0004095351,NaN,-0.9030172,0.0003829523,NaN,-1.568051,-14.61863,NaN,-2.090623,-1.481783,0.3500547,14.11634,NaN,NaN,-0.09443724,0.8158255,-1.332228E-07,1.066774,4.771873E-08,1.329312
854.35,-0.01400321,0.0004096115,NaN,-0.9024637,0.0003830176,NaN,-1.569061,-14.61943,NaN,-2.086842,-1.472962,0.3444885,14.10705,NaN,NaN,-0.09491291,0.8148301,-1.355325E-07,1.053925,4.533454E-08,1.33029
854.3653,-0.01400388,0.0004096293,NaN,-0.901861,0.0003836875,NaN,-1.569915,-14.6188,NaN,-2.082786,-1.467939,0.3388076,14.10163,NaN,NaN,-0.09537896,0.8153016,-1.479005E-07,1.046574,4.295035E-08,1.326275
854.3801,-0.01400464,0.0004095205,NaN,-0.9012308,0.0003842452,NaN,-1.570607,-14.61925,NaN,-2.07863,-1.466601,0.333252,14.10026,NaN,NaN,-0.09583601,0.8147954,-1.587783E-07,1.044641,4.533454E-08,1.328094
854.395,-0.01400464,0.0004095205,NaN,-0.9012308,0.0003842452,NaN,-1.570607,-14.61925,NaN,-2.07863,-1.466601,0.333252,14.10026,NaN,NaN,-0.09583601,0.8147954,-1.587783E-07,1.044641,4.533454E-08,1.328094
854.409,-0.01400546,0.0004099245,NaN,-0.9005862,0.0003839911,NaN,-1.571097,-14.61926,NaN,-2.07445,-1.479533,0.3277225,14.11396,NaN,NaN,-0.09628399,0.8152571,-1.724129E-07,1.063476,4.771873E-08,1.331944
854.4247,-0.01400644,0.0004097097,NaN,-0.8998666,0.0003841153,NaN,-1.571818,-14.61848,NaN,-2.069695,-1.468001,0.3208135,14.10162,NaN,NaN,-0.09685232,0.8157589,-1.854514E-07,1.046631,4.771873E-08,1.32371
854.439,-0.01400644,0.0004097097,NaN,-0.8998666,0.0003841153,NaN,-1.571818,-14.61848,NaN,-2.069695,-1.468001,0.3208135,14.10162,NaN,NaN,-0.09685232,0.8157589,-1.854514E-07,1.046631,4.771873E-08,1.32371
854.4553,-0.01400755,0.0004092456,NaN,-0.8991038,0.0003842255,NaN,-1.572058,-14.61915,NaN,-2.064684,-1.46777,0.3136691,14.10145,NaN,NaN,-0.09740894,0.8150917,-2.180104E-07,1.046321,5.010292E-08,1.326009
854.4695,-0.01400875,0.0004086384,NaN,-0.8983177,0.0003843955,NaN,-1.57186,-14.61956,NaN,-2.059592,-1.466983,0.306686,14.10066,NaN,NaN,-0.0979548,0.8146473,-2.475892E-07,1.045188,5.24871E-08,1.327381
854.4834,-0.01400999,0.0004085489,NaN,-0.8975208,0.0003846707,NaN,-1.571467,-14.62069,NaN,-2.054512,-1.470781,0.2999878,14.10483,NaN,NaN,-0.09849034,0.8136579,-2.688979E-07,1.050773,5.24871E-08,1.335961
854.4983,-0.01400999,0.0004085489,NaN,-0.8975208,0.0003846707,NaN,-1.571467,-14.62069,NaN,-2.054512,-1.470781,0.2999878,14.10483,NaN,NaN,-0.09849034,0.8136579,-2.688979E-07,1.050773,5.24871E-08,1.335961
854.5123,-0.0140114,0.0004085706,NaN,-0.8966516,0.0003839806,NaN,-1.571578,-14.6198,NaN,-2.048898,-1.480564,0.2921616,14.11505,NaN,NaN,-0.09914501,0.8148596,-2.735918E-07,1.064963,5.24871E-08,1.333106
854.5278,-0.01401306,0.0004089346,NaN,-0.8957415,0.0003831965,NaN,-1.571581,-14.61984,NaN,-2.043061,-1.482511,0.2842496,14.11711,NaN,NaN,-0.09978655,0.8148571,-2.938573E-07,1.0678,5.010292E-08,1.334442
854.5425,-0.01401501,0.0004091253,NaN,-0.8948104,0.0003831732,NaN,-1.571449,-14.61875,NaN,-2.037162,-1.474254,0.2765023,14.10822,NaN,NaN,-0.1004156,0.8157667,-3.096526E-07,1.055727,4.771873E-08,1.3266
854.5574,-0.01401501,0.0004091253,NaN,-0.8948104,0.0003831732,NaN,-1.571449,-14.61875,NaN,-2.037162,-1.474254,0.2765023,14.10822,NaN,NaN,-0.1004156,0.8157667,-3.096526E-07,1.055727,4.771873E-08,1.3266
854.5715,-0.01401737,0.0004094229,NaN,-0.8938011,0.0003827244,NaN,-1.571731,-14.62077,NaN,-2.030694,-1.480057,0.2675368,14.11463,NaN,NaN,-0.1011619,0.8139144,-3.176247E-07,1.06427,3.818199E-08,1.337164
854.5869,-0.01402014,0.0004096611,NaN,-0.8927481,0.0003837078,NaN,-1.571783,-14.62068,NaN,-2.023992,-1.468683,0.2584903,14.10257,NaN,NaN,-0.1018932,0.8137452,-3.389333E-07,1.047702,3.818199E-08,1.337183
854.6017,-0.01402326,0.0004097568,NaN,-0.8916728,0.0003842346,NaN,-1.571616,-14.61951,NaN,-2.017229,-1.47036,0.2496458,14.10417,NaN,NaN,-0.1026103,0.8149693,-3.592734E-07,1.050079,3.57978E-08,1.327489
854.6166,-0.01402326,0.0004097568,NaN,-0.8916728,0.0003842346,NaN,-1.571616,-14.61951,NaN,-2.017229,-1.47036,0.2496458,14.10417,NaN,NaN,-0.1026103,0.8149693,-3.592734E-07,1.050079,3.57978E-08,1.327489
854.6307,-0.01402666,0.0004097328,NaN,-0.8905886,0.0003846812,NaN,-1.571369,-14.62034,NaN,-2.010494,-1.469135,0.2410621,14.10298,NaN,NaN,-0.1033136,0.8140923,-3.728335E-07,1.048334,2.864524E-08,1.331708
854.6467,-0.01403045,0.0004101649,NaN,-0.8894345,0.0003844259,NaN,-1.571596,-14.62038,NaN,-2.003242,-1.480249,0.2312689,14.11475,NaN,NaN,-0.1041325,0.8144212,-3.750687E-07,1.064515,2.149268E-08,1.334955
854.6611,-0.01403462,0.0004107447,NaN,-0.8882423,0.000383986,NaN,-1.571643,-14.61975,NaN,-1.995789,-1.482378,0.2214347,14.11693,NaN,NaN,-0.1049352,0.8150849,-3.916834E-07,1.067597,1.91085E-08,1.333504
854.6757,-0.01403462,0.0004107447,NaN,-0.8882423,0.000383986,NaN,-1.571643,-14.61975,NaN,-1.995789,-1.482378,0.2214347,14.11693,NaN,NaN,-0.1049352,0.8150849,-3.916834E-07,1.067597,1.91085E-08,1.333504
854.6918,-0.01403911,0.0004106646,NaN,-0.887032,0.0003834489,NaN,-1.571509,-14.61915,NaN,-1.988295,-1.47465,0.2118107,14.10865,NaN,NaN,-0.1057223,0.8155082,-4.069571E-07,1.05631,7.187571E-09,1.327766
854.7061,-0.01404385,0.0004109463,NaN,-0.885816,0.0003834933,NaN,-1.571306,-14.61924,NaN,-1.980841,-1.475485,0.2024449,14.10955,NaN,NaN,-0.1064941,0.8154449,-4.172389E-07,1.057532,4.803386E-09,1.330504
854.72,-0.01404897,0.0004107579,NaN,-0.8845326,0.0003837741,NaN,-1.571538,-14.61922,NaN,-1.972883,-1.467818,0.1918412,14.1014,NaN,NaN,-0.1073802,0.8152453,-4.171644E-07,1.04635,1.195594E-08,1.324489
854.7349,-0.01404897,0.0004107579,NaN,-0.8845326,0.0003837741,NaN,-1.571538,-14.61922,NaN,-1.972883,-1.467818,0.1918412,14.1014,NaN,NaN,-0.1073802,0.8152453,-4.171644E-07,1.04635,1.195594E-08,1.324489
854.7487,-0.01405446,0.0004103796,NaN,-0.8832133,0.0003840717,NaN,-1.571568,-14.61939,NaN,-1.964736,-1.467008,0.1812436,14.10056,NaN,NaN,-0.1082488,0.8150477,-4.324381E-07,1.045177,1.434013E-08,1.325776
854.7654,-0.01406025,0.0004100601,NaN,-0.8818778,0.0003843519,NaN,-1.571422,-14.62008,NaN,-1.95656,-1.467995,0.1708838,14.1017,NaN,NaN,-0.1091005,0.8143861,-4.43912E-07,1.04665,2.149269E-08,1.329844
854.7791,-0.01406025,0.0004100601,NaN,-0.8818778,0.0003843519,NaN,-1.571422,-14.62008,NaN,-1.95656,-1.467995,0.1708838,14.1017,NaN,NaN,-0.1091005,0.8143861,-4.43912E-07,1.04665,2.149269E-08,1.329844
854.7947,-0.01406647,0.0004103046,NaN,-0.880469,0.0003839761,NaN,-1.571604,-14.62002,NaN,-1.947853,-1.479993,0.1592935,14.11439,NaN,NaN,-0.1100649,0.8148641,-4.453276E-07,1.064117,2.149269E-08,1.334918
854.8087,-0.0140731,0.0004101942,NaN,-0.8790213,0.0003842513,NaN,-1.571553,-14.61922,NaN,-1.938951,-1.469502,0.1477843,14.10316,NaN,NaN,-0.1110104,0.8154216,-4.579936E-07,1.048798,2.387687E-08,1.326246
854.8236,-0.01408006,0.0004106262,NaN,-0.877556,0.000383925,NaN,-1.571351,-14.61926,NaN,-1.930023,-1.480492,0.1365603,14.11483,NaN,NaN,-0.1119375,0.8157436,-4.644756E-07,1.06482,3.341361E-08,1.329988
854.8384,-0.01408006,0.0004106262,NaN,-0.877556,0.000383925,NaN,-1.571351,-14.61926,NaN,-1.930023,-1.480492,0.1365603,14.11483,NaN,NaN,-0.1119375,0.8157436,-4.644756E-07,1.06482,3.341361E-08,1.329988
854.8524,-0.01408728,0.0004109497,NaN,-0.8760864,0.0003839641,NaN,-1.57113,-14.62086,NaN,-1.921152,-1.476356,0.1256361,14.1106,NaN,NaN,-0.1128465,0.8140525,-4.655932E-07,1.058835,4.056617E-08,1.337474
854.8679,-0.01409487,0.0004111966,NaN,-0.8745515,0.0003844412,NaN,-1.571316,-14.62034,NaN,-1.911797,-1.472079,0.1134527,14.106,NaN,NaN,-0.1138671,0.8144454,-4.616444E-07,1.052584,4.056617E-08,1.33322
854.8829,-0.01410283,0.0004112739,NaN,-0.8729831,0.0003846163,NaN,-1.571319,-14.62025,NaN,-1.902274,-1.472626,0.1013708,14.10656,NaN,NaN,-0.1148676,0.8145385,-4.651834E-07,1.053374,4.295036E-08,1.332656
854.8976,-0.01410283,0.0004112739,NaN,-0.8729831,0.0003846163,NaN,-1.571319,-14.62025,NaN,-1.902274,-1.472626,0.1013708,14.10656,NaN,NaN,-0.1148676,0.8145385,-4.651834E-07,1.053374,4.295036E-08,1.332656
854.9116,-0.01411109,0.000411184,NaN,-0.8714011,0.000384962,NaN,-1.571183,-14.61981,NaN,-1.89274,-1.469029,0.08956237,14.10268,NaN,NaN,-0.1158487,0.8148612,-4.652952E-07,1.048111,4.056617E-08,1.328813
854.927,-0.01411958,0.0004113676,NaN,-0.8698177,0.0003844406,NaN,-1.571012,-14.62031,NaN,-1.883274,-1.480564,0.07804456,14.11497,NaN,NaN,-0.1168105,0.8147561,-4.613836E-07,1.06494,4.533454E-08,1.335777
854.9429,-0.01412589,0.0004119206,NaN,-0.8690723,0.0003844314,NaN,-1.567215,-14.6214,NaN,-1.880827,-1.478961,0.0853853,14.11339,NaN,NaN,-0.1162018,0.8136264,-5.118613E-07,1.062636,4.771873E-08,1.341842
854.9564,-0.01412589,0.0004119206,NaN,-0.8690723,0.0003844314,NaN,-1.567215,-14.6214,NaN,-1.880827,-1.478961,0.0853853,14.11339,NaN,NaN,-0.1162018,0.8136264,-5.118613E-07,1.062636,4.771873E-08,1.341842
854.9705,-0.01412947,0.000412587,NaN,-0.8688471,0.0003842203,NaN,-1.565148,-14.62078,NaN,-1.88178,-1.481683,0.09335149,14.11619,NaN,NaN,-0.115605,0.8142976,-4.712556E-07,1.066573,4.533454E-08,1.338535
854.986,-0.01413056,0.0004126503,NaN,-0.8689424,0.000384261,NaN,-1.564003,-14.61946,NaN,-1.884416,-1.472587,0.1008195,14.10639,NaN,NaN,-0.1150199,0.8154052,-4.493509E-07,1.05328,4.056617E-08,1.329545
855.0006,-0.01413055,0.0004127081,NaN,-0.8692351,0.0003850957,NaN,-1.563244,-14.62032,NaN,-1.887876,-1.46753,0.1079749,14.10112,NaN,NaN,-0.1144463,0.8143836,-4.364614E-07,1.045938,4.533454E-08,1.335431
855.0157,-0.01413055,0.0004127081,NaN,-0.8692351,0.0003850957,NaN,-1.563244,-14.62032,NaN,-1.887876,-1.46753,0.1079749,14.10112,NaN,NaN,-0.1144463,0.8143836,-4.364614E-07,1.045938,4.533454E-08,1.335431
855.0298,-0.01413019,0.0004129687,NaN,-0.8695789,0.0003848185,NaN,-1.562955,-14.62092,NaN,-1.891149,-1.480321,0.1133705,14.11474,NaN,NaN,-0.1140132,0.8142446,-4.223426E-07,1.064589,4.295035E-08,1.338587
855.0454,-0.01412969,0.0004128367,NaN,-0.8699527,0.0003852746,NaN,-1.56263,-14.6207,NaN,-1.894321,-1.46805,0.1185768,14.10171,NaN,NaN,-0.1135886,0.814189,-4.162331E-07,1.046702,4.295035E-08,1.332138
855.0601,-0.01412913,0.0004128792,NaN,-0.8703434,0.0003856038,NaN,-1.562281,-14.62122,NaN,-1.897424,-1.471156,0.1236906,14.10505,NaN,NaN,-0.1131724,0.8137794,-4.088943E-07,1.051243,4.295035E-08,1.338882
855.0751,-0.01412913,0.0004128792,NaN,-0.8703434,0.0003856038,NaN,-1.562281,-14.62122,NaN,-1.897424,-1.471156,0.1236906,14.10505,NaN,NaN,-0.1131724,0.8137794,-4.088943E-07,1.051243,4.295035E-08,1.338882
855.0891,-0.01412867,0.0004126805,NaN,-0.8706735,0.0003860642,NaN,-1.562247,-14.62041,NaN,-1.899896,-1.467052,0.1271629,14.10059,NaN,NaN,-0.1128936,0.8144454,-3.979047E-07,1.045228,4.056617E-08,1.333045
855.1045,-0.01412829,0.0004128029,NaN,-0.8709646,0.0003863368,NaN,-1.562106,-14.62153,NaN,-1.902047,-1.472167,0.1305085,14.10616,NaN,NaN,-0.1126203,0.813516,-3.92503E-07,1.052731,3.341361E-08,1.341429
855.1191,-0.01412829,0.0004128029,NaN,-0.8709646,0.0003863368,NaN,-1.562106,-14.62153,NaN,-1.902047,-1.472167,0.1305085,14.10616,NaN,NaN,-0.1126203,0.813516,-3.92503E-07,1.052731,3.341361E-08,1.341429
855.1334,-0.01412796,0.0004132199,NaN,-0.8712304,0.0003861238,NaN,-1.561908,-14.62151,NaN,-1.904024,-1.479751,0.1338117,14.11416,NaN,NaN,-0.1123524,0.8137705,-3.858347E-07,1.063761,3.341361E-08,1.341506
855.1488,-0.01412766,0.0004133832,NaN,-0.8714793,0.0003870733,NaN,-1.56169,-14.62122,NaN,-1.905902,-1.467868,0.1370618,14.10155,NaN,NaN,-0.1120898,0.8137788,-3.788312E-07,1.046449,3.341361E-08,1.338588
855.1637,-0.01412751,0.0004133284,NaN,-0.8716474,0.0003875608,NaN,-1.561799,-14.62104,NaN,-1.907136,-1.468249,0.13871,14.10191,NaN,NaN,-0.1119616,0.8139675,-3.686239E-07,1.046991,3.57978E-08,1.336025
855.1794,-0.01412751,0.0004133284,NaN,-0.8716474,0.0003875608,NaN,-1.561799,-14.62104,NaN,-1.907136,-1.468249,0.13871,14.10191,NaN,NaN,-0.1119616,0.8139675,-3.686239E-07,1.046991,3.57978E-08,1.336025
855.1938,-0.01412748,0.0004129488,NaN,-0.8717648,0.0003878363,NaN,-1.561796,-14.62124,NaN,-1.908051,-1.467264,0.1402617,14.10089,NaN,NaN,-0.111836,0.8137273,-3.647496E-07,1.045565,3.57978E-08,1.333808
855.2079,-0.01412751,0.0004125697,NaN,-0.8718504,0.0003879379,NaN,-1.561731,-14.62194,NaN,-1.908801,-1.469878,0.1418074,14.10375,NaN,NaN,-0.1117128,0.8131148,-3.596087E-07,1.049403,3.102943E-08,1.338313
855.2227,-0.01412759,0.000412105,NaN,-0.8719161,0.000388018,NaN,-1.56164,-14.62169,NaN,-1.909462,-1.469115,0.1433356,14.1029,NaN,NaN,-0.1115921,0.8133269,-3.541698E-07,1.04828,2.149268E-08,1.33669
855.2376,-0.01412759,0.000412105,NaN,-0.8719161,0.000388018,NaN,-1.56164,-14.62169,NaN,-1.909462,-1.469115,0.1433356,14.1029,NaN,NaN,-0.1115921,0.8133269,-3.541698E-07,1.04828,2.149268E-08,1.33669
855.253,-0.01412784,0.0004118657,NaN,-0.8719016,0.0003885375,NaN,-1.561878,-14.62163,NaN,-1.909495,-1.466703,0.1432979,14.10034,NaN,NaN,-0.1116031,0.8132968,-3.449311E-07,1.044765,1.434013E-08,1.336437
855.2673,-0.01412822,0.0004118611,NaN,-0.8718377,0.0003886789,NaN,-1.561997,-14.62267,NaN,-1.909221,-1.472024,0.1431957,14.1061,NaN,NaN,-0.1116138,0.8124517,-3.423234E-07,1.052558,1.195594E-08,1.343627
855.2822,-0.01412867,0.0004115521,NaN,-0.8717436,0.0003889917,NaN,-1.562047,-14.62152,NaN,-1.908799,-1.467097,0.1431212,14.10075,NaN,NaN,-0.1116243,0.8134333,-3.384491E-07,1.045344,1.195594E-08,1.335007
855.2971,-0.01412867,0.0004115521,NaN,-0.8717436,0.0003889917,NaN,-1.562047,-14.62152,NaN,-1.908799,-1.467097,0.1431212,14.10075,NaN,NaN,-0.1116243,0.8134333,-3.384491E-07,1.045344,1.195594E-08,1.335007
855.3114,-0.0141293,0.0004110423,NaN,-0.8715619,0.0003892361,NaN,-1.562403,-14.62159,NaN,-1.907726,-1.466839,0.1415201,14.10047,NaN,NaN,-0.1117641,0.8133562,-3.31222E-07,1.04497,1.195594E-08,1.335049
855.3271,-0.01413006,0.0004106007,NaN,-0.871327,0.0003896768,NaN,-1.562627,-14.62171,NaN,-1.906345,-1.466294,0.1398906,14.09991,NaN,NaN,-0.111901,0.8132082,-3.296574E-07,1.044181,1.195594E-08,1.336856
855.3415,-0.0141309,0.0004107573,NaN,-0.8710604,0.0003895292,NaN,-1.562774,-14.62285,NaN,-1.904821,-1.477079,0.1383209,14.11146,NaN,NaN,-0.1120353,0.812475,-3.269752E-07,1.059924,9.571755E-09,1.346631
855.3564,-0.0141309,0.0004107573,NaN,-0.8710604,0.0003895292,NaN,-1.562774,-14.62285,NaN,-1.904821,-1.477079,0.1383209,14.11146,NaN,NaN,-0.1120353,0.812475,-3.269752E-07,1.059924,9.571755E-09,1.346631
855.3705,-0.0141318,0.0004105426,NaN,-0.8707752,0.0003899166,NaN,-1.562886,-14.6217,NaN,-1.903237,-1.46708,0.1367968,14.10076,NaN,NaN,-0.1121669,0.8133509,-3.235479E-07,1.045345,9.571755E-09,1.337233
855.3861,-0.01413287,0.0004109112,NaN,-0.8704107,0.0003896126,NaN,-1.56331,-14.62176,NaN,-1.901055,-1.4796,0.1337644,14.11399,NaN,NaN,-0.1124254,0.8137505,-3.156503E-07,1.063557,2.419198E-09,1.342213
855.402,-0.01413406,0.0004110285,NaN,-0.8699988,0.0003905145,NaN,-1.563604,-14.62203,NaN,-1.898598,-1.467446,0.130734,14.10116,NaN,NaN,-0.1126788,0.8131936,-3.149425E-07,1.04587,2.419198E-09,1.34007
855.4159,-0.01413406,0.0004110285,NaN,-0.8699988,0.0003905145,NaN,-1.563604,-14.62203,NaN,-1.898598,-1.467446,0.130734,14.10116,NaN,NaN,-0.1126788,0.8131936,-3.149425E-07,1.04587,2.419198E-09,1.34007
855.4299,-0.01413534,0.000410934,NaN,-0.8695594,0.0003910204,NaN,-1.56382,-14.62221,NaN,-1.896023,-1.467071,0.12779,14.10078,NaN,NaN,-0.1129272,0.8129969,-3.11925E-07,1.045332,7.187569E-09,1.33959
855.4455,-0.01413674,0.000410766,NaN,-0.8691051,0.0003914925,NaN,-1.563997,-14.62242,NaN,-1.893408,-1.466407,0.1249182,14.1001,NaN,NaN,-0.1131707,0.8127628,-3.087958E-07,1.044374,2.419198E-09,1.341145
855.4604,-0.01413848,0.0004107577,NaN,-0.8685743,0.0003910513,NaN,-1.564473,-14.62337,NaN,-1.890213,-1.477953,0.1205598,14.11241,NaN,NaN,-0.1135389,0.8122394,-3.034313E-07,1.061207,2.419198E-09,1.348381
855.4751,-0.01413848,0.0004107577,NaN,-0.8685743,0.0003910513,NaN,-1.564473,-14.62337,NaN,-1.890213,-1.477953,0.1205598,14.11241,NaN,NaN,-0.1135389,0.8122394,-3.034313E-07,1.061207,2.419198E-09,1.348381
855.4891,-0.01414059,0.0004110569,NaN,-0.8679986,0.0003910613,NaN,-1.564814,-14.62395,NaN,-1.88676,-1.476328,0.1162378,14.11076,NaN,NaN,-0.1138998,0.8116229,-3.021275E-07,1.058862,2.419198E-09,1.352996
855.5048,-0.01414299,0.0004111444,NaN,-0.8673978,0.000391205,NaN,-1.565076,-14.62334,NaN,-1.883204,-1.472403,0.1120277,14.10654,NaN,NaN,-0.1142537,0.8121167,-2.997433E-07,1.053137,2.419198E-09,1.34559
855.5196,-0.01414299,0.0004111444,NaN,-0.8673978,0.000391205,NaN,-1.565076,-14.62334,NaN,-1.883204,-1.472403,0.1120277,14.10654,NaN,NaN,-0.1142537,0.8121167,-2.997433E-07,1.053137,2.419198E-09,1.34559
855.5341,-0.01414584,0.000411198,NaN,-0.866715,0.0003907691,NaN,-1.565603,-14.62332,NaN,-1.879045,-1.477182,0.1063605,14.11157,NaN,NaN,-0.11473,0.8122779,-2.936711E-07,1.060078,7.187569E-09,1.346614
855.5496,-0.01414912,0.0004111324,NaN,-0.8659844,0.0003912595,NaN,-1.565984,-14.62299,NaN,-1.874623,-1.468033,0.1007668,14.10187,NaN,NaN,-0.115197,0.8123666,-2.930378E-07,1.046766,7.187569E-09,1.344304
855.5643,-0.01415274,0.0004110482,NaN,-0.8652278,0.000391819,NaN,-1.566281,-14.62266,NaN,-1.870103,-1.46655,0.09531134,14.10026,NaN,NaN,-0.1156549,0.8126348,-2.900948E-07,1.044592,7.187569E-09,1.342617
855.5792,-0.01415274,0.0004110482,NaN,-0.8652278,0.000391819,NaN,-1.566281,-14.62266,NaN,-1.870103,-1.46655,0.09531134,14.10026,NaN,NaN,-0.1156549,0.8126348,-2.900948E-07,1.044592,7.187569E-09,1.342617
855.5935,-0.01415662,0.0004110667,NaN,-0.8644584,0.0003922927,NaN,-1.566533,-14.62327,NaN,-1.865568,-1.46815,0.08997765,14.10202,NaN,NaN,-0.1161038,0.8120768,-2.869656E-07,1.046947,9.571755E-09,1.34673
855.6088,-0.01416091,0.0004108697,NaN,-0.8636152,0.0003926686,NaN,-1.567044,-14.62263,NaN,-1.86048,-1.466576,0.08319537,14.10027,NaN,NaN,-0.1166733,0.8126469,-2.812286E-07,1.044625,1.91085E-08,1.340742
855.6256,-0.01416559,0.0004112009,NaN,-0.8627303,0.0003923485,NaN,-1.567417,-14.62286,NaN,-1.85516,-1.479209,0.07651799,14.11362,NaN,NaN,-0.1172316,0.8128769,-2.772985E-07,1.062996,1.91085E-08,1.347287
855.6393,-0.01416559,0.0004112009,NaN,-0.8627303,0.0003923485,NaN,-1.567417,-14.62286,NaN,-1.85516,-1.479209,0.07651799,14.11362,NaN,NaN,-0.1172316,0.8128769,-2.772985E-07,1.062996,1.91085E-08,1.347287
855.6525,-0.01417057,0.0004113808,NaN,-0.8618236,0.0003920968,NaN,-1.567709,-14.62389,NaN,-1.849766,-1.476427,0.06999813,14.1108,NaN,NaN,-0.117779,0.8117694,-2.725487E-07,1.058983,1.91085E-08,1.349246
855.6678,-0.01417579,0.0004115187,NaN,-0.8609076,0.0003915158,NaN,-1.567956,-14.62387,NaN,-1.844372,-1.478556,0.06361997,14.11303,NaN,NaN,-0.1183157,0.8118405,-2.675754E-07,1.062072,1.672431E-08,1.349407
855.6828,-0.0141814,0.0004110239,NaN,-0.8599204,0.0003910705,NaN,-1.568436,-14.62274,NaN,-1.838442,-1.469544,0.05580811,14.10339,NaN,NaN,-0.1189712,0.8127269,-2.596406E-07,1.048938,1.91085E-08,1.341395
855.6975,-0.0141814,0.0004110239,NaN,-0.8599204,0.0003910705,NaN,-1.568436,-14.62274,NaN,-1.838442,-1.469544,0.05580811,14.10339,NaN,NaN,-0.1189712,0.8127269,-2.596406E-07,1.048938,1.91085E-08,1.341395
855.7119,-0.01418738,0.0004106367,NaN,-0.8588939,0.0003908715,NaN,-1.568781,-14.62262,NaN,-1.832295,-1.470778,0.04813427,14.10467,NaN,NaN,-0.1196139,0.8128833,-2.550771E-07,1.050725,2.149268E-08,1.340422
855.7286,-0.01419365,0.0004106098,NaN,-0.8578477,0.0003900181,NaN,-1.569048,-14.62261,NaN,-1.826085,-1.479923,0.04063628,14.11432,NaN,NaN,-0.1202441,0.813179,-2.501644E-07,1.064021,2.387687E-08,1.342399
855.7421,-0.01420014,0.00041059,NaN,-0.8567939,0.0003904149,NaN,-1.569271,-14.62302,NaN,-1.819888,-1.469382,0.03329878,14.10322,NaN,NaN,-0.1208618,0.8125125,-2.448174E-07,1.048697,2.387687E-08,1.342477
855.7572,-0.01420014,0.00041059,NaN,-0.8567939,0.0003904149,NaN,-1.569271,-14.62302,NaN,-1.819888,-1.469382,0.03329878,14.10322,NaN,NaN,-0.1208618,0.8125125,-2.448174E-07,1.048697,2.387687E-08,1.342477
855.7711,-0.01420701,0.00041082,NaN,-0.855671,0.0003903922,NaN,-1.569698,-14.62387,NaN,-1.813168,-1.47576,0.0245432,14.11006,NaN,NaN,-0.1215969,0.8118688,-2.355764E-07,1.058006,2.387687E-08,1.348377
855.7865,-0.01421424,0.0004104277,NaN,-0.8545103,0.0003901935,NaN,-1.569995,-14.62312,NaN,-1.806242,-1.469295,0.01595646,14.10314,NaN,NaN,-0.1223176,0.8124281,-2.270827E-07,1.048585,2.626105E-08,1.34319
855.8015,-0.01422176,0.0004102826,NaN,-0.8533316,0.0003902849,NaN,-1.570219,-14.62298,NaN,-1.799265,-1.470199,0.007561926,14.10408,NaN,NaN,-0.1230242,0.8125842,-2.175646E-07,1.049892,2.626105E-08,1.34175
855.8163,-0.01422176,0.0004102826,NaN,-0.8533316,0.0003902849,NaN,-1.570219,-14.62298,NaN,-1.799265,-1.470199,0.007561926,14.10408,NaN,NaN,-0.1230242,0.8125842,-2.175646E-07,1.049892,2.626105E-08,1.34175
855.8306,-0.01422972,0.0004098801,NaN,-0.8520776,0.0003902614,NaN,-1.57061,-14.62268,NaN,-1.791739,-1.468757,-0.002225203,14.10251,NaN,NaN,-0.1238463,0.8128209,-2.046006E-07,1.047782,3.102943E-08,1.339552
855.8461,-0.01423807,0.000409242,NaN,-0.8507829,0.0003901704,NaN,-1.570722,-14.62271,NaN,-1.784,-1.468037,-0.01189232,14.10175,NaN,NaN,-0.1246523,0.8127489,-2.006518E-07,1.046737,2.387687E-08,1.339303
855.8619,-0.01424675,0.0004088053,NaN,-0.8494688,0.0003904951,NaN,-1.570655,-14.62281,NaN,-1.776212,-1.467469,-0.02134496,14.10116,NaN,NaN,-0.1254426,0.8126199,-1.957344E-07,1.045915,2.149268E-08,1.34066
855.8757,-0.01424675,0.0004088053,NaN,-0.8494688,0.0003904951,NaN,-1.570655,-14.62281,NaN,-1.776212,-1.467469,-0.02134496,14.10116,NaN,NaN,-0.1254426,0.8126199,-1.957344E-07,1.045915,2.149268E-08,1.34066
855.8898,-0.01425566,0.0004089595,NaN,-0.8481486,0.0003900663,NaN,-1.570525,-14.62241,NaN,-1.768456,-1.479038,-0.03056649,14.11331,NaN,NaN,-0.1262173,0.8134274,-1.873898E-07,1.062708,1.91085E-08,1.342266
855.9052,-0.01426431,0.0004090769,NaN,-0.8468309,0.0003897301,NaN,-1.570413,-14.62416,NaN,-1.760772,-1.476042,-0.03956834,14.11034,NaN,NaN,-0.126976,0.8115988,-1.765492E-07,1.058409,1.672431E-08,1.34858
855.9198,-0.01426431,0.0004090769,NaN,-0.8468309,0.0003897301,NaN,-1.570413,-14.62416,NaN,-1.760772,-1.476042,-0.03956834,14.11034,NaN,NaN,-0.126976,0.8115988,-1.765492E-07,1.058409,1.672431E-08,1.34858
855.9341,-0.01427282,0.000409241,NaN,-0.8455207,0.0003905884,NaN,-1.570347,-14.62302,NaN,-1.753178,-1.46804,-0.0483715,14.10176,NaN,NaN,-0.1277198,0.8125024,-1.632871E-07,1.04674,1.195594E-08,1.339746
855.9495,-0.01428125,0.0004094566,NaN,-0.8442209,0.0003906888,NaN,-1.57032,-14.62427,NaN,-1.745682,-1.474618,-0.0569929,14.10886,NaN,NaN,-0.128449,0.8114844,-1.501741E-07,1.056361,1.434013E-08,1.348456
855.9644,-0.01428962,0.0004094239,NaN,-0.8429335,0.0003911548,NaN,-1.570312,-14.62335,NaN,-1.738289,-1.468053,-0.06544216,14.10182,NaN,NaN,-0.1291638,0.8122017,-1.36465E-07,1.046787,1.195594E-08,1.341517
855.9794,-0.01428962,0.0004094239,NaN,-0.8429335,0.0003911548,NaN,-1.570312,-14.62335,NaN,-1.738289,-1.468053,-0.06544216,14.10182,NaN,NaN,-0.1291638,0.8122017,-1.36465E-07,1.046787,1.195594E-08,1.341517
855.9937,-0.01429777,0.0004089642,NaN,-0.8417286,0.0003912695,NaN,-1.570164,-14.62286,NaN,-1.731573,-1.467249,-0.07216249,14.1009,NaN,NaN,-0.1297354,0.8126429,-1.29089E-07,1.04559,9.571757E-09,1.339054
856.009,-0.01430566,0.0004086579,NaN,-0.8405802,0.0003916235,NaN,-1.570115,-14.62339,NaN,-1.725235,-1.467195,-0.07874123,14.10091,NaN,NaN,-0.1302958,0.8121006,-1.175406E-07,1.045537,9.571757E-09,1.342211
856.0237,-0.01431332,0.0004088476,NaN,-0.8394717,0.0003912256,NaN,-1.570096,-14.62376,NaN,-1.71913,-1.479326,-0.0851992,14.11374,NaN,NaN,-0.1308451,0.8121623,-1.060667E-07,1.063176,9.571757E-09,1.349363
856.0386,-0.01431332,0.0004088476,NaN,-0.8394717,0.0003912256,NaN,-1.570096,-14.62376,NaN,-1.71913,-1.479326,-0.0851992,14.11374,NaN,NaN,-0.1308451,0.8121623,-1.060667E-07,1.063176,9.571757E-09,1.349363
856.053,-0.01432059,0.0004090495,NaN,-0.8384621,0.0003905536,NaN,-1.569964,-14.62473,NaN,-1.713759,-1.479865,-0.08997545,14.11442,NaN,NaN,-0.1312544,0.8111994,-1.015218E-07,1.063991,9.571757E-09,1.352988
856.068,-0.01432748,0.0004090568,NaN,-0.8375181,0.0003901192,NaN,-1.56989,-14.62318,NaN,-1.708785,-1.475142,-0.09466467,14.10926,NaN,NaN,-0.1316557,0.8126258,-9.563585E-08,1.057079,7.187571E-09,1.34287
856.0828,-0.01433404,0.0004087082,NaN,-0.8366187,0.0003901011,NaN,-1.569841,-14.62331,NaN,-1.704044,-1.467646,-0.09926724,14.10135,NaN,NaN,-0.1320492,0.8122793,-8.818527E-08,1.046185,2.4192E-09,1.341353
856.0986,-0.01433404,0.0004087082,NaN,-0.8366187,0.0003901011,NaN,-1.569841,-14.62331,NaN,-1.704044,-1.467646,-0.09926724,14.10135,NaN,NaN,-0.1320492,0.8122793,-8.818527E-08,1.046185,2.4192E-09,1.341353
856.1129,-0.01434035,0.0004088693,NaN,-0.835751,0.0003894834,NaN,-1.569798,-14.62388,NaN,-1.699455,-1.479663,-0.1037805,14.1141,NaN,NaN,-0.1324349,0.8121417,-8.028766E-08,1.063674,4.803385E-09,1.349429
856.1275,-0.01434626,0.0004091378,NaN,-0.8349759,0.0003897026,NaN,-1.569657,-14.62477,NaN,-1.695548,-1.474056,-0.1066541,14.10828,NaN,NaN,-0.1326838,0.8111224,-7.976612E-08,1.055552,4.803385E-09,1.35422
856.142,-0.0143518,0.0004097103,NaN,-0.8342615,0.0003894745,NaN,-1.569563,-14.6238,NaN,-1.692001,-1.480958,-0.1094764,14.11541,NaN,NaN,-0.1329277,0.8122827,-7.708392E-08,1.065529,2.4192E-09,1.349132
856.1567,-0.0143518,0.0004097103,NaN,-0.8342615,0.0003894745,NaN,-1.569563,-14.6238,NaN,-1.692001,-1.480958,-0.1094764,14.11541,NaN,NaN,-0.1329277,0.8122827,-7.708392E-08,1.065529,2.4192E-09,1.349132
856.1707,-0.01435701,0.0004098293,NaN,-0.8335877,0.0003894977,NaN,-1.569489,-14.62305,NaN,-1.688661,-1.473932,-0.1122472,14.10791,NaN,NaN,-0.133167,0.8128628,-7.388017E-08,1.05529,7.187571E-09,1.343244
856.1877,-0.01436197,0.0004103238,NaN,-0.8329421,0.0003891759,NaN,-1.569424,-14.62338,NaN,-1.685447,-1.480675,-0.1149646,14.11506,NaN,NaN,-0.1334015,0.8127294,-7.075092E-08,1.065106,7.187571E-09,1.346867
856.2013,-0.01436654,0.000410578,NaN,-0.832386,0.0003894714,NaN,-1.569275,-14.62442,NaN,-1.682893,-1.473189,-0.1160825,14.10727,NaN,NaN,-0.1335021,0.8115175,-7.499775E-08,1.054249,7.187571E-09,1.349573
856.2162,-0.01436654,0.000410578,NaN,-0.832386,0.0003894714,NaN,-1.569275,-14.62442,NaN,-1.682893,-1.473189,-0.1160825,14.10727,NaN,NaN,-0.1335021,0.8115175,-7.499775E-08,1.054249,7.187571E-09,1.349573
856.2303,-0.01437074,0.0004104539,NaN,-0.8318875,0.0003898419,NaN,-1.569167,-14.62314,NaN,-1.680679,-1.467837,-0.1171827,14.10145,NaN,NaN,-0.1336008,0.8126234,-7.68604E-08,1.046418,4.803385E-09,1.339026
856.2458,-0.01437462,0.0004106169,NaN,-0.831427,0.0003896656,NaN,-1.569078,-14.62424,NaN,-1.67865,-1.477074,-0.1182643,14.11135,NaN,NaN,-0.1336976,0.8118553,-7.753095E-08,1.059896,7.187571E-09,1.349512
856.2607,-0.01437825,0.0004112097,NaN,-0.8309919,0.000389289,NaN,-1.568996,-14.62312,NaN,-1.67673,-1.481638,-0.1193257,14.11601,NaN,NaN,-0.1337924,0.813088,-7.782897E-08,1.066481,9.571757E-09,1.345094
856.2758,-0.01437825,0.0004112097,NaN,-0.8309919,0.000389289,NaN,-1.568996,-14.62312,NaN,-1.67673,-1.481638,-0.1193257,14.11601,NaN,NaN,-0.1337924,0.813088,-7.782897E-08,1.066481,9.571757E-09,1.345094
856.2896,-0.0143815,0.0004111209,NaN,-0.8306438,0.0003887343,NaN,-1.568841,-14.62225,NaN,-1.675449,-1.474563,-0.118823,14.10843,NaN,NaN,-0.1337561,0.8137909,-8.595011E-08,1.056159,9.571757E-09,1.338587
856.3051,-0.01438437,0.0004111214,NaN,-0.8303508,0.0003882333,NaN,-1.568723,-14.62285,NaN,-1.674491,-1.476074,-0.1183334,14.1101,NaN,NaN,-0.1337206,0.8132436,-9.124002E-08,1.058383,1.195594E-08,1.342791
856.3208,-0.01438693,0.0004106211,NaN,-0.8300933,0.0003871055,NaN,-1.568621,-14.62334,NaN,-1.673699,-1.480528,-0.1178558,14.11487,NaN,NaN,-0.1336857,0.8128718,-9.518882E-08,1.064883,2.419199E-09,1.344907
856.3347,-0.01438693,0.0004106211,NaN,-0.8300933,0.0003871055,NaN,-1.568621,-14.62334,NaN,-1.673699,-1.480528,-0.1178558,14.11487,NaN,NaN,-0.1336857,0.8128718,-9.518882E-08,1.064883,2.419199E-09,1.344907
856.3488,-0.01438905,0.0004102637,NaN,-0.829928,0.0003870194,NaN,-1.568452,-14.6228,NaN,-1.673569,-1.471235,-0.1158454,14.10498,NaN,NaN,-0.1335223,0.8131787,-1.072588E-07,1.051346,7.187571E-09,1.339772
856.3643,-0.01439074,0.0004100339,NaN,-0.8298204,0.0003874335,NaN,-1.568318,-14.62333,NaN,-1.673764,-1.467884,-0.1138772,14.1015,NaN,NaN,-0.133362,0.8125396,-1.154544E-07,1.046492,1.195594E-08,1.341674
856.3792,-0.01439074,0.0004100339,NaN,-0.8298204,0.0003874335,NaN,-1.568318,-14.62333,NaN,-1.673764,-1.467884,-0.1138772,14.1015,NaN,NaN,-0.133362,0.8125396,-1.154544E-07,1.046492,1.195594E-08,1.341674
856.3934,-0.0143921,0.0004096832,NaN,-0.8297489,0.0003877784,NaN,-1.5682,-14.6235,NaN,-1.674118,-1.467137,-0.1119496,14.10073,NaN,NaN,-0.1332049,0.8123314,-1.220854E-07,1.045411,1.195594E-08,1.340331
856.4089,-0.01439319,0.0004094266,NaN,-0.8297001,0.0003882915,NaN,-1.568089,-14.62356,NaN,-1.67455,-1.466517,-0.1100604,14.10007,NaN,NaN,-0.1330509,0.8122439,-1.281949E-07,1.044509,4.803385E-09,1.343892
856.4238,-0.01439403,0.0004090591,NaN,-0.829733,0.0003884888,NaN,-1.567906,-14.62362,NaN,-1.675591,-1.468521,-0.1066642,14.10218,NaN,NaN,-0.1327706,0.8122426,-1.421275E-07,1.04742,3.501333E-11,1.33894
856.4385,-0.01439403,0.0004090591,NaN,-0.829733,0.0003884888,NaN,-1.567906,-14.62362,NaN,-1.675591,-1.468521,-0.1066642,14.10218,NaN,NaN,-0.1327706,0.8122426,-1.421275E-07,1.04742,3.501333E-11,1.33894
856.4528,-0.01439471,0.0004093264,NaN,-0.8298163,0.0003881318,NaN,-1.567755,-14.62365,NaN,-1.676922,-1.479412,-0.1033367,14.11366,NaN,NaN,-0.1324958,0.8125902,-1.522603E-07,1.063242,3.501333E-11,1.343698
856.4682,-0.01439529,0.0004095892,NaN,-0.8299304,0.0003889542,NaN,-1.567618,-14.62478,NaN,-1.678387,-1.469754,-0.1000759,14.10359,NaN,NaN,-0.1322264,0.8112258,-1.61052E-07,1.049236,-4.733358E-09,1.348207
856.4832,-0.01439581,0.0004095213,NaN,-0.8300629,0.0003893461,NaN,-1.567488,-14.6234,NaN,-1.679908,-1.468757,-0.09687927,14.10235,NaN,NaN,-0.1319623,0.8125535,-1.686516E-07,1.047719,-2.349172E-09,1.337692
856.4979,-0.01439581,0.0004095213,NaN,-0.8300629,0.0003893461,NaN,-1.567488,-14.6234,NaN,-1.679908,-1.468757,-0.09687927,14.10235,NaN,NaN,-0.1319623,0.8125535,-1.686516E-07,1.047719,-2.349172E-09,1.337692
856.5121,-0.01439618,0.0004091472,NaN,-0.8302755,0.0003896443,NaN,-1.567279,-14.62358,NaN,-1.68202,-1.466646,-0.09219823,14.10014,NaN,NaN,-0.131574,0.8122975,-1.831802E-07,1.044659,-4.733358E-09,1.337552
856.5276,-0.01439643,0.0004093247,NaN,-0.8305366,0.0003892672,NaN,-1.567103,-14.62434,NaN,-1.684403,-1.478699,-0.08761082,14.11295,NaN,NaN,-0.1311934,0.8119704,-1.943561E-07,1.062213,-7.117544E-09,1.347313
856.5423,-0.0143966,0.0004092908,NaN,-0.8308264,0.0003899023,NaN,-1.56694,-14.62368,NaN,-1.686904,-1.46746,-0.08311464,14.10102,NaN,NaN,-0.1308202,0.8123432,-2.035948E-07,1.045856,-9.501729E-09,1.338631
856.558,-0.0143966,0.0004092908,NaN,-0.8308264,0.0003899023,NaN,-1.56694,-14.62368,NaN,-1.686904,-1.46746,-0.08311464,14.10102,NaN,NaN,-0.1308202,0.8123432,-2.035948E-07,1.045856,-9.501729E-09,1.338631
856.5721,-0.0143966,0.0004091999,NaN,-0.831202,0.0003904201,NaN,-1.566693,-14.62396,NaN,-1.690018,-1.466893,-0.07715651,14.10045,NaN,NaN,-0.130325,0.8120235,-2.181234E-07,1.045045,-1.665429E-08,1.339947
856.5865,-0.01439646,0.00040952,NaN,-0.8316287,0.0003901306,NaN,-1.566481,-14.62428,NaN,-1.693408,-1.47922,-0.07131688,14.11348,NaN,NaN,-0.1298396,0.8121476,-2.304541E-07,1.062963,-1.188592E-08,1.346929
856.6013,-0.01439624,0.0004097905,NaN,-0.8320852,0.0003893446,NaN,-1.566283,-14.62483,NaN,-1.696912,-1.481583,-0.06559286,14.11603,NaN,NaN,-0.1293637,0.8116347,-2.403262E-07,1.066415,-1.188592E-08,1.347507
856.6163,-0.01439624,0.0004097905,NaN,-0.8320852,0.0003893446,NaN,-1.566283,-14.62483,NaN,-1.696912,-1.481583,-0.06559286,14.11603,NaN,NaN,-0.1293637,0.8116347,-2.403262E-07,1.066415,-1.188592E-08,1.347507
856.6303,-0.01439597,0.0004097936,NaN,-0.832558,0.0003888259,NaN,-1.56609,-14.62361,NaN,-1.700446,-1.475202,-0.05998049,14.10916,NaN,NaN,-0.128897,0.8126928,-2.487453E-07,1.057103,-1.42701E-08,1.340205
856.6473,-0.01439553,0.0004098687,NaN,-0.8331079,0.0003886084,NaN,-1.565796,-14.62368,NaN,-1.704545,-1.474725,-0.05292152,14.10865,NaN,NaN,-0.1283103,0.8125923,-2.625661E-07,1.056409,-1.665429E-08,1.338964
856.6608,-0.01439497,0.0004097178,NaN,-0.8337031,0.0003889868,NaN,-1.565539,-14.62402,NaN,-1.708887,-1.467302,-0.04600246,14.10085,NaN,NaN,-0.127735,0.8120362,-2.719911E-07,1.045629,-1.903847E-08,1.338459
856.6758,-0.01439497,0.0004097178,NaN,-0.8337031,0.0003889868,NaN,-1.565539,-14.62402,NaN,-1.708887,-1.467302,-0.04600246,14.10085,NaN,NaN,-0.127735,0.8120362,-2.719911E-07,1.045629,-1.903847E-08,1.338459
856.6899,-0.01439432,0.0004092111,NaN,-0.8343235,0.0003891499,NaN,-1.565297,-14.62368,NaN,-1.713319,-1.466614,-0.03922042,14.10007,NaN,NaN,-0.127171,0.8123314,-2.804848E-07,1.044609,-1.903847E-08,1.335268
856.7054,-0.01439363,0.0004086226,NaN,-0.8349566,0.000389404,NaN,-1.56506,-14.62377,NaN,-1.717764,-1.466435,-0.0325706,14.09989,NaN,NaN,-0.126618,0.8122305,-2.870227E-07,1.044351,-1.903847E-08,1.335644
856.7203,-0.01439278,0.0004084215,NaN,-0.8356642,0.0003900741,NaN,-1.564703,-14.62418,NaN,-1.722758,-1.46598,-0.02448779,14.09946,NaN,NaN,-0.1259466,0.8117934,-2.963918E-07,1.043708,-2.142266E-08,1.339133
856.7351,-0.01439278,0.0004084215,NaN,-0.8356642,0.0003900741,NaN,-1.564703,-14.62418,NaN,-1.722758,-1.46598,-0.02448779,14.09946,NaN,NaN,-0.1259466,0.8117934,-2.963918E-07,1.043708,-2.142266E-08,1.339133
856.7491,-0.0143918,0.0004081212,NaN,-0.8364144,0.0003904347,NaN,-1.564389,-14.62453,NaN,-1.727981,-1.466905,-0.01656478,14.10047,NaN,NaN,-0.1252884,0.8114688,-3.033208E-07,1.045068,-1.903847E-08,1.339506
856.7646,-0.01439074,0.0004075075,NaN,-0.8371876,0.0003905908,NaN,-1.564092,-14.62398,NaN,-1.733281,-1.466045,-0.008799277,14.09948,NaN,NaN,-0.1246431,0.8119711,-3.082196E-07,1.043788,-1.903847E-08,1.335731
856.7805,-0.01438964,0.0004066594,NaN,-0.8379715,0.0003903624,NaN,-1.563801,-14.62394,NaN,-1.738582,-1.468843,-0.001185341,14.10242,NaN,NaN,-0.1240104,0.8121163,-3.111905E-07,1.047846,-1.903847E-08,1.337625
856.7953,-0.01438964,0.0004066594,NaN,-0.8379715,0.0003903624,NaN,-1.563801,-14.62394,NaN,-1.738582,-1.468843,-0.001185341,14.10242,NaN,NaN,-0.1240104,0.8121163,-3.111905E-07,1.047846,-1.903847E-08,1.337625
856.8082,-0.01438837,0.0004068782,NaN,-0.8388278,0.0003900814,NaN,-1.563367,-14.6248,NaN,-1.744419,-1.477995,0.007849454,14.11218,NaN,NaN,-0.1232608,0.8115574,-3.184304E-07,1.061183,-1.903847E-08,1.344355
856.8239,-0.01438681,0.0004070385,NaN,-0.839725,0.0003911055,NaN,-1.562983,-14.62468,NaN,-1.750473,-1.466831,0.0167066,14.10039,NaN,NaN,-0.1225259,0.8113739,-3.211731E-07,1.044961,-1.903847E-08,1.341447
856.8386,-0.01438681,0.0004070385,NaN,-0.839725,0.0003911055,NaN,-1.562983,-14.62468,NaN,-1.750473,-1.466831,0.0167066,14.10039,NaN,NaN,-0.1225259,0.8113739,-3.211731E-07,1.044961,-1.903847E-08,1.341447
856.8527,-0.014385,0.0004070779,NaN,-0.8406433,0.0003917293,NaN,-1.56262,-14.62499,NaN,-1.756592,-1.466916,0.02538653,14.10052,NaN,NaN,-0.1218054,0.8110524,-3.226912E-07,1.045098,-1.903847E-08,1.341857
856.868,-0.01438481,0.0004070394,NaN,-0.8407392,0.0003922698,NaN,-1.564266,-14.62476,NaN,-1.755809,-1.466651,0.01501954,14.10019,NaN,NaN,-0.1226506,0.8112612,-2.911193E-07,1.044698,-2.380684E-08,1.340968
856.8831,-0.01438588,0.0004068077,NaN,-0.8403287,0.0003922606,NaN,-1.565115,-14.62491,NaN,-1.751685,-1.470475,0.00492216,14.10423,NaN,NaN,-0.1234793,0.8112321,-2.767025E-07,1.050254,-2.380684E-08,1.3414
856.8978,-0.01438588,0.0004068077,NaN,-0.8403287,0.0003922606,NaN,-1.565115,-14.62491,NaN,-1.751685,-1.470475,0.00492216,14.10423,NaN,NaN,-0.1234793,0.8112321,-2.767025E-07,1.050254,-2.380684E-08,1.3414
856.9122,-0.01438806,0.0004068965,NaN,-0.8396075,0.000391891,NaN,-1.565585,-14.62595,NaN,-1.745939,-1.477089,-0.004848684,14.11133,NaN,NaN,-0.1242916,0.8104066,-2.607582E-07,1.059902,-2.857522E-08,1.349098
856.9276,-0.01439148,0.0004067849,NaN,-0.8386977,0.0003922219,NaN,-1.565876,-14.62455,NaN,-1.739424,-1.468377,-0.01436767,14.10199,NaN,NaN,-0.1250881,0.8115541,-2.455218E-07,1.04721,-2.619103E-08,1.338808
856.9423,-0.01439576,0.0004067907,NaN,-0.837745,0.0003916447,NaN,-1.56593,-14.62563,NaN,-1.733141,-1.478857,-0.0221031,14.11317,NaN,NaN,-0.1257395,0.8108416,-2.35091E-07,1.062476,-2.857522E-08,1.347418
856.9571,-0.01439576,0.0004067907,NaN,-0.837745,0.0003916447,NaN,-1.56593,-14.62563,NaN,-1.733141,-1.478857,-0.0221031,14.11317,NaN,NaN,-0.1257395,0.8108416,-2.35091E-07,1.062476,-2.857522E-08,1.347418
856.9712,-0.01440064,0.0004069665,NaN,-0.83677,0.0003912681,NaN,-1.566009,-14.62605,NaN,-1.727007,-1.477059,-0.02968177,14.11132,NaN,NaN,-0.1263782,0.8103685,-2.236543E-07,1.059877,-2.857522E-08,1.349661
856.9869,-0.01440592,0.0004069753,NaN,-0.8357856,0.0003915621,NaN,-1.566092,-14.62435,NaN,-1.720987,-1.469845,-0.03711277,14.10352,NaN,NaN,-0.1270044,0.8118594,-2.122177E-07,1.049348,-2.857522E-08,1.338843
857.0013,-0.01441148,0.0004074071,NaN,-0.8347999,0.0003914054,NaN,-1.566169,-14.62553,NaN,-1.715063,-1.478613,-0.0443961,14.11291,NaN,NaN,-0.1276182,0.8109677,-2.007811E-07,1.062135,-3.334359E-08,1.346803
857.0173,-0.01441148,0.0004074071,NaN,-0.8347999,0.0003914054,NaN,-1.566169,-14.62553,NaN,-1.715063,-1.478613,-0.0443961,14.11291,NaN,NaN,-0.1276182,0.8109677,-2.007811E-07,1.062135,-3.334359E-08,1.346803
857.0314,-0.01441704,0.0004073822,NaN,-0.833887,0.000391704,NaN,-1.566117,-14.62441,NaN,-1.709803,-1.469454,-0.04997345,14.10313,NaN,NaN,-0.1280908,0.8118552,-1.949696E-07,1.0488,-3.334359E-08,1.338079
857.046,-0.01442249,0.000407193,NaN,-0.8330231,0.0003919973,NaN,-1.566117,-14.62484,NaN,-1.704902,-1.468369,-0.05544824,14.10204,NaN,NaN,-0.128554,0.8113897,-1.881896E-07,1.047241,-3.09594E-08,1.339436
857.0607,-0.01442781,0.0004073064,NaN,-0.8321934,0.0003918245,NaN,-1.566135,-14.62598,NaN,-1.700215,-1.476194,-0.06082045,14.11043,NaN,NaN,-0.1290082,0.8105228,-1.794724E-07,1.058655,-3.09594E-08,1.347833
857.0755,-0.01442781,0.0004073064,NaN,-0.8321934,0.0003918245,NaN,-1.566135,-14.62598,NaN,-1.700215,-1.476194,-0.06082045,14.11043,NaN,NaN,-0.1290082,0.8105228,-1.794724E-07,1.058655,-3.09594E-08,1.347833
857.0895,-0.01443283,0.0004068281,NaN,-0.8314577,0.0003915892,NaN,-1.566054,-14.62492,NaN,-1.696242,-1.468581,-0.06453265,14.10229,NaN,NaN,-0.1293241,0.8113716,-1.782058E-07,1.047567,-2.619103E-08,1.341544
857.1063,-0.01443752,0.0004062153,NaN,-0.8307834,0.00039118,NaN,-1.566023,-14.62477,NaN,-1.692645,-1.471007,-0.06817975,14.10482,NaN,NaN,-0.1296339,0.8115999,-1.751511E-07,1.051082,-2.142266E-08,1.34003
857.1198,-0.01443752,0.0004062153,NaN,-0.8307834,0.00039118,NaN,-1.566023,-14.62477,NaN,-1.692645,-1.471007,-0.06817975,14.10482,NaN,NaN,-0.1296339,0.8115999,-1.751511E-07,1.051082,-2.142266E-08,1.34003
857.1339,-0.01444192,0.000405296,NaN,-0.83015,0.0003905153,NaN,-1.566013,-14.62499,NaN,-1.689262,-1.46997,-0.07176007,14.10375,NaN,NaN,-0.1299376,0.8113347,-1.712768E-07,1.049587,-2.142266E-08,1.341931
857.1496,-0.0144461,0.0004047251,NaN,-0.8295447,0.0003903927,NaN,-1.56601,-14.6247,NaN,-1.686011,-1.470102,-0.07527151,14.10385,NaN,NaN,-0.1302353,0.8116214,-1.666574E-07,1.049766,-2.142266E-08,1.339972
857.1646,-0.01444993,0.0004047618,NaN,-0.8290286,0.0003901495,NaN,-1.565919,-14.62612,NaN,-1.683423,-1.47657,-0.07716337,14.11085,NaN,NaN,-0.1303979,0.8104187,-1.687436E-07,1.059226,-1.903847E-08,1.349187
857.1791,-0.01444993,0.0004047618,NaN,-0.8290286,0.0003901495,NaN,-1.565919,-14.62612,NaN,-1.683423,-1.47657,-0.07716337,14.11085,NaN,NaN,-0.1303979,0.8104187,-1.687436E-07,1.059226,-1.903847E-08,1.349187
857.1934,-0.01445339,0.0004049275,NaN,-0.82857,0.0003903768,NaN,-1.565871,-14.62603,NaN,-1.681176,-1.473228,-0.07902422,14.10733,NaN,NaN,-0.1305573,0.8104141,-1.687436E-07,1.054377,-1.903847E-08,1.348264
857.2088,-0.01445656,0.0004054006,NaN,-0.8281489,0.0003902105,NaN,-1.565839,-14.62585,NaN,-1.679116,-1.479617,-0.08085232,14.11401,NaN,NaN,-0.1307136,0.8107698,-1.678495E-07,1.063636,-2.380684E-08,1.348584
857.2236,-0.01445949,0.0004054687,NaN,-0.8277528,0.0003901563,NaN,-1.565815,-14.62469,NaN,-1.677165,-1.473718,-0.08264586,14.10767,NaN,NaN,-0.1308668,0.8117831,-1.663594E-07,1.055036,-2.142266E-08,1.340742
857.2383,-0.01445949,0.0004054687,NaN,-0.8277528,0.0003901563,NaN,-1.565815,-14.62469,NaN,-1.677165,-1.473718,-0.08264586,14.10767,NaN,NaN,-0.1308668,0.8117831,-1.663594E-07,1.055036,-2.142266E-08,1.340742
857.2545,-0.01446207,0.0004054478,NaN,-0.8274433,0.0003906209,NaN,-1.565714,-14.62535,NaN,-1.675856,-1.468685,-0.08285675,14.10244,NaN,NaN,-0.1308877,0.8109757,-1.717238E-07,1.047754,-2.380684E-08,1.342861
857.2679,-0.01446429,0.0004059044,NaN,-0.8271886,0.0003903825,NaN,-1.56565,-14.62559,NaN,-1.674869,-1.479881,-0.08306858,14.11425,NaN,NaN,-0.1309081,0.8111168,-1.749275E-07,1.064011,-2.619103E-08,1.347158
857.2827,-0.01446621,0.000406432,NaN,-0.8269687,0.0003898411,NaN,-1.565602,-14.62567,NaN,-1.67405,-1.482286,-0.08327938,14.11678,NaN,NaN,-0.1309282,0.811087,-1.767902E-07,1.067504,-2.857522E-08,1.34824
857.2974,-0.01446621,0.000406432,NaN,-0.8269687,0.0003898411,NaN,-1.565602,-14.62567,NaN,-1.67405,-1.482286,-0.08327938,14.11678,NaN,NaN,-0.1309282,0.811087,-1.767902E-07,1.067504,-2.857522E-08,1.34824
857.3119,-0.01446772,0.0004067794,NaN,-0.8268408,0.0003898172,NaN,-1.565483,-14.62499,NaN,-1.673894,-1.476601,-0.08194027,14.11072,NaN,NaN,-0.1308186,0.8116463,-1.861779E-07,1.059227,-3.09594E-08,1.343104
857.3271,-0.01446882,0.0004069505,NaN,-0.8267701,0.0003903483,NaN,-1.565401,-14.6257,NaN,-1.674062,-1.470155,-0.08063208,14.104,NaN,NaN,-0.1307111,0.8107685,-1.922874E-07,1.049891,-3.572777E-08,1.345361
857.3419,-0.01446973,0.0004074514,NaN,-0.826735,0.0003901611,NaN,-1.565334,-14.6257,NaN,-1.674391,-1.47965,-0.0793523,14.11398,NaN,NaN,-0.1306058,0.8110815,-1.969812E-07,1.063664,-3.334359E-08,1.347361
857.3567,-0.01446973,0.0004074514,NaN,-0.826735,0.0003901611,NaN,-1.565334,-14.6257,NaN,-1.674391,-1.47965,-0.0793523,14.11398,NaN,NaN,-0.1306058,0.8110815,-1.969812E-07,1.063664,-3.334359E-08,1.347361
857.3708,-0.01447052,0.0004075792,NaN,-0.8267221,0.0003907656,NaN,-1.565274,-14.62522,NaN,-1.674798,-1.469228,-0.07809864,14.10295,NaN,NaN,-0.1305025,0.8113021,-2.01079E-07,1.048516,-3.334359E-08,1.342663
857.3864,-0.01447114,0.0004073947,NaN,-0.8267907,0.0003910847,NaN,-1.565139,-14.62505,NaN,-1.675816,-1.467993,-0.07532215,14.10162,NaN,NaN,-0.1302719,0.8114248,-2.112118E-07,1.046712,-3.09594E-08,1.339335
857.4012,-0.01447163,0.0004075383,NaN,-0.8269092,0.0003905855,NaN,-1.565037,-14.62563,NaN,-1.677124,-1.479604,-0.07260384,14.11392,NaN,NaN,-0.1300458,0.8112484,-2.19184E-07,1.063596,-3.09594E-08,1.346506
857.4161,-0.01447163,0.0004075383,NaN,-0.8269092,0.0003905855,NaN,-1.565037,-14.62563,NaN,-1.677124,-1.479604,-0.07260384,14.11392,NaN,NaN,-0.1300458,0.8112484,-2.19184E-07,1.063596,-3.09594E-08,1.346506
857.4302,-0.01447205,0.0004072971,NaN,-0.827058,0.000390446,NaN,-1.564948,-14.62506,NaN,-1.678567,-1.470109,-0.06994111,14.10385,NaN,NaN,-0.1298241,0.8115882,-2.25815E-07,1.049789,-2.619103E-08,1.340117
857.4457,-0.01447241,0.0004074642,NaN,-0.8272249,0.0003897087,NaN,-1.564866,-14.6258,NaN,-1.680066,-1.481198,-0.06733128,14.11561,NaN,NaN,-0.1296068,0.8112158,-2.309186E-07,1.06592,-2.857521E-08,1.347441
857.4604,-0.01447263,0.0004075406,NaN,-0.8274714,0.0003894609,NaN,-1.564703,-14.62562,NaN,-1.682157,-1.474282,-0.06322254,14.1083,NaN,NaN,-0.1292645,0.8112415,-2.409024E-07,1.05587,-2.380684E-08,1.341916
857.475,-0.01447263,0.0004075406,NaN,-0.8274714,0.0003894609,NaN,-1.564703,-14.62562,NaN,-1.682157,-1.474282,-0.06322254,14.1083,NaN,NaN,-0.1292645,0.8112415,-2.409024E-07,1.05587,-2.380684E-08,1.341916
857.4913,-0.01447274,0.0004078254,NaN,-0.827766,0.0003887158,NaN,-1.564573,-14.62461,NaN,-1.68452,-1.4805,-0.05919782,14.11471,NaN,NaN,-0.1289288,0.8124371,-2.501783E-07,1.064847,-1.903847E-08,1.339538
857.5046,-0.01447276,0.0004079214,NaN,-0.8280889,0.0003887042,NaN,-1.564457,-14.62474,NaN,-1.687002,-1.472667,-0.05525408,14.10644,NaN,NaN,-0.1285997,0.8121171,-2.571446E-07,1.053457,-1.42701E-08,1.338716
857.5195,-0.01447276,0.0004079214,NaN,-0.8280889,0.0003887042,NaN,-1.564457,-14.62474,NaN,-1.687002,-1.472667,-0.05525408,14.10644,NaN,NaN,-0.1285997,0.8121171,-2.571446E-07,1.053457,-1.42701E-08,1.338716
857.5334,-0.01447262,0.0004084761,NaN,-0.8284972,0.000388403,NaN,-1.564255,-14.62462,NaN,-1.690098,-1.480206,-0.049835,14.11436,NaN,NaN,-0.1281478,0.8124691,-2.695126E-07,1.064399,-1.665429E-08,1.339364
857.5489,-0.01447235,0.0004087248,NaN,-0.8289564,0.0003884922,NaN,-1.564088,-14.62591,NaN,-1.69347,-1.474165,-0.04452552,14.10812,NaN,NaN,-0.1277047,0.8110473,-2.791984E-07,1.055655,-1.665429E-08,1.342736
857.565,-0.014472,0.0004087515,NaN,-0.8294448,0.0003889096,NaN,-1.563936,-14.62495,NaN,-1.696957,-1.469965,-0.03932206,14.10357,NaN,NaN,-0.1272703,0.8118705,-2.864999E-07,1.049511,-2.142266E-08,1.34012
857.5787,-0.014472,0.0004087515,NaN,-0.8294448,0.0003889096,NaN,-1.563936,-14.62495,NaN,-1.696957,-1.469965,-0.03932206,14.10357,NaN,NaN,-0.1272703,0.8118705,-2.864999E-07,1.049511,-2.142266E-08,1.34012
857.5927,-0.01447159,0.0004090673,NaN,-0.8299492,0.0003885568,NaN,-1.563789,-14.62491,NaN,-1.700475,-1.480092,-0.03422061,14.11422,NaN,NaN,-0.1268444,0.812246,-2.922741E-07,1.064216,-1.903847E-08,1.3401
857.6082,-0.01447103,0.0004093116,NaN,-0.8305304,0.0003890326,NaN,-1.563538,-14.62469,NaN,-1.704558,-1.472513,-0.02766019,14.10619,NaN,NaN,-0.1262975,0.812281,-3.019599E-07,1.053189,-1.42701E-08,1.339656
857.623,-0.01447035,0.0004092665,NaN,-0.8311564,0.000389358,NaN,-1.563325,-14.62503,NaN,-1.708885,-1.46969,-0.02123147,14.10325,NaN,NaN,-0.1257613,0.8118519,-3.090379E-07,1.049098,-1.665429E-08,1.335715
857.6379,-0.01447035,0.0004092665,NaN,-0.8311564,0.000389358,NaN,-1.563325,-14.62503,NaN,-1.708885,-1.46969,-0.02123147,14.10325,NaN,NaN,-0.1257613,0.8118519,-3.090379E-07,1.049098,-1.665429E-08,1.335715
857.652,-0.01446959,0.0004092149,NaN,-0.8318073,0.0003895775,NaN,-1.563128,-14.62542,NaN,-1.713303,-1.470601,-0.01493092,14.10425,NaN,NaN,-0.1252356,0.811494,-3.146631E-07,1.050437,-1.903847E-08,1.339169
857.6674,-0.01446877,0.0004089128,NaN,-0.8324706,0.0003896394,NaN,-1.562935,-14.62477,NaN,-1.717734,-1.470154,-0.008753667,14.10369,NaN,NaN,-0.1247203,0.8121127,-3.193104E-07,1.049754,-1.903847E-08,1.33626
857.6824,-0.01446781,0.0004084915,NaN,-0.8332078,0.0003898643,NaN,-1.562621,-14.62507,NaN,-1.722716,-1.468414,-0.001132116,14.10189,NaN,NaN,-0.1240857,0.8117527,-3.26626E-07,1.047239,-1.903847E-08,1.336593
857.6971,-0.01446781,0.0004084915,NaN,-0.8332078,0.0003898643,NaN,-1.562621,-14.62507,NaN,-1.722716,-1.468414,-0.001132116,14.10189,NaN,NaN,-0.1240857,0.8117527,-3.26626E-07,1.047239,-1.903847E-08,1.336593
857.7111,-0.01446673,0.000408459,NaN,-0.8339875,0.0003897134,NaN,-1.56235,-14.62598,NaN,-1.727926,-1.475526,0.00633715,14.1095,NaN,NaN,-0.1234636,0.8110931,-3.313193E-07,1.057612,-1.188591E-08,1.343645
857.728,-0.01446557,0.0004085631,NaN,-0.8347898,0.0003903272,NaN,-1.562096,-14.62559,NaN,-1.733215,-1.46967,0.01365711,14.10328,NaN,NaN,-0.1228536,0.8113073,-3.335917E-07,1.049094,-9.501729E-09,1.34469
857.7415,-0.01446434,0.0004086944,NaN,-0.8356024,0.0003909487,NaN,-1.561849,-14.6254,NaN,-1.738504,-1.468971,0.02083372,14.10251,NaN,NaN,-0.1222556,0.8114612,-3.36069E-07,1.048068,-1.42701E-08,1.342685
857.7563,-0.01446434,0.0004086944,NaN,-0.8356024,0.0003909487,NaN,-1.561849,-14.6254,NaN,-1.738504,-1.468971,0.02083372,14.10251,NaN,NaN,-0.1222556,0.8114612,-3.36069E-07,1.048068,-1.42701E-08,1.342685
857.7703,-0.01446283,0.0004086555,NaN,-0.8364871,0.0003915038,NaN,-1.561456,-14.6251,NaN,-1.744331,-1.467354,0.02944154,14.10076,NaN,NaN,-0.1215401,0.811703,-3.404462E-07,1.045703,-1.903847E-08,1.339878
857.7858,-0.01446101,0.0004084297,NaN,-0.8374122,0.0003919111,NaN,-1.561115,-14.62509,NaN,-1.750376,-1.466708,0.03787855,14.10007,NaN,NaN,-0.1208385,0.8116798,-3.426814E-07,1.044762,-1.188591E-08,1.337131
857.8005,-0.01445892,0.000408061,NaN,-0.8383583,0.0003921061,NaN,-1.560794,-14.6251,NaN,-1.756486,-1.468103,0.04614594,14.10154,NaN,NaN,-0.1201507,0.811709,-3.422157E-07,1.046785,-7.117543E-09,1.334127
857.8153,-0.01445892,0.000408061,NaN,-0.8383583,0.0003921061,NaN,-1.560794,-14.6251,NaN,-1.756486,-1.468103,0.04614594,14.10154,NaN,NaN,-0.1201507,0.811709,-3.422157E-07,1.046785,-7.117543E-09,1.334127
857.8297,-0.01445636,0.0004076632,NaN,-0.839313,0.0003924605,NaN,-1.560481,-14.62528,NaN,-1.762586,-1.466678,0.05425254,14.10005,NaN,NaN,-0.1194763,0.8114751,-3.417687E-07,1.044724,-7.117543E-09,1.33454
857.8455,-0.01445347,0.000407718,NaN,-0.8402689,0.0003928395,NaN,-1.560171,-14.62622,NaN,-1.768638,-1.470375,0.06220138,14.10407,NaN,NaN,-0.1188152,0.8106712,-3.402041E-07,1.050137,-9.501729E-09,1.342441
857.8602,-0.01445038,0.0004076083,NaN,-0.8412212,0.0003932744,NaN,-1.559862,-14.62564,NaN,-1.774624,-1.467215,0.06999601,14.10066,NaN,NaN,-0.118167,0.8111419,-3.366278E-07,1.045523,-1.188591E-08,1.336564
857.8749,-0.01445038,0.0004076083,NaN,-0.8412212,0.0003932744,NaN,-1.559862,-14.62564,NaN,-1.774624,-1.467215,0.06999601,14.10066,NaN,NaN,-0.118167,0.8111419,-3.366278E-07,1.045523,-1.188591E-08,1.336564
857.889,-0.01444715,0.0004075924,NaN,-0.842167,0.0003933484,NaN,-1.559555,-14.62659,NaN,-1.780534,-1.472184,0.07763951,14.10602,NaN,NaN,-0.1175315,0.8103701,-3.313379E-07,1.052782,-1.188591E-08,1.343322
857.9045,-0.01444404,0.000407301,NaN,-0.8430353,0.000393628,NaN,-1.559444,-14.62557,NaN,-1.785789,-1.46753,0.08355533,14.10099,NaN,NaN,-0.1170379,0.81123,-3.260107E-07,1.045986,-1.42701E-08,1.336209
857.9193,-0.01444404,0.000407301,NaN,-0.8430353,0.000393628,NaN,-1.559444,-14.62557,NaN,-1.785789,-1.46753,0.08355533,14.10099,NaN,NaN,-0.1170379,0.81123,-3.260107E-07,1.045986,-1.42701E-08,1.336209
857.9334,-0.01444111,0.0004074067,NaN,-0.8438518,0.0003932885,NaN,-1.559265,-14.62652,NaN,-1.790691,-1.477978,0.08935621,14.11211,NaN,NaN,-0.1165539,0.8106666,-3.215031E-07,1.061197,-1.665429E-08,1.34555
857.9509,-0.01443835,0.0004074602,NaN,-0.8446327,0.000394,NaN,-1.559057,-14.62621,NaN,-1.795381,-1.468169,0.09505505,14.10175,NaN,NaN,-0.1160794,0.8107228,-3.172563E-07,1.046953,-1.665429E-08,1.342441
857.9645,-0.01443574,0.0004076113,NaN,-0.8453882,0.0003939064,NaN,-1.55884,-14.62719,NaN,-1.799933,-1.476405,0.1006473,14.11054,NaN,NaN,-0.1156142,0.8100433,-3.123762E-07,1.058947,-1.188591E-08,1.346973
857.9784,-0.01443574,0.0004076113,NaN,-0.8453882,0.0003939064,NaN,-1.55884,-14.62719,NaN,-1.799933,-1.476405,0.1006473,14.11054,NaN,NaN,-0.1156142,0.8100433,-3.123762E-07,1.058947,-1.188591E-08,1.346973
857.9925,-0.01443344,0.0004074512,NaN,-0.8460552,0.0003939051,NaN,-1.558839,-14.62592,NaN,-1.803807,-1.471388,0.1045515,14.10511,NaN,NaN,-0.1152874,0.8111708,-3.068627E-07,1.051622,-1.42701E-08,1.34017
858.0078,-0.01443147,0.0004073514,NaN,-0.8466647,0.0003944344,NaN,-1.558758,-14.62626,NaN,-1.807323,-1.467778,0.1083765,14.10135,NaN,NaN,-0.1149671,0.8107128,-3.031747E-07,1.046399,-1.188591E-08,1.342617
858.0226,-0.01442977,0.0004074372,NaN,-0.847236,0.0003950507,NaN,-1.558644,-14.62675,NaN,-1.810637,-1.468381,0.1121401,14.10205,NaN,NaN,-0.1146531,0.8102422,-2.985554E-07,1.047298,-1.665429E-08,1.346193
858.0386,-0.01442977,0.0004074372,NaN,-0.847236,0.0003950507,NaN,-1.558644,-14.62675,NaN,-1.810637,-1.468381,0.1121401,14.10205,NaN,NaN,-0.1146531,0.8102422,-2.985554E-07,1.047298,-1.665429E-08,1.346193
858.0515,-0.01442848,0.0004075276,NaN,-0.8477117,0.0003944568,NaN,-1.558747,-14.62592,NaN,-1.813249,-1.479793,0.1142553,14.11392,NaN,NaN,-0.1144745,0.81147,-2.9334E-07,1.0638,-1.903847E-08,1.341452
858.0668,-0.01442745,0.0004074903,NaN,-0.8481265,0.0003943814,NaN,-1.558759,-14.62698,NaN,-1.815501,-1.472135,0.1163254,14.10597,NaN,NaN,-0.1142994,0.8102184,-2.903597E-07,1.052716,-2.142266E-08,1.344368
858.0817,-0.01442657,0.0004080034,NaN,-0.8485017,0.0003940346,NaN,-1.558732,-14.62671,NaN,-1.817557,-1.480567,0.1183706,14.11478,NaN,NaN,-0.1141278,0.8107338,-2.870069E-07,1.064928,-1.903847E-08,1.346932
858.0967,-0.01442657,0.0004080034,NaN,-0.8485017,0.0003940346,NaN,-1.558732,-14.62671,NaN,-1.817557,-1.480567,0.1183706,14.11478,NaN,NaN,-0.1141278,0.8107338,-2.870069E-07,1.064928,-1.903847E-08,1.346932
858.1107,-0.01442576,0.0004078275,NaN,-0.8488508,0.0003938309,NaN,-1.558688,-14.62573,NaN,-1.819502,-1.469702,0.1203823,14.10324,NaN,NaN,-0.1139595,0.8114616,-2.832817E-07,1.049129,-2.142266E-08,1.339985
858.1262,-0.01442512,0.0004078647,NaN,-0.8491129,0.0003936533,NaN,-1.55888,-14.62525,NaN,-1.820798,-1.473775,0.1207775,14.10746,NaN,NaN,-0.1139238,0.8120703,-2.796309E-07,1.055021,-2.142266E-08,1.337408
858.141,-0.01442459,0.0004081195,NaN,-0.8493202,0.0003934805,NaN,-1.558978,-14.62692,NaN,-1.82177,-1.47663,0.1211576,14.11068,NaN,NaN,-0.1138889,0.8104821,-2.781407E-07,1.059244,-2.857522E-08,1.346678
858.1561,-0.01442459,0.0004081195,NaN,-0.8493202,0.0003934805,NaN,-1.558978,-14.62692,NaN,-1.82177,-1.47663,0.1211576,14.11068,NaN,NaN,-0.1138889,0.8104821,-2.781407E-07,1.059244,-2.857522E-08,1.346678
858.1699,-0.01442414,0.0004080749,NaN,-0.8494927,0.0003936638,NaN,-1.559031,-14.62599,NaN,-1.822574,-1.469693,0.1215471,14.10328,NaN,NaN,-0.1138546,0.8112172,-2.756075E-07,1.049147,-2.857522E-08,1.338849
858.1873,-0.01442374,0.0004079934,NaN,-0.849643,0.0003935531,NaN,-1.559066,-14.62665,NaN,-1.823289,-1.472876,0.1219362,14.10671,NaN,NaN,-0.113821,0.8106675,-2.728508E-07,1.053799,-2.380684E-08,1.342478
858.2012,-0.01442349,0.0004076057,NaN,-0.8497096,0.0003934964,NaN,-1.559338,-14.62563,NaN,-1.823376,-1.469118,0.1207416,14.10263,NaN,NaN,-0.1139173,0.8115538,-2.692E-07,1.048304,-2.142266E-08,1.336884
858.215,-0.01442349,0.0004076057,NaN,-0.8497096,0.0003934964,NaN,-1.559338,-14.62563,NaN,-1.823376,-1.469118,0.1207416,14.10263,NaN,NaN,-0.1139173,0.8115538,-2.692E-07,1.048304,-2.142266E-08,1.336884
858.229,-0.01442336,0.0004070833,NaN,-0.8497242,0.0003934421,NaN,-1.55951,-14.62601,NaN,-1.823157,-1.468703,0.1195627,14.10224,NaN,NaN,-0.1140118,0.811165,-2.685295E-07,1.04772,-2.142266E-08,1.337593
858.2444,-0.01442331,0.00040692,NaN,-0.8497084,0.0003930697,NaN,-1.559632,-14.62716,NaN,-1.822787,-1.475469,0.118425,14.10951,NaN,NaN,-0.1141044,0.8102446,-2.665923E-07,1.057599,-2.142266E-08,1.34619
858.259,-0.01442331,0.00040692,NaN,-0.8497084,0.0003930697,NaN,-1.559632,-14.62716,NaN,-1.822787,-1.475469,0.118425,14.10951,NaN,NaN,-0.1141044,0.8102446,-2.665923E-07,1.057599,-2.142266E-08,1.34619
858.2732,-0.01442344,0.0004071449,NaN,-0.8496046,0.0003924973,NaN,-1.559977,-14.62711,NaN,-1.821768,-1.47932,0.1157388,14.11355,NaN,NaN,-0.1143245,0.8103939,-2.642826E-07,1.063181,-1.665429E-08,1.347803
858.2885,-0.01442369,0.0004074406,NaN,-0.849447,0.0003925762,NaN,-1.560211,-14.62564,NaN,-1.82044,-1.475204,0.1131009,14.10904,NaN,NaN,-0.1145403,0.8117479,-2.635376E-07,1.057159,-1.903847E-08,1.336595
858.3033,-0.01442403,0.000408103,NaN,-0.8492569,0.0003924177,NaN,-1.560391,-14.6264,NaN,-1.81897,-1.480499,0.1105343,14.11471,NaN,NaN,-0.1147519,0.8111334,-2.621965E-07,1.064879,-1.903847E-08,1.34376
858.3182,-0.01442403,0.000408103,NaN,-0.8492569,0.0003924177,NaN,-1.560391,-14.6264,NaN,-1.81897,-1.480499,0.1105343,14.11471,NaN,NaN,-0.1147519,0.8111334,-2.621965E-07,1.064879,-1.903847E-08,1.34376
858.3323,-0.01442442,0.0004084407,NaN,-0.8490475,0.0003932157,NaN,-1.560545,-14.62579,NaN,-1.817438,-1.469847,0.1080272,14.10342,NaN,NaN,-0.1149594,0.8114985,-2.604083E-07,1.049392,-2.142266E-08,1.338811
858.3479,-0.01442497,0.000408631,NaN,-0.8487579,0.0003927997,NaN,-1.560922,-14.62482,NaN,-1.81531,-1.479338,0.1039945,14.11328,NaN,NaN,-0.115292,0.812773,-2.573536E-07,1.063124,-2.380684E-08,1.334763
858.3627,-0.01442564,0.0004090618,NaN,-0.84842,0.0003922655,NaN,-1.561191,-14.62685,NaN,-1.812907,-1.48158,0.1000379,14.11588,NaN,NaN,-0.1156182,0.810783,-2.572791E-07,1.066458,-2.619103E-08,1.345885
858.3773,-0.01442564,0.0004090618,NaN,-0.84842,0.0003922655,NaN,-1.561191,-14.62685,NaN,-1.812907,-1.48158,0.1000379,14.11588,NaN,NaN,-0.1156182,0.810783,-2.572791E-07,1.066458,-2.619103E-08,1.345885
858.3914,-0.01442639,0.0004090884,NaN,-0.8480539,0.0003920822,NaN,-1.561404,-14.62575,NaN,-1.810387,-1.473337,0.09617795,14.10708,NaN,NaN,-0.115938,0.8116888,-2.558635E-07,1.054459,-2.619103E-08,1.337852
858.4069,-0.01442719,0.0004094995,NaN,-0.847672,0.0003915865,NaN,-1.56159,-14.626,NaN,-1.807825,-1.480706,0.09240287,14.11487,NaN,NaN,-0.1162515,0.8116615,-2.543734E-07,1.065172,-2.619103E-08,1.341643
858.4216,-0.01442815,0.0004095876,NaN,-0.8472129,0.0003921136,NaN,-1.561985,-14.62587,NaN,-1.804685,-1.469315,0.08712756,14.10285,NaN,NaN,-0.1166882,0.8115233,-2.522127E-07,1.04862,-1.903847E-08,1.338624
858.4373,-0.01442815,0.0004095876,NaN,-0.8472129,0.0003921136,NaN,-1.561985,-14.62587,NaN,-1.804685,-1.469315,0.08712756,14.10285,NaN,NaN,-0.1166882,0.8115233,-2.522127E-07,1.04862,-1.903847E-08,1.338624
858.4514,-0.01442923,0.0004091783,NaN,-0.846708,0.0003921895,NaN,-1.562271,-14.62544,NaN,-1.801287,-1.468179,0.0819568,14.10159,NaN,NaN,-0.1171163,0.8119076,-2.507599E-07,1.046948,-2.142266E-08,1.33384
858.4658,-0.01443039,0.0004090187,NaN,-0.8461772,0.0003924493,NaN,-1.562501,-14.62601,NaN,-1.797786,-1.469287,0.07690648,14.10283,NaN,NaN,-0.1175361,0.8113729,-2.487482E-07,1.048585,-2.142266E-08,1.337645
858.4806,-0.01443161,0.0004083473,NaN,-0.8456328,0.000392243,NaN,-1.5627,-14.62592,NaN,-1.794258,-1.467679,0.0719646,14.10112,NaN,NaN,-0.1179476,0.8114098,-2.460287E-07,1.046244,-1.665428E-08,1.337475
858.4967,-0.01443161,0.0004083473,NaN,-0.8456328,0.000392243,NaN,-1.5627,-14.62592,NaN,-1.794258,-1.467679,0.0719646,14.10112,NaN,NaN,-0.1179476,0.8114098,-2.460287E-07,1.046244,-1.665428E-08,1.337475
858.5094,-0.01443312,0.0004075353,NaN,-0.8450131,0.0003920747,NaN,-1.563091,-14.62542,NaN,-1.790168,-1.467226,0.06554656,14.10056,NaN,NaN,-0.1184804,0.8118805,-2.410368E-07,1.04556,-2.142265E-08,1.333138
858.525,-0.01443497,0.000407167,NaN,-0.8443497,0.0003916061,NaN,-1.563375,-14.6267,NaN,-1.785833,-1.475356,0.05926041,14.1093,NaN,NaN,-0.1190028,0.8109048,-2.382429E-07,1.057433,-2.142265E-08,1.343184
858.5394,-0.01443497,0.000407167,NaN,-0.8443497,0.0003916061,NaN,-1.563375,-14.6267,NaN,-1.785833,-1.475356,0.05926041,14.1093,NaN,NaN,-0.1190028,0.8109048,-2.382429E-07,1.057433,-2.142265E-08,1.343184
858.5538,-0.0144371,0.0004069636,NaN,-0.8436623,0.0003920191,NaN,-1.563601,-14.62541,NaN,-1.78141,-1.468449,0.05311612,14.10187,NaN,NaN,-0.1195149,0.8119847,-2.35095E-07,1.047355,-1.665428E-08,1.333317
858.5694,-0.01443966,0.0004069672,NaN,-0.8428939,0.0003923283,NaN,-1.563992,-14.62614,NaN,-1.776399,-1.470419,0.04552505,14.10404,NaN,NaN,-0.1201463,0.8113223,-2.284826E-07,1.050251,-1.903847E-08,1.338469
858.5842,-0.01444263,0.0004063933,NaN,-0.8420789,0.0003917812,NaN,-1.564271,-14.62607,NaN,-1.771138,-1.472546,0.0380946,14.10626,NaN,NaN,-0.1207654,0.8114585,-2.247853E-07,1.053334,-1.903847E-08,1.338934
858.599,-0.01444263,0.0004063933,NaN,-0.8420789,0.0003917812,NaN,-1.564271,-14.62607,NaN,-1.771138,-1.472546,0.0380946,14.10626,NaN,NaN,-0.1207654,0.8114585,-2.247853E-07,1.053334,-1.903847E-08,1.338934
858.6131,-0.01444594,0.0004063954,NaN,-0.8412389,0.0003919147,NaN,-1.564492,-14.6265,NaN,-1.765793,-1.472458,0.03082888,14.10622,NaN,NaN,-0.1213723,0.8110158,-2.196118E-07,1.053223,-1.903847E-08,1.34167
858.6286,-0.01444952,0.0004067471,NaN,-0.8403871,0.0003917284,NaN,-1.564679,-14.62661,NaN,-1.760443,-1.478567,0.02371592,14.11265,NaN,NaN,-0.1219673,0.8110899,-2.137258E-07,1.062092,-1.903847E-08,1.343813
858.6436,-0.01445348,0.0004071452,NaN,-0.8394626,0.0003913358,NaN,-1.565015,-14.62669,NaN,-1.754555,-1.479908,0.01517547,14.11407,NaN,NaN,-0.12268,0.8110316,-2.065174E-07,1.064039,-1.903847E-08,1.344545
858.6583,-0.01445348,0.0004071452,NaN,-0.8394626,0.0003913358,NaN,-1.565015,-14.62669,NaN,-1.754555,-1.479908,0.01517547,14.11407,NaN,NaN,-0.12268,0.8110316,-2.065174E-07,1.064039,-1.903847E-08,1.344545
858.6742,-0.01445783,0.000407519,NaN,-0.8384974,0.0003915703,NaN,-1.565251,-14.62475,NaN,-1.748448,-1.475074,0.006816965,14.10875,NaN,NaN,-0.1233787,0.8128474,-1.986011E-07,1.056953,-1.665428E-08,1.330442
858.6885,-0.01446249,0.0004075894,NaN,-0.8375114,0.0003920098,NaN,-1.565432,-14.62524,NaN,-1.742278,-1.469967,-0.001360456,14.10341,NaN,NaN,-0.1240638,0.812213,-1.8953E-07,1.049545,-1.42701E-08,1.333829
858.7023,-0.01446738,0.0004074678,NaN,-0.8365169,0.0003923445,NaN,-1.565581,-14.62583,NaN,-1.736119,-1.468279,-0.009367554,14.1017,NaN,NaN,-0.1247354,0.8115649,-1.800864E-07,1.047119,-1.665428E-08,1.335708
858.717,-0.01446738,0.0004074678,NaN,-0.8365169,0.0003923445,NaN,-1.565581,-14.62583,NaN,-1.736119,-1.468279,-0.009367554,14.1017,NaN,NaN,-0.1247354,0.8115649,-1.800864E-07,1.047119,-1.665428E-08,1.335708
858.731,-0.01447265,0.0004074606,NaN,-0.8354523,0.0003927904,NaN,-1.565852,-14.62633,NaN,-1.729438,-1.468675,-0.01877832,14.10218,NaN,NaN,-0.1255232,0.8110779,-1.664146E-07,1.047716,-1.665428E-08,1.340059
858.7466,-0.01447828,0.0004076216,NaN,-0.8343493,0.0003936196,NaN,-1.566031,-14.62631,NaN,-1.72255,-1.467572,-0.02798747,14.10101,NaN,NaN,-0.1262955,0.8110549,-1.537859E-07,1.046111,-2.142265E-08,1.342057
858.7614,-0.01448421,0.0004080413,NaN,-0.8332275,0.0003934299,NaN,-1.566161,-14.62572,NaN,-1.715611,-1.478748,-0.03700031,14.11267,NaN,NaN,-0.1270527,0.812038,-1.407101E-07,1.062295,-1.903847E-08,1.33969
858.7762,-0.01448421,0.0004080413,NaN,-0.8332275,0.0003934299,NaN,-1.566161,-14.62572,NaN,-1.715611,-1.478748,-0.03700031,14.11267,NaN,NaN,-0.1270527,0.812038,-1.407101E-07,1.062295,-1.903847E-08,1.33969
858.7904,-0.01448785,0.0004081405,NaN,-0.8329306,0.0003939396,NaN,-1.564813,-14.62689,NaN,-1.715573,-1.469362,-0.02709226,14.1029,NaN,NaN,-0.1262428,0.8106382,-1.84147E-07,1.048694,-1.42701E-08,1.342115
858.8057,-0.01448871,0.0004079919,NaN,-0.8331426,0.0003942375,NaN,-1.564097,-14.62612,NaN,-1.718875,-1.468837,-0.01746285,14.10224,NaN,NaN,-0.1254489,0.8113757,-2.091577E-07,1.047892,-1.42701E-08,1.33822
858.8207,-0.01448824,0.0004082908,NaN,-0.8336678,0.0003941793,NaN,-1.56363,-14.62738,NaN,-1.723816,-1.476835,-0.0080892,14.11083,NaN,NaN,-0.1246706,0.8104,-2.271904E-07,1.059564,-7.11754E-09,1.347559
858.8356,-0.01448824,0.0004082908,NaN,-0.8336678,0.0003941793,NaN,-1.56363,-14.62738,NaN,-1.723816,-1.476835,-0.0080892,14.11083,NaN,NaN,-0.1246706,0.8104,-2.271904E-07,1.059564,-7.11754E-09,1.347559
858.8496,-0.01448712,0.0004086779,NaN,-0.8343838,0.0003949566,NaN,-1.563257,-14.62724,NaN,-1.729543,-1.470726,0.001076804,14.10438,NaN,NaN,-0.1239076,0.8103703,-2.395444E-07,1.050698,-4.733354E-09,1.348538
858.8653,-0.01448578,0.0004085051,NaN,-0.8351451,0.0003952296,NaN,-1.563053,-14.62579,NaN,-1.735055,-1.46785,0.00848865,14.10116,NaN,NaN,-0.1232889,0.8117123,-2.442336E-07,1.046457,-4.733354E-09,1.336306
858.8799,-0.01448578,0.0004085051,NaN,-0.8351451,0.0003952296,NaN,-1.563053,-14.62579,NaN,-1.735055,-1.46785,0.00848865,14.10116,NaN,NaN,-0.1232889,0.8117123,-2.442336E-07,1.046457,-4.733354E-09,1.336306
858.8942,-0.01448415,0.0004081481,NaN,-0.835931,0.0003953593,NaN,-1.562815,-14.62603,NaN,-1.740435,-1.468924,0.015758,14.10232,NaN,NaN,-0.1226824,0.8115017,-2.483943E-07,1.048028,-2.349168E-09,1.337316
858.9116,-0.0144823,0.0004073842,NaN,-0.8367285,0.0003951858,NaN,-1.562561,-14.62585,NaN,-1.745715,-1.467458,0.02289156,14.10075,NaN,NaN,-0.1220878,0.8116148,-2.522965E-07,1.045891,2.419203E-09,1.335774
858.9255,-0.01448028,0.0004065934,NaN,-0.8375296,0.0003951849,NaN,-1.562302,-14.62592,NaN,-1.75091,-1.466918,0.0298892,14.10018,NaN,NaN,-0.1215048,0.8115152,-2.555189E-07,1.045109,9.57176E-09,1.335879
858.939,-0.01448028,0.0004065934,NaN,-0.8375296,0.0003951849,NaN,-1.562302,-14.62592,NaN,-1.75091,-1.466918,0.0298892,14.10018,NaN,NaN,-0.1215048,0.8115152,-2.555189E-07,1.045109,9.57176E-09,1.335879
858.9543,-0.01447836,0.0004066787,NaN,-0.83826,0.0003947049,NaN,-1.562203,-14.62647,NaN,-1.755453,-1.478977,0.03517913,14.11295,NaN,NaN,-0.1210626,0.8114099,-2.549228E-07,1.062643,9.57176E-09,1.343644
858.9684,-0.01447662,0.0004068399,NaN,-0.8389435,0.0003937751,NaN,-1.562046,-14.62709,NaN,-1.759648,-1.481176,0.04037079,14.11534,NaN,NaN,-0.1206292,0.810837,-2.552954E-07,1.065859,1.91085E-08,1.346217
858.9834,-0.01447503,0.000407055,NaN,-0.8395949,0.0003945052,NaN,-1.561867,-14.62596,NaN,-1.763641,-1.468685,0.04546991,14.10206,NaN,NaN,-0.1202042,0.8116807,-2.54867E-07,1.047689,2.149269E-08,1.335654
858.9986,-0.01447503,0.000407055,NaN,-0.8395949,0.0003945052,NaN,-1.561867,-14.62596,NaN,-1.763641,-1.468685,0.04546991,14.10206,NaN,NaN,-0.1202042,0.8116807,-2.54867E-07,1.047689,2.149269E-08,1.335654
859.0125,-0.0144738,0.0004071609,NaN,-0.8401543,0.0003949561,NaN,-1.561855,-14.62654,NaN,-1.76693,-1.469444,0.04889757,14.10293,NaN,NaN,-0.119917,0.8111238,-2.527435E-07,1.048817,1.91085E-08,1.339428
859.0278,-0.01447279,0.0004070623,NaN,-0.8406545,0.000395381,NaN,-1.561776,-14.62589,NaN,-1.769853,-1.46722,0.0522632,14.10049,NaN,NaN,-0.1196354,0.811699,-2.515887E-07,1.045553,1.672432E-08,1.335505
859.0428,-0.01447191,0.0004069322,NaN,-0.8411158,0.0003948981,NaN,-1.561669,-14.62677,NaN,-1.772572,-1.476706,0.05557342,14.1106,NaN,NaN,-0.1193593,0.8111655,-2.506574E-07,1.05937,1.195595E-08,1.341586
859.0576,-0.01447191,0.0004069322,NaN,-0.8411158,0.0003948981,NaN,-1.561669,-14.62677,NaN,-1.772572,-1.476706,0.05557342,14.1106,NaN,NaN,-0.1193593,0.8111655,-2.506574E-07,1.05937,1.195595E-08,1.341586
859.0717,-0.0144711,0.0004073025,NaN,-0.8415511,0.0003942448,NaN,-1.561553,-14.62636,NaN,-1.775169,-1.481346,0.05882322,14.11542,NaN,NaN,-0.1190886,0.811697,-2.497261E-07,1.066088,1.434013E-08,1.342568
859.0871,-0.01447047,0.0004071465,NaN,-0.841899,0.0003942037,NaN,-1.561623,-14.62487,NaN,-1.777112,-1.468475,0.06043369,14.10168,NaN,NaN,-0.1189527,0.8128932,-2.474536E-07,1.047341,1.672432E-08,1.331565
859.1021,-0.01446995,0.0004072685,NaN,-0.8421914,0.0003936455,NaN,-1.56162,-14.62675,NaN,-1.778722,-1.477806,0.06201582,14.11179,NaN,NaN,-0.1188194,0.8113509,-2.46336E-07,1.060998,1.672432E-08,1.340981
859.1169,-0.01446995,0.0004072685,NaN,-0.8421914,0.0003936455,NaN,-1.56162,-14.62675,NaN,-1.778722,-1.477806,0.06201582,14.11179,NaN,NaN,-0.1188194,0.8113509,-2.46336E-07,1.060998,1.672432E-08,1.340981
859.131,-0.01446951,0.0004067784,NaN,-0.8424483,0.0003932098,NaN,-1.561586,-14.62551,NaN,-1.780155,-1.468756,0.06357855,14.1021,NaN,NaN,-0.1186887,0.8123405,-2.45144E-07,1.047806,1.434013E-08,1.3359
859.1474,-0.01446911,0.0004062201,NaN,-0.8426821,0.0003926292,NaN,-1.56154,-14.62513,NaN,-1.781489,-1.471734,0.06511551,14.10518,NaN,NaN,-0.1185606,0.8128188,-2.437284E-07,1.052112,1.434013E-08,1.333174
859.1614,-0.01446888,0.0004061123,NaN,-0.8428313,0.0003930267,NaN,-1.561686,-14.62604,NaN,-1.782187,-1.468621,0.06504625,14.102,NaN,NaN,-0.1185643,0.8118052,-2.413814E-07,1.047626,1.434013E-08,1.33898
859.176,-0.01446888,0.0004061123,NaN,-0.8428313,0.0003930267,NaN,-1.561686,-14.62604,NaN,-1.782187,-1.468621,0.06504625,14.102,NaN,NaN,-0.1185643,0.8118052,-2.413814E-07,1.047626,1.434013E-08,1.33898
859.19,-0.01446877,0.0004063114,NaN,-0.8429276,0.0003934552,NaN,-1.561752,-14.62628,NaN,-1.782572,-1.470989,0.06498134,14.10452,NaN,NaN,-0.118568,0.8116323,-2.402638E-07,1.051075,1.195595E-08,1.340822
859.2055,-0.01446874,0.0004062378,NaN,-0.8429908,0.0003937928,NaN,-1.561783,-14.62542,NaN,-1.782798,-1.468649,0.06493054,14.10194,NaN,NaN,-0.1185717,0.8124036,-2.387737E-07,1.047634,7.187576E-09,1.333762
859.2203,-0.01446875,0.0004058857,NaN,-0.8430333,0.0003940263,NaN,-1.561799,-14.62544,NaN,-1.782943,-1.467646,0.06488624,14.10087,NaN,NaN,-0.1185753,0.8123475,-2.373208E-07,1.046176,2.419204E-09,1.332545
859.2354,-0.01446875,0.0004058857,NaN,-0.8430333,0.0003940263,NaN,-1.561799,-14.62544,NaN,-1.782943,-1.467646,0.06488624,14.10087,NaN,NaN,-0.1185753,0.8123475,-2.373208E-07,1.046176,2.419204E-09,1.332545
859.2493,-0.01446894,0.0004061079,NaN,-0.8429951,0.0003935416,NaN,-1.562007,-14.62582,NaN,-1.782468,-1.479792,0.06326717,14.11374,NaN,NaN,-0.1187081,0.8123976,-2.340426E-07,1.063845,2.419204E-09,1.339622
859.2651,-0.01446926,0.0004061319,NaN,-0.8429074,0.000394137,NaN,-1.56213,-14.62536,NaN,-1.781697,-1.468481,0.06168364,14.10174,NaN,NaN,-0.1188384,0.8125805,-2.326642E-07,1.047384,4.80339E-09,1.334025
859.28,-0.01446926,0.0004061319,NaN,-0.8429074,0.000394137,NaN,-1.56213,-14.62536,NaN,-1.781697,-1.468481,0.06168364,14.10174,NaN,NaN,-0.1188384,0.8125805,-2.326642E-07,1.047384,4.80339E-09,1.334025
859.2943,-0.01446965,0.0004061501,NaN,-0.8427895,0.0003941739,NaN,-1.562214,-14.62615,NaN,-1.780784,-1.47322,0.06014489,14.10684,NaN,NaN,-0.1189662,0.811951,-2.313231E-07,1.054312,4.80339E-09,1.337294
859.3097,-0.01447023,0.0004067565,NaN,-0.8425842,0.0003939571,NaN,-1.562475,-14.62485,NaN,-1.779231,-1.480094,0.05706489,14.11391,NaN,NaN,-0.1192208,0.8134364,-2.291997E-07,1.064238,7.187576E-09,1.334802
859.3245,-0.01447094,0.0004070581,NaN,-0.8423258,0.0003930086,NaN,-1.562644,-14.62469,NaN,-1.777378,-1.482545,0.05405205,14.11648,NaN,NaN,-0.1194705,0.8136459,-2.276723E-07,1.0678,9.571762E-09,1.334087
859.3392,-0.01447094,0.0004070581,NaN,-0.8423258,0.0003930086,NaN,-1.562644,-14.62469,NaN,-1.777378,-1.482545,0.05405205,14.11648,NaN,NaN,-0.1194705,0.8136459,-2.276723E-07,1.0678,9.571762E-09,1.334087
859.3535,-0.01447173,0.0004069798,NaN,-0.8420358,0.0003931114,NaN,-1.562769,-14.62459,NaN,-1.77539,-1.469311,0.05111326,14.10246,NaN,NaN,-0.1197152,0.8134555,-2.250274E-07,1.04853,7.187576E-09,1.328019
859.3708,-0.01447258,0.0004069684,NaN,-0.8417276,0.0003922545,NaN,-1.562874,-14.62429,NaN,-1.773347,-1.480339,0.04823906,14.11407,NaN,NaN,-0.1199552,0.8141285,-2.226991E-07,1.064553,1.195595E-08,1.330113
859.3846,-0.0144736,0.0004068343,NaN,-0.8413402,0.0003924534,NaN,-1.563153,-14.62509,NaN,-1.770716,-1.46916,0.04384834,14.10231,NaN,NaN,-0.1203198,0.8130525,-2.178376E-07,1.048295,1.434013E-08,1.331902
859.3984,-0.0144736,0.0004068343,NaN,-0.8413402,0.0003924534,NaN,-1.563153,-14.62509,NaN,-1.770716,-1.46916,0.04384834,14.10231,NaN,NaN,-0.1203198,0.8130525,-2.178376E-07,1.048295,1.434013E-08,1.331902
859.4125,-0.01447475,0.0004069837,NaN,-0.8409057,0.0003918369,NaN,-1.563342,-14.62532,NaN,-1.767819,-1.480057,0.03955162,14.11384,NaN,NaN,-0.1206773,0.8132009,-2.154534E-07,1.064147,1.672432E-08,1.332494
859.4294,-0.014476,0.0004069234,NaN,-0.8404441,0.00039168,NaN,-1.563488,-14.62462,NaN,-1.764811,-1.472632,0.03535368,14.1059,NaN,NaN,-0.1210278,0.8137047,-2.124545E-07,1.053317,1.91085E-08,1.329838
859.4427,-0.01447741,0.0004065439,NaN,-0.8399677,0.0003916862,NaN,-1.563611,-14.62461,NaN,-1.761768,-1.468533,0.03124521,14.10155,NaN,NaN,-0.1213714,0.8135864,-2.095395E-07,1.047346,1.672432E-08,1.325083
859.4575,-0.01447741,0.0004065439,NaN,-0.8399677,0.0003916862,NaN,-1.563611,-14.62461,NaN,-1.761768,-1.468533,0.03124521,14.10155,NaN,NaN,-0.1213714,0.8135864,-2.095395E-07,1.047346,1.672432E-08,1.325083
859.4714,-0.01447918,0.0004062139,NaN,-0.8394151,0.0003907573,NaN,-1.563894,-14.62544,NaN,-1.758155,-1.479917,0.02564706,14.1137,NaN,NaN,-0.1218377,0.813161,-2.041937E-07,1.063948,1.91085E-08,1.332361
859.4869,-0.01448132,0.0004064452,NaN,-0.838818,0.0003897311,NaN,-1.564088,-14.62543,NaN,-1.754291,-1.482536,0.02016933,14.11646,NaN,NaN,-0.1222949,0.8132226,-1.993974E-07,1.067756,1.91085E-08,1.333245
859.5018,-0.01448376,0.000406712,NaN,-0.8381959,0.0003900137,NaN,-1.564238,-14.62418,NaN,-1.750331,-1.473294,0.01481332,14.10654,NaN,NaN,-0.1227431,0.8142712,-1.946104E-07,1.054266,2.149269E-08,1.323945
859.5168,-0.01448376,0.000406712,NaN,-0.8381959,0.0003900137,NaN,-1.564238,-14.62418,NaN,-1.750331,-1.473294,0.01481332,14.10654,NaN,NaN,-0.1227431,0.8142712,-1.946104E-07,1.054266,2.149269E-08,1.323945
859.531,-0.01448666,0.000406774,NaN,-0.837492,0.0003903185,NaN,-1.564524,-14.62434,NaN,-1.745776,-1.47146,0.007998172,14.10461,NaN,NaN,-0.1233119,0.814064,-1.873554E-07,1.051599,1.91085E-08,1.32476
859.5463,-0.01448999,0.0004071036,NaN,-0.8367407,0.0003899275,NaN,-1.564718,-14.62511,NaN,-1.740966,-1.480804,0.001330875,14.1146,NaN,NaN,-0.1238695,0.8135935,-1.805754E-07,1.065237,2.149269E-08,1.331068
859.5612,-0.01449366,0.0004069513,NaN,-0.8359635,0.0003899743,NaN,-1.564867,-14.62415,NaN,-1.736062,-1.46982,-0.005190929,14.10286,NaN,NaN,-0.1244163,0.8143029,-1.737953E-07,1.049216,1.91085E-08,1.322299
859.576,-0.01449366,0.0004069513,NaN,-0.8359635,0.0003899743,NaN,-1.564867,-14.62415,NaN,-1.736062,-1.46982,-0.005190929,14.10286,NaN,NaN,-0.1244163,0.8143029,-1.737953E-07,1.049216,1.91085E-08,1.322299
859.59,-0.01449759,0.000406757,NaN,-0.8351738,0.0003901537,NaN,-1.564989,-14.62474,NaN,-1.731148,-1.46954,-0.01157675,14.10264,NaN,NaN,-0.1249523,0.8137143,-1.674623E-07,1.048834,2.626106E-08,1.324878
859.6053,-0.01450195,0.000407113,NaN,-0.8343106,0.0003897057,NaN,-1.565232,-14.62412,NaN,-1.725689,-1.480485,-0.01939859,14.11412,NaN,NaN,-0.1256072,0.8147084,-1.583726E-07,1.064727,2.387688E-08,1.326656
859.6211,-0.01450669,0.0004069668,NaN,-0.8334059,0.0003896348,NaN,-1.565394,-14.6239,NaN,-1.720005,-1.470393,-0.02705212,14.10339,NaN,NaN,-0.1262492,0.8146946,-1.486869E-07,1.05001,2.149269E-08,1.321612
859.635,-0.01450669,0.0004069668,NaN,-0.8334059,0.0003896348,NaN,-1.565394,-14.6239,NaN,-1.720005,-1.470393,-0.02705212,14.10339,NaN,NaN,-0.1262492,0.8146946,-1.486869E-07,1.05001,2.149269E-08,1.321612
859.6491,-0.01451175,0.000407358,NaN,-0.8324797,0.0003890238,NaN,-1.565513,-14.62414,NaN,-1.71425,-1.48149,-0.03454221,14.11517,NaN,NaN,-0.1268787,0.8148247,-1.385169E-07,1.066184,1.672432E-08,1.326715
859.6644,-0.01451703,0.0004075061,NaN,-0.8315442,0.0003877441,NaN,-1.565606,-14.6235,NaN,-1.708501,-1.483532,-0.04187747,14.11725,NaN,NaN,-0.1274958,0.8155,-1.283841E-07,1.069136,9.57176E-09,1.324257
859.6793,-0.01451703,0.0004075061,NaN,-0.8315442,0.0003877441,NaN,-1.565606,-14.6235,NaN,-1.708501,-1.483532,-0.04187747,14.11725,NaN,NaN,-0.1274958,0.8155,-1.283841E-07,1.069136,9.57176E-09,1.324257
859.6935,-0.01452272,0.0004074487,NaN,-0.830538,0.0003870516,NaN,-1.565795,-14.62382,NaN,-1.702222,-1.475198,-0.0506226,14.10843,NaN,NaN,-0.1282302,0.815008,-1.132594E-07,1.056984,7.187575E-09,1.322653
859.7089,-0.01452879,0.0004075631,NaN,-0.8294926,0.0003872248,NaN,-1.565912,-14.62477,NaN,-1.695731,-1.471996,-0.05918075,14.10513,NaN,NaN,-0.1289502,0.8139672,-9.977383E-08,1.052349,1.195595E-08,1.327091
859.7239,-0.01453515,0.0004077706,NaN,-0.8284277,0.0003879199,NaN,-1.565988,-14.62471,NaN,-1.689182,-1.469369,-0.06755894,14.10233,NaN,NaN,-0.1296561,0.8139391,-8.584124E-08,1.048515,9.57176E-09,1.327668
859.7386,-0.01453515,0.0004077706,NaN,-0.8284277,0.0003879199,NaN,-1.565988,-14.62471,NaN,-1.689182,-1.469369,-0.06755894,14.10233,NaN,NaN,-0.1296561,0.8139391,-8.584124E-08,1.048515,9.57176E-09,1.327668
859.7531,-0.01454131,0.0004074484,NaN,-0.8273559,0.000388119,NaN,-1.56604,-14.62445,NaN,-1.682651,-1.468525,-0.07576484,14.10139,NaN,NaN,-0.1303473,0.814164,-7.25047E-08,1.047267,9.57176E-09,1.322875
859.7684,-0.0145474,0.000406702,NaN,-0.8262846,0.0003880697,NaN,-1.566075,-14.62462,NaN,-1.676175,-1.46737,-0.08380392,14.10018,NaN,NaN,-0.1310249,0.8139528,-5.924267E-08,1.045592,2.419203E-09,1.322358
859.7831,-0.01455344,0.0004061651,NaN,-0.8252185,0.0003883688,NaN,-1.566096,-14.62515,NaN,-1.669773,-1.467216,-0.09168042,14.10009,NaN,NaN,-0.1316893,0.8134114,-4.694921E-08,1.045391,3.501732E-11,1.325433
859.7982,-0.01455344,0.0004061651,NaN,-0.8252185,0.0003883688,NaN,-1.566096,-14.62515,NaN,-1.669773,-1.467216,-0.09168042,14.10009,NaN,NaN,-0.1316893,0.8134114,-4.694921E-08,1.045391,3.501732E-11,1.325433
859.8124,-0.01455947,0.0004063209,NaN,-0.8241603,0.000388137,NaN,-1.566106,-14.62615,NaN,-1.663453,-1.478039,-0.09939808,14.11166,NaN,NaN,-0.1323406,0.8128099,-3.39852E-08,1.061185,-2.349168E-09,1.335032
859.8279,-0.01456529,0.0004061388,NaN,-0.823181,0.0003884574,NaN,-1.56604,-14.62527,NaN,-1.657793,-1.468269,-0.1054177,14.10123,NaN,NaN,-0.1328498,0.8134257,-2.847177E-08,1.046942,-2.349168E-09,1.325746
859.8435,-0.01457088,0.0004067195,NaN,-0.8222548,0.0003883246,NaN,-1.566004,-14.62632,NaN,-1.652495,-1.47959,-0.1113221,14.11333,NaN,NaN,-0.1333491,0.8127728,-2.251131E-08,1.06346,4.803389E-09,1.336371
859.8585,-0.01457088,0.0004067195,NaN,-0.8222548,0.0003883246,NaN,-1.566004,-14.62632,NaN,-1.652495,-1.47959,-0.1113221,14.11333,NaN,NaN,-0.1333491,0.8127728,-2.251131E-08,1.06346,4.803389E-09,1.336371
859.8714,-0.01457625,0.0004070085,NaN,-0.8213656,0.0003885924,NaN,-1.565978,-14.62655,NaN,-1.647415,-1.473609,-0.1171113,14.10703,NaN,NaN,-0.1338385,0.8123989,-1.491172E-08,1.054766,9.57176E-09,1.335688
859.8881,-0.01458145,0.0004074072,NaN,-0.8205031,0.0003883845,NaN,-1.565956,-14.62647,NaN,-1.64248,-1.479615,-0.1227859,14.11335,NaN,NaN,-0.1343184,0.8126599,-7.014101E-09,1.063487,1.195595E-08,1.336965
859.9018,-0.01458632,0.000407367,NaN,-0.8197303,0.0003887239,NaN,-1.565886,-14.62516,NaN,-1.638227,-1.469345,-0.1268125,14.10234,NaN,NaN,-0.1346596,0.8137134,-6.86509E-09,1.048505,1.195595E-08,1.327066
859.9166,-0.01458632,0.000407367,NaN,-0.8197303,0.0003887239,NaN,-1.565886,-14.62516,NaN,-1.638227,-1.469345,-0.1268125,14.10234,NaN,NaN,-0.1346596,0.8137134,-6.86509E-09,1.048505,1.195595E-08,1.327066
859.9308,-0.01459086,0.0004077164,NaN,-0.8190162,0.0003883189,NaN,-1.565841,-14.62564,NaN,-1.634338,-1.480684,-0.1307616,14.11439,NaN,NaN,-0.1349942,0.8136308,-5.07695E-09,1.065024,1.434013E-08,1.333678
859.9464,-0.01459511,0.0004080512,NaN,-0.8183417,0.0003878156,NaN,-1.565807,-14.62665,NaN,-1.630658,-1.480038,-0.1346335,14.11381,NaN,NaN,-0.1353221,0.8125961,-1.202649E-09,1.064114,1.672432E-08,1.337623
859.9614,-0.01459915,0.000407944,NaN,-0.8176945,0.0003878023,NaN,-1.565776,-14.62505,NaN,-1.62711,-1.469987,-0.1384288,14.103,NaN,NaN,-0.1356436,0.8139511,2.671653E-09,1.049441,1.91085E-08,1.327826
859.9762,-0.01459915,0.000407944,NaN,-0.8176945,0.0003878023,NaN,-1.565776,-14.62505,NaN,-1.62711,-1.469987,-0.1384288,14.103,NaN,NaN,-0.1356436,0.8139511,2.671653E-09,1.049441,1.91085E-08,1.327826
859.9904,-0.01460281,0.0004076557,NaN,-0.8171364,0.0003880913,NaN,-1.565715,-14.62557,NaN,-1.624226,-1.467701,-0.1406192,14.10064,NaN,NaN,-0.1358296,0.8133475,-3.586834E-09,1.046132,1.91085E-08,1.327869
860.0057,-0.01460611,0.0004078286,NaN,-0.8166358,0.0003878933,NaN,-1.565672,-14.62681,NaN,-1.621688,-1.477585,-0.1427664,14.11125,NaN,NaN,-0.136012,0.8124703,-6.418055E-09,1.060567,2.149269E-08,1.33763
860.0206,-0.01460912,0.0004082362,NaN,-0.8161729,0.0003873734,NaN,-1.565637,-14.62631,NaN,-1.619341,-1.48166,-0.144871,14.11548,NaN,NaN,-0.1361907,0.8130724,-7.461137E-09,1.066466,2.387687E-08,1.33649
860.0359,-0.01460912,0.0004082362,NaN,-0.8161729,0.0003873734,NaN,-1.565637,-14.62631,NaN,-1.619341,-1.48166,-0.144871,14.11548,NaN,NaN,-0.1361907,0.8130724,-7.461137E-09,1.066466,2.387687E-08,1.33649
860.0497,-0.01461169,0.0004081269,NaN,-0.8158047,0.0003868881,NaN,-1.565582,-14.62528,NaN,-1.61768,-1.474331,-0.1454067,14.1076,NaN,NaN,-0.1362368,0.8139321,-1.818997E-08,1.055766,3.341361E-08,1.329461
860.0671,-0.01461384,0.0004077385,NaN,-0.8154964,0.0003869796,NaN,-1.565542,-14.6255,NaN,-1.616365,-1.467807,-0.1459304,14.10072,NaN,NaN,-0.1362819,0.8135198,-2.549154E-08,1.046272,3.102943E-08,1.327039
860.0807,-0.01461567,0.0004072348,NaN,-0.8152267,0.0003872318,NaN,-1.565508,-14.6256,NaN,-1.615234,-1.466976,-0.146443,14.09984,NaN,NaN,-0.1363261,0.8133892,-3.085596E-08,1.045063,2.864524E-08,1.327693
860.0947,-0.01461567,0.0004072348,NaN,-0.8152267,0.0003872318,NaN,-1.565508,-14.6256,NaN,-1.615234,-1.466976,-0.146443,14.09984,NaN,NaN,-0.1363261,0.8133892,-3.085596E-08,1.045063,2.864524E-08,1.327693
860.1087,-0.01461724,0.0004071706,NaN,-0.8149819,0.0003873711,NaN,-1.565478,-14.62668,NaN,-1.614202,-1.472245,-0.1469449,14.10555,NaN,NaN,-0.1363694,0.8125146,-3.562433E-08,1.052779,2.864524E-08,1.336125
860.1243,-0.01461841,0.0004070104,NaN,-0.8148229,0.0003878493,NaN,-1.56543,-14.62585,NaN,-1.613801,-1.467271,-0.1459108,14.10018,NaN,NaN,-0.1362827,0.8131812,-5.156857E-08,1.045508,3.341361E-08,1.329654
860.1389,-0.01461841,0.0004070104,NaN,-0.8148229,0.0003878493,NaN,-1.56543,-14.62585,NaN,-1.613801,-1.467271,-0.1459108,14.10018,NaN,NaN,-0.1362827,0.8131812,-5.156857E-08,1.045508,3.341361E-08,1.329654
860.1531,-0.01461931,0.0004069267,NaN,-0.8147175,0.0003883073,NaN,-1.565391,-14.62635,NaN,-1.613711,-1.468209,-0.1448945,14.10123,NaN,NaN,-0.1361977,0.81272,-6.304246E-08,1.046893,3.341361E-08,1.333814
860.1685,-0.01462005,0.0004073888,NaN,-0.8146458,0.0003880194,NaN,-1.565357,-14.6261,NaN,-1.613777,-1.480635,-0.1438968,14.11431,NaN,NaN,-0.1361143,0.8134042,-7.183415E-08,1.064941,2.864524E-08,1.33505
860.1833,-0.01462072,0.0004075947,NaN,-0.814595,0.0003887475,NaN,-1.565324,-14.62683,NaN,-1.613919,-1.469729,-0.1429178,14.10285,NaN,NaN,-0.1360325,0.8124313,-8.002979E-08,1.04909,2.626106E-08,1.338066
860.1984,-0.01462072,0.0004075947,NaN,-0.814595,0.0003887475,NaN,-1.565324,-14.62683,NaN,-1.613919,-1.469729,-0.1429178,14.10285,NaN,NaN,-0.1360325,0.8124313,-8.002979E-08,1.04909,2.626106E-08,1.338066
860.2127,-0.01462122,0.0004074578,NaN,-0.8146253,0.0003891699,NaN,-1.565273,-14.62561,NaN,-1.614675,-1.467481,-0.1404312,14.1003,NaN,NaN,-0.1358232,0.8135568,-9.94013E-08,1.04576,2.387687E-08,1.326959
860.2281,-0.0146216,0.0004075323,NaN,-0.8147054,0.0003889533,NaN,-1.565229,-14.62701,NaN,-1.615723,-1.476627,-0.1379903,14.11016,NaN,NaN,-0.1356179,0.8125029,-1.128124E-07,1.059138,2.626106E-08,1.338109
860.2429,-0.0146219,0.0004077038,NaN,-0.8148159,0.0003891814,NaN,-1.565188,-14.62711,NaN,-1.616909,-1.473596,-0.1355954,14.10697,NaN,NaN,-0.1354166,0.8123197,-1.241372E-07,1.054734,1.91085E-08,1.338041
860.2577,-0.0146219,0.0004077038,NaN,-0.8148159,0.0003891814,NaN,-1.565188,-14.62711,NaN,-1.616909,-1.473596,-0.1355954,14.10697,NaN,NaN,-0.1354166,0.8123197,-1.241372E-07,1.054734,1.91085E-08,1.338041
860.2724,-0.01462203,0.0004076813,NaN,-0.815014,0.0003898005,NaN,-1.565125,-14.62584,NaN,-1.618728,-1.467706,-0.1317185,14.10059,NaN,NaN,-0.13509,0.8133985,-1.445518E-07,1.046117,1.434013E-08,1.329023
860.2872,-0.01462202,0.0004077874,NaN,-0.8152652,0.000389621,NaN,-1.565069,-14.62718,NaN,-1.620843,-1.477152,-0.127914,14.11075,NaN,NaN,-0.1347698,0.8124085,-1.610176E-07,1.059926,9.571757E-09,1.338985
860.303,-0.01462194,0.0004075608,NaN,-0.8155482,0.0003898395,NaN,-1.565014,-14.62614,NaN,-1.62309,-1.468838,-0.1241818,14.10184,NaN,NaN,-0.1344559,0.8132266,-1.745777E-07,1.0478,1.434013E-08,1.330722
860.3169,-0.01462194,0.0004075608,NaN,-0.8155482,0.0003898395,NaN,-1.565014,-14.62614,NaN,-1.62309,-1.468838,-0.1241818,14.10184,NaN,NaN,-0.1344559,0.8132266,-1.745777E-07,1.0478,1.434013E-08,1.330722
860.3313,-0.0146218,0.0004079168,NaN,-0.8158494,0.0003895388,NaN,-1.564958,-14.62677,NaN,-1.625386,-1.480104,-0.1205211,14.11383,NaN,NaN,-0.1341481,0.8129937,-1.864986E-07,1.064212,1.672431E-08,1.337392
860.3466,-0.0146215,0.000408238,NaN,-0.8162299,0.0003888568,NaN,-1.564871,-14.62714,NaN,-1.628265,-1.481381,-0.1153994,14.11521,NaN,NaN,-0.1337171,0.812653,-2.068387E-07,1.06608,1.434013E-08,1.338745
860.3643,-0.01462108,0.0004082123,NaN,-0.8166575,0.0003887669,NaN,-1.564791,-14.62549,NaN,-1.631405,-1.471963,-0.1103748,14.10507,NaN,NaN,-0.1332945,0.8140914,-2.226339E-07,1.052329,9.571758E-09,1.327648
860.3776,-0.01462108,0.0004082123,NaN,-0.8166575,0.0003887669,NaN,-1.564791,-14.62549,NaN,-1.631405,-1.471963,-0.1103748,14.10507,NaN,NaN,-0.1332945,0.8140914,-2.226339E-07,1.052329,9.571758E-09,1.327648
860.3903,-0.01462058,0.0004079629,NaN,-0.8171123,0.0003888319,NaN,-1.564712,-14.62616,NaN,-1.634653,-1.469432,-0.1054463,14.10247,NaN,NaN,-0.1328802,0.813357,-2.37088E-07,1.048673,1.195594E-08,1.328905
860.4058,-0.01462003,0.0004079761,NaN,-0.8175819,0.0003881188,NaN,-1.564632,-14.62659,NaN,-1.637931,-1.480299,-0.1006123,14.11401,NaN,NaN,-0.132474,0.8133058,-2.49605E-07,1.0645,7.187572E-09,1.335147
860.4207,-0.01461932,0.000407757,NaN,-0.8181278,0.0003882059,NaN,-1.564507,-14.62552,NaN,-1.641774,-1.469445,-0.09433483,14.10241,NaN,NaN,-0.1319465,0.8141178,-2.69647E-07,1.048668,3.50151E-11,1.326975
860.4358,-0.01461932,0.000407757,NaN,-0.8181278,0.0003882059,NaN,-1.564507,-14.62552,NaN,-1.641774,-1.469445,-0.09433483,14.10241,NaN,NaN,-0.1319465,0.8141178,-2.69647E-07,1.048668,3.50151E-11,1.326975
860.4498,-0.01461849,0.0004074972,NaN,-0.8187183,0.0003884208,NaN,-1.564393,-14.62621,NaN,-1.645863,-1.469081,-0.08817763,14.10211,NaN,NaN,-0.1314293,0.8134256,-2.855168E-07,1.048169,-2.349171E-09,1.329602
860.4654,-0.01461758,0.0004080166,NaN,-0.8193337,0.0003884157,NaN,-1.56428,-14.62679,NaN,-1.650046,-1.477967,-0.08213867,14.11157,NaN,NaN,-0.1309222,0.8131554,-2.993004E-07,1.061121,-2.349171E-09,1.335835
860.4801,-0.01461662,0.000408004,NaN,-0.8199617,0.0003887921,NaN,-1.564165,-14.62572,NaN,-1.654244,-1.468814,-0.07621568,14.10176,NaN,NaN,-0.1304251,0.8139926,-3.112213E-07,1.047763,-7.117542E-09,1.327372
860.4953,-0.01461662,0.000408004,NaN,-0.8199617,0.0003887921,NaN,-1.564165,-14.62572,NaN,-1.654244,-1.468814,-0.07621568,14.10176,NaN,NaN,-0.1304251,0.8139926,-3.112213E-07,1.047763,-7.117542E-09,1.327372
860.5089,-0.0146155,0.0004083798,NaN,-0.8206639,0.0003887315,NaN,-1.56399,-14.62705,NaN,-1.658994,-1.477559,-0.06886341,14.11119,NaN,NaN,-0.1298084,0.8129836,-3.284321E-07,1.060557,-7.117542E-09,1.337223
860.5266,-0.01461418,0.0004090662,NaN,-0.8214089,0.0003883531,NaN,-1.563829,-14.62578,NaN,-1.663977,-1.482656,-0.06165338,14.11642,NaN,NaN,-0.1292038,0.8143796,-3.419549E-07,1.067922,-1.188591E-08,1.331351
860.5401,-0.01461262,0.0004089736,NaN,-0.8221768,0.0003880995,NaN,-1.563671,-14.62501,NaN,-1.669039,-1.471382,-0.05458245,14.10438,NaN,NaN,-0.1286111,0.8149152,-3.529445E-07,1.051474,-1.42701E-08,1.326199
860.554,-0.01461262,0.0004089736,NaN,-0.8221768,0.0003880995,NaN,-1.563671,-14.62501,NaN,-1.669039,-1.471382,-0.05458245,14.10438,NaN,NaN,-0.1286111,0.8149152,-3.529445E-07,1.051474,-1.42701E-08,1.326199
860.568,-0.01461067,0.0004089728,NaN,-0.8230247,0.0003879635,NaN,-1.563438,-14.62488,NaN,-1.674678,-1.473825,-0.04609851,14.10695,NaN,NaN,-0.1279006,0.8151349,-3.680319E-07,1.05503,-1.665429E-08,1.324455
860.5834,-0.01460833,0.0004084463,NaN,-0.8239183,0.0003877491,NaN,-1.563224,-14.62471,NaN,-1.680557,-1.469133,-0.03777938,14.10195,NaN,NaN,-0.1272041,0.8151661,-3.78798E-07,1.048186,-1.665429E-08,1.320287
860.5981,-0.01460833,0.0004084463,NaN,-0.8239183,0.0003877491,NaN,-1.563224,-14.62471,NaN,-1.680557,-1.469133,-0.03777938,14.10195,NaN,NaN,-0.1272041,0.8151661,-3.78798E-07,1.048186,-1.665429E-08,1.320287
860.6125,-0.01460569,0.0004074232,NaN,-0.824836,0.0003867651,NaN,-1.563014,-14.62536,NaN,-1.686512,-1.467622,-0.02962102,14.10044,NaN,NaN,-0.1265212,0.8144804,-3.88074E-07,1.046019,-1.903847E-08,1.321783
860.628,-0.01460281,0.0004071405,NaN,-0.8257644,0.0003856005,NaN,-1.562803,-14.62567,NaN,-1.692463,-1.479967,-0.02161935,14.11356,NaN,NaN,-0.1258518,0.8146262,-3.961206E-07,1.064014,-1.903847E-08,1.330223
860.6428,-0.01459955,0.0004073979,NaN,-0.8267646,0.00038447,NaN,-1.562491,-14.62558,NaN,-1.698943,-1.482545,-0.01221336,14.11628,NaN,NaN,-0.1250661,0.8147773,-4.071475E-07,1.06777,-1.665429E-08,1.330884
860.6575,-0.01459955,0.0004073979,NaN,-0.8267646,0.00038447,NaN,-1.562491,-14.62558,NaN,-1.698943,-1.482545,-0.01221336,14.11628,NaN,NaN,-0.1250661,0.8147773,-4.071475E-07,1.06777,-1.665429E-08,1.330884
860.672,-0.01459593,0.0004073894,NaN,-0.8278047,0.00038463,NaN,-1.562205,-14.62477,NaN,-1.705633,-1.469826,-0.002991227,14.1027,NaN,NaN,-0.1242958,0.8153247,-4.142535E-07,1.049206,-9.501727E-09,1.323253
860.6872,-0.01459203,0.0004072247,NaN,-0.8288646,0.0003849746,NaN,-1.561927,-14.6252,NaN,-1.712379,-1.467715,0.006051512,14.10051,NaN,NaN,-0.1235406,0.8148299,-4.191709E-07,1.046149,-1.42701E-08,1.324997
860.7019,-0.01458791,0.0004072688,NaN,-0.8299321,0.0003843616,NaN,-1.56165,-14.62567,NaN,-1.719105,-1.480177,0.01492011,14.11378,NaN,NaN,-0.1228003,0.8148174,-4.213013E-07,1.064327,-7.117542E-09,1.329461
860.7169,-0.01458791,0.0004072688,NaN,-0.8299321,0.0003843616,NaN,-1.56165,-14.62567,NaN,-1.719105,-1.480177,0.01492011,14.11378,NaN,NaN,-0.1228003,0.8148174,-4.213013E-07,1.064327,-7.117542E-09,1.329461
860.7309,-0.01458602,0.0004075387,NaN,-0.830168,0.0003842297,NaN,-1.562906,-14.62671,NaN,-1.718886,-1.477125,0.004816066,14.11066,NaN,NaN,-0.123626,0.8137114,-3.823906E-07,1.059911,-9.501727E-09,1.33586
860.7464,-0.01458613,0.0004075332,NaN,-0.8298913,0.0003848399,NaN,-1.563555,-14.62528,NaN,-1.715302,-1.468006,-0.004989691,14.10083,NaN,NaN,-0.1244355,0.8148977,-3.58437E-07,1.046581,-2.34917E-09,1.325915
860.7633,-0.01458725,0.0004072837,NaN,-0.8292994,0.0003852314,NaN,-1.563917,-14.62532,NaN,-1.710077,-1.467098,-0.01451363,14.09986,NaN,NaN,-0.1252291,0.8148208,-3.376499E-07,1.045258,-4.733356E-09,1.323657
860.7769,-0.01458725,0.0004072837,NaN,-0.8292994,0.0003852314,NaN,-1.563917,-14.62532,NaN,-1.710077,-1.467098,-0.01451363,14.09986,NaN,NaN,-0.1252291,0.8148208,-3.376499E-07,1.045258,-4.733356E-09,1.323657
860.7911,-0.01458902,0.0004069379,NaN,-0.828585,0.0003856438,NaN,-1.564025,-14.6255,NaN,-1.704643,-1.466532,-0.02224551,14.09928,NaN,NaN,-0.1258778,0.8146242,-3.236428E-07,1.044441,-7.117542E-09,1.324633
860.8054,-0.01459144,0.0004062089,NaN,-0.827798,0.0003851829,NaN,-1.564122,-14.62626,NaN,-1.699131,-1.472255,-0.02981575,14.10545,NaN,NaN,-0.1265138,0.8140827,-3.10418E-07,1.052815,-4.733356E-09,1.331023
860.8214,-0.01459439,0.0004057336,NaN,-0.8269699,0.0003855976,NaN,-1.564209,-14.62622,NaN,-1.693614,-1.467271,-0.03723366,14.10016,NaN,NaN,-0.1271373,0.8139581,-2.980873E-07,1.045554,-4.733356E-09,1.329638
860.835,-0.01459439,0.0004057336,NaN,-0.8269699,0.0003855976,NaN,-1.564209,-14.62622,NaN,-1.693614,-1.467271,-0.03723366,14.10016,NaN,NaN,-0.1271373,0.8139581,-2.980873E-07,1.045554,-4.733356E-09,1.329638
860.8491,-0.01459773,0.0004058768,NaN,-0.82612,0.0003852087,NaN,-1.564284,-14.62669,NaN,-1.688131,-1.479856,-0.04450233,14.11353,NaN,NaN,-0.1277485,0.8139561,-2.860918E-07,1.063894,-2.34917E-09,1.336732
860.8647,-0.01460117,0.0004057234,NaN,-0.8253298,0.0003855039,NaN,-1.564256,-14.62589,NaN,-1.683275,-1.469051,-0.05007047,14.102,NaN,NaN,-0.1282185,0.8144838,-2.793118E-07,1.048131,2.419201E-09,1.327645
860.8796,-0.01460117,0.0004057234,NaN,-0.8253298,0.0003855039,NaN,-1.564256,-14.62589,NaN,-1.683275,-1.469051,-0.05007047,14.102,NaN,NaN,-0.1282185,0.8144838,-2.793118E-07,1.048131,2.419201E-09,1.327645
860.8937,-0.0146046,0.0004053495,NaN,-0.8245801,0.0003855253,NaN,-1.564267,-14.62614,NaN,-1.678757,-1.469981,-0.05553572,14.10301,NaN,NaN,-0.1286792,0.8142664,-2.708927E-07,1.049494,2.419201E-09,1.327993
860.9091,-0.01460796,0.0004056491,NaN,-0.8238586,0.0003854494,NaN,-1.564293,-14.62715,NaN,-1.674439,-1.477351,-0.06089685,14.11094,NaN,NaN,-0.129131,0.8135042,-2.62399E-07,1.060272,7.187573E-09,1.338241
