JMolnar6/NonAnthroHands_User_Study/HandsLoggerWithURDF/tempdata/PID 0 (test)/files/Reachy_PID0_JointMotion_gesture_10_4.csv
Time,r_shoulder,r_shoulder_x,r_upper_arm,r_forearm,r_wrist,r_wrist2hand,
929.6915,0.06781866,-0.5794194,-0.2852045,-0.8266392,0.4970354,-0.48397
929.7045,0.06811507,-0.5794132,-0.285094,-0.8265097,0.4970732,-0.483969
929.7192,0.06811507,-0.5794132,-0.285094,-0.8265097,0.4970732,-0.483969
929.7349,0.06840792,-0.579407,-0.2849842,-0.8263817,0.4971103,-0.483968
929.7482,0.06869726,-0.579401,-0.284875,-0.8262553,0.4971468,-0.4839671
929.7631,0.06898312,-0.579395,-0.2847664,-0.8261304,0.4971825,-0.4839661
929.7782,0.06898312,-0.579395,-0.2847664,-0.8261304,0.4971825,-0.4839661
929.7916,0.06926555,-0.5793891,-0.2846585,-0.8260069,0.4972177,-0.4839652
929.8071,0.06954459,-0.5793833,-0.2845512,-0.825885,0.4972522,-0.4839643
929.8217,0.06982028,-0.5793775,-0.2844445,-0.8257645,0.4972861,-0.4839635
929.8366,0.06982028,-0.5793775,-0.2844445,-0.8257645,0.4972861,-0.4839635
929.8508,0.07009267,-0.5793719,-0.2843384,-0.8256455,0.4973193,-0.4839626
929.866,0.07036179,-0.5793663,-0.284233,-0.8255279,0.497352,-0.4839618
929.881,0.07062767,-0.5793608,-0.2841282,-0.8254117,0.4973841,-0.483961
929.8959,0.07062767,-0.5793608,-0.2841282,-0.8254117,0.4973841,-0.483961
929.9099,0.07089036,-0.5793554,-0.284024,-0.8252969,0.4974155,-0.4839602
929.9254,0.0711499,-0.57935,-0.2839205,-0.8251835,0.4974464,-0.4839594
929.9398,0.0711499,-0.57935,-0.2839205,-0.8251835,0.4974464,-0.4839594
929.9539,0.07140633,-0.5793447,-0.2838176,-0.8250714,0.4974768,-0.4839586
929.9694,0.07165968,-0.5793396,-0.2837153,-0.8249606,0.4975066,-0.4839579
929.9848,0.07190998,-0.5793344,-0.2836137,-0.8248513,0.4975358,-0.4839571
929.9987,0.07190998,-0.5793344,-0.2836137,-0.8248513,0.4975358,-0.4839571
930.0127,0.07215728,-0.5793294,-0.2835127,-0.8247432,0.4975645,-0.4839564
930.0281,0.07240161,-0.5793244,-0.2834124,-0.8246365,0.4975927,-0.4839557
930.0428,0.07264301,-0.5793195,-0.2833126,-0.824531,0.4976204,-0.4839551
930.0573,0.07264301,-0.5793195,-0.2833126,-0.824531,0.4976204,-0.4839551
930.0713,0.07288151,-0.5793146,-0.2832136,-0.8244267,0.4976475,-0.4839544
930.0869,0.07311715,-0.5793099,-0.2831151,-0.8243237,0.4976742,-0.4839537
930.1014,0.07334996,-0.5793052,-0.2830174,-0.824222,0.4977003,-0.4839531
930.1162,0.07334996,-0.5793052,-0.2830174,-0.824222,0.4977003,-0.4839531
930.1305,0.07357997,-0.5793005,-0.2829202,-0.8241215,0.497726,-0.4839525
930.1458,0.07380723,-0.5792959,-0.2828237,-0.8240222,0.4977512,-0.4839519
930.1605,0.07403176,-0.5792914,-0.2827278,-0.8239241,0.497776,-0.4839513
930.1754,0.07403176,-0.5792914,-0.2827278,-0.8239241,0.497776,-0.4839513
930.1893,0.0742536,-0.5792869,-0.2826326,-0.8238271,0.4978003,-0.4839507
930.2046,0.07447277,-0.5792825,-0.282538,-0.8237314,0.4978241,-0.4839502
930.2195,0.07447277,-0.5792825,-0.282538,-0.8237314,0.4978241,-0.4839502
930.2356,0.07468931,-0.5792782,-0.282444,-0.8236368,0.4978475,-0.4839496
930.25,0.07490326,-0.5792739,-0.2823507,-0.8235433,0.4978704,-0.4839491
930.2634,0.07511463,-0.5792696,-0.282258,-0.823451,0.497893,-0.4839485
930.2781,0.07511463,-0.5792696,-0.282258,-0.823451,0.497893,-0.4839485
930.2922,0.07532347,-0.5792655,-0.282166,-0.8233598,0.4979151,-0.483948
930.3077,0.0755298,-0.5792614,-0.2820746,-0.8232697,0.4979368,-0.4839475
930.3221,0.07573365,-0.5792573,-0.2819838,-0.8231806,0.4979581,-0.483947
930.3369,0.07573365,-0.5792573,-0.2819838,-0.8231806,0.4979581,-0.483947
930.3511,0.07593506,-0.5792533,-0.2818936,-0.8230926,0.497979,-0.4839465
930.3666,0.07613405,-0.5792494,-0.2818041,-0.8230057,0.4979994,-0.4839461
930.3813,0.07633065,-0.5792455,-0.2817152,-0.8229199,0.4980195,-0.4839456
930.3961,0.07633065,-0.5792455,-0.2817152,-0.8229199,0.4980195,-0.4839456
930.4102,0.07652489,-0.5792417,-0.281627,-0.8228351,0.4980393,-0.4839452
930.4257,0.0767168,-0.5792379,-0.2815394,-0.8227513,0.4980586,-0.4839447
930.4406,0.07690641,-0.5792342,-0.2814524,-0.8226685,0.4980776,-0.4839443
930.455,0.07690641,-0.5792342,-0.2814524,-0.8226685,0.4980776,-0.4839443
930.4691,0.07709374,-0.5792306,-0.281366,-0.8225867,0.4980962,-0.4839439
930.4844,0.07727882,-0.579227,-0.2812802,-0.822506,0.4981145,-0.4839435
930.5003,0.07746168,-0.5792234,-0.2811951,-0.8224261,0.4981324,-0.4839431
930.5139,0.07746168,-0.5792234,-0.2811951,-0.8224261,0.4981324,-0.4839431
930.528,0.07764235,-0.5792199,-0.2811106,-0.8223473,0.49815,-0.4839427
930.5433,0.07782085,-0.5792164,-0.2810267,-0.8222694,0.4981672,-0.4839423
930.558,0.07782085,-0.5792164,-0.2810267,-0.8222694,0.4981672,-0.4839423
930.5721,0.07799721,-0.579213,-0.2809434,-0.8221924,0.4981842,-0.4839419
930.5874,0.07817145,-0.5792096,-0.2808607,-0.8221164,0.4982008,-0.4839416
930.602,0.07834359,-0.5792063,-0.2807787,-0.8220413,0.498217,-0.4839412
930.6168,0.07834359,-0.5792063,-0.2807787,-0.8220413,0.498217,-0.4839412
930.6309,0.07851367,-0.579203,-0.2806972,-0.8219671,0.498233,-0.4839408
930.6465,0.07868171,-0.5791998,-0.2806164,-0.8218938,0.4982487,-0.4839405
930.6613,0.07884774,-0.5791966,-0.2805362,-0.8218213,0.498264,-0.4839402
930.676,0.07884774,-0.5791966,-0.2805362,-0.8218213,0.498264,-0.4839402
930.6898,0.07901177,-0.5791935,-0.2804565,-0.8217498,0.4982791,-0.4839399
930.7064,0.07951457,-0.5791768,-0.2810163,-0.8217271,0.4989312,-0.4838936
930.72,0.08022353,-0.5791522,-0.2817017,-0.8216466,0.4996573,-0.4838481
930.7347,0.08022353,-0.5791522,-0.2817017,-0.8216466,0.4996573,-0.4838481
930.7507,0.08105611,-0.579123,-0.2824144,-0.8215157,0.5003998,-0.4838035
930.7652,0.08196096,-0.5790912,-0.2831213,-0.8213477,0.5011452,-0.4837598
930.7789,0.08196096,-0.5790912,-0.2831213,-0.8213477,0.5011452,-0.4837598
930.7927,0.08256544,-0.5790717,-0.283172,-0.821107,0.501251,-0.483763
930.8082,0.08298241,-0.5790595,-0.2830745,-0.8209093,0.5012729,-0.4837662
930.8226,0.08328212,-0.5790519,-0.2829281,-0.8207535,0.5012671,-0.4837694
930.8374,0.08328212,-0.5790519,-0.2829281,-0.8207535,0.5012671,-0.4837694
930.8514,0.08316887,-0.5790592,-0.2821302,-0.8205833,0.5006112,-0.4838185
930.8667,0.08280203,-0.5790755,-0.2812067,-0.8204952,0.4998709,-0.4838667
930.8815,0.08228081,-0.5790969,-0.2802624,-0.820474,0.4991089,-0.483914
930.8963,0.08228081,-0.5790969,-0.2802624,-0.820474,0.4991089,-0.483914
930.9103,0.08166697,-0.5791211,-0.2793317,-0.8205009,0.4983415,-0.4839603
930.9258,0.08065818,-0.5791603,-0.2777881,-0.8205119,0.4969408,-0.4840516
930.9404,0.07941099,-0.5792082,-0.2761477,-0.8206029,0.4954723,-0.4841412
930.955,0.07941099,-0.5792082,-0.2761477,-0.8206029,0.4954723,-0.4841412
930.9693,0.07802279,-0.5792607,-0.2745086,-0.8207583,0.4939969,-0.484229
930.9847,0.07655413,-0.5793156,-0.2729011,-0.8209596,0.4925298,-0.4843151
930.9991,0.07655413,-0.5793156,-0.2729011,-0.8209596,0.4925298,-0.4843151
931.0153,0.07470185,-0.5793851,-0.2706949,-0.8211427,0.4904383,-0.4844454
931.0295,0.07262199,-0.5794626,-0.2684086,-0.8214039,0.4882928,-0.4845732
931.0434,0.07041159,-0.5795442,-0.2661383,-0.8217281,0.4861526,-0.4846985
931.0578,0.07041159,-0.5795442,-0.2661383,-0.8217281,0.4861526,-0.4846985
931.0718,0.06779008,-0.5796412,-0.263271,-0.8220477,0.4833875,-0.4848672
931.0873,0.06492764,-0.5797463,-0.2603377,-0.8224552,0.4805771,-0.4850327
931.1017,0.06192997,-0.5798553,-0.2574364,-0.8229318,0.4777814,-0.485195
931.1165,0.06192997,-0.5798553,-0.2574364,-0.8229318,0.4777814,-0.485195
931.1304,0.0588627,-0.5799659,-0.2545972,-0.823456,0.4750158,-0.4853539
931.146,0.05542565,-0.5800903,-0.2511826,-0.8239614,0.4716351,-0.4855556
931.1606,0.05177678,-0.5802216,-0.2477213,-0.824544,0.468227,-0.4857535
931.1757,0.05177678,-0.5802216,-0.2477213,-0.824544,0.468227,-0.4857535
931.1896,0.04801419,-0.5803559,-0.244305,-0.8251878,0.464847,-0.4859474
931.2048,0.04419867,-0.5804912,-0.2409614,-0.8258738,0.4615087,-0.4861374
931.2197,0.04419867,-0.5804912,-0.2409614,-0.8258738,0.4615087,-0.4861374
931.2336,0.04002693,-0.5806397,-0.2370484,-0.8265361,0.4575561,-0.4863696
931.2493,0.0356551,-0.5807946,-0.2331026,-0.8272724,0.4535902,-0.4865973
931.2635,0.03118001,-0.5809521,-0.229213,-0.8280674,0.4496631,-0.4868205
931.2806,0.02666168,-0.5811101,-0.2254066,-0.8289026,0.4457875,-0.4870392
931.2944,0.02666168,-0.5811101,-0.2254066,-0.8289026,0.4457875,-0.4870392
931.3083,0.02179617,-0.5812809,-0.2210366,-0.8297116,0.4412958,-0.4872995
931.3223,0.01673929,-0.5814578,-0.2166484,-0.8305927,0.4368049,-0.4875547
931.337,0.01673929,-0.5814578,-0.2166484,-0.8305927,0.4368049,-0.4875547
931.351,0.01158766,-0.5816368,-0.2123277,-0.831531,0.432363,-0.4878049
931.3668,0.006059983,-0.5818295,-0.2074424,-0.8324563,0.4272986,-0.488096
931.3812,0.0003262423,-0.5820283,-0.2025528,-0.8334632,0.4222447,-0.4883814
931.3958,0.0003262423,-0.5820283,-0.2025528,-0.8334632,0.4222447,-0.4883814
931.41,-0.005508221,-0.5822291,-0.1977449,-0.8345334,0.4172482,-0.4886611
931.4253,-0.01137824,-0.5824297,-0.1930447,-0.835646,0.4123214,-0.4889352
931.4402,-0.01758477,-0.5826427,-0.1877958,-0.8367314,0.4067736,-0.4892498
931.4547,-0.01758477,-0.5826427,-0.1877958,-0.8367314,0.4067736,-0.4892498
931.4687,-0.02396998,-0.5828609,-0.18256,-0.8378877,0.4012543,-0.4895582
931.4841,-0.03043611,-0.5830806,-0.1774155,-0.8390997,0.3958039,-0.4898605
931.499,-0.03043611,-0.5830806,-0.1774155,-0.8390997,0.3958039,-0.4898605
931.5131,-0.03726402,-0.5833133,-0.1717195,-0.8402954,0.3897254,-0.4902027
931.5281,-0.04428327,-0.5835513,-0.1660491,-0.8415701,0.3836858,-0.4905381
931.545,-0.05138835,-0.5837905,-0.1604824,-0.8429056,0.3777235,-0.4908669
931.5587,-0.05138835,-0.5837905,-0.1604824,-0.8429056,0.3777235,-0.4908669
931.5726,-0.05851408,-0.584029,-0.1550432,-0.8442815,0.3718491,-0.4911891
931.5869,-0.06596173,-0.5842793,-0.1490657,-0.8456267,0.3653456,-0.4915507
931.6013,-0.07357337,-0.5845342,-0.1431289,-0.8470399,0.3588983,-0.4919053
931.6176,-0.07357337,-0.5845342,-0.1431289,-0.8470399,0.3588983,-0.4919053
931.6302,-0.08125135,-0.5847898,-0.1373034,-0.8485064,0.352539,-0.4922528
931.6456,-0.08893541,-0.5850442,-0.1316113,-0.850008,0.3462766,-0.4925933
931.6603,-0.09693004,-0.5853103,-0.1253819,-0.8514746,0.3393785,-0.492973
931.6751,-0.09693004,-0.5853103,-0.1253819,-0.8514746,0.3393785,-0.492973
931.689,-0.1050792,-0.5855806,-0.1192038,-0.8530062,0.3325504,-0.4933452
931.7045,-0.1132864,-0.5858516,-0.1131439,-0.8545889,0.3258192,-0.49371
931.7193,-0.1132864,-0.5858516,-0.1131439,-0.8545889,0.3258192,-0.49371
931.7333,-0.1218338,-0.5861347,-0.1065451,-0.8561499,0.3184449,-0.4941133
931.7487,-0.1305514,-0.5864223,-0.1000099,-0.8577853,0.3111508,-0.4945087
931.7635,-0.1393341,-0.5867103,-0.09360433,-0.8594782,0.3039618,-0.4948962
931.7784,-0.1393341,-0.5867103,-0.09360433,-0.8594782,0.3039618,-0.4948962
931.7925,-0.1481171,-0.5869968,-0.08734965,-0.8612088,0.2968856,-0.495276
931.8088,-0.1572024,-0.5872945,-0.08056822,-0.8629048,0.2891637,-0.4956941
931.8227,-0.1664321,-0.5875959,-0.07386217,-0.8646652,0.281537,-0.4961039
931.837,-0.1664321,-0.5875959,-0.07386217,-0.8646652,0.281537,-0.4961039
931.8508,-0.1757088,-0.5878974,-0.06729138,-0.8664761,0.2740248,-0.4965055
931.8661,-0.1849724,-0.5881971,-0.06087516,-0.8683201,0.2666333,-0.4968992
931.8809,-0.1945281,-0.5885078,-0.0539332,-0.8701262,0.2585895,-0.4973308
931.8955,-0.1945281,-0.5885078,-0.0539332,-0.8701262,0.2585895,-0.4973308
931.9096,-0.2042198,-0.5888222,-0.04707402,-0.871994,0.2506525,-0.4977539
931.925,-0.2139511,-0.5891364,-0.04035483,-0.8739105,0.2428377,-0.4981686
931.9397,-0.2139511,-0.5891364,-0.04035483,-0.8739105,0.2428377,-0.4981686
931.9537,-0.2240048,-0.5894623,-0.03310966,-0.8758028,0.234365,-0.4986208
931.9692,-0.2342108,-0.5897919,-0.02595728,-0.8777663,0.2260082,-0.4990641
931.9839,-0.2444641,-0.5901212,-0.018955,-0.8797853,0.2177814,-0.4994985
931.9985,-0.2444641,-0.5901212,-0.018955,-0.8797853,0.2177814,-0.4994985
932.0129,-0.2547002,-0.5904484,-0.01212101,-0.8818409,0.2096901,-0.4999244
932.0284,-0.2652216,-0.5907864,-0.004771653,-0.8838608,0.2009377,-0.5003875
932.0431,-0.2758704,-0.5911275,0.002477121,-0.8859425,0.1923124,-0.5008414
932.0575,-0.2758704,-0.5911275,0.002477121,-0.8859425,0.1923124,-0.5008414
932.0735,-0.2865492,-0.5914681,0.00957275,-0.8880732,0.1838253,-0.5012864
932.0878,-0.2971982,-0.5918064,0.01649854,-0.8902364,0.1754801,-0.5017225
932.1015,-0.3081232,-0.5921554,0.02393894,-0.8923613,0.1664674,-0.5021958
932.1161,-0.3081232,-0.5921554,0.02393894,-0.8923613,0.1664674,-0.5021958
932.1301,-0.3191679,-0.5925074,0.03127468,-0.894546,0.1575906,-0.5026596
932.1455,-0.3302361,-0.5928588,0.03845465,-0.8967785,0.1488586,-0.5031143
932.1602,-0.3412687,-0.5932078,0.04546269,-0.8990428,0.1402743,-0.5035599
932.175,-0.3412687,-0.5932078,0.04546269,-0.8990428,0.1402743,-0.5035599
932.1888,-0.3525721,-0.5935674,0.05298346,-0.9012693,0.1310162,-0.5040424
932.2041,-0.3639904,-0.5939299,0.06039535,-0.9035548,0.1219018,-0.5045155
932.219,-0.3639904,-0.5939299,0.06039535,-0.9035548,0.1219018,-0.5045155
932.233,-0.3754274,-0.5942916,0.06764863,-0.905888,0.1129384,-0.5049791
932.2489,-0.3871669,-0.5946645,0.07541371,-0.9081976,0.1032975,-0.5054793
932.263,-0.3990387,-0.5950403,0.08306207,-0.9105765,0.09380817,-0.5059695
932.278,-0.3990387,-0.5950403,0.08306207,-0.9105765,0.09380817,-0.5059695
932.2922,-0.4109377,-0.5954151,0.0905434,-0.9130102,0.08447736,-0.5064501
932.3074,-0.4227997,-0.5957873,0.09784286,-0.9154809,0.07530703,-0.5069212
932.3221,-0.4349284,-0.5961698,0.1056459,-0.9179186,0.06545434,-0.5074287
932.3376,-0.4349284,-0.5961698,0.1056459,-0.9179186,0.06545434,-0.5074287
932.3516,-0.4471653,-0.5965548,0.1133284,-0.9204174,0.05576104,-0.5079262
932.3659,-0.4594133,-0.5969387,0.1208434,-0.9229652,0.04623233,-0.5084138
932.3808,-0.4716126,-0.5973198,0.1281772,-0.9255462,0.03686921,-0.5088918
932.3954,-0.4716126,-0.5973198,0.1281772,-0.9255462,0.03686921,-0.5088918
932.4094,-0.4840701,-0.5977112,0.1360148,-0.9280934,0.02681674,-0.5094061
932.4249,-0.4966291,-0.5981051,0.1437305,-0.9306999,0.01693029,-0.5099102
932.4393,-0.4966291,-0.5981051,0.1437305,-0.9306999,0.01693029,-0.5099102
932.4534,-0.5091935,-0.5984977,0.151278,-0.9333547,0.007213975,-0.5104044
932.4687,-0.5220477,-0.5989013,0.1593287,-0.9359901,-0.003194536,-0.5109346
932.4835,-0.5350209,-0.5993073,0.1672509,-0.938695,-0.01342903,-0.5114543
932.4982,-0.5350209,-0.5993073,0.1672509,-0.938695,-0.01342903,-0.5114543
932.5125,-0.5480084,-0.5997119,0.1749977,-0.9414552,-0.02348592,-0.5119637
932.5276,-0.5609457,-0.6001135,0.1825562,-0.9442536,-0.03336543,-0.5124632
932.543,-0.5741374,-0.6005252,0.1906119,-0.9470248,-0.04394367,-0.5129985
932.5573,-0.5741374,-0.6005252,0.1906119,-0.9470248,-0.04394367,-0.5129985
932.5712,-0.5874248,-0.600939,0.1985369,-0.9498576,-0.05434133,-0.5135233
932.5866,-0.6007107,-0.6013513,0.2062875,-0.9527403,-0.06455616,-0.5140377
932.6021,-0.6139355,-0.6017606,0.2138515,-0.9556576,-0.07458917,-0.514542
932.6169,-0.6139355,-0.6017606,0.2138515,-0.9556576,-0.07458917,-0.514542
932.6299,-0.6274067,-0.6021799,0.2219137,-0.9585478,-0.08532855,-0.5150822
932.6454,-0.6409674,-0.6026013,0.2298451,-0.9614984,-0.09588119,-0.5156118
932.6598,-0.6409674,-0.6026013,0.2298451,-0.9614984,-0.09588119,-0.5156118
932.6741,-0.6545216,-0.6030213,0.2376022,-0.9644981,-0.1062459,-0.5161309
932.6894,-0.6683542,-0.6034518,0.2458569,-0.9674857,-0.117319,-0.5166855
932.7039,-0.6822942,-0.6038844,0.2539746,-0.9705437,-0.1281968,-0.5172293
932.7186,-0.6822942,-0.6038844,0.2539746,-0.9705437,-0.1281968,-0.5172293
932.7326,-0.696237,-0.6043153,0.2619117,-0.973658,-0.1388789,-0.5177624
932.7484,-0.7101181,-0.6047428,0.2696569,-0.9768117,-0.1493677,-0.5182851
932.7629,-0.7242427,-0.6051803,0.2778949,-0.9799468,-0.1605726,-0.5188434
932.7778,-0.7242427,-0.6051803,0.2778949,-0.9799468,-0.1605726,-0.5188434
932.7919,-0.7384521,-0.6056195,0.2859953,-0.983145,-0.1715765,-0.5193906
932.8072,-0.7526489,-0.606057,0.2939169,-0.9863941,-0.1823802,-0.5199271
932.8217,-0.7667736,-0.6064911,0.3016489,-0.989679,-0.1929864,-0.5204532
932.8364,-0.7667736,-0.6064911,0.3016489,-0.989679,-0.1929864,-0.5204532
932.8505,-0.7811344,-0.6069352,0.3098752,-0.9929464,-0.2043169,-0.5210148
932.8667,-0.7955744,-0.6073811,0.3179645,-0.9962757,-0.2154405,-0.5215653
932.8817,-0.8099971,-0.6078252,0.3258758,-0.9996549,-0.2263589,-0.522105
932.8952,-0.8099971,-0.6078252,0.3258758,-0.9996549,-0.2263589,-0.522105
932.9094,-0.8246885,-0.6082796,0.3342806,-1.003032,-0.2380026,-0.5226801
932.9244,-0.8394772,-0.6087359,0.3425427,-1.006481,-0.2494303,-0.5232438
932.9391,-0.8394772,-0.6087359,0.3425427,-1.006481,-0.2494303,-0.5232438
932.9531,-0.8542583,-0.6091901,0.350621,-1.009987,-0.2606449,-0.5237966
932.9688,-0.8689677,-0.6096408,0.3585057,-1.013532,-0.2716506,-0.5243385
932.9833,-0.8839112,-0.6101012,0.3668798,-1.017071,-0.2833904,-0.5249158
932.9979,-0.8839112,-0.6101012,0.3668798,-1.017071,-0.2833904,-0.5249158
933.0122,-0.8989298,-0.6105631,0.3751116,-1.020674,-0.2949091,-0.5254817
933.0278,-0.913926,-0.6110229,0.383162,-1.024328,-0.3062105,-0.5260366
933.0425,-0.9288405,-0.6114793,0.3910215,-1.028018,-0.3172994,-0.5265806
933.057,-0.9288405,-0.6114793,0.3910215,-1.028018,-0.3172994,-0.5265806
933.0708,-0.9439822,-0.6119455,0.3993718,-1.031704,-0.3291306,-0.52716
933.0865,-0.9591938,-0.6124132,0.407581,-1.035452,-0.3407349,-0.5277281
933.1012,-0.9743789,-0.6128789,0.4156101,-1.03925,-0.3521172,-0.528285
933.1158,-0.9743789,-0.6128789,0.4156101,-1.03925,-0.3521172,-0.528285
933.132,-0.989824,-0.6133547,0.4241287,-1.043058,-0.3642416,-0.5288771
933.1452,-1.005358,-0.6138321,0.432501,-1.046939,-0.3761294,-0.5294574
933.16,-1.020875,-0.6143072,0.4406879,-1.050875,-0.3877866,-0.5300265
933.1747,-1.020875,-0.6143072,0.4406879,-1.050875,-0.3877866,-0.5300265
933.1884,-1.036311,-0.6147786,0.4486803,-1.054851,-0.3992196,-0.5305845
933.2038,-1.051628,-0.6152458,0.4564808,-1.058852,-0.410434,-0.5311316
933.2185,-1.051628,-0.6152458,0.4564808,-1.058852,-0.410434,-0.5311316
933.2325,-1.066802,-0.6157089,0.4640955,-1.062868,-0.4214346,-0.5316681
933.248,-1.08182,-0.6161682,0.471531,-1.06689,-0.4322258,-0.5321941
933.2626,-1.096673,-0.6166238,0.4787935,-1.070914,-0.4428114,-0.53271
933.2777,-1.096673,-0.6166238,0.4787935,-1.070914,-0.4428114,-0.53271
933.2915,-1.111014,-0.6170621,0.4852138,-1.074948,-0.4522153,-0.5331697
933.3072,-1.124975,-0.6174915,0.4914301,-1.078927,-0.4614502,-0.5336206
933.3216,-1.138641,-0.6179158,0.497491,-1.082856,-0.4705166,-0.5340628
933.3365,-1.138641,-0.6179158,0.497491,-1.082856,-0.4705166,-0.5340628
933.3506,-1.151718,-0.618323,0.5027436,-1.086754,-0.4784291,-0.5344503
933.3658,-1.164375,-0.6187215,0.5078241,-1.090568,-0.4862041,-0.5348304
933.3808,-1.176719,-0.6191154,0.51278,-1.094312,-0.49384,-0.5352032
933.3961,-1.176719,-0.6191154,0.51278,-1.094312,-0.49384,-0.5352032
933.4104,-1.188814,-0.6195062,0.5176278,-1.098002,-0.5013342,-0.5355687
933.4246,-1.200356,-0.6198808,0.521705,-1.101652,-0.5076951,-0.535881
933.4393,-1.200356,-0.6198808,0.521705,-1.101652,-0.5076951,-0.535881
933.4531,-1.211507,-0.6202469,0.5256349,-1.105218,-0.5139454,-0.5361874
933.4684,-1.222368,-0.6206083,0.5294638,-1.108714,-0.520084,-0.5364878
933.4831,-1.233002,-0.6209664,0.533207,-1.112152,-0.5261074,-0.5367824
933.4979,-1.233002,-0.6209664,0.533207,-1.112152,-0.5261074,-0.5367824
933.512,-1.243102,-0.6213081,0.5362065,-1.115547,-0.5310196,-0.5370252
933.5273,-1.252831,-0.6216411,0.5390783,-1.118856,-0.5358477,-0.5372633
933.5422,-1.262287,-0.6219689,0.5418695,-1.122093,-0.5405907,-0.5374968
933.5571,-1.262287,-0.6219689,0.5418695,-1.122093,-0.5405907,-0.5374968
933.571,-1.271187,-0.6222795,0.543937,-1.12527,-0.544248,-0.5376796
933.5866,-1.279707,-0.6225808,0.5458949,-1.128353,-0.5478476,-0.537859
933.601,-1.287955,-0.6228768,0.547792,-1.131356,-0.5513877,-0.538035
933.6161,-1.287955,-0.6228768,0.547792,-1.131356,-0.5513877,-0.538035
933.6301,-1.296,-0.6231691,0.5496439,-1.134296,-0.5548627,-0.5382077
933.6465,-1.303536,-0.6234449,0.5508007,-1.137183,-0.5572714,-0.5383307
933.6611,-1.310727,-0.6237114,0.5518643,-1.13998,-0.5596443,-0.5384514
933.675,-1.310727,-0.6237114,0.5518643,-1.13998,-0.5596443,-0.5384514
933.6921,-1.317675,-0.6239724,0.5528833,-1.142703,-0.5619808,-0.5385699
933.7054,-1.324441,-0.6242297,0.5538734,-1.145365,-0.5642751,-0.5386862
933.7188,-1.324441,-0.6242297,0.5538734,-1.145365,-0.5642751,-0.5386862
933.7328,-1.330719,-0.6244704,0.55419,-1.147975,-0.5655245,-0.5387539
933.7484,-1.33667,-0.6247016,0.5544276,-1.150497,-0.566761,-0.5388205
933.7631,-1.342394,-0.6249271,0.5546361,-1.152945,-0.567984,-0.5388859
933.7776,-1.342394,-0.6249271,0.5546361,-1.152945,-0.567984,-0.5388859
933.7919,-1.347605,-0.6251351,0.5541869,-1.155329,-0.5681875,-0.5389038
933.8074,-1.35248,-0.6253331,0.5536729,-1.157617,-0.5684022,-0.5389215
933.8219,-1.357126,-0.6255251,0.5531459,-1.159827,-0.568626,-0.5389389
933.8372,-1.357126,-0.6255251,0.5531459,-1.159827,-0.568626,-0.5389389
933.8509,-1.361612,-0.6257132,0.5526224,-1.161975,-0.5688513,-0.5389561
933.8661,-1.365631,-0.6258847,0.5514659,-1.164067,-0.5680739,-0.5389267
933.8808,-1.369347,-0.6260465,0.5502574,-1.166072,-0.5673261,-0.5388981
933.8955,-1.369347,-0.6260465,0.5502574,-1.166072,-0.5673261,-0.5388981
933.9118,-1.372861,-0.6262025,0.5490486,-1.168003,-0.5666062,-0.5388702
933.926,-1.376234,-0.6263548,0.5478557,-1.169877,-0.5659063,-0.5388428
933.9398,-1.376234,-0.6263548,0.5478557,-1.169877,-0.5659063,-0.5388428
933.9535,-1.37916,-0.6264905,0.546047,-1.1717,-0.5642228,-0.5387697
933.9689,-1.381798,-0.6266165,0.5441971,-1.173438,-0.5625883,-0.5386983
933.9836,-1.384248,-0.6267368,0.5423589,-1.175105,-0.5610003,-0.5386283
933.9982,-1.384248,-0.6267368,0.5423589,-1.175105,-0.5610003,-0.5386283
934.0126,-1.386225,-0.6268395,0.5399163,-1.176712,-0.5584524,-0.5385135
934.028,-1.387904,-0.6269319,0.5374442,-1.178228,-0.5559753,-0.5384012
934.0425,-1.389392,-0.6270182,0.5349972,-1.179669,-0.5535645,-0.5382912
934.0574,-1.389392,-0.6270182,0.5349972,-1.179669,-0.5535645,-0.5382912
934.0714,-1.390757,-0.6271006,0.5325921,-1.181051,-0.5512102,-0.5381833
934.087,-1.391693,-0.6271667,0.5296038,-1.182385,-0.5479098,-0.5380315
934.1017,-1.392363,-0.6272233,0.5265967,-1.183636,-0.544695,-0.5378827
934.1165,-1.392363,-0.6272233,0.5265967,-1.183636,-0.544695,-0.5378827
934.1304,-1.392866,-0.627274,0.5236242,-1.184819,-0.541561,-0.537737
934.1458,-1.393266,-0.6273212,0.5207033,-1.185949,-0.5384982,-0.5375941
934.1615,-1.393254,-0.6273524,0.517213,-1.187035,-0.5345058,-0.5374079
934.1755,-1.393254,-0.6273524,0.517213,-1.187035,-0.5345058,-0.5374079
934.1892,-1.392991,-0.6273739,0.5137125,-1.188042,-0.5306151,-0.5372255
934.2044,-1.392576,-0.6273897,0.5102556,-1.188983,-0.5268197,-0.5370468
934.2191,-1.392576,-0.6273897,0.5102556,-1.188983,-0.5268197,-0.5370468
934.2333,-1.391722,-0.6273889,0.5062369,-1.189874,-0.5221166,-0.5368255
934.2486,-1.390603,-0.6273792,0.5022171,-1.19068,-0.5175342,-0.5366088
934.2634,-1.389328,-0.6273643,0.4982522,-1.191416,-0.5130638,-0.5363963
934.2783,-1.389328,-0.6273643,0.4982522,-1.191416,-0.5130638,-0.5363963
934.2922,-1.387962,-0.6273465,0.49436,-1.192099,-0.5086945,-0.5361881
934.308,-1.386201,-0.6273131,0.4899243,-1.192745,-0.5034288,-0.5359378
934.3224,-1.384206,-0.6272706,0.4854965,-1.193313,-0.4982953,-0.5356927
934.3371,-1.384206,-0.6272706,0.4854965,-1.193313,-0.4982953,-0.5356927
934.3511,-1.382077,-0.627223,0.4811312,-1.193818,-0.4932848,-0.5354525
934.3668,-1.379875,-0.6271726,0.476846,-1.194275,-0.4883864,-0.535217
934.3815,-1.377293,-0.627107,0.4720274,-1.194702,-0.4826058,-0.5349401
934.3961,-1.377293,-0.627107,0.4720274,-1.194702,-0.4826058,-0.5349401
934.4125,-1.374489,-0.6270326,0.4672234,-1.195054,-0.4769702,-0.5346687
934.4265,-1.371563,-0.6269535,0.4624888,-1.195346,-0.4714684,-0.5344028
934.4402,-1.368576,-0.626872,0.4578418,-1.195593,-0.4660894,-0.5341421
934.4547,-1.368576,-0.626872,0.4578418,-1.195593,-0.4660894,-0.5341421
934.4688,-1.365218,-0.6267756,0.4526713,-1.195813,-0.4598427,-0.5338405
934.4841,-1.361649,-0.6266709,0.4475219,-1.195961,-0.4537525,-0.533545
934.4988,-1.361649,-0.6266709,0.4475219,-1.195961,-0.4537525,-0.533545
934.5129,-1.357968,-0.6265617,0.4424488,-1.196051,-0.4478063,-0.5332553
934.5283,-1.353887,-0.6264367,0.4368568,-1.196108,-0.4410124,-0.5329253
934.543,-1.349582,-0.6263027,0.4312933,-1.196086,-0.4343906,-0.532602
934.5577,-1.349582,-0.6263027,0.4312933,-1.196086,-0.4343906,-0.532602
934.572,-1.345159,-0.6261641,0.4258152,-1.196,-0.4279259,-0.5322852
934.5872,-1.340685,-0.6260235,0.4204414,-1.195867,-0.4216062,-0.5319746
934.6019,-1.335853,-0.6258685,0.4145645,-1.195713,-0.4144484,-0.531624
934.6167,-1.335853,-0.6258685,0.4145645,-1.195713,-0.4144484,-0.531624
934.6306,-1.330825,-0.6257058,0.408723,-1.195488,-0.4074697,-0.5312806
934.6465,-1.3257,-0.6255392,0.4029722,-1.195207,-0.4006546,-0.530944
934.6606,-1.32054,-0.6253711,0.3973307,-1.194882,-0.3939915,-0.5306141
934.6768,-1.32054,-0.6253711,0.3973307,-1.194882,-0.3939915,-0.5306141
934.6905,-1.315035,-0.6251893,0.3911931,-1.194543,-0.3865031,-0.5302445
934.7048,-1.309345,-0.6250001,0.3850952,-1.194137,-0.3792017,-0.5298825
934.7195,-1.309345,-0.6250001,0.3850952,-1.194137,-0.3792017,-0.5298825
934.7333,-1.303569,-0.6248074,0.3790929,-1.193676,-0.3720706,-0.5295277
934.7488,-1.297419,-0.6245999,0.372597,-1.193193,-0.3641333,-0.5291338
934.7634,-1.291069,-0.6243844,0.3661465,-1.192636,-0.3563954,-0.5287479
934.7782,-1.291069,-0.6243844,0.3661465,-1.192636,-0.3563954,-0.5287479
934.7923,-1.284628,-0.6241652,0.3597995,-1.192018,-0.3488387,-0.5283697
934.8077,-1.278159,-0.6239449,0.3535753,-1.191354,-0.3414508,-0.5279989
934.8223,-1.271358,-0.6237113,0.3468716,-1.190681,-0.3332655,-0.5275894
934.837,-1.271358,-0.6237113,0.3468716,-1.190681,-0.3332655,-0.5275894
934.8513,-1.264384,-0.6234708,0.340219,-1.189942,-0.3252834,-0.5271882
934.8666,-1.257338,-0.6232275,0.3336737,-1.189148,-0.3174863,-0.526795
934.8815,-1.250279,-0.6229836,0.3272549,-1.188311,-0.3098625,-0.5264096
934.8969,-1.250279,-0.6229836,0.3272549,-1.188311,-0.3098625,-0.5264096
934.9104,-1.2429,-0.6227269,0.3203619,-1.187474,-0.3014534,-0.5259857
934.9257,-1.235359,-0.6224638,0.3135228,-1.186571,-0.293252,-0.5255704
934.9412,-1.227753,-0.622198,0.3067944,-1.185615,-0.2852397,-0.5251634
934.9551,-1.227753,-0.622198,0.3067944,-1.185615,-0.2852397,-0.5251634
934.9692,-1.219797,-0.6219184,0.2995927,-1.184649,-0.2764601,-0.5247183
934.9845,-1.211664,-0.6216316,0.2924495,-1.18361,-0.2678978,-0.5242822
934.9991,-1.211664,-0.6216316,0.2924495,-1.18361,-0.2678978,-0.5242822
935.0133,-1.203461,-0.621342,0.2854238,-1.182511,-0.2595331,-0.5238548
935.0287,-1.195252,-0.6210521,0.2785357,-1.181366,-0.251354,-0.5234358
935.0436,-1.186731,-0.6207499,0.2711872,-1.180224,-0.2424162,-0.5229791
935.0581,-1.186731,-0.6207499,0.2711872,-1.180224,-0.2424162,-0.5229791
935.0721,-1.17806,-0.6204416,0.2639016,-1.179017,-0.2336966,-0.5225316
935.0876,-1.169337,-0.6201313,0.2567362,-1.177755,-0.2251762,-0.522093
935.1025,-1.160623,-0.6198212,0.2497109,-1.176452,-0.2168438,-0.5216631
935.1172,-1.160623,-0.6198212,0.2497109,-1.176452,-0.2168438,-0.5216631
935.1314,-1.151608,-0.6194992,0.242229,-1.175157,-0.2077642,-0.5211956
935.1467,-1.142451,-0.6191716,0.2348116,-1.173798,-0.1989044,-0.5207375
935.1614,-1.13325,-0.6188421,0.2275167,-1.172386,-0.1902457,-0.5202885
935.1761,-1.13325,-0.6188421,0.2275167,-1.172386,-0.1902457,-0.5202885
935.1923,-1.123718,-0.6184996,0.2197646,-1.170973,-0.1808568,-0.5198025
935.2056,-1.114029,-0.6181507,0.2120805,-1.169487,-0.1716946,-0.5193261
935.2198,-1.114029,-0.6181507,0.2120805,-1.169487,-0.1716946,-0.5193261
935.2342,-1.104288,-0.6177998,0.2045249,-1.167941,-0.1627401,-0.5188592
935.2495,-1.09456,-0.6174493,0.1971184,-1.166348,-0.1539818,-0.5184015
935.2643,-1.08454,-0.6170874,0.1892666,-1.164767,-0.1445016,-0.5179069
935.2791,-1.08454,-0.6170874,0.1892666,-1.164767,-0.1445016,-0.5179069
935.2932,-1.074388,-0.6167201,0.1814861,-1.163121,-0.1352469,-0.5174222
935.3087,-1.064202,-0.6163514,0.173836,-1.161419,-0.1261997,-0.5169471
935.3233,-1.054042,-0.6159838,0.1663365,-1.159675,-0.1173494,-0.5164813
935.3383,-1.054042,-0.6159838,0.1663365,-1.159675,-0.1173494,-0.5164813
935.3524,-1.0436,-0.6156051,0.158394,-1.157947,-0.1077882,-0.5159788
935.3677,-1.033034,-0.6152214,0.1505236,-1.156155,-0.09845182,-0.5154864
935.3823,-1.02244,-0.6148367,0.1427847,-1.154309,-0.08932296,-0.5150036
935.3971,-1.02244,-0.6148367,0.1427847,-1.154309,-0.08932296,-0.5150036
935.4113,-1.011533,-0.6144395,0.1346009,-1.152469,-0.0794986,-0.5144845
935.4267,-1.000486,-0.6140367,0.1264917,-1.150555,-0.06990393,-0.5139757
935.4433,-0.9894039,-0.6136326,0.1185192,-1.148578,-0.06052149,-0.513477
935.4572,-0.9894039,-0.6136326,0.1185192,-1.148578,-0.06052149,-0.513477
935.4709,-0.9783515,-0.6132296,0.1107048,-1.146555,-0.05134109,-0.512988
935.4852,-0.9670232,-0.6128157,0.1024564,-1.144549,-0.04147368,-0.5124629
935.4998,-0.9670232,-0.6128157,0.1024564,-1.144549,-0.04147368,-0.5124629
935.5139,-0.9555787,-0.6123973,0.09428537,-1.142477,-0.0318331,-0.5119481
935.5295,-0.9441161,-0.6119782,0.08625206,-1.140348,-0.02240329,-0.5114435
935.5441,-0.9326953,-0.6115608,0.07837737,-1.138176,-0.01317484,-0.5109488
935.5587,-0.9326953,-0.6115608,0.07837737,-1.138176,-0.01317484,-0.5109488
935.5728,-0.9210078,-0.6111329,0.07006991,-1.136026,-0.003269985,-0.510418
935.5882,-0.9092114,-0.6107007,0.06183966,-1.133811,0.006410397,-0.5098977
935.6028,-0.8974029,-0.6102681,0.05374754,-1.131539,0.01588142,-0.5093877
935.6178,-0.8974029,-0.6102681,0.05374754,-1.131539,0.01588142,-0.5093877
935.6347,-0.8856415,-0.6098375,0.04581493,-1.129226,0.02515194,-0.5088876
935.6474,-0.8739632,-0.6094103,0.03804671,-1.126882,0.03422808,-0.5083974
935.6618,-0.8623894,-0.6089875,0.03044136,-1.12452,0.04311474,-0.5079167
935.6771,-0.8623894,-0.6089875,0.03044136,-1.12452,0.04311474,-0.5079167
935.6908,-0.8509328,-0.6085697,0.02299516,-1.122147,0.05181635,-0.5074455
935.7073,-0.8396007,-0.6081573,0.01570395,-1.119767,0.06033709,-0.5069835
935.7209,-0.8283967,-0.6077502,0.008563652,-1.117385,0.06868105,-0.5065306
935.7355,-0.8283967,-0.6077502,0.008563652,-1.117385,0.06868105,-0.5065306
935.7496,-0.8173226,-0.6073487,0.001570511,-1.115003,0.07685221,-0.5060865
935.7648,-0.806379,-0.6069528,-0.005278951,-1.112622,0.08485451,-0.5056512
935.7797,-0.806379,-0.6069528,-0.005278951,-1.112622,0.08485451,-0.5056512
935.7936,-0.7955653,-0.6065624,-0.01198797,-1.110245,0.09269179,-0.5052243
935.8093,-0.7848809,-0.6061774,-0.01855957,-1.10787,0.1003678,-0.5048059
935.8239,-0.7743247,-0.6057979,-0.02499664,-1.1055,0.1078863,-0.5043955
935.8387,-0.7743247,-0.6057979,-0.02499664,-1.1055,0.1078863,-0.5043955
935.8528,-0.7638954,-0.6054238,-0.03130195,-1.103135,0.1152509,-0.5039933
935.8682,-0.7535916,-0.605055,-0.03747817,-1.100774,0.122465,-0.5035989
935.883,-0.7434119,-0.6046914,-0.04352787,-1.098419,0.1295321,-0.5032122
935.898,-0.7434119,-0.6046914,-0.04352787,-1.098419,0.1295321,-0.5032122
935.9122,-0.7333549,-0.6043329,-0.04945359,-1.096069,0.1364555,-0.5028331
935.9275,-0.7234192,-0.6039795,-0.05525776,-1.093726,0.1432385,-0.5024614
935.9423,-0.7136033,-0.6036311,-0.06094279,-1.091388,0.1498844,-0.502097
935.958,-0.7136033,-0.6036311,-0.06094279,-1.091388,0.1498844,-0.502097
935.972,-0.7039057,-0.6032877,-0.06651102,-1.089058,0.1563961,-0.5017397
935.9862,-0.6943251,-0.6029491,-0.07196475,-1.086734,0.1627768,-0.5013894
936.0009,-0.68486,-0.6026154,-0.07730622,-1.084417,0.1690292,-0.501046
936.0156,-0.68486,-0.6026154,-0.07730622,-1.084417,0.1690292,-0.501046
936.0298,-0.675509,-0.6022863,-0.08253762,-1.082108,0.1751564,-0.5007093
936.0453,-0.6662708,-0.6019619,-0.08766112,-1.079806,0.1811612,-0.5003791
936.06,-0.6662708,-0.6019619,-0.08766112,-1.079806,0.1811612,-0.5003791
936.0739,-0.657144,-0.601642,-0.09267881,-1.077512,0.1870461,-0.5000555
936.0894,-0.6481271,-0.6013267,-0.09759276,-1.075227,0.192814,-0.4997382
936.1042,-0.639219,-0.6010159,-0.102405,-1.07295,0.1984673,-0.499427
936.119,-0.639219,-0.6010159,-0.102405,-1.07295,0.1984673,-0.499427
936.1331,-0.6304183,-0.6007094,-0.1071175,-1.070681,0.2040087,-0.499122
936.1487,-0.6217237,-0.6004072,-0.1117322,-1.068421,0.2094405,-0.4988229
936.1639,-0.6131338,-0.6001094,-0.1162511,-1.066171,0.2147652,-0.4985296
936.1783,-0.6131338,-0.6001094,-0.1162511,-1.066171,0.2147652,-0.4985296
936.1923,-0.6046475,-0.5998157,-0.1206759,-1.06393,0.2199851,-0.4982421
936.2086,-0.5962634,-0.5995262,-0.1250085,-1.061698,0.2251026,-0.4979603
936.2222,-0.5879804,-0.5992407,-0.1292507,-1.059476,0.2301197,-0.4976839
936.2371,-0.5879804,-0.5992407,-0.1292507,-1.059476,0.2301197,-0.4976839
936.2511,-0.5797973,-0.5989593,-0.1334042,-1.057265,0.2350388,-0.4974129
936.2662,-0.5717127,-0.5986818,-0.1374708,-1.055063,0.2398619,-0.4971473
936.281,-0.5637256,-0.5984082,-0.1414522,-1.052872,0.244591,-0.4968868
936.2959,-0.5637256,-0.5984082,-0.1414522,-1.052872,0.244591,-0.4968868
936.31,-0.5558347,-0.5981385,-0.14535,-1.050692,0.2492283,-0.4966315
936.3252,-0.5480389,-0.5978726,-0.1491658,-1.048522,0.2537756,-0.4963811
936.3399,-0.5480389,-0.5978726,-0.1491658,-1.048522,0.2537756,-0.4963811
936.3542,-0.540337,-0.5976105,-0.1529011,-1.046364,0.2582349,-0.4961357
936.3696,-0.5327278,-0.597352,-0.1565577,-1.044217,0.2626081,-0.495895
936.3845,-0.5252104,-0.5970971,-0.1601369,-1.042081,0.266897,-0.4956591
936.3995,-0.5252104,-0.5970971,-0.1601369,-1.042081,0.266897,-0.4956591
936.4133,-0.5177835,-0.5968458,-0.1636403,-1.039956,0.2711033,-0.4954278
936.4288,-0.510446,-0.5965981,-0.1670693,-1.037844,0.2752289,-0.4952009
936.4457,-0.503197,-0.5963538,-0.1704255,-1.035743,0.2792753,-0.4949786
936.4593,-0.503197,-0.5963538,-0.1704255,-1.035743,0.2792753,-0.4949786
936.4732,-0.4960352,-0.596113,-0.1737101,-1.033654,0.2832444,-0.4947606
936.4877,-0.4889597,-0.5958755,-0.1769245,-1.031578,0.2871376,-0.4945468
936.5022,-0.4819694,-0.5956414,-0.1800702,-1.029513,0.2909566,-0.4943373
936.517,-0.4819694,-0.5956414,-0.1800702,-1.029513,0.2909566,-0.4943373
936.5309,-0.4750632,-0.5954105,-0.1831484,-1.027461,0.2947029,-0.4941318
936.5464,-0.4682403,-0.5951829,-0.1861604,-1.025422,0.2983781,-0.4939304
936.561,-0.4614995,-0.5949585,-0.1891076,-1.023395,0.3019836,-0.4937329
936.5761,-0.4614995,-0.5949585,-0.1891076,-1.023395,0.3019836,-0.4937329
936.5898,-0.4548399,-0.5947372,-0.1919911,-1.021381,0.3055208,-0.4935392
936.6055,-0.4482604,-0.5945191,-0.1948122,-1.01938,0.3089911,-0.4933494
936.6201,-0.4417602,-0.594304,-0.1975721,-1.017392,0.312396,-0.4931633
936.6349,-0.4417602,-0.594304,-0.1975721,-1.017392,0.312396,-0.4931633
936.6491,-0.4353382,-0.5940918,-0.200272,-1.015417,0.3157368,-0.4929808
936.6643,-0.4289936,-0.5938827,-0.202913,-1.013454,0.3190147,-0.4928019
936.6793,-0.4289936,-0.5938827,-0.202913,-1.013454,0.3190147,-0.4928019
936.6933,-0.4227253,-0.5936764,-0.2054962,-1.011506,0.322231,-0.4926265
936.7097,-0.4165325,-0.5934731,-0.2080228,-1.00957,0.3253871,-0.4924546
936.7233,-0.4104142,-0.5932726,-0.2104939,-1.007648,0.3284841,-0.492286
936.7379,-0.4104142,-0.5932726,-0.2104939,-1.007648,0.3284841,-0.492286
936.7518,-0.4043696,-0.5930749,-0.2129105,-1.005739,0.3315232,-0.4921207
936.7672,-0.3983977,-0.59288,-0.2152737,-1.003844,0.3345056,-0.4919586
936.782,-0.3924977,-0.5926878,-0.2175845,-1.001962,0.3374324,-0.4917998
936.7968,-0.3924977,-0.5926878,-0.2175845,-1.001962,0.3374324,-0.4917998
936.8109,-0.3866688,-0.5924983,-0.2198438,-1.000094,0.3403047,-0.491644
936.8261,-0.3809099,-0.5923114,-0.2220528,-0.9982394,0.3431236,-0.4914913
936.8409,-0.3752204,-0.5921272,-0.2242123,-0.9963985,0.3458903,-0.4913416
936.8558,-0.3752204,-0.5921272,-0.2242123,-0.9963985,0.3458903,-0.4913416
936.8696,-0.3695994,-0.5919455,-0.2263234,-0.9945713,0.3486056,-0.4911948
936.8852,-0.364046,-0.5917664,-0.2283869,-0.9927579,0.3512706,-0.4910509
936.8999,-0.364046,-0.5917664,-0.2283869,-0.9927579,0.3512706,-0.4910509
936.9141,-0.3585594,-0.5915897,-0.2304038,-0.9909582,0.3538865,-0.4909098
936.9296,-0.3531389,-0.5914155,-0.2323749,-0.9891722,0.356454,-0.4907715
936.9443,-0.3477836,-0.5912437,-0.2343012,-0.9874001,0.3589742,-0.4906359
936.96,-0.3477836,-0.5912437,-0.2343012,-0.9874001,0.3589742,-0.4906359
936.9739,-0.3424927,-0.5910743,-0.2361835,-0.9856417,0.361448,-0.4905029
936.9883,-0.3372654,-0.5909073,-0.2380227,-0.9838971,0.3638763,-0.4903726
937.0027,-0.3321011,-0.5907426,-0.2398196,-0.9821663,0.3662601,-0.4902448
937.0175,-0.3321011,-0.5907426,-0.2398196,-0.9821663,0.3662601,-0.4902448
937.0316,-0.3269989,-0.5905803,-0.241575,-0.9804494,0.3686001,-0.4901195
937.047,-0.3219581,-0.5904202,-0.2432897,-0.9787463,0.3708972,-0.4899967
937.0616,-0.3169779,-0.5902623,-0.2449646,-0.977057,0.3731524,-0.4898763
937.0766,-0.3169779,-0.5902623,-0.2449646,-0.977057,0.3731524,-0.4898763
937.0904,-0.3120577,-0.5901066,-0.2466003,-0.9753815,0.3753664,-0.4897583
937.1059,-0.3071966,-0.5899531,-0.2481977,-0.9737198,0.3775399,-0.4896425
937.1205,-0.302394,-0.5898017,-0.2497574,-0.9720718,0.3796739,-0.4895291
937.1355,-0.302394,-0.5898017,-0.2497574,-0.9720718,0.3796739,-0.4895291
937.1496,-0.2976492,-0.5896524,-0.2512803,-0.9704376,0.381769,-0.4894179
937.165,-0.2929615,-0.5895051,-0.252767,-0.9688171,0.3838261,-0.4893088
937.1799,-0.2929615,-0.5895051,-0.252767,-0.9688171,0.3838261,-0.4893088
937.1937,-0.2883301,-0.5893599,-0.2542183,-0.9672104,0.3858458,-0.4892019
937.2093,-0.2837545,-0.5892168,-0.2556348,-0.9656172,0.387829,-0.4890971
937.2249,-0.2792339,-0.5890756,-0.2570172,-0.9640378,0.3897762,-0.4889943
