JMolnar6/NonAnthroHands_User_Study/HandsLoggerWithURDF/tempdata/PID 0 (test)/files/ReachyParticipant0_JointMotion_gesture_1_1.csv
Time,r_shoulder,r_shoulder_x,r_upper_arm,r_forearm,r_wrist,r_wrist2hand,
388.8185,-0.1051258,-2.374971E-08,NaN,-0.2720627,-8.428307E-08,NaN,0.4241309,4.727718E-08,NaN,-0.4376402,2.910523E-07,-0.4079341,-4.338286E-08,NaN,NaN,-0.01888797,-2.142042E-10,1.287749E-07,-7.339256E-08,9.536732E-09,-4.529953E-08
388.8401,-0.1037809,-2.383752E-08,NaN,-0.2733554,-8.463245E-08,NaN,0.4235507,4.801348E-08,NaN,-0.4400489,2.928498E-07,-0.4067273,-4.410909E-08,NaN,NaN,-0.01892971,-2.04891E-10,1.298925E-07,-7.36848E-08,-1.065814E-14,-4.529953E-08
388.8483,-0.1037809,-2.383752E-08,NaN,-0.2733554,-8.463245E-08,NaN,0.4235507,4.801348E-08,NaN,-0.4400489,2.928498E-07,-0.4067273,-4.410909E-08,NaN,NaN,-0.01892971,-2.04891E-10,1.298925E-07,-7.36848E-08,-1.065814E-14,-4.529953E-08
388.8639,-0.1026003,-2.388117E-08,NaN,-0.2739885,-8.480605E-08,NaN,0.423174,4.835959E-08,NaN,-0.4412991,2.937439E-07,-0.4060528,-4.445017E-08,NaN,NaN,-0.01895003,-1.955777E-10,1.287004E-07,-7.383009E-08,-2.384196E-09,-4.529953E-08
388.878,-0.1026003,-2.388117E-08,NaN,-0.2739885,-8.480605E-08,NaN,0.423174,4.835959E-08,NaN,-0.4412991,2.937439E-07,-0.4060528,-4.445017E-08,NaN,NaN,-0.01895003,-1.955777E-10,1.287004E-07,-7.383009E-08,-2.384196E-09,-4.529953E-08
388.8934,-0.1012471,-2.392465E-08,NaN,-0.274613,-8.497904E-08,NaN,0.4228365,4.869774E-08,NaN,-0.442502,2.946472E-07,-0.4054128,-4.478329E-08,NaN,NaN,-0.01896995,-1.955777E-10,1.297435E-07,-7.397485E-08,-2.384196E-09,-4.529953E-08
388.9065,-0.09979064,-2.396796E-08,NaN,-0.2752293,-8.515145E-08,NaN,0.4225474,4.902423E-08,NaN,-0.4436506,2.955506E-07,-0.4048148,-4.510476E-08,NaN,NaN,-0.01898947,-1.955777E-10,1.315316E-07,-7.411911E-08,-2.384196E-09,-4.529953E-08
388.9212,-0.0989953,-2.401111E-08,NaN,-0.2758397,-8.53233E-08,NaN,0.4228247,4.93393E-08,NaN,-0.4443312,2.96454E-07,-0.4046952,-4.541482E-08,NaN,NaN,-0.01900834,-1.955777E-10,1.318297E-07,-7.426288E-08,-1.065814E-14,-4.529953E-08
388.9358,-0.0989953,-2.401111E-08,NaN,-0.2758397,-8.53233E-08,NaN,0.4228247,4.93393E-08,NaN,-0.4443312,2.96454E-07,-0.4046952,-4.541482E-08,NaN,NaN,-0.01900834,-1.955777E-10,1.318297E-07,-7.426288E-08,-1.065814E-14,-4.529953E-08
388.95,-0.09861974,-2.405409E-08,NaN,-0.2764444,-8.549461E-08,NaN,0.4232893,4.964881E-08,NaN,-0.444849,2.973574E-07,-0.4047328,-4.571931E-08,NaN,NaN,-0.01902675,-1.955777E-10,1.321277E-07,-7.440616E-08,-2.384196E-09,-4.529953E-08
388.9655,-0.09851021,-2.409691E-08,NaN,-0.2770433,-8.566538E-08,NaN,0.4237888,4.994721E-08,NaN,-0.4453279,2.982654E-07,-0.4047986,-4.601271E-08,NaN,NaN,-0.01904478,-2.002343E-10,1.328727E-07,-7.454896E-08,-2.384196E-09,-4.529953E-08
388.9803,-0.09856689,-2.413956E-08,NaN,-0.2776362,-8.583562E-08,NaN,0.4242675,5.023081E-08,NaN,-0.4458134,2.991688E-07,-0.4048456,-4.629131E-08,NaN,NaN,-0.01906247,-2.04891E-10,1.333198E-07,-7.46913E-08,-1.065814E-14,-4.529953E-08
388.9949,-0.09856689,-2.413956E-08,NaN,-0.2776362,-8.583562E-08,NaN,0.4242675,5.023081E-08,NaN,-0.4458134,2.991688E-07,-0.4048456,-4.629131E-08,NaN,NaN,-0.01906247,-2.04891E-10,1.333198E-07,-7.46913E-08,-1.065814E-14,-4.529953E-08
389.0088,-0.09944881,-2.418204E-08,NaN,-0.2782248,-8.600532E-08,NaN,0.4252357,5.050379E-08,NaN,-0.4458978,3.000722E-07,-0.4053033,-4.65593E-08,NaN,NaN,-0.01907955,-2.142042E-10,1.330217E-07,-7.483316E-08,-2.384196E-09,-4.529953E-08
389.0244,-0.100847,-2.422437E-08,NaN,-0.2788064,-8.61745E-08,NaN,0.4263231,5.076919E-08,NaN,-0.4458773,3.009663E-07,-0.4058585,-4.681971E-08,NaN,NaN,-0.01909625,-2.188608E-10,1.324257E-07,-7.497455E-08,-7.152568E-09,-4.291534E-08
389.0391,-0.100847,-2.422437E-08,NaN,-0.2788064,-8.61745E-08,NaN,0.4263231,5.076919E-08,NaN,-0.4458773,3.009663E-07,-0.4058585,-4.681971E-08,NaN,NaN,-0.01909625,-2.188608E-10,1.324257E-07,-7.497455E-08,-7.152568E-09,-4.291534E-08
389.0531,-0.1025648,-2.426653E-08,NaN,-0.2793803,-8.634314E-08,NaN,0.427392,5.10298E-08,NaN,-0.4458643,3.018557E-07,-0.406395,-4.707535E-08,NaN,NaN,-0.01911262,-2.188608E-10,1.322022E-07,-7.511554E-08,-7.152568E-09,-4.291534E-08
389.0685,-0.1051976,-2.430852E-08,NaN,-0.2799481,-8.651127E-08,NaN,0.4289269,5.128023E-08,NaN,-0.4454755,3.027451E-07,-0.4073217,-4.732081E-08,NaN,NaN,-0.01912843,-2.188608E-10,1.315316E-07,-7.525609E-08,-1.065814E-14,-4.291534E-08
389.0831,-0.1083962,-2.435036E-08,NaN,-0.2805079,-8.667888E-08,NaN,0.4305514,5.15235E-08,NaN,-0.4450113,3.036345E-07,-0.4083204,-4.755911E-08,NaN,NaN,-0.01914387,-2.188608E-10,1.2952E-07,-7.539617E-08,-1.065814E-14,-4.291534E-08
389.1013,-0.1119379,-2.439203E-08,NaN,-0.2810589,-8.684598E-08,NaN,0.4321295,5.175693E-08,NaN,-0.4445818,3.045239E-07,-0.4092774,-4.778759E-08,NaN,NaN,-0.01915902,-2.188608E-10,1.293709E-07,-7.55358E-08,-1.065814E-14,-4.291534E-08
389.1146,-0.1119379,-2.439203E-08,NaN,-0.2810589,-8.684598E-08,NaN,0.4321295,5.175693E-08,NaN,-0.4445818,3.045239E-07,-0.4092774,-4.778759E-08,NaN,NaN,-0.01915902,-2.188608E-10,1.293709E-07,-7.55358E-08,-1.065814E-14,-4.291534E-08
389.1288,-0.1156815,-2.443355E-08,NaN,-0.2816014,-8.701257E-08,NaN,0.4336243,5.198354E-08,NaN,-0.4442169,3.054133E-07,-0.4101626,-4.800924E-08,NaN,NaN,-0.0191739,-2.188608E-10,1.283279E-07,-7.567497E-08,2.384175E-09,-4.291534E-08
389.1439,-0.1202579,-2.44749E-08,NaN,-0.2821378,-8.717863E-08,NaN,0.4355698,5.220063E-08,NaN,-0.4434999,3.063027E-07,-0.411427,-4.822139E-08,NaN,NaN,-0.01918822,-2.188608E-10,1.275828E-07,-7.581368E-08,4.768361E-09,-4.291534E-08
389.1567,-0.1202579,-2.44749E-08,NaN,-0.2821378,-8.717863E-08,NaN,0.4355698,5.220063E-08,NaN,-0.4434999,3.063027E-07,-0.411427,-4.822139E-08,NaN,NaN,-0.01918822,-2.188608E-10,1.275828E-07,-7.581368E-08,4.768361E-09,-4.291534E-08
389.1709,-0.1253402,-2.451609E-08,NaN,-0.2826661,-8.734419E-08,NaN,0.4375995,5.241122E-08,NaN,-0.442717,3.071921E-07,-0.4127609,-4.842704E-08,NaN,NaN,-0.0192022,-2.188608E-10,1.284769E-07,-7.595193E-08,7.152547E-09,-4.291534E-08
389.1861,-0.1307204,-2.455713E-08,NaN,-0.2831858,-8.750924E-08,NaN,0.4395805,5.261542E-08,NaN,-0.4419735,3.080815E-07,-0.4140531,-4.862633E-08,NaN,NaN,-0.01921591,-2.188608E-10,1.279553E-07,-7.608973E-08,2.384175E-09,-4.291534E-08
389.201,-0.1362662,-2.4598E-08,NaN,-0.2836974,-8.767377E-08,NaN,0.441476,5.281055E-08,NaN,-0.4412988,3.089709E-07,-0.4152734,-4.881653E-08,NaN,NaN,-0.01922937,-2.188608E-10,1.294455E-07,-7.622707E-08,2.384175E-09,-4.291534E-08
389.2159,-0.1362662,-2.4598E-08,NaN,-0.2836974,-8.767377E-08,NaN,0.441476,5.281055E-08,NaN,-0.4412988,3.089709E-07,-0.4152734,-4.881653E-08,NaN,NaN,-0.01922937,-2.188608E-10,1.294455E-07,-7.622707E-08,2.384175E-09,-4.291534E-08
389.2299,-0.142615,-2.463872E-08,NaN,-0.2842032,-8.78378E-08,NaN,0.4438292,5.300364E-08,NaN,-0.4402784,3.098603E-07,-0.4168817,-4.900472E-08,NaN,NaN,-0.01924227,-2.188608E-10,1.307121E-07,-7.636396E-08,2.384175E-09,-4.291534E-08
389.2455,-0.1494436,-2.467928E-08,NaN,-0.2847012,-8.800131E-08,NaN,0.4462656,5.318787E-08,NaN,-0.4391979,3.107497E-07,-0.4185605,-4.918405E-08,NaN,NaN,-0.01925486,-2.235174E-10,1.300415E-07,-7.65004E-08,4.768361E-09,-4.291534E-08
389.2601,-0.1565464,-2.471969E-08,NaN,-0.285191,-8.816433E-08,NaN,0.4486492,5.336625E-08,NaN,-0.4381634,3.116298E-07,-0.4201957,-4.935753E-08,NaN,NaN,-0.01926719,-2.188608E-10,1.305631E-07,-7.663639E-08,2.384175E-09,-4.291534E-08
389.2751,-0.1565464,-2.471969E-08,NaN,-0.285191,-8.816433E-08,NaN,0.4486492,5.336625E-08,NaN,-0.4381634,3.116298E-07,-0.4201957,-4.935753E-08,NaN,NaN,-0.01926719,-2.188608E-10,1.305631E-07,-7.663639E-08,2.384175E-09,-4.291534E-08
389.289,-0.1645144,-2.475994E-08,NaN,-0.2856749,-8.832684E-08,NaN,0.451496,5.353888E-08,NaN,-0.4367914,3.125145E-07,-0.4222249,-4.952528E-08,NaN,NaN,-0.01927898,-2.188608E-10,1.325002E-07,-7.677193E-08,2.384175E-09,-4.291534E-08
389.3045,-0.1729949,-2.480003E-08,NaN,-0.2861507,-8.848884E-08,NaN,0.4544134,5.370306E-08,NaN,-0.4353765,3.133993E-07,-0.4243149,-4.968459E-08,NaN,NaN,-0.01929047,-2.188608E-10,1.336178E-07,-7.690703E-08,4.768361E-09,-4.291534E-08
389.3189,-0.1729949,-2.480003E-08,NaN,-0.2861507,-8.848884E-08,NaN,0.4544134,5.370306E-08,NaN,-0.4353765,3.133993E-07,-0.4243149,-4.968459E-08,NaN,NaN,-0.01929047,-2.188608E-10,1.336178E-07,-7.690703E-08,4.768361E-09,-4.291534E-08
389.3334,-0.1817633,-2.483997E-08,NaN,-0.286618,-8.865035E-08,NaN,0.4572618,5.386177E-08,NaN,-0.4340257,3.142841E-07,-0.4263482,-4.983843E-08,NaN,NaN,-0.01930173,-2.188608E-10,1.352569E-07,-7.704168E-08,4.768361E-09,-4.291534E-08
389.3488,-0.1906771,-2.487976E-08,NaN,-0.2870771,-8.881138E-08,NaN,0.460004,5.403295E-08,NaN,-0.4327672,3.151688E-07,-0.4282947,-5.000475E-08,NaN,NaN,-0.01931278,-2.188608E-10,1.362255E-07,-7.717592E-08,2.384175E-09,-4.291534E-08
389.3656,-0.2003678,-2.491939E-08,NaN,-0.2875309,-8.897193E-08,NaN,0.4632109,5.419851E-08,NaN,-0.4311884,3.160536E-07,-0.4306406,-5.016546E-08,NaN,NaN,-0.01932328,-2.188608E-10,1.349589E-07,-7.730974E-08,7.152547E-09,-4.291534E-08
389.3794,-0.2003678,-2.491939E-08,NaN,-0.2875309,-8.897193E-08,NaN,0.4632109,5.419851E-08,NaN,-0.4311884,3.160536E-07,-0.4306406,-5.016546E-08,NaN,NaN,-0.01932328,-2.188608E-10,1.349589E-07,-7.730974E-08,7.152547E-09,-4.291534E-08
389.3933,-0.210508,-2.495887E-08,NaN,-0.287977,-8.913199E-08,NaN,0.4664921,5.435894E-08,NaN,-0.4295707,3.16943E-07,-0.4330525,-5.032104E-08,NaN,NaN,-0.01933349,-2.188608E-10,1.35853E-07,-7.744312E-08,1.192092E-08,-4.291534E-08
389.4078,-0.2208899,-2.499819E-08,NaN,-0.2884152,-8.929155E-08,NaN,0.4697075,5.451114E-08,NaN,-0.4280178,3.178371E-07,-0.4354124,-5.04684E-08,NaN,NaN,-0.01934349,-2.235174E-10,1.355549E-07,-7.757607E-08,9.536732E-09,-4.291534E-08
389.4223,-0.2313812,-2.503736E-08,NaN,-0.2888458,-8.945063E-08,NaN,0.4728185,5.465811E-08,NaN,-0.4265581,3.187265E-07,-0.4376885,-5.061055E-08,NaN,NaN,-0.01935329,-2.235174E-10,1.374176E-07,-7.770858E-08,4.768361E-09,-4.291534E-08
389.4372,-0.2313812,-2.503736E-08,NaN,-0.2888458,-8.945063E-08,NaN,0.4728185,5.465811E-08,NaN,-0.4265581,3.187265E-07,-0.4376885,-5.061055E-08,NaN,NaN,-0.01935329,-2.235174E-10,1.374176E-07,-7.770858E-08,4.768361E-09,-4.291534E-08
389.451,-0.2426205,-2.507639E-08,NaN,-0.2892716,-8.960922E-08,NaN,0.4764132,5.479994E-08,NaN,-0.4247825,3.196159E-07,-0.4403836,-5.074756E-08,NaN,NaN,-0.01936252,-2.235174E-10,1.363E-07,-7.784065E-08,2.384175E-09,-4.291534E-08
389.4666,-0.2542848,-2.511526E-08,NaN,-0.2896902,-8.976731E-08,NaN,0.4800863,5.49339E-08,NaN,-0.422972,3.205053E-07,-0.4431503,-5.087671E-08,NaN,NaN,-0.01937149,-2.235174E-10,1.352569E-07,-7.79723E-08,2.384175E-09,-4.291534E-08
389.4814,-0.2661689,-2.515398E-08,NaN,-0.2901011,-8.992492E-08,NaN,0.4836927,5.506299E-08,NaN,-0.4212306,3.213993E-07,-0.4458653,-5.100099E-08,NaN,NaN,-0.01938026,-2.28174E-10,1.349589E-07,-7.81035E-08,-2.384196E-09,-4.291534E-08
389.4963,-0.2661689,-2.515398E-08,NaN,-0.2901011,-8.992492E-08,NaN,0.4836927,5.506299E-08,NaN,-0.4212306,3.213993E-07,-0.4458653,-5.100099E-08,NaN,NaN,-0.01938026,-2.28174E-10,1.349589E-07,-7.81035E-08,-2.384196E-09,-4.291534E-08
389.5101,-0.2788648,-2.519255E-08,NaN,-0.290507,-9.008203E-08,NaN,0.4877974,5.518725E-08,NaN,-0.4191811,3.222981E-07,-0.4490137,-5.112046E-08,NaN,NaN,-0.01938847,-2.374872E-10,1.339903E-07,-7.823433E-08,-2.384196E-09,-4.291534E-08
389.5256,-0.29202,-2.523097E-08,NaN,-0.2909051,-9.023866E-08,NaN,0.4919722,5.530399E-08,NaN,-0.4171126,3.231968E-07,-0.4522269,-5.123241E-08,NaN,NaN,-0.01939642,-2.468004E-10,1.352569E-07,-7.836474E-08,-9.536754E-09,-4.291534E-08
389.5402,-0.3054104,-2.526925E-08,NaN,-0.2912953,-9.039481E-08,NaN,0.4960664,5.541618E-08,NaN,-0.4151303,3.240955E-07,-0.455377,-5.133981E-08,NaN,NaN,-0.0194042,-2.561137E-10,1.368215E-07,-7.849473E-08,-1.192094E-08,-4.291534E-08
389.5565,-0.3054104,-2.526925E-08,NaN,-0.2912953,-9.039481E-08,NaN,0.4960664,5.541618E-08,NaN,-0.4151303,3.240955E-07,-0.455377,-5.133981E-08,NaN,NaN,-0.0194042,-2.561137E-10,1.368215E-07,-7.849473E-08,-1.192094E-08,-4.291534E-08
389.569,-0.3188939,-2.530737E-08,NaN,-0.291678,-9.055049E-08,NaN,0.5000401,5.55239E-08,NaN,-0.4132617,3.249803E-07,-0.4584312,-5.144276E-08,NaN,NaN,-0.01941181,-2.51457E-10,1.352569E-07,-7.862429E-08,-9.536754E-09,-4.291534E-08
389.5847,-0.3331031,-2.534535E-08,NaN,-0.2920562,-9.07047E-08,NaN,0.5045238,5.577479E-08,NaN,-0.4111016,3.258604E-07,-0.461934,-5.168888E-08,NaN,NaN,-0.01941882,-2.468004E-10,1.386097E-07,-7.875215E-08,-1.430513E-08,-4.053116E-08
389.5992,-0.3331031,-2.534535E-08,NaN,-0.2920562,-9.07047E-08,NaN,0.5045238,5.577479E-08,NaN,-0.4111016,3.258604E-07,-0.461934,-5.168888E-08,NaN,NaN,-0.01941882,-2.468004E-10,1.386097E-07,-7.875215E-08,-1.430513E-08,-4.053116E-08
389.6133,-0.3477108,-2.538318E-08,NaN,-0.2924274,-9.085772E-08,NaN,0.5090855,5.601049E-08,NaN,-0.4089255,3.267405E-07,-0.4655109,-5.19198E-08,NaN,NaN,-0.01942558,-2.468004E-10,1.409194E-07,-7.887905E-08,-1.668931E-08,-4.291534E-08
389.6295,-0.3625096,-2.542087E-08,NaN,-0.2927912,-9.100982E-08,NaN,0.5135723,5.623675E-08,NaN,-0.406835,3.276159E-07,-0.469031,-5.214128E-08,NaN,NaN,-0.01943218,-2.421438E-10,1.439741E-07,-7.900523E-08,-1.668931E-08,-4.053116E-08
389.6433,-0.3773677,-2.545841E-08,NaN,-0.2931482,-9.116118E-08,NaN,0.5179419,5.645082E-08,NaN,-0.4048576,3.284914E-07,-0.4724593,-5.235056E-08,NaN,NaN,-0.01943863,-2.374872E-10,1.446446E-07,-7.913083E-08,-2.145768E-08,-4.291534E-08
389.658,-0.3773677,-2.545841E-08,NaN,-0.2931482,-9.116118E-08,NaN,0.5179419,5.645082E-08,NaN,-0.4048576,3.284914E-07,-0.4724593,-5.235056E-08,NaN,NaN,-0.01943863,-2.374872E-10,1.446446E-07,-7.913083E-08,-2.145768E-08,-4.291534E-08
389.6722,-0.3929247,-2.54958E-08,NaN,-0.2935014,-9.131193E-08,NaN,0.522851,5.665852E-08,NaN,-0.4025933,3.293622E-07,-0.476366,-5.255348E-08,NaN,NaN,-0.01944446,-2.328306E-10,1.419624E-07,-7.925591E-08,-1.668931E-08,-4.053116E-08
389.6875,-0.4088579,-2.553305E-08,NaN,-0.2938479,-9.146212E-08,NaN,0.5278466,5.685711E-08,NaN,-0.4003159,3.30233E-07,-0.4803556,-5.274729E-08,NaN,NaN,-0.01945004,-2.28174E-10,1.412919E-07,-7.938053E-08,-1.192094E-08,-4.291534E-08
389.7022,-0.4249625,-2.557016E-08,NaN,-0.2941875,-9.161179E-08,NaN,0.532768,5.70423E-08,NaN,-0.3981272,3.311037E-07,-0.4842899,-5.292769E-08,NaN,NaN,-0.01945548,-2.235174E-10,1.417389E-07,-7.950469E-08,-1.192094E-08,-4.053116E-08
389.7172,-0.4249625,-2.557016E-08,NaN,-0.2941875,-9.161179E-08,NaN,0.532768,5.70423E-08,NaN,-0.3981272,3.311037E-07,-0.4842899,-5.292769E-08,NaN,NaN,-0.01945548,-2.235174E-10,1.417389E-07,-7.950469E-08,-1.192094E-08,-4.053116E-08
389.7313,-0.4418315,-2.560712E-08,NaN,-0.2945227,-9.176097E-08,NaN,0.5382525,5.722161E-08,NaN,-0.3956596,3.319745E-07,-0.488725,-5.310222E-08,NaN,NaN,-0.01946028,-2.188608E-10,1.438996E-07,-7.962844E-08,-4.768384E-09,-4.291534E-08
389.7469,-0.4591127,-2.564394E-08,NaN,-0.2948508,-9.190966E-08,NaN,0.5438181,5.739231E-08,NaN,-0.3931943,3.328453E-07,-0.4932389,-5.326814E-08,NaN,NaN,-0.01946487,-2.142042E-10,1.399508E-07,-7.975176E-08,-1.192094E-08,-4.053116E-08
389.7616,-0.4765822,-2.568062E-08,NaN,-0.2951714,-9.205789E-08,NaN,0.5492973,5.755739E-08,NaN,-0.390834,3.337161E-07,-0.497687,-5.342845E-08,NaN,NaN,-0.01946933,-2.095476E-10,1.355549E-07,-7.987466E-08,-4.768384E-09,-3.814697E-08
389.7762,-0.4765822,-2.568062E-08,NaN,-0.2951714,-9.205789E-08,NaN,0.5492973,5.755739E-08,NaN,-0.390834,3.337161E-07,-0.497687,-5.342845E-08,NaN,NaN,-0.01946933,-2.095476E-10,1.355549E-07,-7.987466E-08,-4.768384E-09,-3.814697E-08
389.7902,-0.4940984,-2.571715E-08,NaN,-0.2954852,-9.220565E-08,NaN,0.5546454,5.771414E-08,NaN,-0.3886053,3.345869E-07,-0.5020323,-5.358043E-08,NaN,NaN,-0.01947365,-2.04891E-10,1.359275E-07,-7.999716E-08,-7.15257E-09,-4.053116E-08
389.8059,-0.5122948,-2.575355E-08,NaN,-0.2957955,-9.235296E-08,NaN,0.5605788,5.787006E-08,NaN,-0.3861148,3.354577E-07,-0.506904,-5.373159E-08,NaN,NaN,-0.01947727,-2.002344E-10,1.383861E-07,-8.011925E-08,-1.192094E-08,-3.814697E-08
389.8203,-0.5308447,-2.57898E-08,NaN,-0.2960994,-9.24998E-08,NaN,0.5666051,5.801783E-08,NaN,-0.3836292,3.363284E-07,-0.5118673,-5.38746E-08,NaN,NaN,-0.01948069,-1.955777E-10,1.389822E-07,-8.024094E-08,-9.536755E-09,-4.053116E-08
389.8351,-0.5308447,-2.57898E-08,NaN,-0.2960994,-9.24998E-08,NaN,0.5666051,5.801783E-08,NaN,-0.3836292,3.363284E-07,-0.5118673,-5.38746E-08,NaN,NaN,-0.01948069,-1.955777E-10,1.389822E-07,-8.024094E-08,-9.536755E-09,-4.053116E-08
389.8491,-0.5495407,-2.582591E-08,NaN,-0.2963965,-9.264662E-08,NaN,0.5725523,5.816569E-08,NaN,-0.3812472,3.371992E-07,-0.5167726,-5.40177E-08,NaN,NaN,-0.01948398,-1.909211E-10,1.417389E-07,-8.036129E-08,-7.15257E-09,-3.814697E-08
389.8644,-0.5682516,-2.586188E-08,NaN,-0.2966876,-9.279292E-08,NaN,0.5783726,5.83056E-08,NaN,-0.3789953,3.3807E-07,-0.5215797,-5.415287E-08,NaN,NaN,-0.01948716,-1.862645E-10,1.390567E-07,-8.048116E-08,-4.768384E-09,-4.053116E-08
389.8803,-0.5876179,-2.589771E-08,NaN,-0.2969757,-9.293873E-08,NaN,0.5848187,5.844052E-08,NaN,-0.3764871,3.389455E-07,-0.5269539,-5.428306E-08,NaN,NaN,-0.01948959,-1.862645E-10,1.411429E-07,-8.060061E-08,2.384173E-09,-3.814697E-08
389.8937,-0.5876179,-2.589771E-08,NaN,-0.2969757,-9.293873E-08,NaN,0.5848187,5.844052E-08,NaN,-0.3764871,3.389455E-07,-0.5269539,-5.428306E-08,NaN,NaN,-0.01948959,-1.862645E-10,1.411429E-07,-8.060061E-08,2.384173E-09,-3.814697E-08
389.9079,-0.6073172,-2.593341E-08,NaN,-0.2972578,-9.308407E-08,NaN,0.5913693,5.856771E-08,NaN,-0.3739864,3.398209E-07,-0.5324315,-5.440551E-08,NaN,NaN,-0.01949181,-1.862645E-10,1.439741E-07,-8.071964E-08,-7.15257E-09,-4.053116E-08
389.9233,-0.6271449,-2.596896E-08,NaN,-0.2975336,-9.322892E-08,NaN,0.5978424,5.86901E-08,NaN,-0.3715917,3.407057E-07,-0.537853,-5.452318E-08,NaN,NaN,-0.01949394,-1.955778E-10,1.440486E-07,-8.083834E-08,-2.384198E-09,-3.814697E-08
389.938,-0.6271449,-2.596896E-08,NaN,-0.2975336,-9.322892E-08,NaN,0.5978424,5.86901E-08,NaN,-0.3715917,3.407057E-07,-0.537853,-5.452318E-08,NaN,NaN,-0.01949394,-1.955778E-10,1.440486E-07,-8.083834E-08,-2.384198E-09,-3.814697E-08
389.9521,-0.6476951,-2.600438E-08,NaN,-0.2978058,-9.337337E-08,NaN,0.6049742,5.865685E-08,NaN,-0.3689498,3.415718E-07,-0.5438728,-5.439454E-08,NaN,NaN,-0.01949531,-1.816079E-10,1.42931E-07,-8.09594E-08,-4.768384E-09,-4.053116E-08
389.9675,-0.6686156,-2.603966E-08,NaN,-0.2980714,-9.351807E-08,NaN,0.6122076,5.862361E-08,NaN,-0.3663307,3.424333E-07,-0.5499938,-5.419998E-08,NaN,NaN,-0.01949649,-1.676381E-10,1.482209E-07,-8.108061E-08,-7.15257E-09,-3.814697E-08
389.9823,-0.6896831,-2.60748E-08,NaN,-0.2983301,-9.366274E-08,NaN,0.6193514,5.859036E-08,NaN,-0.3638336,3.432994E-07,-0.556048,-5.395766E-08,NaN,NaN,-0.0194976,-1.536682E-10,1.488915E-07,-8.12017E-08,-4.768384E-09,-4.053116E-08
389.9972,-0.6896831,-2.60748E-08,NaN,-0.2983301,-9.366274E-08,NaN,0.6193514,5.859036E-08,NaN,-0.3638336,3.432994E-07,-0.556048,-5.395766E-08,NaN,NaN,-0.0194976,-1.536682E-10,1.488915E-07,-8.12017E-08,-4.768384E-09,-4.053116E-08
390.0125,-0.710756,-2.610981E-08,NaN,-0.2985827,-9.38072E-08,NaN,0.6263545,5.855711E-08,NaN,-0.3614839,3.441702E-07,-0.5619922,-5.36809E-08,NaN,NaN,-0.0194986,-1.396984E-10,1.521697E-07,-8.132253E-08,-4.768384E-09,-3.814697E-08
390.0266,-0.7319649,-2.614468E-08,NaN,-0.2988311,-9.395134E-08,NaN,0.6334677,5.852387E-08,NaN,-0.3591656,3.450456E-07,-0.5680525,-5.33795E-08,NaN,NaN,-0.01949926,-1.303852E-10,1.564165E-07,-8.144304E-08,-7.15257E-09,-4.053116E-08
390.0413,-0.7531717,-2.617942E-08,NaN,-0.2990752,-9.409509E-08,NaN,0.6405244,5.849062E-08,NaN,-0.3569475,3.459164E-07,-0.5740796,-5.306064E-08,NaN,NaN,-0.01949978,-1.164153E-10,1.55746E-07,-8.156318E-08,-7.15257E-09,-3.814697E-08
390.056,-0.7531717,-2.617942E-08,NaN,-0.2990752,-9.409509E-08,NaN,0.6405244,5.849062E-08,NaN,-0.3569475,3.459164E-07,-0.5740796,-5.306064E-08,NaN,NaN,-0.01949978,-1.164153E-10,1.55746E-07,-8.156318E-08,-7.15257E-09,-3.814697E-08
390.0701,-0.7742894,-2.621402E-08,NaN,-0.2993153,-9.423842E-08,NaN,0.6474729,5.845737E-08,NaN,-0.3548493,3.467825E-07,-0.5800279,-5.272959E-08,NaN,NaN,-0.0195002,-1.024455E-10,1.570871E-07,-8.168294E-08,-4.768384E-09,-4.053116E-08
390.0858,-0.7952634,-2.624849E-08,NaN,-0.2995524,-9.438133E-08,NaN,0.6543034,5.842413E-08,NaN,-0.3528709,3.476486E-07,-0.5858895,-5.239022E-08,NaN,NaN,-0.0195005,-8.847566E-11,1.567891E-07,-8.180231E-08,-1.24345E-14,-3.814697E-08
390.1004,-0.8160601,-2.628282E-08,NaN,-0.2997869,-9.452379E-08,NaN,0.661019,5.839088E-08,NaN,-0.3510056,3.485148E-07,-0.5916677,-5.204537E-08,NaN,NaN,-0.01950072,-7.450582E-11,1.572361E-07,-8.192128E-08,1.19208E-09,-4.053116E-08
390.1152,-0.8160601,-2.628282E-08,NaN,-0.2997869,-9.452379E-08,NaN,0.661019,5.839088E-08,NaN,-0.3510056,3.485148E-07,-0.5916677,-5.204537E-08,NaN,NaN,-0.01950072,-7.450582E-11,1.572361E-07,-8.192128E-08,1.19208E-09,-4.053116E-08
390.1312,-0.8366587,-2.631702E-08,NaN,-0.3000195,-9.466581E-08,NaN,0.6676256,5.835764E-08,NaN,-0.3492452,3.493902E-07,-0.5973674,-5.169711E-08,NaN,NaN,-0.01950083,-6.98492E-11,1.550754E-07,-8.203985E-08,-1.192105E-09,-3.814697E-08
390.1447,-0.8570471,-2.635109E-08,NaN,-0.3002506,-9.480738E-08,NaN,0.674128,5.832439E-08,NaN,-0.3475823,3.502657E-07,-0.6029928,-5.134696E-08,NaN,NaN,-0.01950086,-6.519259E-11,1.547774E-07,-8.215803E-08,-8.344663E-09,-4.053116E-08
390.1595,-0.8570471,-2.635109E-08,NaN,-0.3002506,-9.480738E-08,NaN,0.674128,5.832439E-08,NaN,-0.3475823,3.502657E-07,-0.6029928,-5.134696E-08,NaN,NaN,-0.01950086,-6.519259E-11,1.547774E-07,-8.215803E-08,-8.344663E-09,-4.053116E-08
390.1736,-0.8772185,-2.638502E-08,NaN,-0.3004804,-9.494851E-08,NaN,0.6805292,5.829114E-08,NaN,-0.3460108,3.511411E-07,-0.6085463,-5.099605E-08,NaN,NaN,-0.01950081,-6.053597E-11,1.596948E-07,-8.227581E-08,-8.344663E-09,-3.814697E-08
390.1889,-0.8971694,-2.641883E-08,NaN,-0.3007091,-9.508918E-08,NaN,0.6868311,5.82579E-08,NaN,-0.3445257,3.520165E-07,-0.6140286,-5.064518E-08,NaN,NaN,-0.01950071,-5.587936E-11,1.610359E-07,-8.239326E-08,-9.536755E-09,-4.053116E-08
390.2038,-0.9168987,-2.64525E-08,NaN,-0.3009369,-9.522941E-08,NaN,0.6930338,5.822465E-08,NaN,-0.3431229,3.528873E-07,-0.6194397,-5.029495E-08,NaN,NaN,-0.01950058,-4.190952E-11,1.611849E-07,-8.251034E-08,-8.344663E-09,-3.814697E-08
390.2188,-0.9168987,-2.64525E-08,NaN,-0.3009369,-9.522941E-08,NaN,0.6930338,5.822465E-08,NaN,-0.3431229,3.528873E-07,-0.6194397,-5.029495E-08,NaN,NaN,-0.01950058,-4.190952E-11,1.611849E-07,-8.251034E-08,-8.344663E-09,-3.814697E-08
390.2327,-0.9364063,-2.648604E-08,NaN,-0.3011638,-9.536921E-08,NaN,0.6991372,5.81914E-08,NaN,-0.341799,3.537628E-07,-0.6247783,-4.994579E-08,NaN,NaN,-0.01950041,-2.793968E-11,1.582047E-07,-8.262703E-08,-1.430513E-08,-4.053116E-08
390.2484,-0.9556934,-2.651945E-08,NaN,-0.3013899,-9.550858E-08,NaN,0.7051401,5.815816E-08,NaN,-0.340551,3.546429E-07,-0.630043,-4.959801E-08,NaN,NaN,-0.01950022,-1.862646E-11,1.532128E-07,-8.274333E-08,-1.549722E-08,-3.814697E-08
390.2633,-0.9747614,-2.655273E-08,NaN,-0.3016152,-9.564751E-08,NaN,0.7110415,5.812491E-08,NaN,-0.3393765,3.555276E-07,-0.635232,-4.925185E-08,NaN,NaN,-0.01950002,-1.396984E-11,1.547029E-07,-8.285924E-08,-1.311303E-08,-4.053116E-08
390.2778,-0.9747614,-2.655273E-08,NaN,-0.3016152,-9.564751E-08,NaN,0.7110415,5.812491E-08,NaN,-0.3393765,3.555276E-07,-0.635232,-4.925185E-08,NaN,NaN,-0.01950002,-1.396984E-11,1.547029E-07,-8.285924E-08,-1.311303E-08,-4.053116E-08
390.2917,-0.9936122,-2.658588E-08,NaN,-0.3018396,-9.578601E-08,NaN,0.7168394,5.809166E-08,NaN,-0.3382731,3.564124E-07,-0.6403431,-4.890746E-08,NaN,NaN,-0.01949981,-9.313231E-12,1.594713E-07,-8.297477E-08,-1.192094E-08,-3.814697E-08
390.3071,-1.012248,-2.661891E-08,NaN,-0.3020633,-9.592407E-08,NaN,0.7225326,5.805842E-08,NaN,-0.3372387,3.572972E-07,-0.6453742,-4.856496E-08,NaN,NaN,-0.01949959,-4.656618E-12,1.586517E-07,-8.308992E-08,-1.311303E-08,-4.053116E-08
390.3218,-1.030671,-2.66518E-08,NaN,-0.3022861,-9.60617E-08,NaN,0.7281192,5.802517E-08,NaN,-0.3362712,3.581773E-07,-0.6503232,-4.822443E-08,NaN,NaN,-0.0194994,4.656608E-12,1.570126E-07,-8.320468E-08,-1.430513E-08,-3.814697E-08
390.3368,-1.030671,-2.66518E-08,NaN,-0.3022861,-9.60617E-08,NaN,0.7281192,5.802517E-08,NaN,-0.3362712,3.581773E-07,-0.6503232,-4.822443E-08,NaN,NaN,-0.0194994,4.656608E-12,1.570126E-07,-8.320468E-08,-1.430513E-08,-3.814697E-08
390.3508,-1.048883,-2.668457E-08,NaN,-0.302508,-9.619891E-08,NaN,0.7335976,5.799193E-08,NaN,-0.3353688,3.590621E-07,-0.6551878,-4.788592E-08,NaN,NaN,-0.01949922,9.31322E-12,1.568636E-07,-8.331905E-08,-1.430513E-08,-4.053116E-08
390.3681,-1.066887,-2.671721E-08,NaN,-0.3027291,-9.633568E-08,NaN,0.7389662,5.795868E-08,NaN,-0.3345294,3.599422E-07,-0.6599662,-4.754948E-08,NaN,NaN,-0.01949906,1.862645E-11,1.56491E-07,-8.343305E-08,-1.78814E-08,-3.814697E-08
390.3818,-1.084685,-2.674972E-08,NaN,-0.3029493,-9.647203E-08,NaN,0.7442233,5.792543E-08,NaN,-0.3337514,3.608223E-07,-0.6646561,-4.721512E-08,NaN,NaN,-0.01949892,2.793967E-11,1.582047E-07,-8.354667E-08,-1.90735E-08,-4.053116E-08
390.3957,-1.084685,-2.674972E-08,NaN,-0.3029493,-9.647203E-08,NaN,0.7442233,5.792543E-08,NaN,-0.3337514,3.608223E-07,-0.6646561,-4.721512E-08,NaN,NaN,-0.01949892,2.793967E-11,1.582047E-07,-8.354667E-08,-1.90735E-08,-4.053116E-08
390.4094,-1.102279,-2.67821E-08,NaN,-0.3031685,-9.660795E-08,NaN,0.7493675,5.789219E-08,NaN,-0.3330329,3.617024E-07,-0.6692558,-4.688287E-08,NaN,NaN,-0.01949882,3.72529E-11,1.602163E-07,-8.365991E-08,-1.78814E-08,-3.814697E-08
390.4248,-1.119672,-2.681436E-08,NaN,-0.3033868,-9.674344E-08,NaN,0.7543975,5.785894E-08,NaN,-0.3323722,3.625825E-07,-0.6737633,-4.655272E-08,NaN,NaN,-0.01949875,4.656612E-11,1.643141E-07,-8.377277E-08,-1.430513E-08,-4.053116E-08
390.4394,-1.119672,-2.681436E-08,NaN,-0.3033868,-9.674344E-08,NaN,0.7543975,5.785894E-08,NaN,-0.3323722,3.625825E-07,-0.6737633,-4.655272E-08,NaN,NaN,-0.01949875,4.656612E-11,1.643141E-07,-8.377277E-08,-1.430513E-08,-4.053116E-08
390.4535,-1.136865,-2.684649E-08,NaN,-0.3036042,-9.687852E-08,NaN,0.7593119,5.782569E-08,NaN,-0.3317676,3.634626E-07,-0.678177,-4.622468E-08,NaN,NaN,-0.01949874,5.587934E-11,1.651337E-07,-8.388525E-08,-1.072885E-08,-3.814697E-08
390.4691,-1.153862,-2.68785E-08,NaN,-0.3038205,-9.701316E-08,NaN,0.7641095,5.779245E-08,NaN,-0.3312174,3.643427E-07,-0.6824952,-4.589874E-08,NaN,NaN,-0.01949877,6.519257E-11,1.605889E-07,-8.399736E-08,-8.940708E-09,-4.053116E-08
390.4839,-1.170664,-2.691039E-08,NaN,-0.3040358,-9.714739E-08,NaN,0.7687892,5.77592E-08,NaN,-0.33072,3.652228E-07,-0.6867164,-4.55749E-08,NaN,NaN,-0.01949885,7.450579E-11,1.564165E-07,-8.41091E-08,-7.748615E-09,-3.814697E-08
390.5001,-1.187274,-2.694215E-08,NaN,-0.3042501,-9.72812E-08,NaN,0.7733499,5.772596E-08,NaN,-0.3302738,3.661029E-07,-0.6908391,-4.525316E-08,NaN,NaN,-0.01949898,8.381901E-11,1.611849E-07,-8.422047E-08,-8.344662E-09,-4.053116E-08
390.5137,-1.187274,-2.694215E-08,NaN,-0.3042501,-9.72812E-08,NaN,0.7733499,5.772596E-08,NaN,-0.3302738,3.661029E-07,-0.6908391,-4.525316E-08,NaN,NaN,-0.01949898,8.381901E-11,1.611849E-07,-8.422047E-08,-8.344662E-09,-4.053116E-08
390.5274,-1.203694,-2.697378E-08,NaN,-0.3044633,-9.741459E-08,NaN,0.7777908,5.769271E-08,NaN,-0.3298772,3.66983E-07,-0.694862,-4.493349E-08,NaN,NaN,-0.01949917,9.313224E-11,1.615574E-07,-8.433146E-08,-1.01328E-08,-3.814697E-08
390.5437,-1.219926,-2.70053E-08,NaN,-0.3046755,-9.754757E-08,NaN,0.7821112,5.765946E-08,NaN,-0.3295286,3.678631E-07,-0.6987841,-4.461589E-08,NaN,NaN,-0.01949942,9.778885E-11,1.556715E-07,-8.444209E-08,-9.536754E-09,-4.053116E-08
390.5578,-1.219926,-2.70053E-08,NaN,-0.3046755,-9.754757E-08,NaN,0.7821112,5.765946E-08,NaN,-0.3295286,3.678631E-07,-0.6987841,-4.461589E-08,NaN,NaN,-0.01949942,9.778885E-11,1.556715E-07,-8.444209E-08,-9.536754E-09,-4.053116E-08
390.5715,-1.235971,-2.703669E-08,NaN,-0.3048865,-9.768012E-08,NaN,0.7863103,5.762622E-08,NaN,-0.3292265,3.687479E-07,-0.7026041,-4.430036E-08,NaN,NaN,-0.01949973,9.313224E-11,1.547774E-07,-8.45509E-08,-9.536754E-09,-3.814697E-08
390.5869,-1.251833,-2.706795E-08,NaN,-0.3050964,-9.781189E-08,NaN,0.7903876,5.759297E-08,NaN,-0.3289694,3.696233E-07,-0.7063211,-4.398687E-08,NaN,NaN,-0.0195001,9.313224E-11,1.515736E-07,-8.466054E-08,-1.072885E-08,-4.053116E-08
390.6017,-1.267514,-2.70991E-08,NaN,-0.3053052,-9.794339E-08,NaN,0.7943425,5.755972E-08,NaN,-0.328756,3.705034E-07,-0.7099344,-4.367541E-08,NaN,NaN,-0.01950054,7.91624E-11,1.524677E-07,-8.476849E-08,-9.536754E-09,-3.814697E-08
390.6166,-1.267514,-2.70991E-08,NaN,-0.3053052,-9.794339E-08,NaN,0.7943425,5.755972E-08,NaN,-0.328756,3.705034E-07,-0.7099344,-4.367541E-08,NaN,NaN,-0.01950054,7.91624E-11,1.524677E-07,-8.476849E-08,-9.536754E-09,-3.814697E-08
390.6325,-1.282794,-2.713012E-08,NaN,-0.3055122,-9.807421E-08,NaN,0.7978494,5.752648E-08,NaN,-0.328683,3.713696E-07,-0.7131444,-4.336598E-08,NaN,NaN,-0.01950138,7.450578E-11,1.532128E-07,-8.487583E-08,-8.940708E-09,-4.053116E-08
390.6461,-1.29776,-2.716103E-08,NaN,-0.3057184,-9.820444E-08,NaN,0.8011428,5.749323E-08,NaN,-0.3286794,3.72231E-07,-0.7161677,-4.305855E-08,NaN,NaN,-0.01950229,6.984917E-11,1.478484E-07,-8.498269E-08,-9.536754E-09,-3.814697E-08
390.6605,-1.312465,-2.719181E-08,NaN,-0.3059241,-9.833416E-08,NaN,0.8043067,5.745999E-08,NaN,-0.328715,3.730879E-07,-0.7190811,-4.275312E-08,NaN,NaN,-0.01950325,6.519255E-11,1.460602E-07,-8.508913E-08,-1.01328E-08,-4.053116E-08
390.6754,-1.312465,-2.719181E-08,NaN,-0.3059241,-9.833416E-08,NaN,0.8043067,5.745999E-08,NaN,-0.328715,3.730879E-07,-0.7190811,-4.275312E-08,NaN,NaN,-0.01950325,6.519255E-11,1.460602E-07,-8.508913E-08,-1.01328E-08,-4.053116E-08
390.6893,-1.32622,-2.722247E-08,NaN,-0.306127,-9.84634E-08,NaN,0.8062854,5.742674E-08,NaN,-0.3290995,3.739493E-07,-0.7209134,-4.244968E-08,NaN,NaN,-0.01950534,5.587933E-11,1.439741E-07,-8.519517E-08,-1.01328E-08,-3.814697E-08
390.7049,-1.339319,-2.725302E-08,NaN,-0.3063304,-9.859221E-08,NaN,0.8078665,5.739349E-08,NaN,-0.3296028,3.748061E-07,-0.7223929,-4.21482E-08,NaN,NaN,-0.01950756,5.122272E-11,1.422604E-07,-8.530083E-08,-1.087786E-08,-4.053116E-08
390.7197,-1.339319,-2.725302E-08,NaN,-0.3063304,-9.859221E-08,NaN,0.8078665,5.739349E-08,NaN,-0.3296028,3.748061E-07,-0.7223929,-4.21482E-08,NaN,NaN,-0.01950756,5.122272E-11,1.422604E-07,-8.530083E-08,-1.087786E-08,-4.053116E-08
390.7336,-1.35195,-2.728344E-08,NaN,-0.306535,-9.872059E-08,NaN,0.8093285,5.736025E-08,NaN,-0.330131,3.75663E-07,-0.7237747,-4.184869E-08,NaN,NaN,-0.0195097,4.656611E-11,1.382371E-07,-8.540614E-08,-9.536755E-09,-3.814697E-08
390.7493,-1.364234,-2.731375E-08,NaN,-0.3067407,-9.884856E-08,NaN,0.810753,5.7327E-08,NaN,-0.3306522,3.765105E-07,-0.7251312,-4.155112E-08,NaN,NaN,-0.01951181,5.122272E-11,1.36449E-07,-8.551108E-08,-8.791697E-09,-4.053116E-08
390.7644,-1.375524,-2.734394E-08,NaN,-0.3069448,-9.897615E-08,NaN,0.811069,5.729375E-08,NaN,-0.3314791,3.773673E-07,-0.7254755,-4.125549E-08,NaN,NaN,-0.01951502,4.656611E-11,1.333197E-07,-8.56157E-08,-8.866203E-09,-3.814697E-08
390.7838,-1.38614,-2.737401E-08,NaN,-0.3071498,-9.910335E-08,NaN,0.8110519,5.726051E-08,NaN,-0.3323903,3.782241E-07,-0.7255242,-4.096178E-08,NaN,NaN,-0.01951836,4.190949E-11,1.338413E-07,-8.572E-08,-9.46225E-09,-4.053116E-08
390.7933,-1.38614,-2.737401E-08,NaN,-0.3071498,-9.910335E-08,NaN,0.8110519,5.726051E-08,NaN,-0.3323903,3.782241E-07,-0.7255242,-4.096178E-08,NaN,NaN,-0.01951836,4.190949E-11,1.338413E-07,-8.572E-08,-9.46225E-09,-4.053116E-08
390.8072,-1.396288,-2.740396E-08,NaN,-0.307356,-9.923015E-08,NaN,0.81097,5.722726E-08,NaN,-0.3332988,3.790717E-07,-0.7255228,-4.066998E-08,NaN,NaN,-0.01952166,4.656611E-11,1.319786E-07,-8.582394E-08,-8.82895E-09,-3.814697E-08
390.8226,-1.406098,-2.74338E-08,NaN,-0.3075633,-9.935601E-08,NaN,0.8108963,5.719401E-08,NaN,-0.3341777,3.799192E-07,-0.7255358,-4.038008E-08,NaN,NaN,-0.01952492,4.190949E-11,1.319786E-07,-8.592684E-08,-9.648514E-09,-4.053116E-08
390.8374,-1.406098,-2.74338E-08,NaN,-0.3075633,-9.935601E-08,NaN,0.8108963,5.719401E-08,NaN,-0.3341777,3.799192E-07,-0.7255358,-4.038008E-08,NaN,NaN,-0.01952492,4.190949E-11,1.319786E-07,-8.592684E-08,-9.648514E-09,-4.053116E-08
390.8511,-1.41493,-2.746352E-08,NaN,-0.3077687,-9.948107E-08,NaN,0.8097637,5.716077E-08,NaN,-0.3353431,3.80762E-07,-0.7245801,-4.009205E-08,NaN,NaN,-0.01952924,3.725288E-11,1.278063E-07,-8.602908E-08,-9.20148E-09,-3.814697E-08
390.8666,-1.423109,-2.749312E-08,NaN,-0.3079744,-9.960549E-08,NaN,0.8083382,5.712752E-08,NaN,-0.3365766,3.816002E-07,-0.7233633,-3.980589E-08,NaN,NaN,-0.01953366,3.259627E-11,1.23783E-07,-8.613083E-08,-8.605433E-09,-4.053116E-08
390.8824,-1.430843,-2.752261E-08,NaN,-0.3081807,-9.972938E-08,NaN,0.8068843,5.709428E-08,NaN,-0.3377933,3.824337E-07,-0.7221274,-3.952159E-08,NaN,NaN,-0.01953798,3.259627E-11,1.211753E-07,-8.623213E-08,-8.456421E-09,-3.814697E-08
390.8972,-1.430843,-2.752261E-08,NaN,-0.3081807,-9.972938E-08,NaN,0.8068843,5.709428E-08,NaN,-0.3377933,3.824337E-07,-0.7221274,-3.952159E-08,NaN,NaN,-0.01953798,3.259627E-11,1.211753E-07,-8.623213E-08,-8.456421E-09,-3.814697E-08
390.9114,-1.43754,-2.755199E-08,NaN,-0.3083853,-9.985279E-08,NaN,0.8044162,5.706103E-08,NaN,-0.3392876,3.832672E-07,-0.7199644,-3.923914E-08,NaN,NaN,-0.01954327,3.259627E-11,1.182696E-07,-8.633305E-08,-7.562352E-09,-3.576278E-08
390.9255,-1.443554,-2.758125E-08,NaN,-0.3085899,-9.997576E-08,NaN,0.8017104,5.702778E-08,NaN,-0.3408334,3.841008E-07,-0.7175906,-3.895852E-08,NaN,NaN,-0.01954859,3.259627E-11,1.172265E-07,-8.64336E-08,-5.774212E-09,-3.814697E-08
390.94,-1.443554,-2.758125E-08,NaN,-0.3085899,-9.997576E-08,NaN,0.8017104,5.702778E-08,NaN,-0.3408334,3.841008E-07,-0.7175906,-3.895852E-08,NaN,NaN,-0.01954859,3.259627E-11,1.172265E-07,-8.64336E-08,-5.774212E-09,-3.814697E-08
390.954,-1.449115,-2.761039E-08,NaN,-0.3087951,-1.000983E-07,NaN,0.7990305,5.699454E-08,NaN,-0.3423448,3.849343E-07,-0.7152467,-3.867973E-08,NaN,NaN,-0.01955379,3.259627E-11,1.160344E-07,-8.65338E-08,-3.986073E-09,-3.576278E-08
390.9695,-1.454367,-2.763942E-08,NaN,-0.3090003,-1.002205E-07,NaN,0.7964423,5.696129E-08,NaN,-0.3437977,3.857678E-07,-0.7129913,-3.840274E-08,NaN,NaN,-0.01955884,3.259627E-11,1.148423E-07,-8.663365E-08,-4.880143E-09,-3.814697E-08
390.9845,-1.458677,-2.766834E-08,NaN,-0.309203,-1.003423E-07,NaN,0.7929118,5.692804E-08,NaN,-0.3455159,3.866013E-07,-0.7098737,-3.812756E-08,NaN,NaN,-0.01956479,3.259627E-11,1.136502E-07,-8.673316E-08,-4.284096E-09,-3.576278E-08
390.999,-1.458677,-2.766834E-08,NaN,-0.309203,-1.003423E-07,NaN,0.7929118,5.692804E-08,NaN,-0.3455159,3.866013E-07,-0.7098737,-3.812756E-08,NaN,NaN,-0.01956479,3.259627E-11,1.136502E-07,-8.673316E-08,-4.284096E-09,-3.576278E-08
391.0132,-1.462375,-2.769715E-08,NaN,-0.3094049,-1.004636E-07,NaN,0.7891737,5.68948E-08,NaN,-0.3472807,3.874349E-07,-0.7065708,-3.785417E-08,NaN,NaN,-0.01957078,3.259627E-11,1.117876E-07,-8.683234E-08,-2.79398E-09,-3.814697E-08
391.0287,-1.465674,-2.772584E-08,NaN,-0.3096062,-1.005846E-07,NaN,0.7854816,5.686155E-08,NaN,-0.3490085,3.882684E-07,-0.7033142,-3.758255E-08,NaN,NaN,-0.0195766,3.259627E-11,1.103719E-07,-8.693118E-08,-2.79398E-09,-3.576278E-08
391.043,-1.468707,-2.775442E-08,NaN,-0.3098069,-1.007053E-07,NaN,0.7819009,5.682831E-08,NaN,-0.3506753,3.891019E-07,-0.7001627,-3.73127E-08,NaN,NaN,-0.01958225,3.259627E-11,1.084348E-07,-8.70297E-08,-3.68805E-09,-3.814697E-08
391.058,-1.468707,-2.775442E-08,NaN,-0.3098069,-1.007053E-07,NaN,0.7819009,5.682831E-08,NaN,-0.3506753,3.891019E-07,-0.7001627,-3.73127E-08,NaN,NaN,-0.01958225,3.259627E-11,1.084348E-07,-8.70297E-08,-3.68805E-09,-3.814697E-08
391.0721,-1.470835,-2.778289E-08,NaN,-0.3100044,-1.008255E-07,NaN,0.7774307,5.679506E-08,NaN,-0.3526086,3.899354E-07,-0.6961982,-3.704461E-08,NaN,NaN,-0.01958871,3.259627E-11,1.057526E-07,-8.712789E-08,-3.986073E-09,-3.576278E-08
391.0875,-1.472384,-2.781125E-08,NaN,-0.3102003,-1.009454E-07,NaN,0.7727867,5.676181E-08,NaN,-0.3545856,3.907689E-07,-0.6920785,-3.677826E-08,NaN,NaN,-0.01959518,3.259627E-11,1.048585E-07,-8.722575E-08,-3.986073E-09,-3.814697E-08
391.1022,-1.473562,-2.78395E-08,NaN,-0.310395,-1.010648E-07,NaN,0.7682175,5.672857E-08,NaN,-0.3565214,3.916025E-07,-0.6880306,-3.651364E-08,NaN,NaN,-0.01960146,3.259627E-11,1.012822E-07,-8.732329E-08,-5.178166E-09,-3.576278E-08
391.117,-1.473562,-2.78395E-08,NaN,-0.310395,-1.010648E-07,NaN,0.7682175,5.672857E-08,NaN,-0.3565214,3.916025E-07,-0.6880306,-3.651364E-08,NaN,NaN,-0.01960146,3.259627E-11,1.012822E-07,-8.732329E-08,-5.178166E-09,-3.576278E-08
391.1309,-1.473776,-2.786764E-08,NaN,-0.3105864,-1.01184E-07,NaN,0.7628145,5.669532E-08,NaN,-0.3587233,3.92436E-07,-0.6832231,-3.625075E-08,NaN,NaN,-0.01960847,3.259627E-11,9.837652E-08,-8.742056E-08,-4.58212E-09,-3.814697E-08
391.1473,-1.473384,-2.789567E-08,NaN,-0.3107758,-1.013027E-07,NaN,0.757296,5.666207E-08,NaN,-0.360957,3.932788E-07,-0.6783143,-3.598956E-08,NaN,NaN,-0.01961543,2.328304E-11,9.658838E-08,-8.751752E-08,-5.178166E-09,-3.576278E-08
391.1618,-1.472611,-2.792359E-08,NaN,-0.3109634,-1.014211E-07,NaN,0.7519047,5.662883E-08,NaN,-0.3631356,3.941217E-07,-0.673525,-3.573007E-08,NaN,NaN,-0.01962216,1.396982E-11,9.360815E-08,-8.761417E-08,-5.774213E-09,-3.814697E-08
391.1756,-1.472611,-2.792359E-08,NaN,-0.3109634,-1.014211E-07,NaN,0.7519047,5.662883E-08,NaN,-0.3631356,3.941217E-07,-0.673525,-3.573007E-08,NaN,NaN,-0.01962216,1.396982E-11,9.360815E-08,-8.761417E-08,-5.774213E-09,-3.814697E-08
391.1894,-1.471601,-2.795139E-08,NaN,-0.311149,-1.015391E-07,NaN,0.7466998,5.659558E-08,NaN,-0.365235,3.949645E-07,-0.6689079,-3.547228E-08,NaN,NaN,-0.01962866,4.656593E-12,9.234155E-08,-8.77105E-08,-7.562352E-09,-3.576278E-08
391.2048,-1.469721,-2.797909E-08,NaN,-0.3113303,-1.016567E-07,NaN,0.7407405,5.656234E-08,NaN,-0.367595,3.958074E-07,-0.6636059,-3.521616E-08,NaN,NaN,-0.01963579,-4.656633E-12,9.04044E-08,-8.780651E-08,-8.158398E-09,-3.814697E-08
391.2194,-1.469721,-2.797909E-08,NaN,-0.3113303,-1.016567E-07,NaN,0.7407405,5.656234E-08,NaN,-0.367595,3.958074E-07,-0.6636059,-3.521616E-08,NaN,NaN,-0.01963579,-4.656633E-12,9.04044E-08,-8.780651E-08,-8.158398E-09,-3.814697E-08
391.2333,-1.467301,-2.800669E-08,NaN,-0.3115081,-1.01774E-07,NaN,0.7346919,5.652909E-08,NaN,-0.3699862,3.966363E-07,-0.6582255,-3.496171E-08,NaN,NaN,-0.0196429,-1.994932E-17,8.921231E-08,-8.790219E-08,-6.966306E-09,-3.576278E-08
391.2487,-1.464552,-2.803417E-08,NaN,-0.3116826,-1.018909E-07,NaN,0.7287843,5.649584E-08,NaN,-0.3723226,3.974698E-07,-0.6529761,-3.470891E-08,NaN,NaN,-0.01964978,-1.994932E-17,8.65301E-08,-8.799757E-08,-6.966306E-09,-3.814697E-08
391.2636,-1.461606,-2.806155E-08,NaN,-0.3118543,-1.020074E-07,NaN,0.7230758,5.64626E-08,NaN,-0.3745798,3.983033E-07,-0.6479097,-3.445776E-08,NaN,NaN,-0.0196564,-1.994932E-17,8.354987E-08,-8.809263E-08,-6.966306E-09,-3.576278E-08
391.2784,-1.461606,-2.806155E-08,NaN,-0.3118543,-1.020074E-07,NaN,0.7230758,5.64626E-08,NaN,-0.3745798,3.983033E-07,-0.6479097,-3.445776E-08,NaN,NaN,-0.0196564,-1.994932E-17,8.354987E-08,-8.809263E-08,-6.966306E-09,-3.576278E-08
391.2921,-1.457823,-2.808882E-08,NaN,-0.3120212,-1.021236E-07,NaN,0.7166689,5.642935E-08,NaN,-0.3771035,3.991368E-07,-0.6422119,-3.420824E-08,NaN,NaN,-0.01966361,-1.994932E-17,8.116569E-08,-8.818737E-08,-6.370259E-09,-3.814697E-08
391.3076,-1.453529,-2.811598E-08,NaN,-0.3121839,-1.022394E-07,NaN,0.7102011,5.63961E-08,NaN,-0.3796585,3.999657E-07,-0.6364618,-3.396035E-08,NaN,NaN,-0.01967076,4.656593E-12,7.848348E-08,-8.828179E-08,-6.966306E-09,-3.576278E-08
391.3223,-1.448931,-2.814303E-08,NaN,-0.3123431,-1.023549E-07,NaN,0.703895,5.636286E-08,NaN,-0.382156,4.007946E-07,-0.6308608,-3.371407E-08,NaN,NaN,-0.01967767,9.313206E-12,7.446017E-08,-8.837591E-08,-7.562353E-09,-3.814697E-08
391.3369,-1.448931,-2.814303E-08,NaN,-0.3123431,-1.023549E-07,NaN,0.703895,5.636286E-08,NaN,-0.382156,4.007946E-07,-0.6308608,-3.371407E-08,NaN,NaN,-0.01967767,9.313206E-12,7.446017E-08,-8.837591E-08,-7.562353E-09,-3.814697E-08
391.351,-1.443435,-2.816999E-08,NaN,-0.3124968,-1.0247E-07,NaN,0.6969455,5.632961E-08,NaN,-0.3849221,4.016235E-07,-0.6246814,-3.346939E-08,NaN,NaN,-0.0196851,1.396982E-11,7.147994E-08,-8.84697E-08,-9.350492E-09,-3.576278E-08
391.3662,-1.437397,-2.819683E-08,NaN,-0.3126459,-1.025847E-07,NaN,0.6899856,5.629636E-08,NaN,-0.3877091,4.024524E-07,-0.618496,-3.32263E-08,NaN,NaN,-0.01969243,1.862643E-11,6.96918E-08,-8.856319E-08,-7.562353E-09,-3.814697E-08
391.381,-1.431043,-2.822357E-08,NaN,-0.3127908,-1.026991E-07,NaN,0.6832317,5.626312E-08,NaN,-0.3904256,4.032813E-07,-0.6125,-3.29848E-08,NaN,NaN,-0.0196995,2.328304E-11,6.894674E-08,-8.865637E-08,-6.966306E-09,-3.576278E-08
391.3956,-1.431043,-2.822357E-08,NaN,-0.3127908,-1.026991E-07,NaN,0.6832317,5.626312E-08,NaN,-0.3904256,4.032813E-07,-0.6125,-3.29848E-08,NaN,NaN,-0.0196995,2.328304E-11,6.894674E-08,-8.865637E-08,-6.966306E-09,-3.576278E-08
391.4116,-1.424516,-2.825021E-08,NaN,-0.3129325,-1.028131E-07,NaN,0.6767344,5.622987E-08,NaN,-0.3930468,4.041102E-07,-0.6067382,-3.274487E-08,NaN,NaN,-0.01970628,2.793965E-11,6.566849E-08,-8.874924E-08,-8.158399E-09,-3.814697E-08
391.4258,-1.417182,-2.827674E-08,NaN,-0.313069,-1.029268E-07,NaN,0.6696669,5.619663E-08,NaN,-0.395933,4.049391E-07,-0.6004676,-3.25065E-08,NaN,NaN,-0.0197135,3.259627E-11,6.253924E-08,-8.88418E-08,-8.158399E-09,-3.576278E-08
391.4403,-1.40937,-2.830316E-08,NaN,-0.3132008,-1.030401E-07,NaN,0.6626077,5.616338E-08,NaN,-0.3988405,4.05768E-07,-0.5942083,-3.226968E-08,NaN,NaN,-0.01972062,3.725288E-11,5.926099E-08,-8.893406E-08,-6.37026E-09,-3.814697E-08
391.4541,-1.40937,-2.830316E-08,NaN,-0.3132008,-1.030401E-07,NaN,0.6626077,5.616338E-08,NaN,-0.3988405,4.05768E-07,-0.5942083,-3.226968E-08,NaN,NaN,-0.01972062,3.725288E-11,5.926099E-08,-8.893406E-08,-6.37026E-09,-3.814697E-08
391.4679,-1.40129,-2.832949E-08,NaN,-0.3133287,-1.03153E-07,NaN,0.6557579,5.613013E-08,NaN,-0.4016785,4.066015E-07,-0.5881404,-3.20344E-08,NaN,NaN,-0.0197275,3.725288E-11,5.598273E-08,-8.9026E-08,-8.158399E-09,-3.576278E-08
391.4833,-1.393074,-2.835571E-08,NaN,-0.3134532,-1.032656E-07,NaN,0.6491663,5.609689E-08,NaN,-0.4044218,4.07435E-07,-0.5823072,-3.180065E-08,NaN,NaN,-0.0197341,3.725288E-11,5.30025E-08,-8.911765E-08,-8.158399E-09,-3.814697E-08
391.4982,-1.393074,-2.835571E-08,NaN,-0.3134532,-1.032656E-07,NaN,0.6491663,5.609689E-08,NaN,-0.4044218,4.07435E-07,-0.5823072,-3.180065E-08,NaN,NaN,-0.0197341,3.725288E-11,5.30025E-08,-8.911765E-08,-8.158399E-09,-3.814697E-08
