JMolnar6/NonAnthroHands_User_Study/HandsLoggerWithURDF/tempdata/PID 0 (test)/files/Reachy_PID0_JointMotion_gesture_13_64.csv
Time,r_shoulder,r_shoulder_x,r_upper_arm,r_forearm,r_wrist,r_wrist2hand,
890.9402,-0.2202626,3.240106E-09,NaN,-0.4611354,-1.32072E-07,NaN,-0.02037091,-5.173904E-07,NaN,-0.6653566,2.397534E-05,0.005676486,7.590305E-08,NaN,NaN,0.1825873,8.847433E-11,-5.959778E-07,-1.097952E-07,-1.473195E-08,-2.622604E-08
890.9557,-0.2202626,3.240106E-09,NaN,-0.4611354,-1.32072E-07,NaN,-0.02037091,-5.173904E-07,NaN,-0.6653566,2.397534E-05,0.005676486,7.590305E-08,NaN,NaN,0.1825873,8.847433E-11,-5.959778E-07,-1.097952E-07,-1.473195E-08,-2.622604E-08
890.969,-0.2208036,3.240735E-09,NaN,-0.4594988,-1.320716E-07,NaN,-0.01902995,-5.177441E-07,NaN,-0.6627685,2.397571E-05,0.008061315,7.625789E-08,NaN,NaN,0.1817235,8.847433E-11,-5.864411E-07,-1.097958E-07,-1.592404E-08,-2.861022E-08
890.9844,-0.2213589,3.241365E-09,NaN,-0.4578164,-1.320716E-07,NaN,-0.01768724,-5.179356E-07,NaN,-0.6601002,2.397609E-05,0.01069189,7.645051E-08,NaN,NaN,0.1808767,8.381772E-11,-5.864411E-07,-1.097953E-07,-1.353986E-08,-2.622604E-08
890.9987,-0.2213589,3.241365E-09,NaN,-0.4578164,-1.320716E-07,NaN,-0.01768724,-5.179356E-07,NaN,-0.6601002,2.397609E-05,0.01069189,7.645051E-08,NaN,NaN,0.1808767,8.381772E-11,-5.864411E-07,-1.097953E-07,-1.353986E-08,-2.622604E-08
891.0126,-0.2219208,3.241995E-09,NaN,-0.4561134,-1.320714E-07,NaN,-0.01624746,-5.18205E-07,NaN,-0.6574185,2.397646E-05,0.01335037,7.672114E-08,NaN,NaN,0.1800465,8.847433E-11,-5.816727E-07,-1.097946E-07,-1.711614E-08,-2.861022E-08
891.0282,-0.222451,3.242625E-09,NaN,-0.45451,-1.320712E-07,NaN,-0.01441137,-5.185086E-07,NaN,-0.6552782,2.397683E-05,0.01526274,7.702591E-08,NaN,NaN,0.1795467,8.847433E-11,-5.822688E-07,-1.097939E-07,-2.069241E-08,-2.622604E-08
891.0428,-0.2229593,3.243255E-09,NaN,-0.452975,-1.320708E-07,NaN,-0.01252551,-5.188259E-07,NaN,-0.653286,2.397721E-05,0.01682214,7.73444E-08,NaN,NaN,0.1790567,8.381772E-11,-5.751162E-07,-1.097931E-07,-1.950032E-08,-2.861022E-08
891.0576,-0.2229593,3.243255E-09,NaN,-0.452975,-1.320708E-07,NaN,-0.01252551,-5.188259E-07,NaN,-0.653286,2.397721E-05,0.01682214,7.73444E-08,NaN,NaN,0.1790567,8.381772E-11,-5.751162E-07,-1.097931E-07,-1.950032E-08,-2.861022E-08
891.0716,-0.223452,3.243884E-09,NaN,-0.4514889,-1.320705E-07,NaN,-0.01071449,-5.191511E-07,NaN,-0.6513805,2.397758E-05,0.01824513,7.76707E-08,NaN,NaN,0.1785763,7.91611E-11,-5.703479E-07,-1.097922E-07,-1.950032E-08,-2.622604E-08
891.0873,-0.2239329,3.244514E-09,NaN,-0.4500394,-1.320701E-07,NaN,-0.008995339,-5.194754E-07,NaN,-0.6495321,2.397796E-05,0.01961394,7.799619E-08,NaN,NaN,0.1781053,7.450449E-11,-5.637914E-07,-1.097914E-07,-1.711614E-08,-2.861022E-08
891.1021,-0.2243713,3.245143E-09,NaN,-0.4487237,-1.320697E-07,NaN,-0.007042751,-5.197961E-07,NaN,-0.6482502,2.397834E-05,0.02026029,7.831806E-08,NaN,NaN,0.1779577,6.984787E-11,-5.602151E-07,-1.097906E-07,-1.950032E-08,-2.622604E-08
891.1166,-0.2243713,3.245143E-09,NaN,-0.4487237,-1.320697E-07,NaN,-0.007042751,-5.197961E-07,NaN,-0.6482502,2.397834E-05,0.02026029,7.831806E-08,NaN,NaN,0.1779577,6.984787E-11,-5.602151E-07,-1.097906E-07,-1.950032E-08,-2.622604E-08
891.1305,-0.2247815,3.245773E-09,NaN,-0.4474961,-1.320693E-07,NaN,-0.005160689,-5.201133E-07,NaN,-0.6471198,2.397871E-05,0.02060447,7.863639E-08,NaN,NaN,0.1778129,6.984787E-11,-5.530625E-07,-1.097897E-07,-1.592404E-08,-2.861022E-08
891.1461,-0.2251724,3.246402E-09,NaN,-0.4463282,-1.320688E-07,NaN,-0.003431755,-5.204242E-07,NaN,-0.646069,2.397909E-05,0.02086127,7.894842E-08,NaN,NaN,0.177671,6.519126E-11,-5.423337E-07,-1.097889E-07,-1.592404E-08,-2.622604E-08
891.1606,-0.2255498,3.247032E-09,NaN,-0.4452022,-1.320684E-07,NaN,-0.001842724,-5.207289E-07,NaN,-0.6450637,2.397946E-05,0.02110554,7.925434E-08,NaN,NaN,0.1775318,6.053464E-11,-5.304128E-07,-1.097881E-07,-1.830823E-08,-2.861022E-08
891.1754,-0.2255498,3.247032E-09,NaN,-0.4452022,-1.320684E-07,NaN,-0.001842724,-5.207289E-07,NaN,-0.6450637,2.397946E-05,0.02110554,7.925434E-08,NaN,NaN,0.1775318,6.053464E-11,-5.304128E-07,-1.097881E-07,-1.830823E-08,-2.861022E-08
891.1915,-0.2258841,3.247661E-09,NaN,-0.4442117,-1.32068E-07,NaN,-4.566158E-05,-5.210248E-07,NaN,-0.6446121,2.397984E-05,0.02066371,7.955138E-08,NaN,NaN,0.1777096,6.053464E-11,-5.244523E-07,-1.097872E-07,-1.592404E-08,-2.622604E-08
891.2049,-0.2261901,3.248291E-09,NaN,-0.4433091,-1.320676E-07,NaN,0.001664657,-5.213148E-07,NaN,-0.644298,2.398021E-05,0.01994997,7.984255E-08,NaN,NaN,0.1778838,5.587803E-11,-5.131274E-07,-1.097864E-07,-1.711614E-08,-2.861022E-08
891.2196,-0.2261901,3.248291E-09,NaN,-0.4433091,-1.320676E-07,NaN,0.001664657,-5.213148E-07,NaN,-0.644298,2.398021E-05,0.01994997,7.984255E-08,NaN,NaN,0.1778838,5.587803E-11,-5.131274E-07,-1.097864E-07,-1.711614E-08,-2.861022E-08
891.2336,-0.2264774,3.24892E-09,NaN,-0.4424646,-1.320672E-07,NaN,0.003211764,-5.21599E-07,NaN,-0.6440492,2.398058E-05,0.0191741,8.012795E-08,NaN,NaN,0.1780545,5.587803E-11,-5.012065E-07,-1.097856E-07,-1.473195E-08,-2.622604E-08
891.2489,-0.2267186,3.24955E-09,NaN,-0.4417642,-1.320668E-07,NaN,0.004925232,-5.218748E-07,NaN,-0.6443563,2.398096E-05,0.01771598,8.040489E-08,NaN,NaN,0.1785361,5.122142E-11,-4.922658E-07,-1.097847E-07,-1.950032E-08,-2.861022E-08
891.2634,-0.2269302,3.250179E-09,NaN,-0.4411559,-1.320664E-07,NaN,0.006514308,-5.221451E-07,NaN,-0.6447944,2.398133E-05,0.01600669,8.067634E-08,NaN,NaN,0.1790082,5.122142E-11,-4.761726E-07,-1.097839E-07,-1.592404E-08,-2.622604E-08
891.2783,-0.2269302,3.250179E-09,NaN,-0.4411559,-1.320664E-07,NaN,0.006514308,-5.221451E-07,NaN,-0.6447944,2.398133E-05,0.01600669,8.067634E-08,NaN,NaN,0.1790082,5.122142E-11,-4.761726E-07,-1.097839E-07,-1.592404E-08,-2.622604E-08
891.2922,-0.2271224,3.250809E-09,NaN,-0.440607,-1.32066E-07,NaN,0.007911942,-5.224099E-07,NaN,-0.6452875,2.398171E-05,0.01425959,8.094241E-08,NaN,NaN,0.1794711,5.122142E-11,-4.624635E-07,-1.097831E-07,-1.115567E-08,-2.861022E-08
891.3079,-0.2273018,3.251439E-09,NaN,-0.4400971,-1.320656E-07,NaN,0.009143221,-5.226668E-07,NaN,-0.6457996,2.398208E-05,0.01254611,8.120038E-08,NaN,NaN,0.1799248,5.122142E-11,-4.505426E-07,-1.097822E-07,-7.579394E-09,-2.622604E-08
891.3226,-0.2274393,3.252068E-09,NaN,-0.4397182,-1.320651E-07,NaN,0.01056022,-5.229185E-07,NaN,-0.6468393,2.398245E-05,0.01019278,8.145324E-08,NaN,NaN,0.1806839,5.122142E-11,-4.416019E-07,-1.097814E-07,-2.811023E-09,-2.861022E-08
891.3387,-0.2274393,3.252068E-09,NaN,-0.4397182,-1.320651E-07,NaN,0.01056022,-5.229185E-07,NaN,-0.6468393,2.398245E-05,0.01019278,8.145324E-08,NaN,NaN,0.1806839,5.122142E-11,-4.416019E-07,-1.097814E-07,-2.811023E-09,-2.861022E-08
891.3516,-0.2275501,3.252698E-09,NaN,-0.4394218,-1.320647E-07,NaN,0.01187424,-5.231623E-07,NaN,-0.6479897,2.398283E-05,0.007608606,8.169827E-08,NaN,NaN,0.181428,5.122142E-11,-4.249126E-07,-1.097806E-07,-1.61893E-09,-2.622604E-08
891.3671,-0.2276438,3.253327E-09,NaN,-0.4391776,-1.320643E-07,NaN,0.01301175,-5.234013E-07,NaN,-0.649179,2.39832E-05,0.005000819,8.193844E-08,NaN,NaN,0.1821575,5.122142E-11,-4.100114E-07,-1.097798E-07,-4.268368E-10,-2.861022E-08
891.3818,-0.2277264,3.253957E-09,NaN,-0.4389666,-1.320639E-07,NaN,0.01399142,-5.236327E-07,NaN,-0.6503734,2.398357E-05,0.002439741,8.217101E-08,NaN,NaN,0.1828727,5.122142E-11,-3.939182E-07,-1.09779E-07,-6.387301E-09,-2.622604E-08
891.3966,-0.2277264,3.253957E-09,NaN,-0.4389666,-1.320639E-07,NaN,0.01399142,-5.236327E-07,NaN,-0.6503734,2.398357E-05,0.002439741,8.217101E-08,NaN,NaN,0.1828727,5.122142E-11,-3.939182E-07,-1.09779E-07,-6.387301E-09,-2.622604E-08
891.4107,-0.2277687,3.254586E-09,NaN,-0.4388818,-1.320635E-07,NaN,0.01515399,-5.238595E-07,NaN,-0.6520823,2.398395E-05,-0.0007457945,8.239898E-08,NaN,NaN,0.183888,4.65648E-11,-3.79017E-07,-1.097782E-07,-7.579394E-09,-2.861022E-08
891.4261,-0.2277855,3.255215E-09,NaN,-0.4388751,-1.320631E-07,NaN,0.01621143,-5.240818E-07,NaN,-0.6538892,2.398432E-05,-0.004148349,8.262241E-08,NaN,NaN,0.1848834,4.65648E-11,-3.629237E-07,-1.097774E-07,-1.353986E-08,-2.622604E-08
891.4417,-0.2277863,3.255844E-09,NaN,-0.4389156,-1.320628E-07,NaN,0.01708802,-5.242968E-07,NaN,-0.6557229,2.398469E-05,-0.007558392,8.283859E-08,NaN,NaN,0.1858593,4.65648E-11,-3.456384E-07,-1.097766E-07,-1.473195E-08,-2.861022E-08
891.4555,-0.2277863,3.255844E-09,NaN,-0.4389156,-1.320628E-07,NaN,0.01708802,-5.242968E-07,NaN,-0.6557229,2.398469E-05,-0.007558392,8.283859E-08,NaN,NaN,0.1858593,4.65648E-11,-3.456384E-07,-1.097766E-07,-1.473195E-08,-2.861022E-08
891.4697,-0.2277454,3.256474E-09,NaN,-0.4390895,-1.320624E-07,NaN,0.01809929,-5.245075E-07,NaN,-0.6580734,2.398507E-05,-0.01159347,8.305048E-08,NaN,NaN,0.1871302,4.65648E-11,-3.301412E-07,-1.097758E-07,-1.711614E-08,-2.622604E-08
891.485,-0.2276784,3.257103E-09,NaN,-0.4393452,-1.32062E-07,NaN,0.01896504,-5.247111E-07,NaN,-0.6605165,2.398544E-05,-0.01582981,8.325534E-08,NaN,NaN,0.1883762,4.65648E-11,-3.134519E-07,-1.09775E-07,-2.069241E-08,-2.861022E-08
891.4994,-0.2276784,3.257103E-09,NaN,-0.4393452,-1.32062E-07,NaN,0.01896504,-5.247111E-07,NaN,-0.6605165,2.398544E-05,-0.01582981,8.325534E-08,NaN,NaN,0.1883762,4.65648E-11,-3.134519E-07,-1.09775E-07,-2.069241E-08,-2.861022E-08
891.5135,-0.2275954,3.257732E-09,NaN,-0.43965,-1.320616E-07,NaN,0.01962033,-5.252309E-07,NaN,-0.6629774,2.398581E-05,-0.02005387,8.377626E-08,NaN,NaN,0.1895977,4.65648E-11,-2.931863E-07,-1.097742E-07,-1.950032E-08,-2.622604E-08
891.5293,-0.2275027,3.258361E-09,NaN,-0.4399839,-1.320612E-07,NaN,0.02009257,-5.257404E-07,NaN,-0.6654213,2.398619E-05,-0.02419512,8.428692E-08,NaN,NaN,0.1907953,4.190819E-11,-2.723247E-07,-1.097734E-07,-1.592404E-08,-2.861022E-08
891.5438,-0.2273713,3.25899E-09,NaN,-0.4404388,-1.320608E-07,NaN,0.02071021,-5.262398E-07,NaN,-0.6683562,2.398656E-05,-0.02892309,8.478752E-08,NaN,NaN,0.1922836,4.190819E-11,-2.562314E-07,-1.097726E-07,-2.188451E-08,-2.622604E-08
891.5587,-0.2273713,3.25899E-09,NaN,-0.4404388,-1.320608E-07,NaN,0.02071021,-5.262398E-07,NaN,-0.6683562,2.398656E-05,-0.02892309,8.478752E-08,NaN,NaN,0.1922836,4.190819E-11,-2.562314E-07,-1.097726E-07,-2.188451E-08,-2.622604E-08
891.5726,-0.2272163,3.259618E-09,NaN,-0.4409663,-1.320605E-07,NaN,0.02120084,-5.264973E-07,NaN,-0.6713659,2.398694E-05,-0.03383659,8.504619E-08,NaN,NaN,0.1937426,3.725158E-11,-2.347737E-07,-1.097699E-07,-2.546079E-08,-2.622604E-08
891.5882,-0.2270472,3.260246E-09,NaN,-0.4415362,-1.3206E-07,NaN,0.02149464,-5.269246E-07,NaN,-0.6743794,2.398732E-05,-0.03872667,8.547468E-08,NaN,NaN,0.1951731,3.259497E-11,-2.139121E-07,-1.097669E-07,-1.830823E-08,-2.622604E-08
891.6031,-0.2268701,3.260874E-09,NaN,-0.4421297,-1.320591E-07,NaN,0.02161385,-5.274338E-07,NaN,-0.6773643,2.398769E-05,-0.04352359,8.598501E-08,NaN,NaN,0.1965756,3.259497E-11,-1.936465E-07,-1.097652E-07,-1.353986E-08,-2.622604E-08
891.6182,-0.2268701,3.260874E-09,NaN,-0.4421297,-1.320591E-07,NaN,0.02161385,-5.274338E-07,NaN,-0.6773643,2.398769E-05,-0.04352359,8.598501E-08,NaN,NaN,0.1965756,3.259497E-11,-1.936465E-07,-1.097652E-07,-1.353986E-08,-2.622604E-08
891.6318,-0.2266556,3.261502E-09,NaN,-0.4428397,-1.320585E-07,NaN,0.02186888,-5.278228E-07,NaN,-0.6808288,2.398807E-05,-0.04889503,8.637521E-08,NaN,NaN,0.1982647,2.793836E-11,-1.793414E-07,-1.097623E-07,-9.963578E-09,-2.622604E-08
891.6475,-0.2264187,3.262129E-09,NaN,-0.4436184,-1.320576E-07,NaN,0.02199366,-5.280518E-07,NaN,-0.684357,2.398845E-05,-0.05444213,8.660541E-08,NaN,NaN,0.1999206,1.862513E-11,-1.596719E-07,-1.097606E-07,-7.579391E-09,-2.861022E-08
891.6619,-0.2261689,3.262755E-09,NaN,-0.4444358,-1.32057E-07,NaN,0.02191865,-5.281662E-07,NaN,-0.6878791,2.398883E-05,-0.05995364,8.672099E-08,NaN,NaN,0.2015442,9.311905E-12,-1.370221E-07,-1.097577E-07,-5.195206E-09,-2.622604E-08
891.6788,-0.2261689,3.262755E-09,NaN,-0.4444358,-1.32057E-07,NaN,0.02191865,-5.281662E-07,NaN,-0.6878791,2.398883E-05,-0.05995364,8.672099E-08,NaN,NaN,0.2015442,9.311905E-12,-1.370221E-07,-1.097577E-07,-5.195206E-09,-2.622604E-08
891.692,-0.2258789,3.263382E-09,NaN,-0.4453781,-1.320561E-07,NaN,0.02192485,-5.283827E-07,NaN,-0.6918845,2.39892E-05,-0.06604208,8.693866E-08,NaN,NaN,0.20345,-1.320125E-15,-1.185447E-07,-1.09756E-07,-2.81102E-09,-2.861022E-08
891.7064,-0.2255653,3.264009E-09,NaN,-0.4463931,-1.320555E-07,NaN,0.02175944,-5.284847E-07,NaN,-0.6959497,2.398958E-05,-0.07229228,8.704195E-08,NaN,NaN,0.2053185,-9.314546E-12,-9.649099E-08,-1.097531E-07,-4.003113E-09,-2.622604E-08
891.7212,-0.2252381,3.264635E-09,NaN,-0.4474483,-1.320546E-07,NaN,0.02136505,-5.286864E-07,NaN,-0.7000012,2.398994E-05,-0.07848721,8.724474E-08,NaN,NaN,0.2071504,-1.397116E-11,-6.84768E-08,-1.097515E-07,-4.003113E-09,-2.861022E-08
891.7357,-0.2252381,3.264635E-09,NaN,-0.4474483,-1.320546E-07,NaN,0.02136505,-5.286864E-07,NaN,-0.7000012,2.398994E-05,-0.07848721,8.724474E-08,NaN,NaN,0.2071504,-1.397116E-11,-6.84768E-08,-1.097515E-07,-4.003113E-09,-2.861022E-08
891.7496,-0.2249041,3.265262E-09,NaN,-0.4485236,-1.32054E-07,NaN,0.02077501,-5.287739E-07,NaN,-0.7040058,2.399031E-05,-0.08455691,8.733345E-08,NaN,NaN,0.2089463,-2.328438E-11,-4.552901E-08,-1.097485E-07,-5.195205E-09,-2.622604E-08
891.7651,-0.2245339,3.265888E-09,NaN,-0.4497109,-1.320531E-07,NaN,0.02027722,-5.289641E-07,NaN,-0.7084687,2.399068E-05,-0.09116904,8.752478E-08,NaN,NaN,0.2110212,-3.259761E-11,-2.764762E-08,-1.097469E-07,-7.579391E-09,-2.861022E-08
891.7797,-0.2245339,3.265888E-09,NaN,-0.4497109,-1.320531E-07,NaN,0.02027722,-5.289641E-07,NaN,-0.7084687,2.399068E-05,-0.09116904,8.752478E-08,NaN,NaN,0.2110212,-3.259761E-11,-2.764762E-08,-1.097469E-07,-7.579391E-09,-2.861022E-08
891.794,-0.2241429,3.266515E-09,NaN,-0.450962,-1.320525E-07,NaN,0.01962968,-5.290403E-07,NaN,-0.7129754,2.399105E-05,-0.09793128,8.760225E-08,NaN,NaN,0.2130554,-4.656745E-11,-5.891927E-09,-1.09744E-07,-2.81102E-09,-2.622604E-08
891.8109,-0.2237407,3.267141E-09,NaN,-0.4522467,-1.320517E-07,NaN,0.01877053,-5.292194E-07,NaN,-0.717457,2.399141E-05,-0.10463,8.778255E-08,NaN,NaN,0.2150498,-5.122406E-11,1.973807E-08,-1.097424E-07,-4.268341E-10,-2.861022E-08
891.8265,-0.2233331,3.267767E-09,NaN,-0.4535463,-1.320511E-07,NaN,0.0177283,-5.292849E-07,NaN,-0.7218823,2.399178E-05,-0.1111957,8.78492E-08,NaN,NaN,0.2170051,-6.053729E-11,4.566609E-08,-1.097395E-07,-5.195206E-09,-2.622604E-08
891.8393,-0.2233331,3.267767E-09,NaN,-0.4535463,-1.320511E-07,NaN,0.0177283,-5.292849E-07,NaN,-0.7218823,2.399178E-05,-0.1111957,8.78492E-08,NaN,NaN,0.2170051,-6.053729E-11,4.566609E-08,-1.097395E-07,-5.195206E-09,-2.622604E-08
891.8533,-0.2228908,3.268393E-09,NaN,-0.4549539,-1.320502E-07,NaN,0.0167674,-5.294506E-07,NaN,-0.7267558,2.399214E-05,-0.1182952,8.801608E-08,NaN,NaN,0.2192361,-6.985051E-11,6.265341E-08,-1.097379E-07,-6.387299E-09,-2.861022E-08
891.8688,-0.2224288,3.269019E-09,NaN,-0.4564216,-1.320496E-07,NaN,0.01565621,-5.295029E-07,NaN,-0.7316642,2.399251E-05,-0.1255377,8.806958E-08,NaN,NaN,0.2214234,-8.382035E-11,8.798538E-08,-1.097351E-07,-5.195206E-09,-2.622604E-08
891.8835,-0.2219565,3.269645E-09,NaN,-0.4579197,-1.320488E-07,NaN,0.0143347,-5.296586E-07,NaN,-0.7365396,2.399288E-05,-0.1327065,8.822639E-08,NaN,NaN,0.2235679,-8.847697E-11,1.130193E-07,-1.097335E-07,-8.771485E-09,-2.861022E-08
891.8983,-0.2219565,3.269645E-09,NaN,-0.4579197,-1.320488E-07,NaN,0.0143347,-5.296586E-07,NaN,-0.7365396,2.399288E-05,-0.1327065,8.822639E-08,NaN,NaN,0.2235679,-8.847697E-11,1.130193E-07,-1.097335E-07,-8.771485E-09,-2.861022E-08
891.9123,-0.2214466,3.270271E-09,NaN,-0.4595344,-1.320482E-07,NaN,0.0130375,-5.29701E-07,NaN,-0.7418674,2.399324E-05,-0.1404127,8.827002E-08,NaN,NaN,0.2259844,-9.779019E-11,1.314968E-07,-1.097307E-07,-1.234776E-08,-2.622604E-08
891.9287,-0.2209157,3.270897E-09,NaN,-0.4612136,-1.320473E-07,NaN,0.01155126,-5.298469E-07,NaN,-0.7472275,2.39936E-05,-0.1482486,8.841715E-08,NaN,NaN,0.2283536,-9.779019E-11,1.574248E-07,-1.097291E-07,-1.234776E-08,-2.861022E-08
891.9425,-0.2203739,3.271522E-09,NaN,-0.4629248,-1.320467E-07,NaN,0.009830237,-5.298827E-07,NaN,-0.7525487,2.399396E-05,-0.1559918,8.84541E-08,NaN,NaN,0.2306765,-1.071034E-10,1.842469E-07,-1.097263E-07,-1.711614E-08,-2.622604E-08
891.9573,-0.2203739,3.271522E-09,NaN,-0.4629248,-1.320467E-07,NaN,0.009830237,-5.298827E-07,NaN,-0.7525487,2.399396E-05,-0.1559918,8.84541E-08,NaN,NaN,0.2306765,-1.071034E-10,1.842469E-07,-1.097263E-07,-1.711614E-08,-2.622604E-08
891.9713,-0.2198277,3.272148E-09,NaN,-0.4646481,-1.320459E-07,NaN,0.007915532,-5.300221E-07,NaN,-0.7577994,2.399433E-05,-0.163573,8.859469E-08,NaN,NaN,0.2329538,-1.1176E-10,2.101749E-07,-1.097247E-07,-1.592404E-08,-2.861022E-08
891.9868,-0.2192478,3.272773E-09,NaN,-0.4664757,-1.320453E-07,NaN,0.006040933,-5.300486E-07,NaN,-0.7634795,2.399469E-05,-0.1716617,8.862241E-08,NaN,NaN,0.2355004,-1.210733E-10,2.292484E-07,-1.097219E-07,-1.353986E-08,-2.622604E-08
892.0013,-0.2186496,3.273399E-09,NaN,-0.4683592,-1.320445E-07,NaN,0.004004773,-5.301761E-07,NaN,-0.7691782,2.399505E-05,-0.1798716,8.875112E-08,NaN,NaN,0.2379972,-1.210733E-10,2.566665E-07,-1.097204E-07,-1.592404E-08,-2.861022E-08
892.0162,-0.2186496,3.273399E-09,NaN,-0.4683592,-1.320445E-07,NaN,0.004004773,-5.301761E-07,NaN,-0.7691782,2.399505E-05,-0.1798716,8.875112E-08,NaN,NaN,0.2379972,-1.210733E-10,2.566665E-07,-1.097204E-07,-1.592404E-08,-2.861022E-08
892.0302,-0.2180424,3.274024E-09,NaN,-0.4702686,-1.320439E-07,NaN,0.001756846,-5.30191E-07,NaN,-0.7748286,2.399541E-05,-0.1879827,8.87672E-08,NaN,NaN,0.2404452,-1.303865E-10,2.846807E-07,-1.097176E-07,-2.069241E-08,-2.622604E-08
892.0457,-0.2174324,3.274649E-09,NaN,-0.4721853,-1.32043E-07,NaN,-0.000666731,-5.303099E-07,NaN,-0.7804016,2.399577E-05,-0.1959263,8.888733E-08,NaN,NaN,0.2428451,-1.303865E-10,3.118008E-07,-1.097161E-07,-2.188451E-08,-2.861022E-08
892.0605,-0.2167898,3.275274E-09,NaN,-0.4742026,-1.320424E-07,NaN,-0.00305984,-5.303164E-07,NaN,-0.7863947,2.399613E-05,-0.2043723,8.889499E-08,NaN,NaN,0.2455119,-1.396997E-10,3.302782E-07,-1.097133E-07,-2.30766E-08,-2.622604E-08
892.0751,-0.2167898,3.275274E-09,NaN,-0.4742026,-1.320424E-07,NaN,-0.00305984,-5.303164E-07,NaN,-0.7863947,2.399613E-05,-0.2043723,8.889499E-08,NaN,NaN,0.2455119,-1.396997E-10,3.302782E-07,-1.097133E-07,-2.30766E-08,-2.622604E-08
892.0895,-0.2161298,3.275899E-09,NaN,-0.4762725,-1.320416E-07,NaN,-0.005610818,-5.304271E-07,NaN,-0.7923997,2.399649E-05,-0.2129337,8.900685E-08,NaN,NaN,0.2481266,-1.396997E-10,3.573983E-07,-1.097118E-07,-2.546079E-08,-2.861022E-08
892.1047,-0.2154619,3.276524E-09,NaN,-0.4783655,-1.32041E-07,NaN,-0.008366711,-5.304254E-07,NaN,-0.7983509,2.399686E-05,-0.2213875,8.900641E-08,NaN,NaN,0.2506902,-1.49013E-10,3.848165E-07,-1.09709E-07,-2.069241E-08,-2.622604E-08
892.1198,-0.2154619,3.276524E-09,NaN,-0.4783655,-1.32041E-07,NaN,-0.008366711,-5.304254E-07,NaN,-0.7983509,2.399686E-05,-0.2213875,8.900641E-08,NaN,NaN,0.2506902,-1.49013E-10,3.848165E-07,-1.09709E-07,-2.069241E-08,-2.622604E-08
892.1339,-0.2147585,3.277148E-09,NaN,-0.4805679,-1.320402E-07,NaN,-0.01114933,-5.305282E-07,NaN,-0.8047269,2.399721E-05,-0.2303478,8.911034E-08,NaN,NaN,0.2535173,-1.49013E-10,4.071682E-07,-1.097075E-07,-1.592404E-08,-2.861022E-08
892.1494,-0.2140363,3.277773E-09,NaN,-0.4828276,-1.320396E-07,NaN,-0.01412411,-5.305187E-07,NaN,-0.8111138,2.399758E-05,-0.2394094,8.910212E-08,NaN,NaN,0.2562892,-1.583262E-10,4.336923E-07,-1.097048E-07,-1.711614E-08,-2.622604E-08
892.1636,-0.2133054,3.278398E-09,NaN,-0.4851122,-1.320388E-07,NaN,-0.01732189,-5.306138E-07,NaN,-0.817443,2.399794E-05,-0.2483443,8.919842E-08,NaN,NaN,0.2590069,-1.583262E-10,4.634946E-07,-1.097033E-07,-1.950032E-08,-2.861022E-08
892.1794,-0.2133054,3.278398E-09,NaN,-0.4851122,-1.320388E-07,NaN,-0.01732189,-5.306138E-07,NaN,-0.817443,2.399794E-05,-0.2483443,8.919842E-08,NaN,NaN,0.2590069,-1.583262E-10,4.634946E-07,-1.097033E-07,-1.950032E-08,-2.861022E-08
892.1936,-0.2125724,3.279022E-09,NaN,-0.487402,-1.320382E-07,NaN,-0.02069351,-5.305969E-07,NaN,-0.8236845,2.39983E-05,-0.257085,8.918272E-08,NaN,NaN,0.2616712,-1.676394E-10,4.912108E-07,-1.097006E-07,-1.353986E-08,-2.622604E-08
892.2081,-0.2118076,3.279646E-09,NaN,-0.4897892,-1.320374E-07,NaN,-0.02406995,-5.306819E-07,NaN,-0.8303293,2.399866E-05,-0.2663079,8.926886E-08,NaN,NaN,0.2645972,-1.676394E-10,5.099862E-07,-1.096991E-07,-1.830823E-08,-2.861022E-08
892.2228,-0.2110265,3.28027E-09,NaN,-0.4922255,-1.320368E-07,NaN,-0.02760574,-5.30655E-07,NaN,-0.8369737,2.399902E-05,-0.2756257,8.92432E-08,NaN,NaN,0.267466,-1.769526E-10,5.356162E-07,-1.096964E-07,-2.069242E-08,-2.622604E-08
892.2375,-0.2110265,3.28027E-09,NaN,-0.4922255,-1.320368E-07,NaN,-0.02760574,-5.30655E-07,NaN,-0.8369737,2.399902E-05,-0.2756257,8.92432E-08,NaN,NaN,0.267466,-1.769526E-10,5.356162E-07,-1.096964E-07,-2.069242E-08,-2.622604E-08
892.2516,-0.2102387,3.280895E-09,NaN,-0.494681,-1.32036E-07,NaN,-0.03133653,-5.30733E-07,NaN,-0.8435531,2.399938E-05,-0.2848128,8.932241E-08,NaN,NaN,0.2702786,-1.769526E-10,5.645244E-07,-1.09695E-07,-2.188451E-08,-2.861022E-08
892.2669,-0.2094501,3.281519E-09,NaN,-0.4971372,-1.320355E-07,NaN,-0.03521866,-5.306994E-07,NaN,-0.8500399,2.399974E-05,-0.2938021,8.928995E-08,NaN,NaN,0.2730361,-1.862659E-10,5.929857E-07,-1.096923E-07,-1.592405E-08,-2.622604E-08
892.2835,-0.2086307,3.282142E-09,NaN,-0.4996874,-1.320347E-07,NaN,-0.03911384,-5.307707E-07,NaN,-0.8569217,2.40001E-05,-0.3032718,8.936249E-08,NaN,NaN,0.2760533,-1.816093E-10,6.119101E-07,-1.096908E-07,-2.069242E-08,-2.861022E-08
892.2963,-0.2086307,3.282142E-09,NaN,-0.4996874,-1.320347E-07,NaN,-0.03911384,-5.307707E-07,NaN,-0.8569217,2.40001E-05,-0.3032718,8.936249E-08,NaN,NaN,0.2760533,-1.816093E-10,6.119101E-07,-1.096908E-07,-2.069242E-08,-2.861022E-08
892.3104,-0.2077959,3.282766E-09,NaN,-0.5022839,-1.320341E-07,NaN,-0.04316101,-5.307305E-07,NaN,-0.8637986,2.400046E-05,-0.3128309,8.932351E-08,NaN,NaN,0.2790116,-1.862659E-10,6.396263E-07,-1.096881E-07,-2.42687E-08,-2.622604E-08
892.326,-0.2069552,3.28339E-09,NaN,-0.504897,-1.320333E-07,NaN,-0.04739149,-5.307954E-07,NaN,-0.870607,2.400081E-05,-0.322251,8.938965E-08,NaN,NaN,0.2819119,-1.816093E-10,6.655544E-07,-1.096867E-07,-2.069242E-08,-2.861022E-08
892.3408,-0.2061144,3.284013E-09,NaN,-0.5075086,-1.320327E-07,NaN,-0.05175989,-5.30749E-07,NaN,-0.8773196,2.400117E-05,-0.3314655,8.934439E-08,NaN,NaN,0.2847554,-1.862659E-10,6.926745E-07,-1.09684E-07,-1.473195E-08,-2.622604E-08
892.3558,-0.2061144,3.284013E-09,NaN,-0.5075086,-1.320327E-07,NaN,-0.05175989,-5.30749E-07,NaN,-0.8773196,2.400117E-05,-0.3314655,8.934439E-08,NaN,NaN,0.2847554,-1.862659E-10,6.926745E-07,-1.09684E-07,-1.473195E-08,-2.622604E-08
892.3696,-0.2052434,3.284636E-09,NaN,-0.5102122,-1.320319E-07,NaN,-0.0561545,-5.308078E-07,NaN,-0.88442,2.400153E-05,-0.3411566,8.940437E-08,NaN,NaN,0.2878569,-1.816093E-10,7.132381E-07,-1.096826E-07,-2.069242E-08,-2.861022E-08
892.3854,-0.2043575,3.285259E-09,NaN,-0.51296,-1.320314E-07,NaN,-0.06069546,-5.307552E-07,NaN,-0.8915119,2.400188E-05,-0.3509293,8.935306E-08,NaN,NaN,0.2908979,-1.862659E-10,7.396131E-07,-1.0968E-07,-2.188451E-08,-2.622604E-08
892.3998,-0.2043575,3.285259E-09,NaN,-0.51296,-1.320314E-07,NaN,-0.06069546,-5.307552E-07,NaN,-0.8915119,2.400188E-05,-0.3509293,8.935306E-08,NaN,NaN,0.2908979,-1.862659E-10,7.396131E-07,-1.0968E-07,-2.188451E-08,-2.622604E-08
892.416,-0.2034664,3.285882E-09,NaN,-0.5157226,-1.320306E-07,NaN,-0.06540801,-5.308081E-07,NaN,-0.8985325,2.400224E-05,-0.3605537,8.940712E-08,NaN,NaN,0.2938793,-1.816093E-10,7.665843E-07,-1.096786E-07,-1.711614E-08,-2.861022E-08
892.4304,-0.202542,3.286505E-09,NaN,-0.5185863,-1.3203E-07,NaN,-0.07020253,-5.307498E-07,NaN,-0.9059464,2.40026E-05,-0.3706574,8.935E-08,NaN,NaN,0.2971159,-1.862659E-10,7.875949E-07,-1.096759E-07,-1.473195E-08,-2.622604E-08
892.4438,-0.2016012,3.287128E-09,NaN,-0.5214992,-1.320292E-07,NaN,-0.07517074,-5.30797E-07,NaN,-0.9133534,2.400295E-05,-0.3808254,8.939837E-08,NaN,NaN,0.3002894,-1.816093E-10,8.162051E-07,-1.096746E-07,-1.115568E-08,-2.861022E-08
892.4587,-0.2016012,3.287128E-09,NaN,-0.5214992,-1.320292E-07,NaN,-0.07517074,-5.30797E-07,NaN,-0.9133534,2.400295E-05,-0.3808254,8.939837E-08,NaN,NaN,0.3002894,-1.816093E-10,8.162051E-07,-1.096746E-07,-1.115568E-08,-2.861022E-08
892.4729,-0.2006544,3.287751E-09,NaN,-0.5244291,-1.320287E-07,NaN,-0.08032003,-5.307331E-07,NaN,-0.9206877,2.400332E-05,-0.3908254,8.933568E-08,NaN,NaN,0.3034008,-1.955791E-10,8.428782E-07,-1.096719E-07,-1.592405E-08,-2.622604E-08
892.4882,-0.1997079,3.288373E-09,NaN,-0.5273563,-1.320279E-07,NaN,-0.0855925,-5.307748E-07,NaN,-0.9279211,2.400367E-05,-0.4005958,8.937857E-08,NaN,NaN,0.3064511,-1.909225E-10,8.683592E-07,-1.096706E-07,-1.592405E-08,-2.861022E-08
892.5029,-0.1987317,3.288996E-09,NaN,-0.5303733,-1.320273E-07,NaN,-0.09091975,-5.307056E-07,NaN,-0.9355277,2.400403E-05,-0.4108295,8.931052E-08,NaN,NaN,0.3097552,-1.955791E-10,8.869111E-07,-1.09668E-07,-1.5328E-08,-2.622604E-08
892.5178,-0.1987317,3.288996E-09,NaN,-0.5303733,-1.320273E-07,NaN,-0.09091975,-5.307056E-07,NaN,-0.9355277,2.400403E-05,-0.4108295,8.931052E-08,NaN,NaN,0.3097552,-1.955791E-10,8.869111E-07,-1.09668E-07,-1.5328E-08,-2.622604E-08
892.5316,-0.1977415,3.289618E-09,NaN,-0.5334316,-1.320266E-07,NaN,-0.09638477,-5.30742E-07,NaN,-0.9431186,2.400439E-05,-0.4211234,8.934816E-08,NaN,NaN,0.3129949,-1.909225E-10,9.137332E-07,-1.096666E-07,-2.009637E-08,-2.861022E-08
892.5471,-0.196747,3.29024E-09,NaN,-0.5365015,-1.32026E-07,NaN,-0.1020002,-5.306676E-07,NaN,-0.9506322,2.400474E-05,-0.431247,8.927494E-08,NaN,NaN,0.3161711,-1.955791E-10,9.395122E-07,-1.09664E-07,-1.771219E-08,-2.622604E-08
892.5618,-0.1957541,3.290862E-09,NaN,-0.5395648,-1.320252E-07,NaN,-0.1077142,-5.306961E-07,NaN,-0.9580415,2.40051E-05,-0.4411395,8.93047E-08,NaN,NaN,0.3192851,-1.955791E-10,9.641363E-07,-1.096612E-07,-1.5328E-08,-2.861022E-08
892.577,-0.1957541,3.290862E-09,NaN,-0.5395648,-1.320252E-07,NaN,-0.1077142,-5.306961E-07,NaN,-0.9580415,2.40051E-05,-0.4411395,8.93047E-08,NaN,NaN,0.3192851,-1.955791E-10,9.641363E-07,-1.096612E-07,-1.5328E-08,-2.861022E-08
892.591,-0.1947322,3.291484E-09,NaN,-0.5427148,-1.320243E-07,NaN,-0.1134915,-5.307776E-07,NaN,-0.9658167,2.400545E-05,-0.4514973,8.938743E-08,NaN,NaN,0.3226516,-1.909225E-10,9.804531E-07,-1.096598E-07,-1.950033E-08,-2.622604E-08
892.6063,-0.1936972,3.292106E-09,NaN,-0.5459037,-1.320237E-07,NaN,-0.1193967,-5.307249E-07,NaN,-0.9735743,2.400582E-05,-0.4619079,8.933587E-08,NaN,NaN,0.3259524,-2.048923E-10,1.005711E-06,-1.096571E-07,-1.294382E-08,-2.861022E-08
892.621,-0.1926585,3.292728E-09,NaN,-0.5491021,-1.320228E-07,NaN,-0.1254368,-5.307634E-07,NaN,-0.9812533,2.400618E-05,-0.4721405,8.937556E-08,NaN,NaN,0.3291886,-2.002357E-10,1.031492E-06,-1.096558E-07,-1.473196E-08,-2.622604E-08
892.6359,-0.1926585,3.292728E-09,NaN,-0.5491021,-1.320228E-07,NaN,-0.1254368,-5.307634E-07,NaN,-0.9812533,2.400618E-05,-0.4721405,8.937556E-08,NaN,NaN,0.3291886,-2.002357E-10,1.031492E-06,-1.096558E-07,-1.473196E-08,-2.622604E-08
892.65,-0.1915879,3.29335E-09,NaN,-0.5523964,-1.320223E-07,NaN,-0.1315936,-5.306825E-07,NaN,-0.9893042,2.400653E-05,-0.4828389,8.92959E-08,NaN,NaN,0.332675,-2.048923E-10,1.049932E-06,-1.096532E-07,-1.771219E-08,-2.861022E-08
892.6672,-0.1905025,3.293971E-09,NaN,-0.5557346,-1.320215E-07,NaN,-0.1379002,-5.30702E-07,NaN,-0.9973412,2.400689E-05,-0.4935703,8.931652E-08,NaN,NaN,0.3360933,-2.048923E-10,1.077127E-06,-1.096504E-07,-1.473196E-08,-2.622604E-08
892.681,-0.1894128,3.294593E-09,NaN,-0.5590847,-1.320206E-07,NaN,-0.1443455,-5.307717E-07,NaN,-1.0053,2.400724E-05,-0.5041043,8.938746E-08,NaN,NaN,0.3394446,-2.002357E-10,1.102608E-06,-1.09649E-07,-1.294382E-08,-2.861022E-08
892.6946,-0.1894128,3.294593E-09,NaN,-0.5590847,-1.320206E-07,NaN,-0.1443455,-5.307717E-07,NaN,-1.0053,2.400724E-05,-0.5041043,8.938746E-08,NaN,NaN,0.3394446,-2.002357E-10,1.102608E-06,-1.09649E-07,-1.294382E-08,-2.861022E-08
892.7088,-0.188325,3.295214E-09,NaN,-0.562427,-1.320199E-07,NaN,-0.150868,-5.307046E-07,NaN,-1.013152,2.40076E-05,-0.5143868,8.932152E-08,NaN,NaN,0.3427302,-2.048923E-10,1.126226E-06,-1.096464E-07,-1.115568E-08,-2.622604E-08
892.7242,-0.1872087,3.295835E-09,NaN,-0.565854,-1.320191E-07,NaN,-0.1574801,-5.30729E-07,NaN,-1.021356,2.400796E-05,-0.5251262,8.934712E-08,NaN,NaN,0.346265,-2.002357E-10,1.139563E-06,-1.096451E-07,-9.963584E-09,-2.861022E-08
892.7388,-0.1872087,3.295835E-09,NaN,-0.565854,-1.320191E-07,NaN,-0.1574801,-5.30729E-07,NaN,-1.021356,2.400796E-05,-0.5251262,8.934712E-08,NaN,NaN,0.346265,-2.002357E-10,1.139563E-06,-1.096451E-07,-9.963584E-09,-2.861022E-08
892.7527,-0.18608,3.296456E-09,NaN,-0.5693174,-1.320186E-07,NaN,-0.1642068,-5.306343E-07,NaN,-1.029539,2.400832E-05,-0.5358949,8.925364E-08,NaN,NaN,0.3497308,-2.048923E-10,1.162957E-06,-1.096426E-07,-9.367537E-09,-2.622604E-08
892.7695,-0.1849486,3.297077E-09,NaN,-0.5727875,-1.320178E-07,NaN,-0.1710422,-5.309271E-07,NaN,-1.03764,2.400868E-05,-0.5464652,8.954767E-08,NaN,NaN,0.3531287,-2.095489E-10,1.188289E-06,-1.096398E-07,-5.195212E-09,-2.622604E-08
892.7831,-0.1838204,3.297699E-09,NaN,-0.576246,-1.320169E-07,NaN,-0.177931,-5.31265E-07,NaN,-1.045633,2.400904E-05,-0.5567843,8.98867E-08,NaN,NaN,0.35646,-2.095489E-10,1.21079E-06,-1.096385E-07,-4.268403E-10,-2.622604E-08
892.7977,-0.1838204,3.297699E-09,NaN,-0.576246,-1.320169E-07,NaN,-0.177931,-5.31265E-07,NaN,-1.045633,2.400904E-05,-0.5567843,8.98867E-08,NaN,NaN,0.35646,-2.095489E-10,1.21079E-06,-1.096385E-07,-4.268403E-10,-2.622604E-08
892.8116,-0.1826643,3.29832E-09,NaN,-0.5797865,-1.320163E-07,NaN,-0.1849196,-5.314607E-07,NaN,-1.05397,2.400941E-05,-0.5675634,9.00836E-08,NaN,NaN,0.3600395,-2.142056E-10,1.219731E-06,-1.096359E-07,-1.022887E-09,-2.622604E-08
892.8271,-0.1814965,3.298941E-09,NaN,-0.5833612,-1.320155E-07,NaN,-0.1920123,-5.317399E-07,NaN,-1.062287,2.400978E-05,-0.5783629,9.036408E-08,NaN,NaN,0.3635492,-2.188622E-10,1.246553E-06,-1.096332E-07,1.957345E-09,-2.622604E-08
892.8419,-0.1803266,3.299562E-09,NaN,-0.5869406,-1.320145E-07,NaN,-0.1991968,-5.320588E-07,NaN,-1.070521,2.401015E-05,-0.588957,9.068417E-08,NaN,NaN,0.3669901,-2.188622E-10,1.269799E-06,-1.096318E-07,3.149438E-09,-2.622604E-08
892.8568,-0.1803266,3.299562E-09,NaN,-0.5869406,-1.320145E-07,NaN,-0.1991968,-5.320588E-07,NaN,-1.070521,2.401015E-05,-0.588957,9.068417E-08,NaN,NaN,0.3669901,-2.188622E-10,1.269799E-06,-1.096318E-07,3.149438E-09,-2.622604E-08
892.8708,-0.1791258,3.300184E-09,NaN,-0.5906115,-1.320139E-07,NaN,-0.2065314,-5.322214E-07,NaN,-1.079108,2.40105E-05,-0.6000083,9.084796E-08,NaN,NaN,0.3706771,-2.142056E-10,1.282763E-06,-1.096293E-07,5.533624E-09,-2.622604E-08
892.8866,-0.1779117,3.300805E-09,NaN,-0.5943215,-1.320129E-07,NaN,-0.213986,-5.326037E-07,NaN,-1.087679,2.401085E-05,-0.6110581,9.123143E-08,NaN,NaN,0.3742922,-2.002357E-10,1.304369E-06,-1.096285E-07,7.619787E-09,-2.622604E-08
892.9011,-0.1766947,3.301426E-09,NaN,-0.5980388,-1.320121E-07,NaN,-0.2215316,-5.328429E-07,NaN,-1.096169,2.40112E-05,-0.6218849,9.14719E-08,NaN,NaN,0.3778365,-1.909225E-10,1.324486E-06,-1.096266E-07,6.725717E-09,-2.622604E-08
892.9158,-0.1766947,3.301426E-09,NaN,-0.5980388,-1.320121E-07,NaN,-0.2215316,-5.328429E-07,NaN,-1.096169,2.40112E-05,-0.6218849,9.14719E-08,NaN,NaN,0.3778365,-1.909225E-10,1.324486E-06,-1.096266E-07,6.725717E-09,-2.622604E-08
892.9318,-0.1754812,3.302046E-09,NaN,-0.6017438,-1.320112E-07,NaN,-0.2291061,-5.331677E-07,NaN,-1.10455,2.401155E-05,-0.6324452,9.179792E-08,NaN,NaN,0.3813112,-1.769526E-10,1.342367E-06,-1.096259E-07,1.000397E-08,-2.622604E-08
892.9452,-0.1742402,3.302667E-09,NaN,-0.6055292,-1.320105E-07,NaN,-0.2368072,-5.333704E-07,NaN,-1.113263,2.401192E-05,-0.6434593,9.200182E-08,NaN,NaN,0.3850314,-1.769526E-10,1.348626E-06,-1.09624E-07,1.179211E-08,-2.622604E-08
892.9598,-0.1742402,3.302667E-09,NaN,-0.6055292,-1.320105E-07,NaN,-0.2368072,-5.333704E-07,NaN,-1.113263,2.401192E-05,-0.6434593,9.200182E-08,NaN,NaN,0.3850314,-1.769526E-10,1.348626E-06,-1.09624E-07,1.179211E-08,-2.622604E-08
892.9737,-0.1729881,3.303287E-09,NaN,-0.6093466,-1.320096E-07,NaN,-0.2445961,-5.336679E-07,NaN,-1.121955,2.401227E-05,-0.6544681,9.230046E-08,NaN,NaN,0.3886789,-1.72296E-10,1.366954E-06,-1.096233E-07,1.685851E-08,-2.622604E-08
892.9891,-0.1717348,3.303908E-09,NaN,-0.6131663,-1.32009E-07,NaN,-0.2524479,-5.338494E-07,NaN,-1.130562,2.401264E-05,-0.6652545,9.248316E-08,NaN,NaN,0.392255,-1.72296E-10,1.384985E-06,-1.096214E-07,1.268618E-08,-2.622604E-08
893.0037,-0.170486,3.304528E-09,NaN,-0.6169702,-1.320081E-07,NaN,-0.260307,-5.341289E-07,NaN,-1.139058,2.4013E-05,-0.6757768,9.276383E-08,NaN,NaN,0.395761,-1.676394E-10,1.401674E-06,-1.096208E-07,1.41763E-08,-2.622604E-08
893.0188,-0.170486,3.304528E-09,NaN,-0.6169702,-1.320081E-07,NaN,-0.260307,-5.341289E-07,NaN,-1.139058,2.4013E-05,-0.6757768,9.276383E-08,NaN,NaN,0.395761,-1.676394E-10,1.401674E-06,-1.096208E-07,1.41763E-08,-2.622604E-08
893.0325,-0.1692104,3.305148E-09,NaN,-0.6208519,-1.320075E-07,NaN,-0.2683055,-5.342956E-07,NaN,-1.147881,2.401336E-05,-0.6867555,9.293174E-08,NaN,NaN,0.3995118,-1.676394E-10,1.407932E-06,-1.096189E-07,9.705952E-09,-2.622604E-08
893.0482,-0.1679243,3.305769E-09,NaN,-0.6247636,-1.320067E-07,NaN,-0.2763806,-5.342702E-07,NaN,-1.156682,2.401373E-05,-0.6977187,9.290753E-08,NaN,NaN,0.4031894,-1.676394E-10,1.422834E-06,-1.096197E-07,7.321766E-09,-2.622604E-08
893.0627,-0.1666375,3.30639E-09,NaN,-0.6286759,-1.320064E-07,NaN,-0.2845014,-5.3398E-07,NaN,-1.165401,2.40141E-05,-0.708455,9.261848E-08,NaN,NaN,0.4067949,-1.72296E-10,1.438629E-06,-1.096195E-07,4.93758E-09,-2.622604E-08
893.0778,-0.1666375,3.30639E-09,NaN,-0.6286759,-1.320064E-07,NaN,-0.2845014,-5.3398E-07,NaN,-1.165401,2.40141E-05,-0.708455,9.261848E-08,NaN,NaN,0.4067949,-1.72296E-10,1.438629E-06,-1.096195E-07,4.93758E-09,-2.622604E-08
893.0916,-0.1653206,3.30701E-09,NaN,-0.6326756,-1.320062E-07,NaN,-0.2928075,-5.337151E-07,NaN,-1.174454,2.401448E-05,-0.719641,9.23548E-08,NaN,NaN,0.4106435,-1.769526E-10,1.442503E-06,-1.096193E-07,4.490545E-09,-2.622604E-08
893.1071,-0.1639917,3.307631E-09,NaN,-0.6367104,-1.32006E-07,NaN,-0.3012003,-5.33461E-07,NaN,-1.183493,2.401486E-05,-0.7307899,9.210189E-08,NaN,NaN,0.4144168,-1.816093E-10,1.458E-06,-1.096191E-07,3.298452E-09,-2.622604E-08
893.122,-0.1626613,3.308252E-09,NaN,-0.6407484,-1.320057E-07,NaN,-0.3096343,-5.332118E-07,NaN,-1.19245,2.401522E-05,-0.7416982,9.185386E-08,NaN,NaN,0.4181163,-1.769526E-10,1.472305E-06,-1.096189E-07,2.329877E-09,-2.622604E-08
893.1366,-0.1626613,3.308252E-09,NaN,-0.6407484,-1.320057E-07,NaN,-0.3096343,-5.332118E-07,NaN,-1.19245,2.401522E-05,-0.7416982,9.185386E-08,NaN,NaN,0.4181163,-1.769526E-10,1.472305E-06,-1.096189E-07,2.329877E-09,-2.622604E-08
893.1508,-0.1613359,3.308872E-09,NaN,-0.6447703,-1.320055E-07,NaN,-0.3180508,-5.33264E-07,NaN,-1.201296,2.40156E-05,-0.7523342,9.190725E-08,NaN,NaN,0.4217432,-1.816093E-10,1.48661E-06,-1.096172E-07,8.583874E-10,-2.622604E-08
893.1661,-0.1599837,3.309492E-09,NaN,-0.6488687,-1.320048E-07,NaN,-0.3266358,-5.334731E-07,NaN,-1.210456,2.401598E-05,-0.7634183,9.211759E-08,NaN,NaN,0.4256126,-1.862659E-10,1.48512E-06,-1.096152E-07,-3.458293E-09,-2.622604E-08
893.1819,-0.1586216,3.310112E-09,NaN,-0.6529952,-1.32004E-07,NaN,-0.3352786,-5.337627E-07,NaN,-1.219597,2.401635E-05,-0.7744616,9.240842E-08,NaN,NaN,0.4294064,-1.816093E-10,1.494955E-06,-1.096146E-07,-5.246432E-09,-2.622604E-08
893.1956,-0.1586216,3.310112E-09,NaN,-0.6529952,-1.32004E-07,NaN,-0.3352786,-5.337627E-07,NaN,-1.219597,2.401635E-05,-0.7744616,9.240842E-08,NaN,NaN,0.4294064,-1.816093E-10,1.494955E-06,-1.096146E-07,-5.246432E-09,-2.622604E-08
893.2097,-0.1572595,3.310732E-09,NaN,-0.6571202,-1.320033E-07,NaN,-0.3439374,-5.339338E-07,NaN,-1.228653,2.401673E-05,-0.7852675,9.258064E-08,NaN,NaN,0.4331259,-1.862659E-10,1.505684E-06,-1.096127E-07,-7.034571E-09,-2.622604E-08
893.225,-0.1559035,3.311352E-09,NaN,-0.6612258,-1.320025E-07,NaN,-0.35256,-5.34203E-07,NaN,-1.237596,2.40171E-05,-0.795806,9.285104E-08,NaN,NaN,0.4367723,-1.862659E-10,1.514029E-06,-1.096121E-07,-1.068536E-08,-2.622604E-08
893.2397,-0.1559035,3.311352E-09,NaN,-0.6612258,-1.320025E-07,NaN,-0.35256,-5.34203E-07,NaN,-1.237596,2.40171E-05,-0.795806,9.285104E-08,NaN,NaN,0.4367723,-1.862659E-10,1.514029E-06,-1.096121E-07,-1.068536E-08,-2.622604E-08
893.2548,-0.1545212,3.311972E-09,NaN,-0.6654055,-1.320018E-07,NaN,-0.3613665,-5.343568E-07,NaN,-1.246847,2.401748E-05,-0.8067916,9.300605E-08,NaN,NaN,0.440661,-1.955791E-10,1.509856E-06,-1.096103E-07,-8.30117E-09,-2.622604E-08
893.2691,-0.1531296,3.312592E-09,NaN,-0.6696115,-1.32001E-07,NaN,-0.3702188,-5.34612E-07,NaN,-1.25608,2.401786E-05,-0.8177271,9.32624E-08,NaN,NaN,0.4444736,-1.955791E-10,1.514327E-06,-1.096097E-07,-5.171926E-09,-2.622604E-08
893.2838,-0.1517386,3.313212E-09,NaN,-0.6738145,-1.320004E-07,NaN,-0.3790705,-5.34752E-07,NaN,-1.26523,2.401824E-05,-0.8284253,9.340364E-08,NaN,NaN,0.4482116,-2.048923E-10,1.518499E-06,-1.096078E-07,-5.171926E-09,-2.622604E-08
893.2984,-0.1517386,3.313212E-09,NaN,-0.6738145,-1.320004E-07,NaN,-0.3790705,-5.34752E-07,NaN,-1.26523,2.401824E-05,-0.8284253,9.340364E-08,NaN,NaN,0.4482116,-2.048923E-10,1.518499E-06,-1.096078E-07,-5.171926E-09,-2.622604E-08
893.3125,-0.1503182,3.313833E-09,NaN,-0.6781013,-1.319996E-07,NaN,-0.3881463,-5.349965E-07,NaN,-1.274697,2.401862E-05,-0.8395603,9.364931E-08,NaN,NaN,0.4521899,-2.048923E-10,1.515817E-06,-1.096073E-07,-2.78774E-09,-2.622604E-08
893.3279,-0.1488869,3.314453E-09,NaN,-0.6824196,-1.319989E-07,NaN,-0.3972725,-5.35126E-07,NaN,-1.284154,2.4019E-05,-0.8506277,9.378007E-08,NaN,NaN,0.4560905,-2.095489E-10,1.522671E-06,-1.096054E-07,-1.297624E-09,-2.622604E-08
893.3425,-0.1474555,3.315073E-09,NaN,-0.6867376,-1.319981E-07,NaN,-0.4063917,-5.353574E-07,NaN,-1.29353,2.401937E-05,-0.8614498,9.401264E-08,NaN,NaN,0.4599147,-2.095489E-10,1.528632E-06,-1.096049E-07,2.576678E-09,-2.622604E-08
893.3574,-0.1474555,3.315073E-09,NaN,-0.6867376,-1.319981E-07,NaN,-0.4063917,-5.353574E-07,NaN,-1.29353,2.401937E-05,-0.8614498,9.401264E-08,NaN,NaN,0.4599147,-2.095489E-10,1.528632E-06,-1.096049E-07,2.576678E-09,-2.622604E-08
893.3714,-0.1460303,3.315693E-09,NaN,-0.691036,-1.319975E-07,NaN,-0.415452,-5.354769E-07,NaN,-1.302792,2.401975E-05,-0.8720046,9.413339E-08,NaN,NaN,0.4636639,-2.142055E-10,1.532506E-06,-1.09603E-07,5.854933E-09,-2.622604E-08
893.3872,-0.1445789,3.316313E-09,NaN,-0.6954076,-1.319967E-07,NaN,-0.4247272,-5.356985E-07,NaN,-1.31235,2.402013E-05,-0.8829905,9.435615E-08,NaN,NaN,0.4676533,-2.142055E-10,1.525354E-06,-1.096025E-07,1.002726E-08,-2.622604E-08
893.4017,-0.1431188,3.316933E-09,NaN,-0.6998039,-1.319961E-07,NaN,-0.4340273,-5.358056E-07,NaN,-1.321893,2.402051E-05,-0.8939067,9.446445E-08,NaN,NaN,0.4715647,-2.235188E-10,1.521479E-06,-1.096006E-07,8.537143E-09,-2.622604E-08
893.4164,-0.1431188,3.316933E-09,NaN,-0.6998039,-1.319961E-07,NaN,-0.4340273,-5.358056E-07,NaN,-1.321893,2.402051E-05,-0.8939067,9.446445E-08,NaN,NaN,0.4715647,-2.235188E-10,1.521479E-06,-1.096006E-07,8.537143E-09,-2.622604E-08
893.4325,-0.1416599,3.317553E-09,NaN,-0.7041953,-1.319953E-07,NaN,-0.4432986,-5.359116E-07,NaN,-1.331353,2.402088E-05,-0.9045848,9.457165E-08,NaN,NaN,0.4753996,-2.281754E-10,1.519989E-06,-1.096E-07,1.121935E-08,-2.861022E-08
893.4466,-0.1402083,3.318173E-09,NaN,-0.708564,-1.319947E-07,NaN,-0.4524958,-5.359111E-07,NaN,-1.340696,2.402126E-05,-0.9150032,9.457229E-08,NaN,NaN,0.4791592,-2.32832E-10,1.514029E-06,-1.095996E-07,1.300749E-08,-2.622604E-08
893.4605,-0.138731,3.318792E-09,NaN,-0.7130038,-1.319943E-07,NaN,-0.4619246,-5.35854E-07,NaN,-1.350329,2.402164E-05,-0.9258448,9.451644E-08,NaN,NaN,0.4831588,-2.374886E-10,1.499425E-06,-1.095993E-07,1.479563E-08,-2.861022E-08
893.475,-0.138731,3.318792E-09,NaN,-0.7130038,-1.319943E-07,NaN,-0.4619246,-5.35854E-07,NaN,-1.350329,2.402164E-05,-0.9258448,9.451644E-08,NaN,NaN,0.4831588,-2.374886E-10,1.499425E-06,-1.095993E-07,1.479563E-08,-2.861022E-08
893.4891,-0.1372454,3.319411E-09,NaN,-0.7174665,-1.31994E-07,NaN,-0.4713657,-5.35767E-07,NaN,-1.359949,2.402201E-05,-0.9366121,9.44306E-08,NaN,NaN,0.4870803,-2.421452E-10,1.492869E-06,-1.09599E-07,2.016005E-08,-2.622604E-08
893.5043,-0.1357616,3.320031E-09,NaN,-0.7219231,-1.319937E-07,NaN,-0.4807633,-5.356619E-07,NaN,-1.369486,2.402239E-05,-0.9471472,9.432665E-08,NaN,NaN,0.490925,-2.468018E-10,1.484822E-06,-1.095988E-07,1.896795E-08,-2.861022E-08
893.5192,-0.1357616,3.320031E-09,NaN,-0.7219231,-1.319937E-07,NaN,-0.4807633,-5.356619E-07,NaN,-1.369486,2.402239E-05,-0.9471472,9.432665E-08,NaN,NaN,0.490925,-2.468018E-10,1.484822E-06,-1.095988E-07,1.896795E-08,-2.861022E-08
893.5331,-0.1342489,3.32065E-09,NaN,-0.7264603,-1.319935E-07,NaN,-0.4904265,-5.355474E-07,NaN,-1.379324,2.402277E-05,-0.9580925,9.421341E-08,NaN,NaN,0.495008,-2.514584E-10,1.471113E-06,-1.095986E-07,1.479563E-08,-2.622604E-08
893.5485,-0.1327264,3.32127E-09,NaN,-0.7310259,-1.319932E-07,NaN,-0.5001025,-5.354295E-07,NaN,-1.389156,2.402314E-05,-0.9689541,9.409669E-08,NaN,NaN,0.4990112,-2.56115E-10,1.457404E-06,-1.095984E-07,1.539168E-08,-2.861022E-08
893.563,-0.1312049,3.321889E-09,NaN,-0.7355881,-1.31993E-07,NaN,-0.5097283,-5.353082E-07,NaN,-1.398907,2.402352E-05,-0.9795821,9.397658E-08,NaN,NaN,0.502936,-2.607717E-10,1.442503E-06,-1.095982E-07,1.658377E-08,-2.622604E-08
893.5779,-0.1312049,3.321889E-09,NaN,-0.7355881,-1.31993E-07,NaN,-0.5097283,-5.353082E-07,NaN,-1.398907,2.402352E-05,-0.9795821,9.397658E-08,NaN,NaN,0.502936,-2.607717E-10,1.442503E-06,-1.095982E-07,1.658377E-08,-2.622604E-08
893.5919,-0.129691,3.322508E-09,NaN,-0.7401276,-1.319928E-07,NaN,-0.519261,-5.351893E-07,NaN,-1.408541,2.40239E-05,-0.9899575,9.385878E-08,NaN,NaN,0.5067839,-2.654283E-10,1.425218E-06,-1.09598E-07,1.9564E-08,-2.861022E-08
893.6077,-0.1281513,3.323128E-09,NaN,-0.7447374,-1.319926E-07,NaN,-0.5290558,-5.350697E-07,NaN,-1.418455,2.402427E-05,-1.000728,9.374043E-08,NaN,NaN,0.5108701,-2.700849E-10,1.401376E-06,-1.095979E-07,1.896796E-08,-2.622604E-08
893.6223,-0.1266039,3.323747E-09,NaN,-0.749369,-1.319924E-07,NaN,-0.5388415,-5.349526E-07,NaN,-1.428358,2.402465E-05,-1.011416,9.362443E-08,NaN,NaN,0.5148764,-2.747415E-10,1.384686E-06,-1.095977E-07,2.016005E-08,-2.861022E-08
893.6371,-0.1266039,3.323747E-09,NaN,-0.749369,-1.319924E-07,NaN,-0.5388415,-5.349526E-07,NaN,-1.428358,2.402465E-05,-1.011416,9.362443E-08,NaN,NaN,0.5148764,-2.747415E-10,1.384686E-06,-1.095977E-07,2.016005E-08,-2.861022E-08
893.6513,-0.1250589,3.324367E-09,NaN,-0.7539927,-1.319922E-07,NaN,-0.5485593,-5.348348E-07,NaN,-1.438177,2.402502E-05,-1.021881,9.350784E-08,NaN,NaN,0.5188043,-2.700849E-10,1.365613E-06,-1.095975E-07,2.373633E-08,-2.622604E-08
893.6664,-0.1235223,3.324986E-09,NaN,-0.7585909,-1.31992E-07,NaN,-0.5581721,-5.347193E-07,NaN,-1.447877,2.402539E-05,-1.032104,9.339349E-08,NaN,NaN,0.5226552,-2.747415E-10,1.347136E-06,-1.095974E-07,2.373633E-08,-2.861022E-08
893.6812,-0.1219604,3.325606E-09,NaN,-0.7632574,-1.319918E-07,NaN,-0.5680628,-5.346059E-07,NaN,-1.45785,2.402577E-05,-1.042704,9.328134E-08,NaN,NaN,0.5267444,-2.793981E-10,1.325082E-06,-1.095972E-07,2.314028E-08,-2.622604E-08
893.6969,-0.1219604,3.325606E-09,NaN,-0.7632574,-1.319918E-07,NaN,-0.5680628,-5.346059E-07,NaN,-1.45785,2.402577E-05,-1.042704,9.328134E-08,NaN,NaN,0.5267444,-2.793981E-10,1.325082E-06,-1.095972E-07,2.314028E-08,-2.622604E-08
893.7109,-0.1203911,3.326225E-09,NaN,-0.767944,-1.319916E-07,NaN,-0.577933,-5.344947E-07,NaN,-1.467816,2.402615E-05,-1.053226,9.317134E-08,NaN,NaN,0.5307537,-2.840547E-10,1.305412E-06,-1.09597E-07,2.254424E-08,-2.861022E-08
893.7297,-0.1188248,3.326845E-09,NaN,-0.7726216,-1.319914E-07,NaN,-0.5877236,-5.343857E-07,NaN,-1.477697,2.402652E-05,-1.063536,9.306346E-08,NaN,NaN,0.5346844,-2.887113E-10,1.280974E-06,-1.095968E-07,2.07561E-08,-2.622604E-08
893.7401,-0.1172673,3.327464E-09,NaN,-0.7772727,-1.319912E-07,NaN,-0.5974002,-5.342787E-07,NaN,-1.487459,2.402689E-05,-1.073612,9.295765E-08,NaN,NaN,0.5385382,-2.840547E-10,1.255344E-06,-1.095967E-07,2.07561E-08,-2.861022E-08
893.7548,-0.1172673,3.327464E-09,NaN,-0.7772727,-1.319912E-07,NaN,-0.5974002,-5.342787E-07,NaN,-1.487459,2.402689E-05,-1.073612,9.295765E-08,NaN,NaN,0.5385382,-2.840547E-10,1.255344E-06,-1.095967E-07,2.07561E-08,-2.861022E-08
893.7687,-0.117103,3.328084E-09,NaN,-0.778021,-1.31991E-07,NaN,-0.5912508,-5.341738E-07,NaN,-1.482169,2.402727E-05,-1.061621,9.285387E-08,NaN,NaN,0.5307057,-2.887113E-10,1.483034E-06,-1.095965E-07,4.221377E-08,-2.622604E-08
893.7841,-0.1177488,3.328703E-09,NaN,-0.7763866,-1.319908E-07,NaN,-0.5814447,-5.34068E-07,NaN,-1.471401,2.402763E-05,-1.043095,9.274926E-08,NaN,NaN,0.5230215,-2.840547E-10,1.499723E-06,-1.095964E-07,4.102168E-08,-2.861022E-08
893.7988,-0.1177488,3.328703E-09,NaN,-0.7763866,-1.319908E-07,NaN,-0.5814447,-5.34068E-07,NaN,-1.471401,2.402763E-05,-1.043095,9.274926E-08,NaN,NaN,0.5230215,-2.840547E-10,1.499723E-06,-1.095964E-07,4.102168E-08,-2.861022E-08
893.8128,-0.1188753,3.329322E-09,NaN,-0.7732913,-1.319906E-07,NaN,-0.5700745,-5.339642E-07,NaN,-1.4581,2.402801E-05,-1.022994,9.264666E-08,NaN,NaN,0.5154861,-2.887113E-10,1.490783E-06,-1.095962E-07,4.340587E-08,-2.622604E-08
893.8284,-0.1202374,3.329942E-09,NaN,-0.7694218,-1.319904E-07,NaN,-0.5585873,-5.338624E-07,NaN,-1.444099,2.402838E-05,-1.003173,9.254602E-08,NaN,NaN,0.5084115,-2.840547E-10,1.472901E-06,-1.09596E-07,5.41347E-08,-2.861022E-08
893.8431,-0.1217263,3.330561E-09,NaN,-0.7650982,-1.319902E-07,NaN,-0.5471281,-5.337625E-07,NaN,-1.429832,2.402876E-05,-0.9835484,9.244732E-08,NaN,NaN,0.5014754,-2.887113E-10,1.46098E-06,-1.095959E-07,5.41347E-08,-2.622604E-08
893.8579,-0.1217263,3.330561E-09,NaN,-0.7650982,-1.319902E-07,NaN,-0.5471281,-5.337625E-07,NaN,-1.429832,2.402876E-05,-0.9835484,9.244732E-08,NaN,NaN,0.5014754,-2.887113E-10,1.46098E-06,-1.095959E-07,5.41347E-08,-2.622604E-08
893.8721,-0.1232789,3.33118E-09,NaN,-0.760518,-1.319901E-07,NaN,-0.53585,-5.336645E-07,NaN,-1.415551,2.402913E-05,-0.9641218,9.235051E-08,NaN,NaN,0.4946752,-2.933679E-10,1.447867E-06,-1.095957E-07,4.817424E-08,-2.861022E-08
893.8876,-0.1248592,3.3318E-09,NaN,-0.755802,-1.319899E-07,NaN,-0.5248089,-5.335684E-07,NaN,-1.401376,2.40295E-05,-0.9449196,9.225555E-08,NaN,NaN,0.4880083,-2.887113E-10,1.428794E-06,-1.095955E-07,4.579005E-08,-2.622604E-08
893.9022,-0.1264098,3.332419E-09,NaN,-0.751129,-1.319897E-07,NaN,-0.5143893,-5.334741E-07,NaN,-1.387781,2.402988E-05,-0.9266364,9.216242E-08,NaN,NaN,0.4817858,-2.933679E-10,1.398992E-06,-1.095954E-07,4.340586E-08,-2.861022E-08
893.9171,-0.1264098,3.332419E-09,NaN,-0.751129,-1.319897E-07,NaN,-0.5143893,-5.334741E-07,NaN,-1.387781,2.402988E-05,-0.9266364,9.216242E-08,NaN,NaN,0.4817858,-2.933679E-10,1.398992E-06,-1.095954E-07,4.340586E-08,-2.861022E-08
893.9309,-0.1279357,3.333038E-09,NaN,-0.7465024,-1.319895E-07,NaN,-0.5043095,-5.333815E-07,NaN,-1.374525,2.403025E-05,-0.9087847,9.207106E-08,NaN,NaN,0.4756854,-2.980245E-10,1.373958E-06,-1.095952E-07,4.459795E-08,-2.622604E-08
893.9474,-0.1294399,3.333658E-09,NaN,-0.7419242,-1.319893E-07,NaN,-0.4945172,-5.332907E-07,NaN,-1.361542,2.403063E-05,-0.8912237,9.198146E-08,NaN,NaN,0.4697047,-3.026811E-10,1.353096E-06,-1.09595E-07,4.817423E-08,-2.861022E-08
893.962,-0.1309243,3.334277E-09,NaN,-0.7373955,-1.319891E-07,NaN,-0.484978,-5.332017E-07,NaN,-1.348797,2.403101E-05,-0.8739271,9.189356E-08,NaN,NaN,0.4638411,-3.073377E-10,1.327466E-06,-1.095949E-07,4.936632E-08,-2.622604E-08
893.9758,-0.1309243,3.334277E-09,NaN,-0.7373955,-1.319891E-07,NaN,-0.484978,-5.332017E-07,NaN,-1.348797,2.403101E-05,-0.8739271,9.189356E-08,NaN,NaN,0.4638411,-3.073377E-10,1.327466E-06,-1.095949E-07,4.936632E-08,-2.622604E-08
893.9897,-0.1323533,3.334896E-09,NaN,-0.7330213,-1.31989E-07,NaN,-0.4760005,-5.331143E-07,NaN,-1.336694,2.403138E-05,-0.8575974,9.180734E-08,NaN,NaN,0.4584063,-3.119943E-10,1.291703E-06,-1.095947E-07,5.175051E-08,-2.861022E-08
894.0049,-0.1337438,3.335515E-09,NaN,-0.7287601,-1.319888E-07,NaN,-0.4673359,-5.330257E-07,NaN,-1.32494,2.403176E-05,-0.8417082,9.171995E-08,NaN,NaN,0.4530782,-3.16651E-10,1.263093E-06,-1.095946E-07,5.29426E-08,-2.622604E-08
894.0196,-0.1337438,3.335515E-09,NaN,-0.7287601,-1.319888E-07,NaN,-0.4673359,-5.330257E-07,NaN,-1.32494,2.403176E-05,-0.8417082,9.171995E-08,NaN,NaN,0.4530782,-3.16651E-10,1.263093E-06,-1.095946E-07,5.29426E-08,-2.622604E-08
894.0335,-0.1351055,3.336135E-09,NaN,-0.7245864,-1.319886E-07,NaN,-0.4589297,-5.329388E-07,NaN,-1.313453,2.403213E-05,-0.8260983,9.163422E-08,NaN,NaN,0.4478546,-3.073377E-10,1.235973E-06,-1.095944E-07,4.817423E-08,-2.861022E-08
894.0491,-0.1364074,3.336754E-09,NaN,-0.7205888,-1.319884E-07,NaN,-0.4510446,-5.328536E-07,NaN,-1.302618,2.40325E-05,-0.8114609,9.155013E-08,NaN,NaN,0.4430471,-3.026811E-10,1.202594E-06,-1.095943E-07,4.221377E-08,-2.622604E-08
894.0635,-0.1376688,3.337373E-09,NaN,-0.716716,-1.319882E-07,NaN,-0.4434555,-5.327699E-07,NaN,-1.292121,2.403287E-05,-0.7972543,9.146765E-08,NaN,NaN,0.438334,-2.980245E-10,1.175176E-06,-1.095941E-07,4.221377E-08,-2.861022E-08
894.0783,-0.1376688,3.337373E-09,NaN,-0.716716,-1.319882E-07,NaN,-0.4434555,-5.327699E-07,NaN,-1.292121,2.403287E-05,-0.7972543,9.146765E-08,NaN,NaN,0.438334,-2.980245E-10,1.175176E-06,-1.095941E-07,4.221377E-08,-2.861022E-08
894.0923,-0.1389008,3.337993E-09,NaN,-0.7129362,-1.31988E-07,NaN,-0.4361059,-5.326878E-07,NaN,-1.281876,2.403324E-05,-0.7833066,9.138674E-08,NaN,NaN,0.4337135,-2.933679E-10,1.150738E-06,-1.095939E-07,4.459796E-08,-2.622604E-08
894.1078,-0.1401097,3.338612E-09,NaN,-0.7092299,-1.319878E-07,NaN,-0.4289524,-5.326073E-07,NaN,-1.27184,2.403362E-05,-0.769587,9.130738E-08,NaN,NaN,0.4291835,-2.887113E-10,1.124512E-06,-1.095938E-07,4.757819E-08,-2.861022E-08
894.1226,-0.1412632,3.339231E-09,NaN,-0.7056893,-1.319877E-07,NaN,-0.4222376,-5.325282E-07,NaN,-1.26242,2.4034E-05,-0.7568294,9.122953E-08,NaN,NaN,0.425056,-2.840547E-10,1.092028E-06,-1.095936E-07,4.757819E-08,-2.622604E-08
894.1372,-0.1412632,3.339231E-09,NaN,-0.7056893,-1.319877E-07,NaN,-0.4222376,-5.325282E-07,NaN,-1.26242,2.4034E-05,-0.7568294,9.122953E-08,NaN,NaN,0.425056,-2.840547E-10,1.092028E-06,-1.095936E-07,4.757819E-08,-2.622604E-08
894.1512,-0.1423789,3.33985E-09,NaN,-0.7022652,-1.319875E-07,NaN,-0.4157857,-5.324507E-07,NaN,-1.253301,2.403437E-05,-0.744491,9.115316E-08,NaN,NaN,0.4210096,-2.793981E-10,1.065802E-06,-1.095935E-07,4.877028E-08,-2.861022E-08
894.1666,-0.1434674,3.34047E-09,NaN,-0.6989275,-1.319873E-07,NaN,-0.4095483,-5.323746E-07,NaN,-1.244406,2.403475E-05,-0.7323873,9.107825E-08,NaN,NaN,0.4170426,-2.747415E-10,1.039576E-06,-1.095933E-07,5.055842E-08,-2.622604E-08
894.1816,-0.1445348,3.341089E-09,NaN,-0.6956572,-1.319871E-07,NaN,-0.4034812,-5.322999E-07,NaN,-1.235696,2.403513E-05,-0.720485,9.100476E-08,NaN,NaN,0.4131534,-2.700849E-10,1.01782E-06,-1.095932E-07,4.579005E-08,-2.861022E-08
894.1959,-0.1445348,3.341089E-09,NaN,-0.6956572,-1.319871E-07,NaN,-0.4034812,-5.322999E-07,NaN,-1.235696,2.403513E-05,-0.720485,9.100476E-08,NaN,NaN,0.4131534,-2.700849E-10,1.01782E-06,-1.095932E-07,4.579005E-08,-2.861022E-08
894.2122,-0.1455485,3.341708E-09,NaN,-0.6925471,-1.319869E-07,NaN,-0.3977959,-5.322266E-07,NaN,-1.227584,2.40355E-05,-0.7095276,9.093267E-08,NaN,NaN,0.4096541,-2.654283E-10,9.865275E-07,-1.09593E-07,4.5194E-08,-2.622604E-08
894.2264,-0.1465261,3.342328E-09,NaN,-0.6895487,-1.319867E-07,NaN,-0.3923512,-5.321519E-07,NaN,-1.219747,2.403588E-05,-0.6989737,9.085912E-08,NaN,NaN,0.4062237,-2.607717E-10,9.640268E-07,-1.095929E-07,4.698214E-08,-2.861022E-08
894.2401,-0.1474779,3.342947E-09,NaN,-0.6866318,-1.319866E-07,NaN,-0.387103,-5.320786E-07,NaN,-1.212112,2.403626E-05,-0.6886278,9.078697E-08,NaN,NaN,0.4028606,-2.56115E-10,9.425691E-07,-1.095927E-07,4.400191E-08,-2.622604E-08
894.2547,-0.1474779,3.342947E-09,NaN,-0.6866318,-1.319866E-07,NaN,-0.387103,-5.320786E-07,NaN,-1.212112,2.403626E-05,-0.6886278,9.078697E-08,NaN,NaN,0.4028606,-2.56115E-10,9.425691E-07,-1.095927E-07,4.400191E-08,-2.622604E-08
894.269,-0.1483739,3.343566E-09,NaN,-0.6838821,-1.319864E-07,NaN,-0.3822225,-5.320066E-07,NaN,-1.20508,2.403663E-05,-0.6792046,9.071618E-08,NaN,NaN,0.3998772,-2.514584E-10,9.123198E-07,-1.095926E-07,4.459795E-08,-2.861022E-08
894.2839,-0.1492329,3.344186E-09,NaN,-0.6812469,-1.319862E-07,NaN,-0.3775782,-5.31936E-07,NaN,-1.198312,2.403701E-05,-0.6701621,9.064675E-08,NaN,NaN,0.3969525,-2.468018E-10,8.944384E-07,-1.095924E-07,4.280982E-08,-2.622604E-08
894.2985,-0.1492329,3.344186E-09,NaN,-0.6812469,-1.319862E-07,NaN,-0.3775782,-5.31936E-07,NaN,-1.198312,2.403701E-05,-0.6701621,9.064675E-08,NaN,NaN,0.3969525,-2.468018E-10,8.944384E-07,-1.095924E-07,4.280982E-08,-2.622604E-08
894.3123,-0.1500659,3.344805E-09,NaN,-0.6786934,-1.31986E-07,NaN,-0.3731216,-5.318667E-07,NaN,-1.191733,2.403739E-05,-0.6613002,9.057863E-08,NaN,NaN,0.3940852,-2.421452E-10,8.76557E-07,-1.095923E-07,4.102168E-08,-2.861022E-08
894.3277,-0.1508797,3.345425E-09,NaN,-0.6762013,-1.319858E-07,NaN,-0.3688019,-5.317987E-07,NaN,-1.185302,2.403776E-05,-0.6525836,9.05118E-08,NaN,NaN,0.3912741,-2.281754E-10,8.574835E-07,-1.095921E-07,3.893551E-08,-2.622604E-08
894.3425,-0.1516423,3.346044E-09,NaN,-0.6738625,-1.319856E-07,NaN,-0.3647823,-5.31732E-07,NaN,-1.179441,2.403814E-05,-0.6447651,9.044624E-08,NaN,NaN,0.3888318,-2.235188E-10,8.306614E-07,-1.09592E-07,3.893551E-08,-2.861022E-08
894.3571,-0.1516423,3.346044E-09,NaN,-0.6738625,-1.319856E-07,NaN,-0.3647823,-5.31732E-07,NaN,-1.179441,2.403814E-05,-0.6447651,9.044624E-08,NaN,NaN,0.3888318,-2.235188E-10,8.306614E-07,-1.09592E-07,3.893551E-08,-2.861022E-08
894.3712,-0.1523711,3.346664E-09,NaN,-0.6716278,-1.319855E-07,NaN,-0.3609692,-5.316665E-07,NaN,-1.173814,2.403852E-05,-0.6373124,9.038192E-08,NaN,NaN,0.3864377,-2.188622E-10,8.114389E-07,-1.095918E-07,3.74454E-08,-2.622604E-08
894.3867,-0.1530763,3.347283E-09,NaN,-0.6694669,-1.319853E-07,NaN,-0.3573252,-5.316022E-07,NaN,-1.16835,2.403891E-05,-0.6300173,9.031881E-08,NaN,NaN,0.3840906,-2.142056E-10,7.93781E-07,-1.095917E-07,3.804145E-08,-2.861022E-08
894.4014,-0.1537641,3.347903E-09,NaN,-0.6673608,-1.319851E-07,NaN,-0.3538011,-5.315391E-07,NaN,-1.163013,2.403929E-05,-0.6228409,9.02569E-08,NaN,NaN,0.3817895,-2.095489E-10,7.772407E-07,-1.095915E-07,3.476319E-08,-2.622604E-08
894.416,-0.1537641,3.347903E-09,NaN,-0.6673608,-1.319851E-07,NaN,-0.3538011,-5.315391E-07,NaN,-1.163013,2.403929E-05,-0.6228409,9.02569E-08,NaN,NaN,0.3817895,-2.095489E-10,7.772407E-07,-1.095915E-07,3.476319E-08,-2.622604E-08
894.43,-0.1544026,3.348522E-09,NaN,-0.6654022,-1.319849E-07,NaN,-0.3505406,-5.314772E-07,NaN,-1.158231,2.403967E-05,-0.6165368,9.019616E-08,NaN,NaN,0.3798473,-2.048923E-10,7.575712E-07,-1.095914E-07,3.446517E-08,-2.861022E-08
894.4454,-0.1550088,3.349142E-09,NaN,-0.6635428,-1.319848E-07,NaN,-0.3474717,-5.314164E-07,NaN,-1.153662,2.404005E-05,-0.6105782,9.013657E-08,NaN,NaN,0.3779434,-2.002357E-10,7.437876E-07,-1.095912E-07,3.804145E-08,-2.622604E-08
894.4601,-0.1555927,3.349762E-09,NaN,-0.6617525,-1.319846E-07,NaN,-0.3445606,-5.31354E-07,NaN,-1.149237,2.404043E-05,-0.6047518,9.007527E-08,NaN,NaN,0.3760769,-1.955791E-10,7.320157E-07,-1.095911E-07,4.13197E-08,-2.861022E-08
894.4749,-0.1555927,3.349762E-09,NaN,-0.6617525,-1.319846E-07,NaN,-0.3445606,-5.31354E-07,NaN,-1.149237,2.404043E-05,-0.6047518,9.007527E-08,NaN,NaN,0.3760769,-1.955791E-10,7.320157E-07,-1.095911E-07,4.13197E-08,-2.861022E-08
894.491,-0.156125,3.350382E-09,NaN,-0.6601171,-1.319844E-07,NaN,-0.3419203,-5.312926E-07,NaN,-1.145372,2.404082E-05,-0.5997707,9.001513E-08,NaN,NaN,0.3745608,-1.955791E-10,7.10409E-07,-1.095909E-07,3.982959E-08,-2.622604E-08
894.5043,-0.1566238,3.351001E-09,NaN,-0.6585842,-1.319843E-07,NaN,-0.3394764,-5.312324E-07,NaN,-1.141712,2.404121E-05,-0.5951075,8.995612E-08,NaN,NaN,0.3730747,-1.909225E-10,7.023623E-07,-1.095908E-07,3.74454E-08,-2.861022E-08
894.519,-0.1566238,3.351001E-09,NaN,-0.6585842,-1.319843E-07,NaN,-0.3394764,-5.312324E-07,NaN,-1.141712,2.404121E-05,-0.5951075,8.995612E-08,NaN,NaN,0.3730747,-1.909225E-10,7.023623E-07,-1.095908E-07,3.74454E-08,-2.861022E-08
894.5327,-0.1571002,3.351621E-09,NaN,-0.6571209,-1.319841E-07,NaN,-0.3371883,-5.311734E-07,NaN,-1.138186,2.404161E-05,-0.5905483,8.989831E-08,NaN,NaN,0.3716177,-1.955791E-10,6.941667E-07,-1.095907E-07,3.565726E-08,-2.622604E-08
894.548,-0.1575608,3.352241E-09,NaN,-0.6557071,-1.319839E-07,NaN,-0.3350011,-5.311155E-07,NaN,-1.134758,2.404199E-05,-0.5860538,8.984158E-08,NaN,NaN,0.3701893,-1.909225E-10,6.847045E-07,-1.095905E-07,3.565726E-08,-2.861022E-08
894.5627,-0.1579744,3.352861E-09,NaN,-0.6544343,-1.319838E-07,NaN,-0.3330295,-5.310587E-07,NaN,-1.131859,2.404238E-05,-0.5823795,8.978591E-08,NaN,NaN,0.3691027,-1.862659E-10,6.663761E-07,-1.095904E-07,3.088889E-08,-2.622604E-08
894.5773,-0.1579744,3.352861E-09,NaN,-0.6544343,-1.319838E-07,NaN,-0.3330295,-5.310587E-07,NaN,-1.131859,2.404238E-05,-0.5823795,8.978591E-08,NaN,NaN,0.3691027,-1.862659E-10,6.663761E-07,-1.095904E-07,3.088889E-08,-2.622604E-08
894.5912,-0.1583575,3.353481E-09,NaN,-0.653254,-1.319834E-07,NaN,-0.3312275,-5.325267E-07,NaN,-1.129138,2.404276E-05,-0.5790089,9.125511E-08,NaN,NaN,0.3680377,-1.816093E-10,6.58255E-07,-1.095905E-07,3.118691E-08,-2.861022E-08
894.6066,-0.1587206,3.354101E-09,NaN,-0.6521358,-1.319832E-07,NaN,-0.3295658,-5.331503E-07,NaN,-1.126531,2.404315E-05,-0.5757235,9.187993E-08,NaN,NaN,0.3669936,-1.769527E-10,6.52369E-07,-1.095902E-07,3.036735E-08,-2.622604E-08
894.6213,-0.1590698,3.354721E-09,NaN,-0.6510609,-1.31983E-07,NaN,-0.3279928,-5.337702E-07,NaN,-1.124004,2.404353E-05,-0.5724807,9.250093E-08,NaN,NaN,0.36597,-1.722961E-10,6.443969E-07,-1.095899E-07,3.081438E-08,-2.861022E-08
894.6362,-0.1590698,3.354721E-09,NaN,-0.6510609,-1.31983E-07,NaN,-0.3279928,-5.337702E-07,NaN,-1.124004,2.404353E-05,-0.5724807,9.250093E-08,NaN,NaN,0.36597,-1.722961E-10,6.443969E-07,-1.095899E-07,3.081438E-08,-2.861022E-08
894.6504,-0.1593736,3.355342E-09,NaN,-0.6501218,-1.319828E-07,NaN,-0.3266154,-5.343637E-07,NaN,-1.12199,2.404393E-05,-0.5700344,9.309559E-08,NaN,NaN,0.3652802,-1.769527E-10,6.321034E-07,-1.095896E-07,2.85047E-08,-2.622604E-08
894.6654,-0.1596484,3.355962E-09,NaN,-0.6492705,-1.319826E-07,NaN,-0.3253981,-5.342625E-07,NaN,-1.12014,2.404432E-05,-0.5678716,9.299565E-08,NaN,NaN,0.3646043,-1.722961E-10,6.281173E-07,-1.095894E-07,2.656755E-08,-2.861022E-08
894.6801,-0.1599043,3.356582E-09,NaN,-0.6484771,-1.319824E-07,NaN,-0.3243138,-5.34152E-07,NaN,-1.118387,2.40447E-05,-0.5657716,9.288633E-08,NaN,NaN,0.3639416,-1.676395E-10,6.242803E-07,-1.095893E-07,2.5897E-08,-2.622604E-08
894.6964,-0.1599043,3.356582E-09,NaN,-0.6484771,-1.319824E-07,NaN,-0.3243138,-5.34152E-07,NaN,-1.118387,2.40447E-05,-0.5657716,9.288633E-08,NaN,NaN,0.3639416,-1.676395E-10,6.242803E-07,-1.095893E-07,2.5897E-08,-2.622604E-08
894.7091,-0.1601122,3.357203E-09,NaN,-0.6478274,-1.319822E-07,NaN,-0.3234471,-5.340409E-07,NaN,-1.117154,2.404509E-05,-0.5644433,9.27763E-08,NaN,NaN,0.3636057,-1.629829E-10,6.149671E-07,-1.095891E-07,2.32893E-08,-2.861022E-08
894.7244,-0.16029,3.357823E-09,NaN,-0.6472691,-1.31982E-07,NaN,-0.3227519,-5.339289E-07,NaN,-1.116078,2.404548E-05,-0.5633699,9.266555E-08,NaN,NaN,0.3632767,-1.676395E-10,6.145759E-07,-1.09589E-07,2.291677E-08,-2.622604E-08
894.739,-0.16029,3.357823E-09,NaN,-0.6472691,-1.31982E-07,NaN,-0.3227519,-5.339289E-07,NaN,-1.116078,2.404548E-05,-0.5633699,9.266555E-08,NaN,NaN,0.3632767,-1.676395E-10,6.145759E-07,-1.09589E-07,2.291677E-08,-2.622604E-08
894.7552,-0.1604485,3.358444E-09,NaN,-0.6467696,-1.319819E-07,NaN,-0.3221918,-5.338163E-07,NaN,-1.115092,2.404587E-05,-0.5623326,9.25541E-08,NaN,NaN,0.3629542,-1.629829E-10,6.133093E-07,-1.095888E-07,2.317754E-08,-2.861022E-08
894.7695,-0.1605945,3.359065E-09,NaN,-0.6463086,-1.319817E-07,NaN,-0.3217097,-5.337058E-07,NaN,-1.11416,2.404627E-05,-0.5612905,9.24448E-08,NaN,NaN,0.3626381,-1.676395E-10,6.120428E-07,-1.095887E-07,2.39971E-08,-2.622604E-08
894.7834,-0.1606969,3.359685E-09,NaN,-0.6459779,-1.319815E-07,NaN,-0.3214007,-5.335946E-07,NaN,-1.113719,2.404665E-05,-0.5609984,9.233477E-08,NaN,NaN,0.3626418,-1.629829E-10,6.026923E-07,-1.095885E-07,2.135215E-08,-2.861022E-08
894.7979,-0.1606969,3.359685E-09,NaN,-0.6459779,-1.319815E-07,NaN,-0.3214007,-5.335946E-07,NaN,-1.113719,2.404665E-05,-0.5609984,9.233477E-08,NaN,NaN,0.3626418,-1.629829E-10,6.026923E-07,-1.095885E-07,2.135215E-08,-2.861022E-08
894.8116,-0.1607721,3.360306E-09,NaN,-0.6457291,-1.319814E-07,NaN,-0.3212386,-5.334855E-07,NaN,-1.113414,2.404705E-05,-0.5609488,9.222686E-08,NaN,NaN,0.3626459,-1.676395E-10,6.059706E-07,-1.095884E-07,2.276776E-08,-2.622604E-08
894.827,-0.1608304,3.360927E-09,NaN,-0.6455318,-1.319812E-07,NaN,-0.3211974,-5.333785E-07,NaN,-1.11318,2.404743E-05,-0.5609207,9.212101E-08,NaN,NaN,0.3626499,-1.629829E-10,6.090998E-07,-1.095883E-07,2.379221E-08,-2.861022E-08
894.8417,-0.1608781,3.361548E-09,NaN,-0.6453673,-1.31981E-07,NaN,-0.3212245,-5.332735E-07,NaN,-1.112986,2.404782E-05,-0.5608707,9.201719E-08,NaN,NaN,0.3626538,-1.583263E-10,6.104781E-07,-1.095881E-07,2.18085E-08,-2.622604E-08
894.8564,-0.1608781,3.361548E-09,NaN,-0.6453673,-1.31981E-07,NaN,-0.3212245,-5.332735E-07,NaN,-1.112986,2.404782E-05,-0.5608707,9.201719E-08,NaN,NaN,0.3626538,-1.583263E-10,6.104781E-07,-1.095881E-07,2.18085E-08,-2.622604E-08
894.8704,-0.1608836,3.362169E-09,NaN,-0.6453283,-1.319809E-07,NaN,-0.3214162,-5.331705E-07,NaN,-1.113268,2.404821E-05,-0.5615515,9.191536E-08,NaN,NaN,0.3629713,-1.536696E-10,6.013884E-07,-1.09588E-07,2.287952E-08,-2.861022E-08
894.8859,-0.1608639,3.36279E-09,NaN,-0.6453662,-1.319807E-07,NaN,-0.3217488,-5.330695E-07,NaN,-1.113673,2.40486E-05,-0.5624557,9.181549E-08,NaN,NaN,0.363283,-1.583263E-10,6.051509E-07,-1.095879E-07,1.9876E-08,-2.622604E-08
894.9005,-0.1608289,3.363412E-09,NaN,-0.6454515,-1.319805E-07,NaN,-0.3221965,-5.329703E-07,NaN,-1.114137,2.404899E-05,-0.5633625,9.171752E-08,NaN,NaN,0.3635886,-1.536696E-10,6.074979E-07,-1.095877E-07,1.803198E-08,-2.861022E-08
894.9152,-0.1608289,3.363412E-09,NaN,-0.6454515,-1.319805E-07,NaN,-0.3221965,-5.329703E-07,NaN,-1.114137,2.404899E-05,-0.5633625,9.171752E-08,NaN,NaN,0.3635886,-1.536696E-10,6.074979E-07,-1.095877E-07,1.803198E-08,-2.861022E-08
894.9292,-0.1607493,3.364033E-09,NaN,-0.6456702,-1.319804E-07,NaN,-0.3228404,-5.328702E-07,NaN,-1.115083,2.404938E-05,-0.5649785,9.161861E-08,NaN,NaN,0.364202,-1.49013E-10,6.045177E-07,-1.095876E-07,1.923921E-08,-2.622604E-08
894.9445,-0.1606426,3.364655E-09,NaN,-0.6459702,-1.319802E-07,NaN,-0.3236397,-5.32772E-07,NaN,-1.116149,2.404978E-05,-0.5667908,9.152159E-08,NaN,NaN,0.3648037,-1.443564E-10,6.11931E-07,-1.095875E-07,2.04965E-08,-2.861022E-08
894.9593,-0.1606426,3.364655E-09,NaN,-0.6459702,-1.319802E-07,NaN,-0.3236397,-5.32772E-07,NaN,-1.116149,2.404978E-05,-0.5667908,9.152159E-08,NaN,NaN,0.3648037,-1.443564E-10,6.11931E-07,-1.095875E-07,2.04965E-08,-2.861022E-08
894.9733,-0.1605199,3.365276E-09,NaN,-0.646319,-1.319801E-07,NaN,-0.3245581,-5.326757E-07,NaN,-1.117268,2.405018E-05,-0.5685806,9.142643E-08,NaN,NaN,0.3653936,-1.49013E-10,6.169229E-07,-1.095873E-07,2.097613E-08,-2.622604E-08
894.989,-0.1603879,3.365898E-09,NaN,-0.6466964,-1.319799E-07,NaN,-0.3255373,-5.325812E-07,NaN,-1.118405,2.405057E-05,-0.5703083,9.133309E-08,NaN,NaN,0.365972,-1.443564E-10,6.206854E-07,-1.095872E-07,1.871592E-08,-2.861022E-08
895.0039,-0.1602154,3.36652E-09,NaN,-0.6471943,-1.319798E-07,NaN,-0.3266766,-5.324885E-07,NaN,-1.119997,2.405097E-05,-0.5727279,9.124152E-08,NaN,NaN,0.3668528,-1.49013E-10,6.159543E-07,-1.095871E-07,1.94214E-08,-2.622604E-08
895.0203,-0.160019,3.367142E-09,NaN,-0.6477641,-1.319796E-07,NaN,-0.3279482,-5.323975E-07,NaN,-1.12169,2.405136E-05,-0.5753332,9.115173E-08,NaN,NaN,0.3677166,-1.49013E-10,6.237029E-07,-1.095869E-07,2.165425E-08,-2.861022E-08
895.0337,-0.160019,3.367142E-09,NaN,-0.6477641,-1.319796E-07,NaN,-0.3279482,-5.323975E-07,NaN,-1.12169,2.405136E-05,-0.5753332,9.115173E-08,NaN,NaN,0.3677166,-1.49013E-10,6.237029E-07,-1.095869E-07,2.165425E-08,-2.861022E-08
895.048,-0.1598088,3.367764E-09,NaN,-0.6483759,-1.319794E-07,NaN,-0.3293246,-5.323083E-07,NaN,-1.123421,2.405175E-05,-0.5779048,9.106365E-08,NaN,NaN,0.3685635,-1.396998E-10,6.307064E-07,-1.095868E-07,2.191967E-08,-2.622604E-08
895.062,-0.1595912,3.368386E-09,NaN,-0.6490107,-1.319793E-07,NaN,-0.3307525,-5.322207E-07,NaN,-1.125157,2.405215E-05,-0.5804013,9.097725E-08,NaN,NaN,0.3693939,-1.443564E-10,6.359963E-07,-1.095867E-07,2.213388E-08,-2.861022E-08
895.0768,-0.1595912,3.368386E-09,NaN,-0.6490107,-1.319793E-07,NaN,-0.3307525,-5.322207E-07,NaN,-1.125157,2.405215E-05,-0.5804013,9.097725E-08,NaN,NaN,0.3693939,-1.443564E-10,6.359963E-07,-1.095867E-07,2.213388E-08,-2.861022E-08
895.0906,-0.1593346,3.369008E-09,NaN,-0.6497613,-1.319791E-07,NaN,-0.33234,-5.321347E-07,NaN,-1.127337,2.405255E-05,-0.583575,9.089249E-08,NaN,NaN,0.3705216,-1.443564E-10,6.373375E-07,-1.095866E-07,1.960068E-08,-2.622604E-08
895.1061,-0.1590554,3.369631E-09,NaN,-0.6505799,-1.31979E-07,NaN,-0.3340551,-5.320504E-07,NaN,-1.129606,2.405294E-05,-0.5869172,9.080936E-08,NaN,NaN,0.3716276,-1.443564E-10,6.428509E-07,-1.095864E-07,1.85576E-08,-2.861022E-08
895.1207,-0.1587637,3.370253E-09,NaN,-0.6514368,-1.319788E-07,NaN,-0.3358693,-5.319677E-07,NaN,-1.131904,2.405334E-05,-0.5902099,9.072781E-08,NaN,NaN,0.372712,-1.443564E-10,6.51121E-07,-1.095863E-07,1.889288E-08,-2.622604E-08
895.1354,-0.1587637,3.370253E-09,NaN,-0.6514368,-1.319788E-07,NaN,-0.3358693,-5.319677E-07,NaN,-1.131904,2.405334E-05,-0.5902099,9.072781E-08,NaN,NaN,0.372712,-1.443564E-10,6.51121E-07,-1.095863E-07,1.889288E-08,-2.622604E-08
895.1495,-0.1584303,3.370876E-09,NaN,-0.6524178,-1.319787E-07,NaN,-0.3378795,-5.318865E-07,NaN,-1.134649,2.405374E-05,-0.5941606,9.064781E-08,NaN,NaN,0.3740888,-1.443564E-10,6.50972E-07,-1.095862E-07,1.583814E-08,-2.861022E-08
895.1661,-0.1580729,3.371499E-09,NaN,-0.6534709,-1.319785E-07,NaN,-0.3400322,-5.318069E-07,NaN,-1.137484,2.405412E-05,-0.5982534,9.056933E-08,NaN,NaN,0.375439,-1.350432E-10,6.577521E-07,-1.095861E-07,1.732825E-08,-2.622604E-08
895.1798,-0.1580729,3.371499E-09,NaN,-0.6534709,-1.319785E-07,NaN,-0.3400322,-5.318069E-07,NaN,-1.137484,2.405412E-05,-0.5982534,9.056933E-08,NaN,NaN,0.375439,-1.350432E-10,6.577521E-07,-1.095861E-07,1.732825E-08,-2.622604E-08
895.1937,-0.1577027,3.372122E-09,NaN,-0.6545637,-1.319784E-07,NaN,-0.342287,-5.317287E-07,NaN,-1.140342,2.405452E-05,-0.6022742,9.049235E-08,NaN,NaN,0.3767627,-1.350432E-10,6.652027E-07,-1.095859E-07,1.505583E-08,-2.861022E-08
895.2093,-0.1573264,3.372745E-09,NaN,-0.6556758,-1.31978E-07,NaN,-0.3445855,-5.32476E-07,NaN,-1.143189,2.40549E-05,-0.6061865,9.124081E-08,NaN,NaN,0.3780605,-1.2573E-10,6.722062E-07,-1.095861E-07,1.598715E-08,-2.622604E-08
895.2239,-0.1569124,3.373368E-09,NaN,-0.6568995,-1.319777E-07,NaN,-0.3470506,-5.332058E-07,NaN,-1.146459,2.40553E-05,-0.6107439,9.197174E-08,NaN,NaN,0.3796466,-1.2573E-10,6.710886E-07,-1.095864E-07,1.777529E-08,-2.861022E-08
895.2385,-0.1569124,3.373368E-09,NaN,-0.6568995,-1.319777E-07,NaN,-0.3470506,-5.332058E-07,NaN,-1.146459,2.40553E-05,-0.6107439,9.197174E-08,NaN,NaN,0.3796466,-1.2573E-10,6.710886E-07,-1.095864E-07,1.777529E-08,-2.861022E-08
895.2527,-0.1564776,3.373991E-09,NaN,-0.6581863,-1.319773E-07,NaN,-0.3496357,-5.339211E-07,NaN,-1.149802,2.405569E-05,-0.6154345,9.268828E-08,NaN,NaN,0.3812019,-1.164167E-10,6.816684E-07,-1.095866E-07,1.822232E-08,-2.622604E-08
895.2681,-0.1560321,3.374614E-09,NaN,-0.6595061,-1.31977E-07,NaN,-0.3523079,-5.346196E-07,NaN,-1.153156,2.405608E-05,-0.6200445,9.338791E-08,NaN,NaN,0.3827267,-1.164167E-10,6.918012E-07,-1.095868E-07,1.703023E-08,-2.861022E-08
895.2848,-0.1555821,3.375237E-09,NaN,-0.6608403,-1.319766E-07,NaN,-0.355014,-5.353043E-07,NaN,-1.156488,2.405647E-05,-0.6245366,9.407378E-08,NaN,NaN,0.3842216,-1.071035E-10,6.977617E-07,-1.095871E-07,1.703023E-08,-2.622604E-08
895.2984,-0.1555821,3.375237E-09,NaN,-0.6608403,-1.319766E-07,NaN,-0.355014,-5.353043E-07,NaN,-1.156488,2.405647E-05,-0.6245366,9.407378E-08,NaN,NaN,0.3842216,-1.071035E-10,6.977617E-07,-1.095871E-07,1.703023E-08,-2.622604E-08
895.3124,-0.1550958,3.375861E-09,NaN,-0.6622819,-1.319763E-07,NaN,-0.3578914,-5.359755E-07,NaN,-1.160232,2.405686E-05,-0.6296625,9.474615E-08,NaN,NaN,0.386001,-1.071035E-10,6.986558E-07,-1.095873E-07,1.606166E-08,-2.861022E-08
895.3268,-0.1545898,3.376484E-09,NaN,-0.663783,-1.31976E-07,NaN,-0.3608839,-5.366334E-07,NaN,-1.164041,2.405726E-05,-0.6349058,9.540529E-08,NaN,NaN,0.3877457,-9.779028E-11,7.078945E-07,-1.095875E-07,1.688122E-08,-2.622604E-08
895.3414,-0.1540741,3.377108E-09,NaN,-0.6653138,-1.319757E-07,NaN,-0.3639565,-5.372784E-07,NaN,-1.167853,2.405766E-05,-0.6400555,9.605146E-08,NaN,NaN,0.3894563,-9.779028E-11,7.210076E-07,-1.095878E-07,1.986145E-08,-2.861022E-08
895.356,-0.1540741,3.377108E-09,NaN,-0.6653138,-1.319757E-07,NaN,-0.3639565,-5.372784E-07,NaN,-1.167853,2.405766E-05,-0.6400555,9.605146E-08,NaN,NaN,0.3894563,-9.779028E-11,7.210076E-07,-1.095878E-07,1.986145E-08,-2.861022E-08
895.37,-0.1535193,3.377731E-09,NaN,-0.6669607,-1.319753E-07,NaN,-0.3672386,-5.379107E-07,NaN,-1.172082,2.405805E-05,-0.6458214,9.668491E-08,NaN,NaN,0.3914471,-8.847705E-11,7.244348E-07,-1.09588E-07,1.911639E-08,-2.622604E-08
895.3854,-0.1529434,3.378355E-09,NaN,-0.6686713,-1.31975E-07,NaN,-0.3706485,-5.385305E-07,NaN,-1.176378,2.405844E-05,-0.6516795,9.730589E-08,NaN,NaN,0.3933992,-7.916383E-11,7.359087E-07,-1.095882E-07,1.613616E-08,-2.861022E-08
895.4,-0.1523574,3.378979E-09,NaN,-0.6704134,-1.319747E-07,NaN,-0.3741396,-5.391381E-07,NaN,-1.180673,2.405883E-05,-0.6574243,9.791464E-08,NaN,NaN,0.3953131,-6.98506E-11,7.452965E-07,-1.095885E-07,1.345395E-08,-2.622604E-08
895.4146,-0.1523574,3.378979E-09,NaN,-0.6704134,-1.319747E-07,NaN,-0.3741396,-5.391381E-07,NaN,-1.180673,2.405883E-05,-0.6574243,9.791464E-08,NaN,NaN,0.3953131,-6.98506E-11,7.452965E-07,-1.095885E-07,1.345395E-08,-2.622604E-08
895.429,-0.151768,3.379603E-09,NaN,-0.6721671,-1.319744E-07,NaN,-0.3776545,-5.397337E-07,NaN,-1.184935,2.405923E-05,-0.6630244,9.851142E-08,NaN,NaN,0.3971893,-6.98506E-11,7.52747E-07,-1.095887E-07,1.390098E-08,-2.861022E-08
895.4444,-0.1511433,3.380227E-09,NaN,-0.6740245,-1.31974E-07,NaN,-0.3813551,-5.403204E-07,NaN,-1.189589,2.405962E-05,-0.6692312,9.909927E-08,NaN,NaN,0.3993426,-6.053738E-11,7.52747E-07,-1.095889E-07,1.226186E-08,-2.622604E-08
895.459,-0.1511433,3.380227E-09,NaN,-0.6740245,-1.31974E-07,NaN,-0.3813551,-5.403204E-07,NaN,-1.189589,2.405962E-05,-0.6692312,9.909927E-08,NaN,NaN,0.3993426,-6.053738E-11,7.52747E-07,-1.095889E-07,1.226186E-08,-2.622604E-08
895.4729,-0.1505003,3.380851E-09,NaN,-0.6759372,-1.319737E-07,NaN,-0.3851615,-5.408955E-07,NaN,-1.194296,2.406002E-05,-0.6755221,9.967555E-08,NaN,NaN,0.4014539,-6.053738E-11,7.597506E-07,-1.095891E-07,1.255988E-08,-2.861022E-08
895.4885,-0.1498493,3.381476E-09,NaN,-0.6778752,-1.319734E-07,NaN,-0.3890332,-5.414593E-07,NaN,-1.198992,2.406041E-05,-0.6816937,1.002405E-07,NaN,NaN,0.4035239,-5.122416E-11,7.710755E-07,-1.095894E-07,1.196383E-08,-2.622604E-08
895.5031,-0.1491963,3.3821E-09,NaN,-0.67982,-1.319731E-07,NaN,-0.3929179,-5.420119E-07,NaN,-1.203646,2.40608E-05,-0.6877143,1.007943E-07,NaN,NaN,0.4055533,-4.191093E-11,7.804632E-07,-1.095896E-07,1.106976E-08,-2.861022E-08
895.5182,-0.1491963,3.3821E-09,NaN,-0.67982,-1.319731E-07,NaN,-0.3929179,-5.420119E-07,NaN,-1.203646,2.40608E-05,-0.6877143,1.007943E-07,NaN,NaN,0.4055533,-4.191093E-11,7.804632E-07,-1.095896E-07,1.106976E-08,-2.861022E-08
895.532,-0.1485092,3.382724E-09,NaN,-0.6818649,-1.319728E-07,NaN,-0.3969967,-5.425536E-07,NaN,-1.208683,2.40612E-05,-0.694332,1.013372E-07,NaN,NaN,0.4078566,-3.259771E-11,7.813573E-07,-1.095898E-07,1.017569E-08,-2.622604E-08
895.5493,-0.1478048,3.383349E-09,NaN,-0.6839618,-1.319725E-07,NaN,-0.4011751,-5.430846E-07,NaN,-1.213767,2.40616E-05,-0.7010192,1.018694E-07,NaN,NaN,0.4101151,-3.259771E-11,7.917881E-07,-1.0959E-07,1.077174E-08,-2.861022E-08
895.5627,-0.1470932,3.383974E-09,NaN,-0.6860813,-1.319721E-07,NaN,-0.4054099,-5.436052E-07,NaN,-1.218834,2.4062E-05,-0.7075772,1.023912E-07,NaN,NaN,0.4123293,-2.328448E-11,8.002818E-07,-1.095903E-07,1.434802E-08,-2.622604E-08
895.5766,-0.1470932,3.383974E-09,NaN,-0.6860813,-1.319721E-07,NaN,-0.4054099,-5.436052E-07,NaN,-1.218834,2.4062E-05,-0.7075772,1.023912E-07,NaN,NaN,0.4123293,-2.328448E-11,8.002818E-07,-1.095903E-07,1.434802E-08,-2.622604E-08
895.5906,-0.1463445,3.384598E-09,NaN,-0.6883096,-1.319711E-07,NaN,-0.409876,-5.417969E-07,NaN,-1.224291,2.40624E-05,-0.7147154,1.005662E-07,NaN,NaN,0.4148138,-1.862787E-11,8.020699E-07,-1.095909E-07,1.226186E-08,-2.861022E-08
895.6058,-0.1455771,3.385223E-09,NaN,-0.6905944,-1.319697E-07,NaN,-0.4144512,-5.399885E-07,NaN,-1.229798,2.40628E-05,-0.7218999,9.873145E-08,NaN,NaN,0.4172499,-9.314645E-12,8.16077E-07,-1.09592E-07,1.434802E-08,-2.622604E-08
895.6203,-0.144802,3.385847E-09,NaN,-0.6929037,-1.319682E-07,NaN,-0.4190815,-5.381801E-07,NaN,-1.235286,2.406319E-05,-0.7289386,9.689281E-08,NaN,NaN,0.4196383,-1.419004E-15,8.256137E-07,-1.095931E-07,1.345395E-08,-2.861022E-08
895.6349,-0.144802,3.385847E-09,NaN,-0.6929037,-1.319682E-07,NaN,-0.4190815,-5.381801E-07,NaN,-1.235286,2.406319E-05,-0.7289386,9.689281E-08,NaN,NaN,0.4196383,-1.419004E-15,8.256137E-07,-1.095931E-07,1.345395E-08,-2.861022E-08
895.6503,-0.1440258,3.386472E-09,NaN,-0.6952176,-1.319667E-07,NaN,-0.4237121,-5.363718E-07,NaN,-1.240722,2.406359E-05,-0.7358061,9.505448E-08,NaN,NaN,0.4219798,4.655194E-12,8.327663E-07,-1.095942E-07,1.136779E-08,-2.622604E-08
895.6641,-0.1432163,3.387096E-09,NaN,-0.6976284,-1.319652E-07,NaN,-0.4285558,-5.345634E-07,NaN,-1.246525,2.406399E-05,-0.7432459,9.321954E-08,NaN,NaN,0.4245892,9.311807E-12,8.321702E-07,-1.095952E-07,1.196383E-08,-2.861022E-08
895.6788,-0.1432163,3.387096E-09,NaN,-0.6976284,-1.319652E-07,NaN,-0.4285558,-5.345634E-07,NaN,-1.246525,2.406399E-05,-0.7432459,9.321954E-08,NaN,NaN,0.4245892,9.311807E-12,8.321702E-07,-1.095952E-07,1.196383E-08,-2.861022E-08
895.6931,-0.1423907,3.387721E-09,NaN,-0.7000877,-1.319637E-07,NaN,-0.433487,-5.327551E-07,NaN,-1.252365,2.406439E-05,-0.7507244,9.139024E-08,NaN,NaN,0.4271477,1.396842E-11,8.393228E-07,-1.095963E-07,1.017569E-08,-2.622604E-08
895.7082,-0.1415593,3.388346E-09,NaN,-0.7025657,-1.319623E-07,NaN,-0.4384567,-5.309467E-07,NaN,-1.258179,2.40648E-05,-0.7580536,8.956821E-08,NaN,NaN,0.4296561,1.862503E-11,8.494555E-07,-1.095975E-07,1.28579E-08,-2.861022E-08
895.7229,-0.1407281,3.388971E-09,NaN,-0.7050439,-1.319609E-07,NaN,-0.4434153,-5.291383E-07,NaN,-1.263934,2.40652E-05,-0.765208,8.775463E-08,NaN,NaN,0.4321153,2.328164E-11,8.55416E-07,-1.095986E-07,1.166581E-08,-2.622604E-08
895.7378,-0.1407281,3.388971E-09,NaN,-0.7050439,-1.319609E-07,NaN,-0.4434153,-5.291383E-07,NaN,-1.263934,2.40652E-05,-0.765208,8.775463E-08,NaN,NaN,0.4321153,2.328164E-11,8.55416E-07,-1.095986E-07,1.166581E-08,-2.622604E-08
895.7519,-0.1398646,3.389596E-09,NaN,-0.7076157,-1.319595E-07,NaN,-0.448598,-5.2733E-07,NaN,-1.270045,2.40656E-05,-0.772925,8.595033E-08,NaN,NaN,0.43484,2.793826E-11,8.509457E-07,-1.095997E-07,1.106976E-08,-2.861022E-08
895.7673,-0.1389858,3.390223E-09,NaN,-0.7102331,-1.31959E-07,NaN,-0.4538601,-5.281739E-07,NaN,-1.276191,2.4066E-05,-0.7806677,8.679785E-08,NaN,NaN,0.4375115,3.259487E-11,8.557141E-07,-1.096E-07,1.196383E-08,-2.622604E-08
895.7817,-0.138102,3.390849E-09,NaN,-0.7128667,-1.319579E-07,NaN,-0.4591505,-5.266909E-07,NaN,-1.282306,2.40664E-05,-0.7882547,8.52983E-08,NaN,NaN,0.4401307,3.259487E-11,8.631646E-07,-1.096004E-07,1.315593E-08,-2.861022E-08
895.7966,-0.138102,3.390849E-09,NaN,-0.7128667,-1.319579E-07,NaN,-0.4591505,-5.266909E-07,NaN,-1.282306,2.40664E-05,-0.7882547,8.52983E-08,NaN,NaN,0.4401307,3.259487E-11,8.631646E-07,-1.096004E-07,1.315593E-08,-2.861022E-08
895.8104,-0.1371828,3.391476E-09,NaN,-0.7156028,-1.319574E-07,NaN,-0.4646994,-5.276007E-07,NaN,-1.288786,2.406679E-05,-0.7963876,8.61952E-08,NaN,NaN,0.4430123,3.725148E-11,8.637607E-07,-1.096006E-07,1.315593E-08,-2.622604E-08
895.8276,-0.1362469,3.392102E-09,NaN,-0.7183892,-1.319562E-07,NaN,-0.4703336,-5.261819E-07,NaN,-1.295305,2.406718E-05,-0.8045262,8.474317E-08,NaN,NaN,0.4458377,4.190809E-11,8.688271E-07,-1.096011E-07,1.077174E-08,-2.861022E-08
895.8414,-0.1353054,3.392729E-09,NaN,-0.7211939,-1.319557E-07,NaN,-0.4759923,-5.271157E-07,NaN,-1.301791,2.406757E-05,-0.8124967,8.565087E-08,NaN,NaN,0.4486077,4.190809E-11,8.724034E-07,-1.096013E-07,1.196383E-08,-2.622604E-08
895.855,-0.1353054,3.392729E-09,NaN,-0.7211939,-1.319557E-07,NaN,-0.4759923,-5.271157E-07,NaN,-1.301791,2.406757E-05,-0.8124967,8.565087E-08,NaN,NaN,0.4486077,4.190809E-11,8.724034E-07,-1.096013E-07,1.196383E-08,-2.622604E-08
895.869,-0.1343649,3.393356E-09,NaN,-0.7239972,-1.319553E-07,NaN,-0.4816255,-5.280263E-07,NaN,-1.308212,2.406797E-05,-0.8202788,8.654072E-08,NaN,NaN,0.4513234,4.190809E-11,8.747876E-07,-1.096014E-07,1.136779E-08,-2.861022E-08
895.8843,-0.1333926,3.393982E-09,NaN,-0.7268915,-1.319542E-07,NaN,-0.4875048,-5.266038E-07,NaN,-1.314974,2.406837E-05,-0.8285972,8.507902E-08,NaN,NaN,0.4542996,4.190809E-11,8.703173E-07,-1.09602E-07,8.387555E-09,-2.622604E-08
895.8985,-0.1333926,3.393982E-09,NaN,-0.7268915,-1.319542E-07,NaN,-0.4875048,-5.266038E-07,NaN,-1.314974,2.406837E-05,-0.8285972,8.507902E-08,NaN,NaN,0.4542996,4.190809E-11,8.703173E-07,-1.09602E-07,8.387555E-09,-2.622604E-08
895.9125,-0.1324061,3.394609E-09,NaN,-0.7298283,-1.319537E-07,NaN,-0.4934482,-5.275273E-07,NaN,-1.321765,2.406877E-05,-0.8369148,8.597152E-08,NaN,NaN,0.4572177,3.725148E-11,8.762777E-07,-1.096022E-07,8.387555E-09,-2.861022E-08
895.9277,-0.1314158,3.395237E-09,NaN,-0.7327779,-1.319533E-07,NaN,-0.4993997,-5.284296E-07,NaN,-1.328516,2.406916E-05,-0.8450634,8.68493E-08,NaN,NaN,0.4600787,3.725148E-11,8.7896E-07,-1.096023E-07,7.791508E-09,-2.622604E-08
895.9423,-0.1304276,3.395864E-09,NaN,-0.7357221,-1.319522E-07,NaN,-0.5053144,-5.269989E-07,NaN,-1.335195,2.406956E-05,-0.8530229,8.537681E-08,NaN,NaN,0.4628836,3.725148E-11,8.8045E-07,-1.096029E-07,1.077174E-08,-2.861022E-08
895.9571,-0.1304276,3.395864E-09,NaN,-0.7357221,-1.319522E-07,NaN,-0.5053144,-5.269989E-07,NaN,-1.335195,2.406956E-05,-0.8530229,8.537681E-08,NaN,NaN,0.4628836,3.725148E-11,8.8045E-07,-1.096029E-07,1.077174E-08,-2.861022E-08
895.9709,-0.1294086,3.396492E-09,NaN,-0.7387542,-1.319517E-07,NaN,-0.5114875,-5.279157E-07,NaN,-1.342208,2.406996E-05,-0.8615064,8.626051E-08,NaN,NaN,0.4659472,3.725148E-11,8.741916E-07,-1.09603E-07,7.791508E-09,-2.622604E-08
895.9864,-0.1283761,3.397118E-09,NaN,-0.7418262,-1.319506E-07,NaN,-0.5177152,-5.265022E-07,NaN,-1.349248,2.407035E-05,-0.869979,8.47985E-08,NaN,NaN,0.468951,3.725148E-11,8.724035E-07,-1.096036E-07,7.195462E-09,-2.861022E-08
896.0009,-0.1273404,3.397746E-09,NaN,-0.7449089,-1.319501E-07,NaN,-0.52394,-5.274441E-07,NaN,-1.356245,2.407074E-05,-0.8782805,8.570191E-08,NaN,NaN,0.4718959,3.725148E-11,8.706153E-07,-1.096038E-07,8.983601E-09,-2.622604E-08
896.0153,-0.1273404,3.397746E-09,NaN,-0.7449089,-1.319501E-07,NaN,-0.52394,-5.274441E-07,NaN,-1.356245,2.407074E-05,-0.8782805,8.570191E-08,NaN,NaN,0.4718959,3.725148E-11,8.706153E-07,-1.096038E-07,8.983601E-09,-2.622604E-08
