JMolnar6/NonAnthroHands_User_Study/HandsLoggerWithURDF/tempdata/PID 0 (test)/files/Reachy_PID0_JointMotion_gesture_12_4.csv
Time,r_shoulder,r_shoulder_x,r_upper_arm,r_forearm,r_wrist,r_wrist2hand,
1104.937,-0.3270468,-0.3574361,0.1799005,-0.5314635,0.06945154,0.1528472
1104.951,-0.3269798,-0.3573849,0.1799351,-0.5314351,0.06940942,0.1528477
1104.966,-0.3269136,-0.3573343,0.1799692,-0.5314071,0.06936769,0.1528482
1104.981,-0.3268481,-0.3572843,0.1800029,-0.5313793,0.06932638,0.1528487
1104.996,-0.3268481,-0.3572843,0.1800029,-0.5313793,0.06932638,0.1528487
1105.01,-0.3267834,-0.3572349,0.1800362,-0.5313519,0.06928546,0.1528492
1105.025,-0.3267195,-0.3571861,0.1800691,-0.5313249,0.06924494,0.1528497
1105.04,-0.3266563,-0.3571379,0.1801016,-0.5312981,0.06920481,0.1528502
1105.055,-0.3266563,-0.3571379,0.1801016,-0.5312981,0.06920481,0.1528502
1105.069,-0.3265938,-0.3570903,0.1801336,-0.5312716,0.06916507,0.1528506
1105.084,-0.326532,-0.3570433,0.1801653,-0.5312455,0.06912571,0.1528511
1105.1,-0.326471,-0.3569968,0.1801965,-0.5312197,0.06908675,0.1528515
1105.114,-0.326471,-0.3569968,0.1801965,-0.5312197,0.06908675,0.1528515
1105.128,-0.3264107,-0.3569508,0.1802274,-0.5311942,0.06904817,0.1528519
1105.143,-0.326351,-0.3569055,0.1802578,-0.5311689,0.06900997,0.1528524
1105.158,-0.326351,-0.3569055,0.1802578,-0.5311689,0.06900997,0.1528524
1105.172,-0.3262921,-0.3568606,0.1802879,-0.531144,0.06897214,0.1528528
1105.187,-0.3262338,-0.3568163,0.1803176,-0.5311193,0.06893469,0.1528532
1105.202,-0.3261763,-0.3567725,0.1803469,-0.531095,0.0688976,0.1528536
1105.217,-0.3261763,-0.3567725,0.1803469,-0.531095,0.0688976,0.1528536
1105.231,-0.3261193,-0.3567293,0.1803758,-0.5310709,0.06886087,0.152854
1105.247,-0.3260631,-0.3566865,0.1804044,-0.5310471,0.06882451,0.1528544
1105.264,-0.3260075,-0.3566443,0.1804325,-0.5310236,0.06878852,0.1528548
1105.276,-0.3260075,-0.3566443,0.1804325,-0.5310236,0.06878852,0.1528548
1105.29,-0.3259525,-0.3566026,0.1804604,-0.5310003,0.06875288,0.1528551
1105.306,-0.3258982,-0.3565614,0.1804878,-0.5309774,0.0687176,0.1528555
1105.32,-0.3258445,-0.3565206,0.180515,-0.5309547,0.06868266,0.1528559
1105.337,-0.3258445,-0.3565206,0.180515,-0.5309547,0.06868266,0.1528559
1105.35,-0.3257914,-0.3564804,0.1805417,-0.5309322,0.06864807,0.1528562
1105.365,-0.3257389,-0.3564406,0.1805681,-0.5309101,0.06861383,0.1528565
1105.38,-0.3257389,-0.3564406,0.1805681,-0.5309101,0.06861383,0.1528565
1105.393,-0.3256871,-0.3564014,0.1805942,-0.5308881,0.06857993,0.1528569
1105.409,-0.3256358,-0.3563626,0.18062,-0.5308665,0.06854636,0.1528572
1105.423,-0.3255852,-0.3563242,0.1806453,-0.5308451,0.06851314,0.1528575
1105.438,-0.3255852,-0.3563242,0.1806453,-0.5308451,0.06851314,0.1528575
1105.453,-0.3255351,-0.3562863,0.1806704,-0.5308239,0.06848025,0.1528578
1105.468,-0.3254856,-0.3562489,0.1806951,-0.530803,0.06844769,0.1528582
1105.483,-0.3254367,-0.3562119,0.1807196,-0.5307823,0.06841545,0.1528585
1105.498,-0.3254367,-0.3562119,0.1807196,-0.5307823,0.06841545,0.1528585
1105.512,-0.3253884,-0.3561753,0.1807437,-0.5307619,0.06838354,0.1528587
1105.527,-0.3253406,-0.3561392,0.1807674,-0.5307417,0.06835195,0.152859
1105.542,-0.3252934,-0.3561035,0.1807909,-0.5307217,0.06832069,0.1528593
1105.557,-0.3252934,-0.3561035,0.1807909,-0.5307217,0.06832069,0.1528593
1105.571,-0.3252467,-0.3560683,0.1808141,-0.530702,0.06828974,0.1528596
1105.587,-0.3252005,-0.3560334,0.1808369,-0.5306825,0.06825911,0.1528599
1105.602,-0.3251549,-0.355999,0.1808595,-0.5306633,0.06822877,0.1528601
1105.615,-0.3251549,-0.355999,0.1808595,-0.5306633,0.06822877,0.1528601
1105.63,-0.3251098,-0.355965,0.1808817,-0.5306442,0.06819876,0.1528604
1105.645,-0.3250653,-0.3559314,0.1809037,-0.5306254,0.06816904,0.1528607
1105.659,-0.3250653,-0.3559314,0.1809037,-0.5306254,0.06816904,0.1528607
1105.673,-0.3250212,-0.3558982,0.1809253,-0.5306068,0.06813962,0.1528609
1105.689,-0.3249777,-0.3558654,0.1809467,-0.5305884,0.06811051,0.1528612
1105.704,-0.3249347,-0.355833,0.1809678,-0.5305703,0.0680817,0.1528614
1105.719,-0.3249347,-0.355833,0.1809678,-0.5305703,0.0680817,0.1528614
1105.733,-0.3248921,-0.355801,0.1809886,-0.5305523,0.06805318,0.1528616
1105.748,-0.3248501,-0.3557694,0.1810091,-0.5305346,0.06802496,0.1528619
1105.763,-0.3248085,-0.3557381,0.1810293,-0.530517,0.06799702,0.1528621
1105.778,-0.3248085,-0.3557381,0.1810293,-0.530517,0.06799702,0.1528621
1105.792,-0.3247675,-0.3557072,0.1810493,-0.5304997,0.06796938,0.1528623
1105.807,-0.3247269,-0.3556767,0.181069,-0.5304826,0.06794202,0.1528625
1105.822,-0.3246868,-0.3556466,0.1810885,-0.5304657,0.06791493,0.1528628
1105.838,-0.3246868,-0.3556466,0.1810885,-0.5304657,0.06791493,0.1528628
1105.852,-0.3246471,-0.3556167,0.1811076,-0.5304489,0.06788813,0.152863
1105.866,-0.3246079,-0.3555873,0.1811266,-0.5304323,0.06786161,0.1528632
1105.881,-0.3245692,-0.3555582,0.1811452,-0.530416,0.06783535,0.1528634
1105.895,-0.3245692,-0.3555582,0.1811452,-0.530416,0.06783535,0.1528634
1105.91,-0.3245309,-0.3555295,0.1811636,-0.5303999,0.06780937,0.1528636
1105.925,-0.324493,-0.3555011,0.1811818,-0.5303839,0.06778366,0.1528638
1105.94,-0.3242488,-0.3552738,0.1806387,-0.5301114,0.0684337,0.1525824
1105.954,-0.3242488,-0.3552738,0.1806387,-0.5301114,0.0684337,0.1525824
1105.969,-0.3238763,-0.354925,0.179969,-0.5298226,0.06932711,0.1523068
1105.984,-0.323425,-0.3545031,0.1793303,-0.5295165,0.07027393,0.1520365
1105.998,-0.323425,-0.3545031,0.1793303,-0.5295165,0.07027393,0.1520365
1106.013,-0.3231331,-0.3542373,0.1793233,-0.5294534,0.07053035,0.1520532
1106.028,-0.3229422,-0.3540688,0.1795099,-0.5293986,0.07051069,0.1520693
1106.043,-0.3228154,-0.3539608,0.1797196,-0.5293574,0.070403,0.152085
1106.058,-0.3228154,-0.3539608,0.1797196,-0.5293574,0.070403,0.152085
1106.072,-0.3227292,-0.3538907,0.1799008,-0.5293284,0.07027846,0.1521004
1106.088,-0.3228743,-0.3540421,0.1806056,-0.5295661,0.06948644,0.1523971
1106.103,-0.3231639,-0.3543292,0.1814048,-0.5298275,0.06846467,0.1526878
1106.117,-0.3231639,-0.3543292,0.1814048,-0.5298275,0.06846467,0.1526878
1106.131,-0.3235429,-0.3546987,0.1821491,-0.5301113,0.06740149,0.1529727
1106.146,-0.3239762,-0.3551171,0.1828073,-0.5304116,0.06636183,0.1532521
1106.161,-0.3246484,-0.355763,0.1839475,-0.5309792,0.06468708,0.1538075
1106.176,-0.3246484,-0.355763,0.1839475,-0.5309792,0.06468708,0.1538075
1106.19,-0.3254673,-0.3565455,0.1851494,-0.5315694,0.06281108,0.1543519
1106.205,-0.3263744,-0.3574083,0.1862713,-0.5321795,0.06091836,0.1548857
1106.22,-0.3263744,-0.3574083,0.1862713,-0.5321795,0.06091836,0.1548857
1106.234,-0.3275397,-0.3585155,0.1878451,-0.5330599,0.05839672,0.1556905
1106.25,-0.328861,-0.3597673,0.189446,-0.533964,0.05569388,0.1564795
1106.264,-0.3302741,-0.3611015,0.1909356,-0.5348872,0.0529976,0.1572529
1106.279,-0.3302741,-0.3611015,0.1909356,-0.5348872,0.0529976,0.1572529
1106.293,-0.3317383,-0.3624801,0.1922931,-0.5358214,0.05036856,0.1580113
1106.309,-0.3334354,-0.3640787,0.194088,-0.5370172,0.04714807,0.1590363
1106.323,-0.3352702,-0.365804,0.1959105,-0.5382278,0.04376274,0.1600412
1106.339,-0.3352702,-0.365804,0.1959105,-0.5382278,0.04376274,0.1600412
1106.353,-0.3371828,-0.3675985,0.1976224,-0.5394498,0.0403951,0.1610263
1106.367,-0.3391357,-0.3694269,0.1992008,-0.5406758,0.03710471,0.1619922
1106.382,-0.341313,-0.371467,0.2012072,-0.5421582,0.03323689,0.1632208
1106.397,-0.341313,-0.371467,0.2012072,-0.5421582,0.03323689,0.1632208
1106.411,-0.3436203,-0.373626,0.2032347,-0.54365,0.02921446,0.1644251
1106.426,-0.3459984,-0.3758474,0.2051436,-0.545148,0.02522114,0.165606
1106.441,-0.3484104,-0.3780963,0.2069104,-0.5466452,0.02131693,0.1667637
1106.456,-0.3484104,-0.3780963,0.2069104,-0.5466452,0.02131693,0.1667637
1106.47,-0.3510414,-0.3805511,0.2090894,-0.548395,0.01685173,0.1681802
1106.485,-0.3537966,-0.3831191,0.2112802,-0.5501499,0.01224285,0.169569
1106.5,-0.3566171,-0.3857436,0.2133429,-0.5519066,0.007674749,0.1709306
1106.515,-0.3566171,-0.3857436,0.2133429,-0.5519066,0.007674749,0.1709306
1106.529,-0.3596745,-0.3885897,0.215789,-0.5539188,0.002548547,0.1725471
1106.545,-0.362865,-0.391556,0.2182171,-0.555937,-0.002707231,0.1741319
1106.559,-0.362865,-0.391556,0.2182171,-0.555937,-0.002707231,0.1741319
1106.573,-0.3661241,-0.3945811,0.2204896,-0.5579564,-0.007903706,0.1756856
1106.589,-0.3694119,-0.3976278,0.2225885,-0.5599691,-0.01298108,0.177209
1106.604,-0.3729129,-0.4008729,0.2250578,-0.5622295,-0.01858127,0.178984
1106.618,-0.3729129,-0.4008729,0.2250578,-0.5622295,-0.01858127,0.178984
1106.632,-0.3765301,-0.404222,0.227515,-0.5644879,-0.02430094,0.1807244
1106.647,-0.3802035,-0.4076182,0.2298222,-0.5667407,-0.02995536,0.1824306
1106.662,-0.3838961,-0.4110269,0.2319586,-0.5689808,-0.03548506,0.1841035
1106.677,-0.3838961,-0.4110269,0.2319586,-0.5689808,-0.03548506,0.1841035
1106.691,-0.3877953,-0.4146271,0.2344554,-0.5714645,-0.04152471,0.1860251
1106.707,-0.3918045,-0.418325,0.2369379,-0.5739418,-0.04767854,0.1879091
1106.721,-0.3958641,-0.4220643,0.2392664,-0.5764092,-0.05376,0.1897562
1106.736,-0.3958641,-0.4220643,0.2392664,-0.5764092,-0.05376,0.1897562
1106.75,-0.4001485,-0.4260105,0.2419269,-0.5791231,-0.06034997,0.1918487
1106.766,-0.4045519,-0.4300617,0.2445457,-0.5818319,-0.06704273,0.1939003
1106.781,-0.4090093,-0.4341566,0.2469857,-0.5845304,-0.07364698,0.1959117
1106.795,-0.4090093,-0.4341566,0.2469857,-0.5845304,-0.07364698,0.1959117
1106.809,-0.4134812,-0.4382586,0.2492309,-0.5872111,-0.08010238,0.1978837
1106.825,-0.4181553,-0.4425455,0.2517968,-0.5901313,-0.08703184,0.2000986
1106.841,-0.4229325,-0.4469221,0.2543311,-0.5930393,-0.09405707,0.2022702
1106.854,-0.4229325,-0.4469221,0.2543311,-0.5930393,-0.09405707,0.2022702
1106.868,-0.4277523,-0.4513316,0.2566961,-0.5959308,-0.1009907,0.2043993
1106.883,-0.4325779,-0.4557403,0.2588725,-0.5987992,-0.1077726,0.2064867
1106.898,-0.4325779,-0.4557403,0.2588725,-0.5987992,-0.1077726,0.2064867
1106.912,-0.4376002,-0.4603277,0.2613608,-0.6019036,-0.1150167,0.2088147
1106.928,-0.4427201,-0.4649993,0.2638187,-0.604992,-0.122354,0.2110972
1106.942,-0.4478777,-0.4696989,0.2661065,-0.6080604,-0.1295951,0.213335
1106.957,-0.4478777,-0.4696989,0.2661065,-0.6080604,-0.1295951,0.213335
1106.971,-0.4532506,-0.4745927,0.2686782,-0.6113678,-0.1372985,0.2158104
1106.987,-0.4587303,-0.4795779,0.2711942,-0.6146609,-0.1450855,0.2182375
1107.001,-0.4642513,-0.4845935,0.273518,-0.6179343,-0.152762,0.2206171
1107.016,-0.4642513,-0.4845935,0.273518,-0.6179343,-0.152762,0.2206171
1107.03,-0.4697743,-0.4896037,0.2756352,-0.6211806,-0.1602666,0.2229501
1107.046,-0.475491,-0.4947871,0.2780277,-0.6246594,-0.1681996,0.2255187
1107.06,-0.4812995,-0.5000476,0.2803786,-0.6281179,-0.1762113,0.2280371
1107.075,-0.4812995,-0.5000476,0.2803786,-0.6281179,-0.1762113,0.2280371
1107.091,-0.4871386,-0.5053285,0.2825502,-0.6315511,-0.1841117,0.2305063
1107.106,-0.4929718,-0.5105968,0.2845249,-0.6349528,-0.1918394,0.2329272
1107.119,-0.4929718,-0.5105968,0.2845249,-0.6349528,-0.1918394,0.2329272
1107.133,-0.4989941,-0.5160328,0.286768,-0.6385838,-0.1999852,0.2355818
1107.149,-0.5051036,-0.5215411,0.2889733,-0.6421916,-0.2082089,0.2381848
1107.163,-0.5112392,-0.5270654,0.2910019,-0.6457714,-0.2163187,0.2407367
1107.178,-0.5112392,-0.5270654,0.2910019,-0.6457714,-0.2163187,0.2407367
1107.192,-0.5175829,-0.532773,0.293272,-0.6495837,-0.2248483,0.2435199
1107.207,-0.5240228,-0.5385597,0.295481,-0.653375,-0.2334477,0.2462489
1107.223,-0.5304925,-0.5443649,0.2974937,-0.6571389,-0.2419203,0.2489244
1107.237,-0.5304925,-0.5443649,0.2974937,-0.6571389,-0.2419203,0.2489244
1107.251,-0.5369528,-0.5501537,0.2992972,-0.6608688,-0.2502034,0.2515475
1107.266,-0.5436006,-0.5561054,0.3013367,-0.664825,-0.2588734,0.2544003
1107.281,-0.5503302,-0.5621229,0.3033323,-0.6687552,-0.2676094,0.2571976
1107.296,-0.5503302,-0.5621229,0.3033323,-0.6687552,-0.2676094,0.2571976
1107.31,-0.5570795,-0.5681497,0.3051478,-0.6726536,-0.2762197,0.25994
1107.325,-0.5638119,-0.5741534,0.3067664,-0.6765141,-0.2846414,0.2626287
1107.342,-0.5707282,-0.5803155,0.3086163,-0.680598,-0.2934412,0.2655459
1107.356,-0.5707282,-0.5803155,0.3086163,-0.680598,-0.2934412,0.2655459
1107.37,-0.5777223,-0.5865388,0.3104284,-0.6846541,-0.3023075,0.2684062
1107.384,-0.5847318,-0.5927677,0.3120652,-0.6886762,-0.3110469,0.2712104
1107.399,-0.5847318,-0.5927677,0.3120652,-0.6886762,-0.3110469,0.2712104
1107.413,-0.5919442,-0.5991699,0.3139075,-0.6929251,-0.3201679,0.2742409
1107.428,-0.5992433,-0.6056402,0.3156904,-0.6971489,-0.3293484,0.2772122
1107.443,-0.6065612,-0.6121183,0.3172806,-0.7013403,-0.3383902,0.2801254
1107.458,-0.6065612,-0.6121183,0.3172806,-0.7013403,-0.3383902,0.2801254
1107.472,-0.6138588,-0.6185699,0.3186665,-0.7054923,-0.3472293,0.2829814
1107.487,-0.6213396,-0.6251757,0.3202556,-0.7098653,-0.3564181,0.2860625
1107.502,-0.6288932,-0.6318369,0.3218049,-0.7142094,-0.3656634,0.2890835
1107.517,-0.6288932,-0.6318369,0.3218049,-0.7142094,-0.3656634,0.2890835
1107.531,-0.636456,-0.6384974,0.3231796,-0.7185172,-0.3747721,0.2920454
1107.547,-0.6439915,-0.6451255,0.3243644,-0.7227827,-0.3836806,0.2949492
1107.561,-0.6517075,-0.6519037,0.3257494,-0.7272663,-0.3929316,0.298077
1107.576,-0.6517075,-0.6519037,0.3257494,-0.7272663,-0.3929316,0.298077
1107.59,-0.6594924,-0.6587334,0.3271018,-0.7317199,-0.4022402,0.3011439
1107.606,-0.6672826,-0.665559,0.3282863,-0.7361361,-0.4114122,0.3041508
1107.62,-0.6672826,-0.665559,0.3282863,-0.7361361,-0.4114122,0.3041508
1107.634,-0.6752723,-0.6725493,0.3296463,-0.7407739,-0.4209321,0.3073796
1107.649,-0.6833393,-0.6795975,0.3309535,-0.7453853,-0.4305032,0.3105456
1107.664,-0.6914144,-0.6866436,0.3320769,-0.7499613,-0.4399264,0.3136495
1107.679,-0.6914144,-0.6866436,0.3320769,-0.7499613,-0.4399264,0.3136495
1107.693,-0.6994585,-0.6936544,0.3330064,-0.7544946,-0.4491374,0.3166925
1107.708,-0.7076833,-0.7008116,0.3341121,-0.7592439,-0.4586656,0.3199568
1107.723,-0.7159722,-0.7080149,0.3351855,-0.7639639,-0.4682422,0.3231574
1107.738,-0.7159722,-0.7080149,0.3351855,-0.7639639,-0.4682422,0.3231574
1107.752,-0.7242599,-0.7152083,0.3360945,-0.7686453,-0.4776742,0.3262954
1107.768,-0.73251,-0.7223612,0.336825,-0.7732814,-0.4868971,0.3293718
1107.783,-0.7409388,-0.7296571,0.3377299,-0.7781308,-0.496432,0.3326688
1107.797,-0.7409388,-0.7296571,0.3377299,-0.7781308,-0.496432,0.3326688
1107.811,-0.7494282,-0.7369955,0.3386104,-0.7829509,-0.5060166,0.3359015
1107.827,-0.7579124,-0.744321,0.3393336,-0.7877316,-0.515457,0.3390708
1107.841,-0.7663556,-0.7516036,0.3398851,-0.7924664,-0.5246882,0.342178
1107.857,-0.7663556,-0.7516036,0.3398851,-0.7924664,-0.5246882,0.342178
1107.871,-0.7749774,-0.7590272,0.3406043,-0.7974131,-0.5342237,0.3455052
1107.885,-0.783657,-0.7664908,0.3413034,-0.8023313,-0.5438077,0.3487676
1107.9,-0.783657,-0.7664908,0.3413034,-0.8023313,-0.5438077,0.3487676
1107.914,-0.7923281,-0.773939,0.3418507,-0.8072103,-0.5532469,0.3519661
1107.929,-0.8011967,-0.7815424,0.3425422,-0.8123053,-0.5629972,0.3553827
1107.944,-0.8101304,-0.7891914,0.3431937,-0.8173766,-0.5727894,0.3587327
1107.959,-0.8101304,-0.7891914,0.3431937,-0.8173766,-0.5727894,0.3587327
1107.973,-0.8190576,-0.7968268,0.3436792,-0.8224113,-0.5824261,0.3620171
1107.988,-0.8279397,-0.804417,0.3439907,-0.8274009,-0.5918425,0.3652371
1108.003,-0.8370017,-0.8121456,0.3444498,-0.8326007,-0.6015418,0.3686747
1108.018,-0.8370017,-0.8121456,0.3444498,-0.8326007,-0.6015418,0.3686747
1108.032,-0.8461162,-0.8199092,0.3448898,-0.8377745,-0.6112804,0.3720452
1108.047,-0.8552155,-0.8276523,0.3451831,-0.842909,-0.620867,0.3753497
1108.062,-0.8642637,-0.835346,0.3453177,-0.8479962,-0.6302377,0.3785893
1108.077,-0.8642637,-0.835346,0.3453177,-0.8479962,-0.6302377,0.3785893
1108.091,-0.8734908,-0.8431755,0.3455995,-0.853291,-0.6398883,0.3820463
1108.107,-0.882767,-0.851037,0.3458689,-0.8585607,-0.6495792,0.3854358
1108.121,-0.892024,-0.8588757,0.3459988,-0.8637908,-0.659119,0.388759
1108.135,-0.892024,-0.8588757,0.3459988,-0.8637908,-0.659119,0.388759
1108.15,-0.9014779,-0.8668634,0.3462532,-0.869233,-0.668947,0.3922978
1108.165,-0.9109871,-0.8748882,0.3464758,-0.8746553,-0.6788087,0.3957676
1108.18,-0.9109871,-0.8748882,0.3464758,-0.8746553,-0.6788087,0.3957676
1108.194,-0.9204782,-0.8828917,0.3465458,-0.8800409,-0.6885092,0.3991695
1108.209,-0.9299133,-0.8908435,0.3464571,-0.8853798,-0.6979851,0.4025046
1108.224,-0.9395288,-0.8989289,0.3464984,-0.8909244,-0.7077234,0.4060552
1108.239,-0.9395288,-0.8989289,0.3464984,-0.8909244,-0.7077234,0.4060552
1108.253,-0.9491878,-0.9070417,0.3465282,-0.8964472,-0.717493,0.4095364
1108.269,-0.9588203,-0.9151273,0.3464242,-0.9019306,-0.7271054,0.4129495
1108.283,-0.9683914,-0.9231577,0.3461764,-0.907365,-0.7364984,0.4162956
1108.298,-0.9683914,-0.9231577,0.3461764,-0.907365,-0.7364984,0.4162956
1108.313,-0.9781427,-0.9313198,0.3460583,-0.9130025,-0.7461523,0.4198571
1108.328,-0.9879341,-0.9395068,0.3459347,-0.9186195,-0.7558382,0.4233489
1108.345,-0.9976952,-0.9476644,0.3456841,-0.9241968,-0.7653682,0.4267724
1108.358,-0.9976952,-0.9476644,0.3456841,-0.9241968,-0.7653682,0.4267724
1108.371,-1.007654,-0.9559663,0.3455408,-0.9299825,-0.7751682,0.4304097
1108.387,-1.017657,-0.9642976,0.3453729,-0.9357532,-0.7849931,0.433976
1108.401,-1.02763,-0.9726007,0.345066,-0.941487,-0.7946526,0.4374724
1108.416,-1.02763,-0.9726007,0.345066,-0.941487,-0.7946526,0.4374724
1108.43,-1.037537,-0.9808471,0.3446163,-0.9471722,-0.8040857,0.4409002
1108.446,-1.047625,-0.9892238,0.3442811,-0.9530585,-0.8137657,0.4445418
1108.461,-1.057748,-0.9976214,0.3439406,-0.9589279,-0.8234687,0.4481122
1108.476,-1.057748,-0.9976214,0.3439406,-0.9589279,-0.8234687,0.4481122
1108.49,-1.067832,-1.005986,0.3434791,-0.9647576,-0.8330109,0.4516127
1108.505,-1.077846,-1.014291,0.3428889,-0.9705362,-0.8423325,0.4550446
1108.52,-1.077846,-1.014291,0.3428889,-0.9705362,-0.8423325,0.4550446
1108.534,-1.088042,-1.022725,0.3424129,-0.9765134,-0.8519009,0.4586902
1108.55,-1.098268,-1.031178,0.3419365,-0.9824752,-0.8614928,0.4622645
1108.564,-1.108454,-1.039596,0.3413453,-0.9883969,-0.8709255,0.4657688
1108.581,-1.118564,-1.047954,0.3406322,-0.9942666,-0.8801398,0.4692045
1108.595,-1.118564,-1.047954,0.3406322,-0.9942666,-0.8801398,0.4692045
1108.609,-1.128859,-1.056441,0.3400287,-1.000334,-0.8895986,0.4728537
1108.623,-1.139182,-1.064945,0.3394271,-1.006387,-0.8990794,0.4764317
1108.638,-1.139182,-1.064945,0.3394271,-1.006387,-0.8990794,0.4764317
1108.652,-1.14946,-1.073413,0.3387159,-1.012401,-0.9084019,0.4799396
1108.667,-1.159937,-1.082021,0.3380918,-1.018618,-0.9179773,0.4836597
1108.682,-1.170446,-1.090651,0.3374514,-1.024827,-0.9275677,0.4873072
1108.697,-1.170446,-1.090651,0.3374514,-1.024827,-0.9275677,0.4873072
1108.711,-1.180908,-1.099246,0.336691,-1.030999,-0.9369916,0.4908832
1108.727,-1.19129,-1.10778,0.3358104,-1.037117,-0.946193,0.4943891
1108.741,-1.191222,-1.108802,0.327776,-1.033652,-0.9380074,0.4874268
1108.756,-1.191222,-1.108802,0.327776,-1.033652,-0.9380074,0.4874268
1108.77,-1.185894,-1.1058,0.315876,-1.028144,-0.9201258,0.4805928
1108.786,-1.17776,-1.100439,0.3045912,-1.021643,-0.8992752,0.4738893
1108.8,-1.168328,-1.093826,0.2950287,-1.014543,-0.8782482,0.467316
1108.816,-1.168328,-1.093826,0.2950287,-1.014543,-0.8782482,0.467316
1108.831,-1.158671,-1.086762,0.2875889,-1.00712,-0.8583605,0.4606912
1108.846,-1.148994,-1.079486,0.2813292,-0.9995991,-0.8394362,0.4541964
1108.859,-1.148994,-1.079486,0.2813292,-0.9995991,-0.8394362,0.4541964
1108.873,-1.139382,-1.072123,0.2757206,-0.992062,-0.8212397,0.447829
1108.888,-1.130155,-1.064911,0.2710474,-0.9846022,-0.8040335,0.4414065
1108.903,-1.121167,-1.057797,0.2666885,-0.9773246,-0.7874049,0.4351102
1108.918,-1.121167,-1.057797,0.2666885,-0.9773246,-0.7874049,0.4351102
1108.932,-1.112346,-1.050755,0.2624471,-0.9702058,-0.7711651,0.4289374
1108.948,-1.103657,-1.043775,0.2582575,-0.963234,-0.7552263,0.4228856
1108.962,-1.095369,-1.037027,0.254692,-0.956418,-0.7400149,0.4167723
1108.977,-1.095369,-1.037027,0.254692,-0.956418,-0.7400149,0.4167723
1108.991,-1.087321,-1.030421,0.2512918,-0.9498299,-0.7252204,0.4107791
1109.006,-1.079434,-1.023914,0.2479378,-0.943419,-0.7107182,0.4049034
1109.021,-1.071672,-1.017484,0.2446013,-0.9371579,-0.6964568,0.3991428
1109.036,-1.071672,-1.017484,0.2446013,-0.9371579,-0.6964568,0.3991428
1109.05,-1.064298,-1.011293,0.2418725,-0.9310352,-0.682892,0.393315
1109.065,-1.057157,-1.005251,0.2393033,-0.9251304,-0.6697172,0.3876017
1109.08,-1.050172,-0.999312,0.2367735,-0.919392,-0.6568093,0.3820004
1109.096,-1.050172,-0.999312,0.2367735,-0.919392,-0.6568093,0.3820004
1109.11,-1.043586,-0.9936249,0.2348424,-0.9137896,-0.6445983,0.3763288
1109.124,-1.037237,-0.9880946,0.2330573,-0.9084039,-0.6327614,0.3707687
1109.14,-1.031045,-0.9826714,0.2312956,-0.9031807,-0.6211697,0.3653176
1109.154,-1.031045,-0.9826714,0.2312956,-0.9031807,-0.6211697,0.3653176
1109.168,-1.024966,-0.977329,0.2295289,-0.8980898,-0.6097724,0.3599733
1109.183,-1.019258,-0.9722261,0.2283505,-0.8931026,-0.599041,0.3545536
1109.198,-1.019258,-0.9722261,0.2283505,-0.8931026,-0.599041,0.3545536
1109.212,-1.013774,-0.9672744,0.2273193,-0.8883135,-0.5886617,0.3492405
1109.227,-1.008435,-0.9624265,0.2263103,-0.8836722,-0.5785078,0.3440315
1109.242,-1.003203,-0.9576569,0.2252918,-0.8791509,-0.5685285,0.3389247
1109.257,-1.003203,-0.9576569,0.2252918,-0.8791509,-0.5685285,0.3389247
1109.271,-0.9983302,-0.9531239,0.2248561,-0.8747156,-0.5592023,0.3337379
1109.286,-0.9936742,-0.9487413,0.2245633,-0.8704679,-0.5502105,0.328653
1109.301,-0.9891586,-0.9444614,0.2242849,-0.866359,-0.5414234,0.3236679
1109.316,-0.9891586,-0.9444614,0.2242849,-0.866359,-0.5414234,0.3236679
1109.33,-0.9850164,-0.9404308,0.2245799,-0.8623404,-0.5332897,0.3186004
1109.346,-0.9810968,-0.9365575,0.2250018,-0.8585118,-0.5254743,0.3136325
1109.361,-0.9773185,-0.9327903,0.2254201,-0.8548212,-0.5178418,0.3087622
1109.375,-0.9773185,-0.9327903,0.2254201,-0.8548212,-0.5178418,0.3087622
1109.388,-0.9736371,-0.9291002,0.2258034,-0.851239,-0.5103405,0.3039873
1109.404,-0.9703003,-0.9256432,0.2267479,-0.8477221,-0.5034612,0.2991259
1109.418,-0.9703003,-0.9256432,0.2267479,-0.8477221,-0.5034612,0.2991259
1109.432,-0.9671693,-0.9223346,0.2278183,-0.8443796,-0.4968792,0.2943601
1109.448,-0.9641682,-0.919126,0.2288832,-0.8411632,-0.490462,0.2896879
1109.463,-0.9612547,-0.9159895,0.2299085,-0.8380452,-0.4841582,0.2851073
1109.477,-0.9612547,-0.9159895,0.2299085,-0.8380452,-0.4841582,0.2851073
1109.491,-0.9586753,-0.9130815,0.2314902,-0.8349811,-0.4784649,0.2804364
1109.507,-0.9562948,-0.910319,0.2331925,-0.8320838,-0.4730525,0.2758574
1109.521,-0.9540379,-0.9076536,0.234881,-0.8293057,-0.467786,0.2713682
1109.536,-0.9540379,-0.9076536,0.234881,-0.8293057,-0.467786,0.2713682
1109.551,-0.9521311,-0.9052297,0.237118,-0.8265904,-0.4631311,0.2667871
1109.566,-0.9504308,-0.9029584,0.2394584,-0.8240464,-0.4587413,0.262296
1109.58,-0.9488559,-0.9007872,0.2417666,-0.8216228,-0.4544764,0.2578932
1109.597,-0.9488559,-0.9007872,0.2417666,-0.8216228,-0.4544764,0.2578932
1109.611,-0.9473602,-0.8986853,0.2440089,-0.8192902,-0.4502845,0.2535767
1109.625,-0.9461852,-0.8968067,0.2467877,-0.8170004,-0.446675,0.2491647
1109.639,-0.9461852,-0.8968067,0.2467877,-0.8170004,-0.446675,0.2491647
1109.653,-0.9451989,-0.8950692,0.2496683,-0.8148687,-0.4433115,0.2448395
1109.669,-0.9443254,-0.8934239,0.2525144,-0.8128469,-0.4400568,0.2405993
1109.684,-0.9435211,-0.8918412,0.2552905,-0.8109078,-0.4368599,0.2364423
1109.698,-0.9435211,-0.8918412,0.2552905,-0.8109078,-0.4368599,0.2364423
1109.712,-0.9430278,-0.8904762,0.2586003,-0.8090046,-0.4342362,0.2321867
1109.728,-0.9427161,-0.889248,0.262006,-0.8072535,-0.4318439,0.2280148
1109.742,-0.9425108,-0.8881081,0.2653691,-0.8056068,-0.4295438,0.2239249
1109.757,-0.9425108,-0.8881081,0.2653691,-0.8056068,-0.4295438,0.2239249
1109.771,-0.9426314,-0.8871996,0.2692566,-0.8040094,-0.4278182,0.2197352
1109.787,-0.9429434,-0.8864366,0.273224,-0.8025693,-0.4263099,0.2156279
1109.801,-0.9433654,-0.8857672,0.2771311,-0.8012356,-0.4248752,0.2116013
1109.816,-0.9433654,-0.8857672,0.2771311,-0.8012356,-0.4248752,0.2116013
1109.831,-0.9438496,-0.8851586,0.2809429,-0.7999795,-0.4234619,0.2076537
1109.846,-0.9446341,-0.8847628,0.2852713,-0.7987548,-0.4225979,0.2036035
1109.861,-0.9455909,-0.8844995,0.2896757,-0.7976761,-0.421933,0.199633
1109.875,-0.9455909,-0.8844995,0.2896757,-0.7976761,-0.421933,0.199633
1109.889,-0.9466442,-0.8843187,0.2940165,-0.7966947,-0.4213259,0.1957405
1109.904,-0.9477494,-0.884189,0.298258,-0.7957833,-0.4207262,0.1919243
1109.919,-0.9477494,-0.884189,0.298258,-0.7957833,-0.4207262,0.1919243
1109.933,-0.9491456,-0.8842614,0.3030141,-0.7948989,-0.4206668,0.1880029
1109.949,-0.9507065,-0.8844579,0.30784,-0.7941558,-0.4207928,0.1841588
1109.964,-0.952355,-0.8847288,0.3125927,-0.793506,-0.4209606,0.1803901
1109.978,-0.952355,-0.8847288,0.3125927,-0.793506,-0.4209606,0.1803901
1109.992,-0.9543121,-0.8852161,0.3178546,-0.7928979,-0.4216729,0.1765154
1110.008,-0.9564381,-0.8858314,0.3231631,-0.792439,-0.4225517,0.172717
1110.023,-0.9586505,-0.8865209,0.3283773,-0.7920766,-0.4234509,0.1689932
1110.037,-0.9586505,-0.8865209,0.3283773,-0.7920766,-0.4234509,0.1689932
1110.051,-0.9609013,-0.8872517,0.3334657,-0.7917811,-0.4243223,0.1653424
1110.067,-0.9634291,-0.8881766,0.3390557,-0.7915134,-0.4257162,0.1615831
1110.082,-0.9661031,-0.8892129,0.3446892,-0.7913842,-0.4272605,0.157898
1110.096,-0.9661031,-0.8892129,0.3446892,-0.7913842,-0.4272605,0.157898
1110.113,-0.9688472,-0.8903108,0.3502265,-0.7913427,-0.4288128,0.1542852
1110.127,-0.9716172,-0.8914402,0.3556355,-0.7913612,-0.4303268,0.1507433
1110.14,-0.9746546,-0.8927559,0.3615479,-0.7914055,-0.4323598,0.1470908
1110.155,-0.9746546,-0.8927559,0.3615479,-0.7914055,-0.4323598,0.1470908
1110.169,-0.9778292,-0.8941756,0.3674964,-0.7915841,-0.4345306,0.1435103
1110.184,-0.9810653,-0.8956501,0.3733407,-0.7918463,-0.4366957,0.1400001
1110.199,-0.9810653,-0.8956501,0.3733407,-0.7918463,-0.4366957,0.1400001
1110.213,-0.9845874,-0.8973227,0.3796817,-0.7921498,-0.4393814,0.1363788
1110.229,-0.9882535,-0.8991036,0.3860379,-0.7925946,-0.4421878,0.1328288
1110.244,-0.9919821,-0.9009396,0.3922701,-0.7931257,-0.4449688,0.1293486
1110.258,-0.9919821,-0.9009396,0.3922701,-0.7931257,-0.4449688,0.1293486
1110.272,-0.9957267,-0.9027994,0.3983509,-0.7937128,-0.4476812,0.1259366
1110.288,-0.9997295,-0.9048373,0.4049254,-0.7943287,-0.4508976,0.1224115
1110.303,-1.003857,-0.906969,0.4115135,-0.7950754,-0.454222,0.1189559
1110.317,-1.003857,-0.906969,0.4115135,-0.7950754,-0.454222,0.1189559
1110.331,-1.008033,-0.9091452,0.4179768,-0.7958997,-0.4575114,0.1155681
1110.347,-1.012215,-0.9113373,0.4242872,-0.7967733,-0.4607236,0.1122469
1110.362,-1.016647,-0.9137012,0.4310945,-0.7976754,-0.4644387,0.1088106
1110.377,-1.016647,-0.9137012,0.4310945,-0.7976754,-0.4644387,0.1088106
1110.39,-1.021198,-0.9161528,0.4379081,-0.7987044,-0.4682502,0.1054422
1110.405,-1.025789,-0.9186435,0.4445897,-0.7998068,-0.4720147,0.10214
1110.42,-1.025789,-0.9186435,0.4445897,-0.7998068,-0.4720147,0.10214
1110.434,-1.030651,-0.9213178,0.45176,-0.8009543,-0.476282,0.09872245
1110.449,-1.035638,-0.9240842,0.4589151,-0.8022353,-0.4806281,0.09537237
1110.464,-1.040667,-0.9268902,0.4659189,-0.8035921,-0.4849083,0.0920881
1110.479,-1.040667,-0.9268902,0.4659189,-0.8035921,-0.4849083,0.0920881
1110.493,-1.045694,-0.9297057,0.4727487,-0.8049939,-0.4890841,0.08886825
1110.509,-1.050966,-0.9326866,0.4800681,-0.8064295,-0.4937513,0.08553141
1110.523,-1.056345,-0.9357467,0.4873722,-0.8079882,-0.4984872,0.08226048
1110.538,-1.056345,-0.9357467,0.4873722,-0.8079882,-0.4984872,0.08226048
1110.552,-1.061754,-0.9388372,0.4945253,-0.8096141,-0.5031497,0.0790538
1110.568,-1.067152,-0.9419306,0.5015041,-0.8112783,-0.5077014,0.07591002
1110.582,-1.072789,-0.9451843,0.5089766,-0.8129775,-0.5127447,0.07264777
1110.597,-1.072789,-0.9451843,0.5089766,-0.8129775,-0.5127447,0.07264777
1110.611,-1.078528,-0.9485121,0.5164269,-0.8147959,-0.5178463,0.06944996
1110.627,-1.084291,-0.9518659,0.52372,-0.8166771,-0.5228637,0.06631499
1110.641,-1.090037,-0.9552185,0.5308337,-0.8185923,-0.5277612,0.0632415
1110.656,-1.090037,-0.9552185,0.5308337,-0.8185923,-0.5277612,0.0632415
1110.67,-1.09602,-0.958728,0.5384418,-0.8205452,-0.5331486,0.06004816
1110.685,-1.1021,-0.9623077,0.5460193,-0.8226144,-0.5385826,0.05691793
1110.7,-1.1021,-0.9623077,0.5460193,-0.8226144,-0.5385826,0.05691793
1110.714,-1.108199,-0.9659094,0.5534324,-0.8247423,-0.5439213,0.0538492
1110.729,-1.114553,-0.9696794,0.5613292,-0.8269251,-0.5497472,0.05066053
1110.744,-1.12101,-0.9735237,0.5691729,-0.82923,-0.5556009,0.04753489
1110.759,-1.12101,-0.9735237,0.5691729,-0.82923,-0.5556009,0.04753489
1110.773,-1.127488,-0.9773905,0.5768341,-0.8315951,-0.5613416,0.04447066
1110.788,-1.133944,-0.9812517,0.5842973,-0.8339893,-0.5669391,0.04146651
1110.803,-1.140631,-0.9852649,0.5922497,-0.836429,-0.5730184,0.03834113
1110.818,-1.140631,-0.9852649,0.5922497,-0.836429,-0.5730184,0.03834113
1110.832,-1.147406,-0.9893413,0.6001506,-0.8389803,-0.5791186,0.03527755
1110.848,-1.154192,-0.9934327,0.6078711,-0.8415834,-0.5851008,0.03227415
1110.862,-1.160947,-0.9975131,0.6153949,-0.8442091,-0.5909357,0.02932965
1110.882,-1.16793,-1.001742,0.6234126,-0.8468828,-0.5972547,0.02626275
1110.892,-1.16793,-1.001742,0.6234126,-0.8468828,-0.5972547,0.02626275
1110.905,-1.174996,-1.006029,0.6313726,-0.849664,-0.6035848,0.02325651
1110.921,-1.182068,-1.010328,0.6391473,-0.8524923,-0.6097882,0.02030933
1110.936,-1.182068,-1.010328,0.6391473,-0.8524923,-0.6097882,0.02030933
1110.95,-1.189387,-1.014786,0.6474037,-0.8553855,-0.6164714,0.01723982
1110.965,-1.196795,-1.019307,0.6555803,-0.8583912,-0.6231468,0.01423101
1110.98,-1.196795,-1.019307,0.6555803,-0.8583912,-0.6231468,0.01423101
1110.994,-1.204208,-1.02384,0.6635548,-0.8614444,-0.6296791,0.0112813
1111.009,-1.211585,-1.028357,0.6713177,-0.8645142,-0.6360449,0.008389422
1111.024,-1.219188,-1.033019,0.6795707,-0.8676406,-0.64289,0.005374113
1111.039,-1.219188,-1.033019,0.6795707,-0.8676406,-0.64289,0.005374113
1111.053,-1.226866,-1.037733,0.6877467,-0.870869,-0.6497221,0.002418451
1111.068,-1.23454,-1.042453,0.695724,-0.8741366,-0.6564079,-0.0004791594
1111.083,-1.24217,-1.047153,0.703492,-0.8774143,-0.662925,-0.003319955
1111.098,-1.24217,-1.047153,0.703492,-0.8774143,-0.662925,-0.003319955
1111.112,-1.250024,-1.051994,0.7117553,-0.8807519,-0.669925,-0.00628516
1111.129,-1.257948,-1.056885,0.7199357,-0.8841873,-0.6769028,-0.009191711
1111.143,-1.265864,-1.061777,0.727914,-0.8876567,-0.6837272,-0.01204118
1111.156,-1.265864,-1.061777,0.727914,-0.8876567,-0.6837272,-0.01204118
1111.172,-1.274021,-1.066821,0.7363738,-0.8912026,-0.6910287,-0.01501487
1111.186,-1.282254,-1.071918,0.7447293,-0.8948499,-0.698289,-0.01792975
1111.2,-1.290479,-1.077017,0.7528675,-0.8985309,-0.7053812,-0.0207874
1111.215,-1.290479,-1.077017,0.7528675,-0.8985309,-0.7053812,-0.0207874
1111.229,-1.298655,-1.082093,0.7607846,-0.9022152,-0.7122895,-0.02358903
1111.245,-1.307052,-1.087307,0.7691938,-0.9059685,-0.7196793,-0.02651581
1111.26,-1.307052,-1.087307,0.7691938,-0.9059685,-0.7196793,-0.02651581
1111.274,-1.315513,-1.092565,0.7775022,-0.9098129,-0.7270237,-0.02938471
1111.289,-1.323956,-1.09782,0.785598,-0.913683,-0.7341984,-0.03219728
1111.304,-1.332344,-1.103048,0.7934763,-0.9175499,-0.7411888,-0.03495471
1111.319,-1.332344,-1.103048,0.7934763,-0.9175499,-0.7411888,-0.03495471
1111.333,-1.340953,-1.108411,0.8018515,-0.9214897,-0.7486658,-0.03783814
1111.348,-1.34962,-1.113815,0.8101208,-0.9255161,-0.7560882,-0.04066456
1111.363,-1.358266,-1.119213,0.8181756,-0.9295628,-0.7633356,-0.04343549
1111.38,-1.366853,-1.124583,0.8260127,-0.9336014,-0.7703962,-0.0461521
1111.393,-1.366853,-1.124583,0.8260127,-0.9336014,-0.7703962,-0.0461521
1111.406,-1.37566,-1.130087,0.8343485,-0.9377177,-0.7779471,-0.04899549
1111.422,-1.384522,-1.135629,0.8425719,-0.9419164,-0.7854333,-0.05178266
1111.437,-1.384522,-1.135629,0.8425719,-0.9419164,-0.7854333,-0.05178266
1111.451,-1.39336,-1.141164,0.8505788,-0.9461303,-0.7927395,-0.05451512
1111.466,-1.402435,-1.146841,0.8590693,-0.9504372,-0.800529,-0.05737403
1111.481,-1.411569,-1.152561,0.8674272,-0.9548284,-0.8082353,-0.06017644
1111.495,-1.411569,-1.152561,0.8674272,-0.9548284,-0.8082353,-0.06017644
1111.51,-1.420678,-1.158273,0.8755558,-0.9592331,-0.8157496,-0.06292385
1111.525,-1.429724,-1.163954,0.8834581,-0.9636222,-0.823067,-0.0656174
1111.54,-1.429724,-1.163954,0.8834581,-0.9636222,-0.823067,-0.0656174
1111.554,-1.438988,-1.169765,0.8918553,-0.9680982,-0.8308772,-0.06843816
1111.569,-1.4483,-1.175612,0.9001242,-0.9726488,-0.8386,-0.07120318
1111.584,-1.45758,-1.181446,0.9081701,-0.9772053,-0.8461313,-0.07391393
1111.599,-1.45758,-1.181446,0.9081701,-0.9772053,-0.8461313,-0.07391393
1111.613,-1.467094,-1.18742,0.9166978,-0.9818629,-0.8541498,-0.07675152
1111.629,-1.47666,-1.193431,0.9250793,-0.9865959,-0.8620636,-0.07953307
1111.644,-1.486193,-1.199429,0.933227,-0.9913325,-0.8697761,-0.08226004
1111.658,-1.486193,-1.199429,0.933227,-0.9913325,-0.8697761,-0.08226004
1111.672,-1.495654,-1.205394,0.9411466,-0.9960442,-0.8772869,-0.08493356
1111.687,-1.505334,-1.211486,0.9495593,-1.000851,-0.885296,-0.08773462
1111.702,-1.515054,-1.217609,0.957831,-1.005725,-0.8931964,-0.09048039
1111.716,-1.515054,-1.217609,0.957831,-1.005725,-0.8931964,-0.09048039
1111.73,-1.524734,-1.223716,0.965876,-1.010594,-0.9008969,-0.09317229
1111.746,-1.534338,-1.229786,0.9736986,-1.015433,-0.9083983,-0.09581141
1111.761,-1.54416,-1.235983,0.982017,-1.020372,-0.9164047,-0.09857871
1111.776,-1.54416,-1.235983,0.982017,-1.020372,-0.9164047,-0.09857871
1111.79,-1.554019,-1.242208,0.9901912,-1.025372,-0.9242934,-0.1012914
1111.805,-1.563836,-1.248416,0.9981404,-1.030362,-0.931981,-0.1039509
1111.82,-1.563836,-1.248416,0.9981404,-1.030362,-0.931981,-0.1039509
1111.834,-1.573884,-1.25476,1.00657,-1.035467,-0.940167,-0.1067381
1111.85,-1.583974,-1.261134,1.014838,-1.040632,-0.9482186,-0.1094704
1111.864,-1.594019,-1.267491,1.022872,-1.045785,-0.9560613,-0.1121491
1111.88,-1.603983,-1.273809,1.030679,-1.050898,-0.9637007,-0.1147753
1111.895,-1.603983,-1.273809,1.030679,-1.050898,-0.9637007,-0.1147753
1111.908,-1.614165,-1.280254,1.038975,-1.056121,-0.97185,-0.1175298
1111.923,-1.624378,-1.286723,1.047116,-1.061396,-0.9798604,-0.1202301
1111.938,-1.624378,-1.286723,1.047116,-1.061396,-0.9798604,-0.1202301
1111.952,-1.634541,-1.293172,1.05503,-1.066653,-0.9876648,-0.1228774
1111.967,-1.64462,-1.299581,1.062724,-1.071864,-0.9952692,-0.1254728
1111.983,-1.642687,-1.299056,1.041873,-1.070266,-0.9736502,-0.1200017
1111.997,-1.642687,-1.299056,1.041873,-1.070266,-0.9736502,-0.1200017
1112.011,-1.633491,-1.294456,1.017593,-1.064255,-0.9497049,-0.1146512
1112.026,-1.620816,-1.287662,0.9941211,-1.056772,-0.9265205,-0.1094081
1112.041,-1.606783,-1.279882,0.9723172,-1.048921,-0.9043678,-0.1042677
1112.056,-1.606783,-1.279882,0.9723172,-1.048921,-0.9043678,-0.1042677
1112.07,-1.592336,-1.271703,0.9519947,-1.041059,-0.8831074,-0.09922726
1112.085,-1.577848,-1.263378,0.9327638,-1.033292,-0.8625565,-0.09428512
1112.1,-1.56345,-1.255014,0.9143091,-1.025652,-0.8425749,-0.08943954
1112.115,-1.56345,-1.255014,0.9143091,-1.025652,-0.8425749,-0.08943954
1112.131,-1.549189,-1.246656,0.8964282,-1.018152,-0.8230712,-0.08468883
1112.145,-1.535078,-1.238325,0.8790038,-1.010799,-0.80399,-0.08003122
1112.159,-1.535078,-1.238325,0.8790038,-1.010799,-0.80399,-0.08003122
1112.173,-1.521117,-1.23003,0.861971,-1.003595,-0.7852978,-0.07546495
1112.188,-1.507308,-1.221776,0.8452944,-0.9965413,-0.7669742,-0.07098825
1112.203,-1.493646,-1.213565,0.828954,-0.9896362,-0.7490054,-0.06659938
1112.218,-1.493646,-1.213565,0.828954,-0.9896362,-0.7490054,-0.06659938
1112.232,-1.480131,-1.205399,0.8129379,-0.9828773,-0.7313819,-0.06229661
1112.248,-1.466761,-1.197279,0.7972379,-0.9762617,-0.7140957,-0.05807827
1112.262,-1.453535,-1.189206,0.7818476,-0.969786,-0.6971399,-0.0539427
1112.277,-1.453535,-1.189206,0.7818476,-0.969786,-0.6971399,-0.0539427
1112.291,-1.44045,-1.181179,0.7667617,-0.9634468,-0.6805082,-0.04988827
1112.307,-1.427506,-1.1732,0.7519751,-0.9572406,-0.6641946,-0.04591339
1112.321,-1.414701,-1.165269,0.7374829,-0.951164,-0.6481933,-0.04201651
1112.336,-1.414701,-1.165269,0.7374829,-0.951164,-0.6481933,-0.04201651
1112.35,-1.402034,-1.157386,0.7232805,-0.9452136,-0.6324986,-0.03819607
1112.366,-1.389504,-1.149552,0.7093633,-0.9393859,-0.617105,-0.0344506
1112.381,-1.377109,-1.141766,0.6957265,-0.9336778,-0.602007,-0.03077861
1112.395,-1.377109,-1.141766,0.6957265,-0.9336778,-0.602007,-0.03077861
1112.409,-1.364849,-1.134029,0.6823655,-0.928086,-0.5871994,-0.02717866
1112.425,-1.352722,-1.126342,0.6692758,-0.9226075,-0.5726768,-0.02364934
1112.439,-1.352722,-1.126342,0.6692758,-0.9226075,-0.5726768,-0.02364934
1112.453,-1.340727,-1.118704,0.656453,-0.9172392,-0.5584341,-0.02018926
1112.469,-1.328863,-1.111116,0.6438927,-0.9119784,-0.5444667,-0.01679705
1112.484,-1.317129,-1.103578,0.631591,-0.9068224,-0.5307702,-0.01347139
1112.499,-1.317129,-1.103578,0.631591,-0.9068224,-0.5307702,-0.01347139
1112.513,-1.305524,-1.09609,0.6195434,-0.9017683,-0.5173398,-0.01021096
1112.528,-1.294046,-1.088653,0.6077456,-0.8968136,-0.5041706,-0.007014486
1112.543,-1.282694,-1.081266,0.5961934,-0.8919554,-0.4912581,-0.003880706
1112.559,-1.282694,-1.081266,0.5961934,-0.8919554,-0.4912581,-0.003880706
1112.572,-1.271468,-1.07393,0.5848825,-0.8871912,-0.4785975,-0.0008083922
1112.587,-1.260367,-1.066646,0.5738087,-0.8825185,-0.4661843,0.002203668
1112.602,-1.249388,-1.059413,0.5629678,-0.8779346,-0.4540142,0.005156658
1112.618,-1.249388,-1.059413,0.5629678,-0.8779346,-0.4540142,0.005156658
1112.632,-1.238531,-1.052231,0.5523558,-0.8734371,-0.4420827,0.008051735
1112.646,-1.227795,-1.045101,0.5419686,-0.8690237,-0.4303855,0.01089004
1112.661,-1.21718,-1.038023,0.5318023,-0.8646922,-0.4189184,0.01367269
1112.675,-1.21718,-1.038023,0.5318023,-0.8646922,-0.4189184,0.01367269
1112.689,-1.206683,-1.030998,0.5218529,-0.8604401,-0.4076772,0.01640077
1112.705,-1.196303,-1.024024,0.5121164,-0.8562655,-0.3966579,0.01907536
1112.72,-1.196303,-1.024024,0.5121164,-0.8562655,-0.3966579,0.01907536
1112.734,-1.18604,-1.017102,0.502589,-0.8521661,-0.3858564,0.02169751
1112.749,-1.175893,-1.010233,0.4932671,-0.8481399,-0.3752689,0.02426825
1112.764,-1.16586,-1.003417,0.4841468,-0.8441849,-0.3648913,0.02678859
1112.779,-1.16586,-1.003417,0.4841468,-0.8441849,-0.3648913,0.02678859
1112.793,-1.155941,-0.9966527,0.4752245,-0.8402993,-0.35472,0.02925951
1112.808,-1.146134,-0.9899415,0.4664965,-0.8364812,-0.3447511,0.031682
1112.823,-1.136438,-0.9832831,0.4579592,-0.8327286,-0.3349809,0.03405701
1112.838,-1.136438,-0.9832831,0.4579592,-0.8327286,-0.3349809,0.03405701
1112.852,-1.126852,-0.9766775,0.4496091,-0.82904,-0.3254059,0.03638546
1112.869,-1.117376,-0.9701247,0.4414427,-0.8254135,-0.3160225,0.03866827
1112.883,-1.108007,-0.9636249,0.4334566,-0.8218476,-0.3068272,0.04090633
1112.897,-1.108007,-0.9636249,0.4334566,-0.8218476,-0.3068272,0.04090633
1112.911,-1.098746,-0.957178,0.4256474,-0.8183407,-0.2978165,0.04310053
1112.926,-1.089591,-0.950784,0.4180118,-0.8148911,-0.288987,0.04525173
1112.941,-1.080541,-0.944443,0.4105465,-0.8114974,-0.2803355,0.04736077
1112.956,-1.080541,-0.944443,0.4105465,-0.8114974,-0.2803355,0.04736077
1112.97,-1.071594,-0.9381549,0.4032483,-0.8081583,-0.2718585,0.04942849
1112.986,-1.062751,-0.9319196,0.3961141,-0.8048722,-0.2635531,0.05145568
1113,-1.05401,-0.9257373,0.3891406,-0.8016377,-0.2554158,0.05344315
1113.015,-1.05401,-0.9257373,0.3891406,-0.8016377,-0.2554158,0.05344315
1113.03,-1.045369,-0.9196076,0.3823248,-0.7984537,-0.2474437,0.05539168
1113.045,-1.036828,-0.9135308,0.3756637,-0.7953188,-0.2396337,0.05730202
1113.06,-1.028387,-0.9075066,0.3691543,-0.7922317,-0.2319827,0.05917494
1113.076,-1.028387,-0.9075066,0.3691543,-0.7922317,-0.2319827,0.05917494
1113.089,-1.020043,-0.901535,0.3627937,-0.7891914,-0.2244879,0.06101117
1113.106,-1.011796,-0.8956158,0.356579,-0.7861966,-0.2171462,0.06281142
1113.12,-1.011796,-0.8956158,0.356579,-0.7861966,-0.2171462,0.06281142
1113.133,-1.003645,-0.8897491,0.3505073,-0.7832462,-0.2099549,0.0645764
1113.148,-0.9955884,-0.8839345,0.3445759,-0.7803392,-0.2029111,0.06630681
1113.163,-0.9876261,-0.8781721,0.338782,-0.7774745,-0.1960121,0.06800331
1113.178,-0.9876261,-0.8781721,0.338782,-0.7774745,-0.1960121,0.06800331
1113.192,-0.9797566,-0.8724617,0.3331229,-0.7746511,-0.1892552,0.06966659
1113.207,-0.9719791,-0.8668031,0.3275959,-0.771868,-0.1826377,0.07129728
1113.222,-0.9642925,-0.8611962,0.3221986,-0.7691243,-0.1761569,0.07289603
1113.237,-0.9642925,-0.8611962,0.3221986,-0.7691243,-0.1761569,0.07289603
1113.251,-0.956696,-0.8556408,0.3169282,-0.7664191,-0.1698103,0.07446346
1113.267,-0.9491884,-0.8501368,0.3117822,-0.7637515,-0.1635953,0.0760002
1113.281,-0.9417689,-0.8446839,0.3067583,-0.7611206,-0.1575096,0.07750684
1113.297,-0.9417689,-0.8446839,0.3067583,-0.7611206,-0.1575096,0.07750684
1113.311,-0.9344366,-0.839282,0.3018539,-0.7585256,-0.1515505,0.07898397
1113.326,-0.9271905,-0.8339309,0.2970666,-0.7559657,-0.1457158,0.08043217
1113.342,-0.9200296,-0.8286303,0.2923941,-0.7534401,-0.140003,0.081852
1113.356,-0.9200296,-0.8286303,0.2923941,-0.7534401,-0.140003,0.081852
1113.37,-0.9129531,-0.8233801,0.2878342,-0.7509482,-0.1344099,0.08324402
1113.385,-0.90596,-0.8181799,0.2833844,-0.7484891,-0.1289341,0.08460878
1113.4,-0.90596,-0.8181799,0.2833844,-0.7484891,-0.1289341,0.08460878
1113.414,-0.8990493,-0.8130296,0.2790426,-0.7460622,-0.1235734,0.08594681
1113.429,-0.8922202,-0.807929,0.2748066,-0.7436667,-0.1183257,0.08725864
1113.444,-0.8854718,-0.8028778,0.2706743,-0.7413021,-0.1131887,0.08854478
1113.459,-0.8854718,-0.8028778,0.2706743,-0.7413021,-0.1131887,0.08854478
1113.473,-0.8788031,-0.7978757,0.2666435,-0.7389677,-0.1081603,0.08980574
