JMolnar6/NonAnthroHands_User_Study/HandsLoggerWithURDF/tempdata/PID 0 (test)/files/Reachy_PID0_JointMotion_gesture_13_3.csv
Time,r_shoulder,r_shoulder_x,r_upper_arm,r_forearm,r_wrist,r_wrist2hand,
1177.59,-0.2620793,-0.3380745,0.1379925,-0.547963,0.06240361,0.1547637
1177.605,-0.2621044,-0.3380048,0.1381363,-0.5479432,0.06235927,0.1547593
1177.621,-0.2621293,-0.337936,0.1382784,-0.5479239,0.0623152,0.154755
1177.636,-0.2621293,-0.337936,0.1382784,-0.5479239,0.0623152,0.154755
1177.649,-0.2621539,-0.337868,0.1384189,-0.547905,0.06227141,0.1547508
1177.664,-0.2621782,-0.3378009,0.1385577,-0.5478866,0.0622279,0.1547467
1177.681,-0.2622022,-0.3377345,0.1386949,-0.5478685,0.06218467,0.1547426
1177.694,-0.2622022,-0.3377345,0.1386949,-0.5478685,0.06218467,0.1547426
1177.707,-0.262226,-0.3376689,0.1388304,-0.5478508,0.06214172,0.1547387
1177.723,-0.2622495,-0.3376041,0.1389644,-0.5478335,0.06209905,0.1547348
1177.738,-0.2622495,-0.3376041,0.1389644,-0.5478335,0.06209905,0.1547348
1177.752,-0.2622727,-0.3375401,0.1390968,-0.5478166,0.06205666,0.154731
1177.767,-0.2622956,-0.3374768,0.1392276,-0.5478,0.06201456,0.1547272
1177.782,-0.2623183,-0.3374143,0.1393569,-0.5477838,0.06197275,0.1547236
1177.797,-0.2623183,-0.3374143,0.1393569,-0.5477838,0.06197275,0.1547236
1177.811,-0.2623407,-0.3373526,0.1394846,-0.5477679,0.06193122,0.15472
1177.826,-0.2623629,-0.3372915,0.1396108,-0.5477524,0.06188997,0.1547165
1177.841,-0.2623848,-0.3372312,0.1397355,-0.5477373,0.06184901,0.154713
1177.856,-0.2623848,-0.3372312,0.1397355,-0.5477373,0.06184901,0.154713
1177.872,-0.2624065,-0.3371717,0.1398588,-0.5477225,0.06180834,0.1547096
1177.886,-0.2624279,-0.3371128,0.1399806,-0.547708,0.06176795,0.1547063
1177.9,-0.262449,-0.3370546,0.1401009,-0.5476939,0.06172785,0.1547031
1177.915,-0.262449,-0.3370546,0.1401009,-0.5476939,0.06172785,0.1547031
1177.929,-0.2624699,-0.3369972,0.1402198,-0.5476801,0.06168804,0.1546999
1177.944,-0.2624906,-0.3369404,0.1403373,-0.5476665,0.06164851,0.1546967
1177.958,-0.2624906,-0.3369404,0.1403373,-0.5476665,0.06164851,0.1546967
1177.973,-0.2625111,-0.3368843,0.1404533,-0.5476533,0.06160928,0.1546937
1177.988,-0.2625313,-0.3368289,0.140568,-0.5476404,0.06157032,0.1546907
1178.003,-0.2625512,-0.3367741,0.1406813,-0.5476277,0.06153166,0.1546877
1178.017,-0.2625512,-0.3367741,0.1406813,-0.5476277,0.06153166,0.1546877
1178.031,-0.262571,-0.33672,0.1407933,-0.5476154,0.06149327,0.1546848
1178.047,-0.2625905,-0.3366665,0.1409039,-0.5476034,0.06145518,0.154682
1178.062,-0.2626098,-0.3366137,0.1410132,-0.5475916,0.06141737,0.1546792
1178.076,-0.2626098,-0.3366137,0.1410132,-0.5475916,0.06141737,0.1546792
1178.091,-0.2626289,-0.3365614,0.1411211,-0.5475801,0.06137984,0.1546765
1178.106,-0.2626477,-0.3365099,0.1412278,-0.5475688,0.0613426,0.1546738
1178.121,-0.2626664,-0.3364589,0.1413332,-0.5475578,0.06130565,0.1546712
1178.136,-0.2626664,-0.3364589,0.1413332,-0.5475578,0.06130565,0.1546712
1178.151,-0.2626848,-0.3364085,0.1414373,-0.5475471,0.06126898,0.1546686
1178.165,-0.262703,-0.3363588,0.1415402,-0.5475366,0.0612326,0.1546661
1178.18,-0.262703,-0.3363588,0.1415402,-0.5475366,0.0612326,0.1546661
1178.194,-0.262721,-0.3363096,0.1416418,-0.5475264,0.0611965,0.1546637
1178.209,-0.2627388,-0.336261,0.1417422,-0.5475163,0.06116068,0.1546612
1178.224,-0.2627564,-0.336213,0.1418414,-0.5475066,0.06112514,0.1546589
1178.238,-0.2627564,-0.336213,0.1418414,-0.5475066,0.06112514,0.1546589
1178.253,-0.2627738,-0.3361656,0.1419394,-0.547497,0.06108988,0.1546565
1178.268,-0.2627909,-0.3361188,0.1420362,-0.5474877,0.0610549,0.1546543
1178.283,-0.2628079,-0.3360724,0.1421318,-0.5474787,0.06102021,0.154652
1178.297,-0.2628079,-0.3360724,0.1421318,-0.5474787,0.06102021,0.154652
1178.311,-0.2628247,-0.3360267,0.1422262,-0.5474698,0.06098579,0.1546498
1178.327,-0.2628413,-0.3359815,0.1423196,-0.5474612,0.06095165,0.1546477
1178.341,-0.2628578,-0.3359368,0.1424117,-0.5474527,0.06091779,0.1546456
1178.356,-0.2628578,-0.3359368,0.1424117,-0.5474527,0.06091779,0.1546456
1178.37,-0.262874,-0.3358927,0.1425028,-0.5474445,0.0608842,0.1546435
1178.387,-0.26289,-0.3358491,0.1425927,-0.5474364,0.0608509,0.1546415
1178.401,-0.2629059,-0.335806,0.1426815,-0.5474286,0.06081786,0.1546395
1178.415,-0.2629059,-0.335806,0.1426815,-0.5474286,0.06081786,0.1546395
1178.429,-0.2629215,-0.3357634,0.1427693,-0.547421,0.0607851,0.1546376
1178.445,-0.262937,-0.3357214,0.142856,-0.5474135,0.06075261,0.1546357
1178.459,-0.262937,-0.3357214,0.142856,-0.5474135,0.06075261,0.1546357
1178.473,-0.2629524,-0.3356798,0.1429416,-0.5474063,0.0607204,0.1546338
1178.488,-0.2629675,-0.3356388,0.1430262,-0.5473992,0.06068845,0.154632
1178.503,-0.2629825,-0.3355982,0.1431097,-0.5473922,0.06065677,0.1546302
1178.518,-0.2629825,-0.3355982,0.1431097,-0.5473922,0.06065677,0.1546302
1178.532,-0.2629972,-0.3355581,0.1431922,-0.5473855,0.06062537,0.1546284
1178.548,-0.2630119,-0.3355185,0.1432737,-0.547379,0.06059423,0.1546267
1178.562,-0.2630263,-0.3354794,0.1433542,-0.5473726,0.06056336,0.154625
1178.577,-0.2630263,-0.3354794,0.1433542,-0.5473726,0.06056336,0.154625
1178.591,-0.2630406,-0.3354407,0.1434337,-0.5473663,0.06053276,0.1546233
1178.608,-0.2630869,-0.3352979,0.1431272,-0.5468243,0.06116973,0.1543074
1178.621,-0.2631533,-0.3350913,0.142784,-0.5461632,0.06207903,0.1539979
1178.638,-0.2631533,-0.3350913,0.142784,-0.5461632,0.06207903,0.1539979
1178.651,-0.263232,-0.3348464,0.1425221,-0.5454548,0.06306357,0.1536944
1178.666,-0.2633181,-0.334579,0.1423579,-0.5447327,0.06404851,0.1533969
1178.68,-0.2633764,-0.3344034,0.1426639,-0.5445484,0.06434123,0.1534196
1178.695,-0.2633764,-0.3344034,0.1426639,-0.5445484,0.06434123,0.1534196
1178.709,-0.2634169,-0.3342853,0.1430679,-0.544492,0.06433283,0.1534416
1178.724,-0.2634459,-0.3342033,0.1434332,-0.5444944,0.0642215,0.1534631
1178.739,-0.2634459,-0.3342033,0.1434332,-0.5444944,0.0642215,0.1534631
1178.753,-0.2634369,-0.3342471,0.1441175,-0.5450578,0.06341834,0.1537984
1178.768,-0.2634037,-0.3343684,0.1447742,-0.5457513,0.06234713,0.1541271
1178.783,-0.2633556,-0.3345371,0.1452994,-0.5464963,0.06121122,0.1544492
1178.798,-0.2633556,-0.3345371,0.1452994,-0.5464963,0.06121122,0.1544492
1178.812,-0.2632982,-0.3347341,0.1456909,-0.5472558,0.06008504,0.1547651
1178.828,-0.263203,-0.3350525,0.1463595,-0.5485493,0.05832423,0.155389
1178.842,-0.2630844,-0.3354444,0.1469803,-0.5499529,0.05632943,0.1560005
1178.857,-0.2630844,-0.3354444,0.1469803,-0.5499529,0.05632943,0.1560005
1178.871,-0.2629514,-0.3358797,0.1474581,-0.5513914,0.05429395,0.1566
1178.887,-0.2628101,-0.33634,0.1477936,-0.5528302,0.05228766,0.1571878
1178.902,-0.2626318,-0.3369182,0.1483921,-0.5547896,0.04966546,0.1580783
1178.916,-0.2626318,-0.3369182,0.1483921,-0.5547896,0.04966546,0.1580783
1178.93,-0.2624311,-0.3375665,0.1489315,-0.5568461,0.04682544,0.1589513
1178.945,-0.262217,-0.3382552,0.1493172,-0.5589253,0.04396106,0.1598071
1178.96,-0.2619955,-0.3389657,0.1495504,-0.5609926,0.04114192,0.1606461
1178.975,-0.2619955,-0.3389657,0.1495504,-0.5609926,0.04114192,0.1606461
1178.989,-0.2617379,-0.339791,0.1500279,-0.5635685,0.03772412,0.161783
1179.004,-0.2614589,-0.3406834,0.150433,-0.5662298,0.03410285,0.1628975
1179.019,-0.2614589,-0.3406834,0.150433,-0.5662298,0.03410285,0.1628975
1179.033,-0.2611674,-0.3416132,0.150672,-0.568902,0.03047247,0.1639901
1179.049,-0.2608372,-0.3426664,0.1511078,-0.5720865,0.02623973,0.1653755
1179.063,-0.260484,-0.343791,0.1514281,-0.575351,0.02181542,0.1667337
1179.078,-0.260484,-0.343791,0.1514281,-0.575351,0.02181542,0.1667337
1179.092,-0.2601178,-0.3449545,0.1515467,-0.5786178,0.01740031,0.1680652
1179.108,-0.2597451,-0.3461367,0.1514747,-0.5818512,0.01306469,0.1693707
1179.122,-0.2593375,-0.3474298,0.1515933,-0.5855705,0.008166593,0.1709648
1179.137,-0.2593375,-0.3474298,0.1515933,-0.5855705,0.008166593,0.1709648
1179.153,-0.2589097,-0.3487854,0.1516043,-0.5893524,0.00309336,0.1725276
1179.167,-0.2584711,-0.3501733,0.15142,-0.5931233,-0.001958705,0.1740598
1179.182,-0.2580275,-0.351575,0.1510489,-0.5968502,-0.006920543,0.175562
1179.196,-0.2580275,-0.351575,0.1510489,-0.5968502,-0.006920543,0.175562
1179.21,-0.2575503,-0.3530834,0.1508533,-0.601052,-0.01243259,0.1773489
1179.225,-0.2570541,-0.3546507,0.1505428,-0.6053063,-0.01811145,0.1791008
1179.24,-0.2570541,-0.3546507,0.1505428,-0.6053063,-0.01811145,0.1791008
1179.254,-0.256548,-0.3562473,0.1500304,-0.6095402,-0.02375803,0.1808183
1179.27,-0.2560055,-0.3579594,0.1496415,-0.6142534,-0.02996058,0.1828163
1179.284,-0.2554425,-0.3597348,0.149095,-0.619015,-0.03632046,0.1847752
1179.299,-0.2554425,-0.3597348,0.149095,-0.619015,-0.03632046,0.1847752
1179.313,-0.2548691,-0.3615412,0.1483134,-0.6237487,-0.04263129,0.1866958
1179.329,-0.2542914,-0.3633585,0.147316,-0.6284207,-0.04882237,0.1885787
1179.344,-0.2536812,-0.365279,0.1464395,-0.6335472,-0.05553293,0.1907387
1179.358,-0.2536812,-0.365279,0.1464395,-0.6335472,-0.05553293,0.1907387
1179.372,-0.2530531,-0.3672544,0.1454194,-0.6387067,-0.06238826,0.1928566
1179.39,-0.2524165,-0.3692547,0.1441769,-0.6438274,-0.06918534,0.1949329
1179.404,-0.2517773,-0.3712612,0.1427288,-0.6488776,-0.07585429,0.1969685
1179.417,-0.2517773,-0.3712612,0.1427288,-0.6488776,-0.07585429,0.1969685
1179.431,-0.2511065,-0.3733672,0.1413876,-0.6543729,-0.08303373,0.1992783
1179.447,-0.2504188,-0.375525,0.1399005,-0.6598927,-0.0903523,0.201543
1179.461,-0.2497236,-0.3777048,0.1381904,-0.6653664,-0.09760334,0.2037632
1179.476,-0.2497236,-0.3777048,0.1381904,-0.6653664,-0.09760334,0.2037632
1179.49,-0.2489939,-0.379993,0.1365333,-0.6712899,-0.1053722,0.206254
1179.505,-0.2482459,-0.3823375,0.1346905,-0.6772351,-0.113271,0.2086961
1179.52,-0.2482459,-0.3823375,0.1346905,-0.6772351,-0.113271,0.2086961
1179.534,-0.2474895,-0.3847061,0.132597,-0.6831281,-0.1210859,0.2110904
1179.551,-0.2467311,-0.3870788,0.1302823,-0.6889368,-0.1287453,0.2134378
1179.565,-0.2459419,-0.3895481,0.1280266,-0.6951724,-0.13689,0.2160531
1179.579,-0.2459419,-0.3895481,0.1280266,-0.6951724,-0.13689,0.2160531
1179.593,-0.2451369,-0.3920655,0.1256081,-0.7014166,-0.1451549,0.2186173
1179.609,-0.2443254,-0.3946012,0.1229602,-0.7075998,-0.1533286,0.2211313
1179.623,-0.2435132,-0.3971368,0.1201093,-0.7136923,-0.1613406,0.223596
1179.638,-0.2435132,-0.3971368,0.1201093,-0.7136923,-0.1613406,0.223596
1179.654,-0.2426713,-0.3997655,0.1173074,-0.7202032,-0.1698323,0.2263263
1179.667,-0.2418143,-0.4024395,0.1143463,-0.7267163,-0.17844,0.2290033
1179.682,-0.2409517,-0.4051294,0.1111627,-0.7331634,-0.1869483,0.2316279
1179.698,-0.2409517,-0.4051294,0.1111627,-0.7331634,-0.1869483,0.2316279
1179.711,-0.2400563,-0.4079215,0.1079738,-0.7400337,-0.1959445,0.2345149
1179.726,-0.2391444,-0.4107638,0.1045904,-0.7469049,-0.2050464,0.2373456
1179.741,-0.2382261,-0.413624,0.1009638,-0.753706,-0.2140317,0.2401208
1179.756,-0.2382261,-0.413624,0.1009638,-0.753706,-0.2140317,0.2401208
1179.77,-0.2373075,-0.4164825,0.0971338,-0.7604064,-0.2228296,0.2428416
1179.785,-0.2363597,-0.4194317,0.09331459,-0.767509,-0.2320874,0.2458229
1179.8,-0.2363597,-0.4194317,0.09331459,-0.767509,-0.2320874,0.2458229
1179.814,-0.2353979,-0.4224232,0.08933213,-0.7746017,-0.2414434,0.2487461
1179.83,-0.2344313,-0.4254273,0.08513512,-0.7816176,-0.2506773,0.2516119
1179.844,-0.2334658,-0.4284255,0.08075936,-0.7885286,-0.2597192,0.2544216
1179.859,-0.2334658,-0.4284255,0.08075936,-0.7885286,-0.2597192,0.2544216
1179.873,-0.2324719,-0.4315114,0.07638772,-0.7958341,-0.2692194,0.2574899
1179.889,-0.2314647,-0.434637,0.07186135,-0.8031254,-0.2788134,0.2604984
1179.904,-0.2304535,-0.437773,0.06713319,-0.8103369,-0.2882776,0.263448
1179.918,-0.2304535,-0.437773,0.06713319,-0.8103369,-0.2882776,0.263448
1179.932,-0.2294109,-0.4410059,0.06235508,-0.8179482,-0.298208,0.2666535
1179.948,-0.2283534,-0.4442835,0.05739176,-0.8255459,-0.3082195,0.2697965
1179.962,-0.2272911,-0.4475739,0.05221289,-0.8330616,-0.318083,0.2728779
1179.977,-0.2272911,-0.4475739,0.05221289,-0.8330616,-0.318083,0.2728779
1179.991,-0.2262302,-0.4508572,0.0468678,-0.8404664,-0.3277299,0.2758989
1180.006,-0.2251414,-0.4542262,0.04149661,-0.8482513,-0.337821,0.2791743
1180.021,-0.22404,-0.4576323,0.03597665,-0.8560139,-0.3479871,0.2823859
1180.036,-0.22404,-0.4576323,0.03597665,-0.8560139,-0.3479871,0.2823859
1180.05,-0.2229355,-0.461046,0.03027401,-0.8636898,-0.3580015,0.2855345
1180.065,-0.2218335,-0.4644489,0.02443291,-0.8712522,-0.3677962,0.2886214
1180.08,-0.2207045,-0.4679345,0.01856006,-0.8791877,-0.3780367,0.2919614
1180.095,-0.2207045,-0.4679345,0.01856006,-0.8791877,-0.3780367,0.2919614
1180.109,-0.2195635,-0.4714552,0.01254952,-0.8870987,-0.388347,0.2952363
1180.125,-0.2184199,-0.4749813,0.006372645,-0.8949218,-0.3984976,0.298447
1180.14,-0.2184199,-0.4749813,0.006372645,-0.8949218,-0.3984976,0.298447
1180.155,-0.2172462,-0.4785996,0.0001106467,-0.9031238,-0.4091001,0.3019084
1180.17,-0.2160589,-0.482258,-0.006314673,-0.9113039,-0.4197563,0.3053023
1180.184,-0.2148683,-0.4859244,-0.01291395,-0.9193956,-0.4302337,0.3086297
1180.198,-0.2148683,-0.4859244,-0.01291395,-0.9193956,-0.4302337,0.3086297
1180.212,-0.2136805,-0.4895793,-0.01963069,-0.9273712,-0.440469,0.3118918
1180.228,-0.2124659,-0.4933153,-0.02640489,-0.9357068,-0.4511408,0.3154036
1180.242,-0.2112401,-0.497084,-0.03330467,-0.9440136,-0.4618616,0.3188468
1180.257,-0.2112401,-0.497084,-0.03330467,-0.9440136,-0.4618616,0.3188468
1180.272,-0.2100124,-0.5008559,-0.0403448,-0.9522288,-0.472401,0.3222226
1180.288,-0.2087888,-0.5046126,-0.04747463,-0.9603263,-0.4826969,0.3255322
1180.302,-0.207539,-0.5084478,-0.05466884,-0.9687771,-0.4934334,0.3290904
1180.317,-0.207539,-0.5084478,-0.05466884,-0.9687771,-0.4934334,0.3290904
1180.331,-0.2062785,-0.5123137,-0.0619769,-0.9771988,-0.5042118,0.3325793
1180.347,-0.2050169,-0.516181,-0.0694074,-0.9855291,-0.5148011,0.3359997
1180.361,-0.2037597,-0.5200317,-0.07690849,-0.9937418,-0.5251415,0.3393531
1180.376,-0.2037597,-0.5200317,-0.07690849,-0.9937418,-0.5251415,0.3393531
1180.392,-0.2024766,-0.5239595,-0.08448546,-1.002302,-0.5359241,0.3429543
1180.405,-0.2011832,-0.5279168,-0.09216636,-1.010834,-0.5467389,0.3464853
1180.42,-0.2011832,-0.5279168,-0.09216636,-1.010834,-0.5467389,0.3464853
1180.434,-0.1998891,-0.5318742,-0.09995243,-1.019275,-0.5573564,0.349947
1180.449,-0.1985658,-0.5359185,-0.1078655,-1.02807,-0.5684171,0.3536545
1180.464,-0.1972306,-0.5399976,-0.1159013,-1.036842,-0.5794895,0.3572896
1180.479,-0.1972306,-0.5399976,-0.1159013,-1.036842,-0.5794895,0.3572896
1180.493,-0.1958938,-0.5440796,-0.1240431,-1.045524,-0.5903459,0.3608535
1180.509,-0.1945616,-0.5481449,-0.1322298,-1.054089,-0.6009352,0.3643474
1180.524,-0.1932036,-0.5522864,-0.1405178,-1.06299,-0.611962,0.3680864
1180.539,-0.1932036,-0.5522864,-0.1405178,-1.06299,-0.611962,0.3680864
1180.553,-0.1918357,-0.5564556,-0.1488938,-1.071861,-0.6229962,0.3717524
1180.569,-0.1904678,-0.560623,-0.1573453,-1.080641,-0.6338137,0.3753466
1180.583,-0.1891055,-0.5647705,-0.1658173,-1.089302,-0.6443658,0.3788703
1180.598,-0.1891055,-0.5647705,-0.1658173,-1.089302,-0.6443658,0.3788703
1180.612,-0.1877179,-0.5689918,-0.1744015,-1.098292,-0.6553599,0.3826385
1180.629,-0.1863211,-0.5732391,-0.1830624,-1.107254,-0.6663515,0.386333
1180.643,-0.1849247,-0.577483,-0.1917807,-1.116126,-0.6771208,0.3899553
1180.657,-0.1849247,-0.577483,-0.1917807,-1.116126,-0.6771208,0.3899553
1180.671,-0.1834999,-0.5818104,-0.200659,-1.125335,-0.688329,0.39382
1180.687,-0.1820641,-0.5861689,-0.209627,-1.134523,-0.6995131,0.3976093
1180.701,-0.180628,-0.590527,-0.2186492,-1.143622,-0.710459,0.4013244
1180.716,-0.180628,-0.590527,-0.2186492,-1.143622,-0.710459,0.4013244
1180.73,-0.1791976,-0.594865,-0.2276656,-1.152603,-0.7211282,0.4049666
1180.746,-0.1777421,-0.5992759,-0.2368219,-1.161901,-0.7322348,0.408851
1180.76,-0.1762778,-0.6037112,-0.2460372,-1.171174,-0.743313,0.4126595
1180.775,-0.1762778,-0.6037112,-0.2460372,-1.171174,-0.743313,0.4126595
1180.789,-0.1748145,-0.6081414,-0.2552792,-1.180356,-0.7541551,0.4163934
1180.805,-0.173358,-0.6125485,-0.2644945,-1.189419,-0.7647247,0.4200541
1180.82,-0.173358,-0.6125485,-0.2644945,-1.189419,-0.7647247,0.4200541
1180.834,-0.1718769,-0.6170262,-0.2738639,-1.198792,-0.7757339,0.4239567
1180.849,-0.1703874,-0.6215267,-0.2832806,-1.208142,-0.7867048,0.4277831
1180.865,-0.1688994,-0.6260208,-0.2927065,-1.217403,-0.7974377,0.4315345
1180.879,-0.1688994,-0.6260208,-0.2927065,-1.217403,-0.7974377,0.4315345
1180.893,-0.1673836,-0.6305952,-0.3023297,-1.226983,-0.8086027,0.435526
1180.908,-0.1658578,-0.6351978,-0.3120072,-1.236548,-0.8197097,0.4394395
1180.923,-0.1643328,-0.6397968,-0.3216881,-1.246025,-0.8305685,0.4432763
1180.937,-0.1643328,-0.6397968,-0.3216881,-1.246025,-0.8305685,0.4432763
1180.951,-0.1628147,-0.6443728,-0.3313178,-1.255383,-0.841152,0.4470378
1180.967,-0.1612719,-0.6490187,-0.3411324,-1.265041,-0.8521647,0.4510392
1180.982,-0.1597212,-0.6536862,-0.3509744,-1.274678,-0.8631164,0.4549624
1180.996,-0.1597212,-0.6536862,-0.3509744,-1.274678,-0.8631164,0.4549624
1181.01,-0.1581726,-0.6583456,-0.3607961,-1.284226,-0.8738256,0.4588087
1181.026,-0.156632,-0.6629791,-0.3705493,-1.293654,-0.8842669,0.4625797
1181.041,-0.1550671,-0.6676806,-0.3805041,-1.303375,-0.8951335,0.4665904
1181.056,-0.1550671,-0.6676806,-0.3805041,-1.303375,-0.8951335,0.4665904
1181.07,-0.1534948,-0.6724019,-0.390474,-1.313078,-0.9059325,0.4705227
1181.085,-0.151925,-0.6771141,-0.4004078,-1.322692,-0.916493,0.474378
1181.1,-0.151925,-0.6771141,-0.4004078,-1.322692,-0.916493,0.474378
1181.116,-0.1503277,-0.6819039,-0.4105803,-1.33261,-0.9274679,0.4784714
1181.13,-0.1487214,-0.6867191,-0.42077,-1.342518,-0.9383623,0.4824848
1181.144,-0.1471169,-0.691528,-0.430917,-1.352339,-0.9490147,0.4864196
1181.158,-0.1471169,-0.691528,-0.430917,-1.352339,-0.9490147,0.4864196
1181.172,-0.1455205,-0.6963114,-0.4409748,-1.36204,-0.9594045,0.4902772
1181.191,-0.1438997,-0.7011621,-0.4512661,-1.372024,-0.970198,0.494373
1181.203,-0.1422719,-0.7060317,-0.4615513,-1.381992,-0.9809114,0.4983887
1181.217,-0.1422719,-0.7060317,-0.4615513,-1.381992,-0.9809114,0.4983887
1181.231,-0.1406472,-0.7108908,-0.4717743,-1.391872,-0.9913926,0.5023258
1181.247,-0.1390316,-0.7157215,-0.4818947,-1.40163,-1.001621,0.5061857
1181.262,-0.1373919,-0.7206178,-0.4922656,-1.411664,-1.012241,0.5102836
1181.276,-0.1373919,-0.7206178,-0.4922656,-1.411664,-1.012241,0.5102836
1181.29,-0.1357456,-0.7255315,-0.5026186,-1.421687,-1.022781,0.5143015
1181.306,-0.1341029,-0.7304336,-0.5128963,-1.431621,-1.033098,0.5182407
1181.321,-0.1324695,-0.7353066,-0.5230617,-1.441433,-1.043173,0.5221028
1181.335,-0.1324695,-0.7353066,-0.5230617,-1.441433,-1.043173,0.5221028
1181.35,-0.130812,-0.7402443,-0.5334947,-1.451516,-1.053622,0.5262029
1181.365,-0.1291483,-0.7451988,-0.5438991,-1.461591,-1.063994,0.5302228
1181.38,-0.1274884,-0.7501411,-0.5542168,-1.471578,-1.074156,0.534164
1181.394,-0.1274884,-0.7501411,-0.5542168,-1.471578,-1.074156,0.534164
1181.408,-0.1258381,-0.7550536,-0.5644136,-1.481442,-1.084084,0.5380279
1181.423,-0.1242008,-0.759926,-0.5744724,-1.491169,-1.09378,0.5418162
1181.438,-0.1242008,-0.759926,-0.5744724,-1.491169,-1.09378,0.5418162
1181.452,-0.1225781,-0.764752,-0.5843855,-1.500753,-1.103248,0.5455303
1181.468,-0.1209712,-0.7695282,-0.5941498,-1.510192,-1.112496,0.5491715
1181.482,-0.1194177,-0.7741482,-0.6033279,-1.519086,-1.120962,0.5524276
1181.497,-0.1194177,-0.7741482,-0.6033279,-1.519086,-1.120962,0.5524276
1181.511,-0.1179015,-0.7786528,-0.6122529,-1.527697,-1.12906,0.5556198
1181.527,-0.1164134,-0.7830673,-0.6209817,-1.536109,-1.136927,0.5587494
1181.541,-0.1149481,-0.7874072,-0.6295447,-1.544359,-1.144602,0.5618176
1181.556,-0.1149481,-0.7874072,-0.6295447,-1.544359,-1.144602,0.5618176
1181.571,-0.1135399,-0.7915779,-0.6375051,-1.55207,-1.151555,0.5645118
1181.586,-0.1121706,-0.7956274,-0.6452239,-1.559505,-1.158177,0.5671532
1181.6,-0.1108297,-0.799585,-0.6527625,-1.566753,-1.164599,0.5697427
1181.615,-0.1108297,-0.799585,-0.6527625,-1.566753,-1.164599,0.5697427
1181.631,-0.1095488,-0.8033646,-0.6596896,-1.57346,-1.170336,0.5719676
1181.645,-0.108308,-0.8070193,-0.6663856,-1.579896,-1.175765,0.5741488
1181.659,-0.108308,-0.8070193,-0.6663856,-1.579896,-1.175765,0.5741488
1181.673,-0.1070958,-0.8105816,-0.6729157,-1.586156,-1.181017,0.5762872
1181.688,-0.1059056,-0.8140717,-0.6793115,-1.592284,-1.186134,0.5783837
1181.703,-0.1047713,-0.8173978,-0.6851162,-1.597907,-1.190627,0.5801252
1181.718,-0.1047713,-0.8173978,-0.6851162,-1.597907,-1.190627,0.5801252
1181.732,-0.1036744,-0.8206093,-0.6907148,-1.603281,-1.194843,0.5818324
1181.748,-0.1026039,-0.8237367,-0.6961698,-1.608498,-1.198909,0.5835062
1181.762,-0.1015535,-0.8267989,-0.7015101,-1.6136,-1.202867,0.5851471
1181.778,-0.1015535,-0.8267989,-0.7015101,-1.6136,-1.202867,0.5851471
1181.791,-0.1005578,-0.829703,-0.7062697,-1.618216,-1.206241,0.586442
1181.807,-0.09959805,-0.832498,-0.710842,-1.622597,-1.209362,0.5877114
1181.822,-0.09866352,-0.835214,-0.7152894,-1.626836,-1.212354,0.5889559
1181.836,-0.09866352,-0.835214,-0.7152894,-1.626836,-1.212354,0.5889559
1181.85,-0.09778616,-0.8377651,-0.7191557,-1.630585,-1.214775,0.589862
1181.866,-0.09694584,-0.8402043,-0.7228456,-1.634102,-1.216955,0.5907503
1181.881,-0.09613087,-0.8425642,-0.7264247,-1.637487,-1.219021,0.5916212
1181.895,-0.09613087,-0.8425642,-0.7264247,-1.637487,-1.219021,0.5916212
1181.91,-0.09533439,-0.8448652,-0.7299219,-1.640782,-1.221017,0.592475
1181.924,-0.09459082,-0.8470154,-0.7328616,-1.643622,-1.222487,0.5929981
1181.939,-0.09459082,-0.8470154,-0.7328616,-1.643622,-1.222487,0.5929981
1181.953,-0.09388138,-0.8490639,-0.7356467,-1.64625,-1.22374,0.5935109
1181.969,-0.09319507,-0.8510411,-0.7383403,-1.648762,-1.224898,0.5940136
1181.983,-0.09252545,-0.8529658,-0.7409694,-1.6512,-1.226005,0.5945064
1181.998,-0.09252545,-0.8529658,-0.7409694,-1.6512,-1.226005,0.5945064
1182.012,-0.09190732,-0.8547453,-0.7430538,-1.653197,-1.226607,0.5946756
1182.027,-0.09132203,-0.856428,-0.7449999,-1.654996,-1.22701,0.5948414
1182.042,-0.09075864,-0.8580439,-0.7468705,-1.65669,-1.227332,0.595004
1182.057,-0.09075864,-0.8580439,-0.7468705,-1.65669,-1.227332,0.595004
1182.071,-0.09024937,-0.8595073,-0.7481985,-1.657936,-1.227148,0.5948493
1182.086,-0.0897741,-0.8608705,-0.7493982,-1.658986,-1.226771,0.5946977
1182.101,-0.08932096,-0.8621663,-0.7505352,-1.65994,-1.226323,0.5945489
1182.116,-0.08932096,-0.8621663,-0.7505352,-1.65994,-1.226323,0.5945489
1182.132,-0.08888295,-0.863415,-0.7516364,-1.660842,-1.225852,0.5944031
1182.147,-0.08849469,-0.8645247,-0.7522184,-1.661325,-1.224904,0.5939462
1182.16,-0.08813741,-0.865544,-0.7526908,-1.661632,-1.223784,0.5934981
1182.175,-0.08813741,-0.865544,-0.7526908,-1.661632,-1.223784,0.5934981
1182.189,-0.08780004,-0.8665034,-0.7531164,-1.661857,-1.222609,0.5930588
1182.204,-0.087476,-0.8674215,-0.7535207,-1.662043,-1.221425,0.5926281
1182.219,-0.087476,-0.8674215,-0.7535207,-1.662043,-1.221425,0.5926281
1182.233,-0.08720021,-0.8682058,-0.7534187,-1.661822,-1.219774,0.5918919
1182.248,-0.08695412,-0.8689044,-0.7532207,-1.661436,-1.217962,0.5911701
1182.263,-0.08672672,-0.8695469,-0.7529892,-1.660979,-1.216109,0.5904624
1182.278,-0.08672672,-0.8695469,-0.7529892,-1.660979,-1.216109,0.5904624
1182.292,-0.08655032,-0.8700478,-0.7522537,-1.660106,-1.213778,0.5894547
1182.307,-0.08640487,-0.8704591,-0.7514311,-1.659068,-1.211291,0.5884665
1182.322,-0.08627843,-0.8708134,-0.7505858,-1.657966,-1.20877,0.5874978
1182.337,-0.08627843,-0.8708134,-0.7505858,-1.657966,-1.20877,0.5874978
1182.351,-0.08616388,-0.871131,-0.7497433,-1.656842,-1.20626,0.586548
1182.367,-0.08609582,-0.8713201,-0.7484196,-1.65533,-1.203292,0.5853029
1182.381,-0.08605566,-0.871429,-0.7470248,-1.653672,-1.200186,0.5840821
1182.397,-0.08605566,-0.871429,-0.7470248,-1.653672,-1.200186,0.5840821
1182.411,-0.08603226,-0.871488,-0.7456201,-1.651962,-1.197061,0.5828853
1182.425,-0.08601893,-0.8715159,-0.7442297,-1.650242,-1.193959,0.5817118
1182.44,-0.08601893,-0.8715159,-0.7442297,-1.650242,-1.193959,0.5817118
1182.454,-0.08604893,-0.8714215,-0.7423715,-1.648143,-1.190398,0.5802475
1182.469,-0.08610454,-0.8712518,-0.7404534,-1.645908,-1.18671,0.5788118
1182.484,-0.08617509,-0.8710364,-0.7385358,-1.64363,-1.183015,0.5774043
1182.499,-0.08617509,-0.8710364,-0.7385358,-1.64363,-1.183015,0.5774043
1182.513,-0.08629303,-0.8706895,-0.7361523,-1.640961,-1.178845,0.5757104
1182.528,-0.08643844,-0.8702628,-0.7337157,-1.638156,-1.174552,0.5740496
1182.543,-0.08659935,-0.8697889,-0.7312887,-1.635312,-1.170258,0.5724213
1182.558,-0.08659935,-0.8697889,-0.7312887,-1.635312,-1.170258,0.5724213
1182.572,-0.0867686,-0.8692881,-0.7288955,-1.632475,-1.166006,0.570825
1182.588,-0.08698077,-0.8686684,-0.7260589,-1.629271,-1.161288,0.5689461
1182.602,-0.08721715,-0.8679783,-0.7231827,-1.62595,-1.156465,0.5671039
1182.617,-0.08721715,-0.8679783,-0.7231827,-1.62595,-1.156465,0.5671039
1182.631,-0.08746658,-0.8672479,-0.7203261,-1.622601,-1.151656,0.5652977
1182.647,-0.08772241,-0.8664959,-0.7175123,-1.619269,-1.146899,0.563527
1182.661,-0.08801952,-0.8656296,-0.7142682,-1.615578,-1.141669,0.5614771
1182.676,-0.08801952,-0.8656296,-0.7142682,-1.615578,-1.141669,0.5614771
1182.69,-0.08833934,-0.8646969,-0.7109929,-1.611777,-1.136345,0.5594673
1182.705,-0.08867083,-0.8637274,-0.7077449,-1.607958,-1.131046,0.5574969
1182.72,-0.08867083,-0.8637274,-0.7077449,-1.607958,-1.131046,0.5574969
1182.734,-0.08904623,-0.8626352,-0.7040697,-1.603767,-1.125256,0.5552512
1182.749,-0.08944539,-0.8614725,-0.7003682,-1.599465,-1.119376,0.5530495
1182.764,-0.08985638,-0.8602716,-0.6967007,-1.595149,-1.11353,0.5508909
1182.779,-0.08985638,-0.8602716,-0.6967007,-1.595149,-1.11353,0.5508909
1182.793,-0.09027217,-0.8590527,-0.693091,-1.590861,-1.107752,0.5487745
1182.809,-0.09072734,-0.8577237,-0.6890777,-1.586225,-1.101485,0.5463859
1182.823,-0.09120311,-0.856333,-0.6850487,-1.581496,-1.095147,0.5440439
1182.838,-0.09120311,-0.856333,-0.6850487,-1.581496,-1.095147,0.5440439
1182.852,-0.09168844,-0.8549107,-0.681061,-1.576762,-1.088854,0.5417478
1182.868,-0.09217685,-0.8534754,-0.6771375,-1.572065,-1.082641,0.5394967
1182.885,-0.09270316,-0.851934,-0.6728251,-1.567026,-1.075926,0.5369759
1182.898,-0.09270316,-0.851934,-0.6728251,-1.567026,-1.075926,0.5369759
1182.911,-0.0932488,-0.8503343,-0.6685022,-1.561901,-1.069151,0.5345044
1182.927,-0.09380286,-0.8487062,-0.6642254,-1.556779,-1.062434,0.5320813
1182.941,-0.09435898,-0.8470679,-0.6600177,-1.5517,-1.055804,0.5297057
1182.956,-0.09435898,-0.8470679,-0.6600177,-1.5517,-1.055804,0.5297057
1182.97,-0.09495195,-0.8453261,-0.6554362,-1.546282,-1.048661,0.5270628
1182.986,-0.09556324,-0.8435287,-0.6508483,-1.540787,-1.041467,0.5244716
1183,-0.09618202,-0.8417054,-0.6463103,-1.5353,-1.034343,0.5219312
1183.015,-0.09618202,-0.8417054,-0.6463103,-1.5353,-1.034343,0.5219312
1183.029,-0.09684037,-0.8397697,-0.6414026,-1.529459,-1.026687,0.5191267
1183.045,-0.09751823,-0.837774,-0.6364896,-1.523539,-1.018987,0.5163771
1183.059,-0.09751823,-0.837774,-0.6364896,-1.523539,-1.018987,0.5163771
1183.073,-0.09820389,-0.8357503,-0.6316298,-1.51763,-1.011365,0.5136813
1183.089,-0.09889057,-0.8337187,-0.6268485,-1.511774,-1.003849,0.5110383
1183.104,-0.09961259,-0.8315866,-0.6217255,-1.505586,-0.9957982,0.5081334
1183.118,-0.09961259,-0.8315866,-0.6217255,-1.505586,-0.9957982,0.5081334
1183.135,-0.1003513,-0.8294027,-0.6166039,-1.499335,-0.9877163,0.5052852
1183.148,-0.1010959,-0.8271968,-0.6115393,-1.493105,-0.9797258,0.5024928
1183.163,-0.1018401,-0.8249872,-0.6065567,-1.486935,-0.9718517,0.4997551
1183.177,-0.1018401,-0.8249872,-0.6065567,-1.486935,-0.9718517,0.4997551
1183.191,-0.1026184,-0.8226808,-0.6012508,-1.480437,-0.9634293,0.4967573
1183.207,-0.1034124,-0.8203256,-0.5959472,-1.473882,-0.9549848,0.4938181
1183.221,-0.1042114,-0.8179508,-0.5907015,-1.467354,-0.9466434,0.4909365
1183.236,-0.1042114,-0.8179508,-0.5907015,-1.467354,-0.9466434,0.4909365
1183.25,-0.1050472,-0.8154704,-0.585137,-1.460481,-0.9377412,0.4877976
1183.266,-0.1059,-0.8129364,-0.5795723,-1.45355,-0.9288236,0.4847199
1183.281,-0.1067581,-0.810381,-0.5740663,-1.446648,-0.9200193,0.4817026
1183.295,-0.1067581,-0.810381,-0.5740663,-1.446648,-0.9200193,0.4817026
1183.309,-0.1076151,-0.8078238,-0.5686474,-1.439814,-0.9113505,0.4787443
1183.325,-0.1085047,-0.8051726,-0.562943,-1.432655,-0.902115,0.4755303
1183.339,-0.1085047,-0.8051726,-0.562943,-1.432655,-0.902115,0.4755303
1183.354,-0.1094088,-0.8024756,-0.5572428,-1.425454,-0.8928724,0.4723791
1183.369,-0.1103165,-0.7997628,-0.5516025,-1.418291,-0.8837552,0.4692896
1183.386,-0.1112217,-0.7970524,-0.5460509,-1.411203,-0.8747838,0.4662606
1183.4,-0.1112217,-0.7970524,-0.5460509,-1.411203,-0.8747838,0.4662606
1183.414,-0.1121585,-0.794251,-0.5402356,-1.403791,-0.865236,0.4629773
1183.428,-0.1131089,-0.7914065,-0.5344228,-1.396345,-0.8556861,0.459758
1183.442,-0.1140622,-0.7885485,-0.5286677,-1.388941,-0.8462725,0.4566018
1183.457,-0.1140622,-0.7885485,-0.5286677,-1.388941,-0.8462725,0.4566018
1183.471,-0.1150499,-0.7855904,-0.5226529,-1.381196,-0.836278,0.4531937
1183.486,-0.1160524,-0.7825844,-0.5166349,-1.373414,-0.8262872,0.4498522
1183.501,-0.1170583,-0.7795626,-0.5106726,-1.365675,-0.816444,0.4465761
1183.516,-0.1170583,-0.7795626,-0.5106726,-1.365675,-0.816444,0.4465761
1183.53,-0.1180611,-0.7765446,-0.5048,-1.358018,-0.8067671,0.4433641
1183.546,-0.1190945,-0.7734378,-0.4987073,-1.350038,-0.7965047,0.4399014
1183.56,-0.1201403,-0.7702907,-0.4926153,-1.342037,-0.7862473,0.4365063
1183.575,-0.1201403,-0.7702907,-0.4926153,-1.342037,-0.7862473,0.4365063
1183.589,-0.1211878,-0.7671331,-0.4865778,-1.334087,-0.7761474,0.4331777
1183.606,-0.1222313,-0.763983,-0.4806296,-1.326226,-0.7662236,0.4299143
1183.62,-0.1222313,-0.763983,-0.4806296,-1.326226,-0.7662236,0.4299143
1183.636,-0.1233042,-0.7607471,-0.4744866,-1.318041,-0.7557105,0.426401
1183.65,-0.1243887,-0.7574732,-0.4683412,-1.309842,-0.7452025,0.4229564
1183.664,-0.1254745,-0.7541908,-0.4622454,-1.301698,-0.7348612,0.4195793
1183.679,-0.1254745,-0.7541908,-0.4622454,-1.301698,-0.7348612,0.4195793
1183.693,-0.1265926,-0.7508132,-0.4559567,-1.293214,-0.7239351,0.4159545
1183.708,-0.1277237,-0.7473928,-0.4496568,-1.284712,-0.7130195,0.4124005
1183.723,-0.1288566,-0.7439613,-0.4434018,-1.276265,-0.7022822,0.4089161
1183.738,-0.1288566,-0.7439613,-0.4434018,-1.276265,-0.7022822,0.4089161
1183.752,-0.1299849,-0.7405384,-0.4372325,-1.267913,-0.6917426,0.4055
1183.767,-0.1311418,-0.7370315,-0.4309174,-1.259235,-0.6806172,0.4018371
1183.782,-0.1323094,-0.7334889,-0.4245971,-1.250555,-0.6694962,0.3982456
1183.797,-0.1323094,-0.7334889,-0.4245971,-1.250555,-0.6694962,0.3982456
1183.811,-0.1334774,-0.7299403,-0.4183191,-1.241938,-0.6585591,0.3947245
1183.826,-0.1346398,-0.7264039,-0.4121246,-1.233421,-0.6478283,0.3912724
1183.841,-0.1358297,-0.7227861,-0.4058124,-1.224577,-0.6365147,0.3875742
1183.856,-0.1358297,-0.7227861,-0.4058124,-1.224577,-0.6365147,0.3875742
1183.87,-0.1370298,-0.7191347,-0.3994922,-1.215737,-0.6252015,0.3839481
1183.886,-0.1382297,-0.7154793,-0.3932076,-1.206964,-0.6140782,0.3803931
1183.9,-0.1382297,-0.7154793,-0.3932076,-1.206964,-0.6140782,0.3803931
1183.914,-0.1394601,-0.7117329,-0.3868022,-1.197846,-0.6023846,0.3765939
1183.929,-0.1407019,-0.707948,-0.3803777,-1.188728,-0.5906978,0.372869
1183.944,-0.1419443,-0.7041563,-0.373981,-1.179677,-0.5792123,0.3692169
1183.959,-0.1419443,-0.7041563,-0.373981,-1.179677,-0.5792123,0.3692169
1183.973,-0.1431808,-0.7003774,-0.3676603,-1.170729,-0.5679538,0.3656364
1183.988,-0.1444442,-0.6965185,-0.3612744,-1.161452,-0.5561285,0.3618123
1184.003,-0.1457168,-0.692628,-0.3548802,-1.152187,-0.5442985,0.3580628
1184.017,-0.1457168,-0.692628,-0.3548802,-1.152187,-0.5442985,0.3580628
1184.032,-0.1469886,-0.6887357,-0.3485118,-1.142997,-0.5326699,0.3543868
1184.047,-0.1482538,-0.6848594,-0.3422158,-1.133916,-0.521274,0.3507828
1184.062,-0.1495448,-0.6809056,-0.3358847,-1.124502,-0.5093196,0.3469356
1184.077,-0.1495448,-0.6809056,-0.3358847,-1.124502,-0.5093196,0.3469356
1184.091,-0.1508445,-0.6769223,-0.3295448,-1.115105,-0.4973545,0.3431635
1184.107,-0.152143,-0.6729386,-0.3232234,-1.105788,-0.4855931,0.3394653
1184.121,-0.1534345,-0.6689724,-0.3169681,-1.096581,-0.4740713,0.3358396
1184.137,-0.1534345,-0.6689724,-0.3169681,-1.096581,-0.4740713,0.3358396
1184.151,-0.1547157,-0.6650345,-0.3108093,-1.0875,-0.4627825,0.332285
1184.165,-0.1559847,-0.6611312,-0.3047611,-1.078554,-0.4517155,0.3288001
1184.18,-0.1572405,-0.6572664,-0.2988282,-1.069745,-0.4408613,0.3253834
1184.195,-0.1572405,-0.6572664,-0.2988282,-1.069745,-0.4408613,0.3253834
1184.209,-0.1584826,-0.6534422,-0.293011,-1.061074,-0.4302137,0.3220338
1184.224,-0.1597107,-0.6496598,-0.2873074,-1.05254,-0.4197681,0.3187497
1184.239,-0.1597107,-0.6496598,-0.2873074,-1.05254,-0.4197681,0.3187497
1184.253,-0.1609248,-0.6459195,-0.2817151,-1.044142,-0.4095206,0.3155301
1184.268,-0.1621249,-0.6422216,-0.2762312,-1.035879,-0.3994678,0.3123735
1184.283,-0.1633111,-0.6385661,-0.270853,-1.027747,-0.3896066,0.3092788
1184.298,-0.1633111,-0.6385661,-0.270853,-1.027747,-0.3896066,0.3092788
1184.312,-0.1644834,-0.6349525,-0.2655776,-1.019746,-0.3799337,0.3062448
1184.328,-0.1656422,-0.6313807,-0.2604026,-1.011873,-0.3704463,0.3032703
1184.342,-0.1667873,-0.6278503,-0.2553253,-1.004127,-0.3611411,0.300354
1184.357,-0.1667873,-0.6278503,-0.2553253,-1.004127,-0.3611411,0.300354
1184.371,-0.1679191,-0.6243608,-0.2503431,-0.9965047,-0.3520151,0.297495
1184.388,-0.1690377,-0.6209118,-0.2454538,-0.9890049,-0.3430654,0.294692
1184.401,-0.1701432,-0.6175029,-0.2406549,-0.9816255,-0.3342889,0.2919439
1184.416,-0.1701432,-0.6175029,-0.2406549,-0.9816255,-0.3342889,0.2919439
1184.43,-0.1712358,-0.6141337,-0.2359441,-0.9743648,-0.3256828,0.2892497
1184.446,-0.1723156,-0.6108037,-0.2313193,-0.9672208,-0.3172441,0.2866083
1184.46,-0.1733827,-0.6075125,-0.2267782,-0.9601918,-0.3089699,0.2840187
1184.475,-0.1733827,-0.6075125,-0.2267782,-0.9601918,-0.3089699,0.2840187
1184.489,-0.1744374,-0.6042597,-0.2223188,-0.953276,-0.3008574,0.2814799
1184.505,-0.1754797,-0.6010447,-0.2179389,-0.9464716,-0.2929038,0.2789908
1184.52,-0.1754797,-0.6010447,-0.2179389,-0.9464716,-0.2929038,0.2789908
1184.534,-0.1765098,-0.5978673,-0.2136367,-0.9397768,-0.2851062,0.2765506
1184.549,-0.1775279,-0.594727,-0.2094101,-0.9331901,-0.2774619,0.2741582
1184.564,-0.1785341,-0.5916233,-0.2052572,-0.9267097,-0.2699682,0.2718127
1184.579,-0.1785341,-0.5916233,-0.2052572,-0.9267097,-0.2699682,0.2718127
1184.593,-0.1795285,-0.5885559,-0.2011763,-0.920334,-0.2626223,0.2695132
1184.609,-0.1805112,-0.5855243,-0.1971655,-0.9140613,-0.2554218,0.2672587
1184.624,-0.1814825,-0.5825281,-0.193223,-0.9078901,-0.2483638,0.2650485
1184.638,-0.1814825,-0.5825281,-0.193223,-0.9078901,-0.2483638,0.2650485
1184.652,-0.1824424,-0.579567,-0.1893473,-0.9018188,-0.241446,0.2628816
1184.667,-0.1833911,-0.5766405,-0.1855365,-0.8958457,-0.2346656,0.2607572
1184.682,-0.1843287,-0.5737483,-0.1817891,-0.8899695,-0.2280203,0.2586745
1184.697,-0.1843287,-0.5737483,-0.1817891,-0.8899695,-0.2280203,0.2586745
1184.711,-0.1852553,-0.5708899,-0.1781036,-0.8841886,-0.2215075,0.2566326
1184.727,-0.1861711,-0.568065,-0.1744783,-0.8785015,-0.2151248,0.2546307
1184.741,-0.1870761,-0.5652732,-0.1709119,-0.8729068,-0.2088699,0.2526681
1184.756,-0.1870761,-0.5652732,-0.1709119,-0.8729068,-0.2088699,0.2526681
1184.77,-0.1879706,-0.5625141,-0.1674028,-0.867403,-0.2027404,0.250744
1184.786,-0.1888547,-0.5597873,-0.1639497,-0.8619888,-0.1967339,0.2488576
1184.801,-0.1897284,-0.5570925,-0.1605512,-0.8566627,-0.1908482,0.2470082
1184.816,-0.1897284,-0.5570925,-0.1605512,-0.8566627,-0.1908482,0.2470082
1184.83,-0.1905919,-0.5544293,-0.157206,-0.8514234,-0.185081,0.2451951
1184.845,-0.1914453,-0.5517973,-0.1539126,-0.8462695,-0.1794301,0.2434176
1184.861,-0.1922887,-0.5491962,-0.15067,-0.8411996,-0.1738935,0.2416749
1184.875,-0.1922887,-0.5491962,-0.15067,-0.8411996,-0.1738935,0.2416749
1184.889,-0.1931223,-0.5466257,-0.1474769,-0.8362126,-0.1684688,0.2399663
1184.904,-0.1939461,-0.5440854,-0.144332,-0.831307,-0.1631541,0.2382913
1184.919,-0.1939461,-0.5440854,-0.144332,-0.831307,-0.1631541,0.2382913
1184.933,-0.1947604,-0.5415749,-0.1412342,-0.8264816,-0.1579472,0.2366491
1184.948,-0.1955651,-0.5390939,-0.1381825,-0.8217353,-0.1528461,0.2350392
1184.963,-0.1963604,-0.536642,-0.1351755,-0.8170666,-0.1478489,0.2334608
1184.978,-0.1963604,-0.536642,-0.1351755,-0.8170666,-0.1478489,0.2334608
1184.992,-0.1971464,-0.534219,-0.1322124,-0.8124745,-0.1429536,0.2319133
1185.007,-0.1979233,-0.5318244,-0.1292921,-0.8079576,-0.1381582,0.2303963
1185.022,-0.1986911,-0.529458,-0.1264135,-0.803515,-0.1334608,0.2289089
1185.037,-0.1986911,-0.529458,-0.1264135,-0.803515,-0.1334608,0.2289089
1185.052,-0.1994499,-0.5271194,-0.1235757,-0.7991452,-0.1288597,0.2274508
1185.067,-0.2001999,-0.5248083,-0.1207777,-0.7948474,-0.1243529,0.2260212
1185.082,-0.2009411,-0.5225245,-0.1180185,-0.7906202,-0.1199387,0.2246197
1185.098,-0.2009411,-0.5225245,-0.1180185,-0.7906202,-0.1199387,0.2246197
1185.112,-0.2016737,-0.5202675,-0.1152973,-0.7864626,-0.1156153,0.2232456
1185.126,-0.2023977,-0.5180371,-0.1126133,-0.7823735,-0.111381,0.2218985
1185.14,-0.2031133,-0.515833,-0.1099655,-0.7783519,-0.1072341,0.2205779
1185.155,-0.2031133,-0.515833,-0.1099655,-0.7783519,-0.1072341,0.2205779
1185.169,-0.2038206,-0.5136548,-0.107353,-0.7743966,-0.1031728,0.2192831
1185.185,-0.2045196,-0.5115023,-0.1047752,-0.7705066,-0.09919564,0.2180137
1185.199,-0.2045196,-0.5115023,-0.1047752,-0.7705066,-0.09919564,0.2180137
1185.214,-0.2052104,-0.5093752,-0.1022312,-0.7666809,-0.09530091,0.2167692
1185.229,-0.2058932,-0.5072731,-0.09972027,-0.7629184,-0.09148705,0.2155492
1185.244,-0.2065681,-0.5051959,-0.09724164,-0.7592182,-0.0877525,0.214353
1185.258,-0.2065681,-0.5051959,-0.09724164,-0.7592182,-0.0877525,0.214353
1185.273,-0.2072351,-0.5031431,-0.0947946,-0.7555793,-0.08409574,0.2131804
1185.288,-0.2078943,-0.5011145,-0.09237845,-0.7520006,-0.08051527,0.2120307
1185.303,-0.2085458,-0.4991098,-0.08999252,-0.7484813,-0.07700963,0.2109036
1185.318,-0.2085458,-0.4991098,-0.08999252,-0.7484813,-0.07700963,0.2109036
1185.332,-0.2091898,-0.4971288,-0.08763616,-0.7450204,-0.07357736,0.2097985
1185.348,-0.2098262,-0.4951712,-0.08530871,-0.741617,-0.07021705,0.2087152
1185.363,-0.2104553,-0.4932367,-0.08300954,-0.7382702,-0.06692731,0.2076531
1185.377,-0.2104553,-0.4932367,-0.08300954,-0.7382702,-0.06692731,0.2076531
1185.391,-0.211077,-0.491325,-0.08073806,-0.7349789,-0.06370679,0.2066118
1185.406,-0.2116915,-0.4894359,-0.07849368,-0.7317424,-0.06055412,0.205591
1185.421,-0.2122989,-0.4875691,-0.07627583,-0.7285599,-0.05746801,0.2045902
1185.435,-0.2122989,-0.4875691,-0.07627583,-0.7285599,-0.05746801,0.2045902
1185.45,-0.2128991,-0.4857243,-0.07408395,-0.7254303,-0.05444715,0.203609
1185.465,-0.2134925,-0.4839013,-0.07191751,-0.7223529,-0.05149029,0.202647
1185.48,-0.2134925,-0.4839013,-0.07191751,-0.7223529,-0.05149029,0.202647
1185.494,-0.2140789,-0.4820999,-0.06977598,-0.7193269,-0.04859617,0.2017039
1185.511,-0.2146584,-0.4803197,-0.06765886,-0.7163514,-0.04576359,0.2007793
1185.524,-0.2152313,-0.4785606,-0.06556566,-0.7134256,-0.04299133,0.1998729
1185.539,-0.2152313,-0.4785606,-0.06556566,-0.7134256,-0.04299133,0.1998729
1185.553,-0.2157975,-0.4768222,-0.0634959,-0.7105487,-0.04027823,0.1989842
1185.569,-0.2163571,-0.4751045,-0.06144911,-0.7077199,-0.03762314,0.198113
1185.583,-0.2169102,-0.473407,-0.05942484,-0.7049385,-0.03502492,0.1972588
1185.599,-0.2169102,-0.473407,-0.05942484,-0.7049385,-0.03502492,0.1972588
1185.613,-0.2174569,-0.4717295,-0.05742266,-0.7022036,-0.03248246,0.1964214
1185.627,-0.2179972,-0.470072,-0.05544215,-0.6995146,-0.02999466,0.1956005
1185.642,-0.2185313,-0.468434,-0.05348289,-0.6968707,-0.02756047,0.1947956
1185.656,-0.2185313,-0.468434,-0.05348289,-0.6968707,-0.02756047,0.1947956
1185.67,-0.2190591,-0.4668154,-0.05154448,-0.6942711,-0.02517884,0.1940065
