JMolnar6/NonAnthroHands_User_Study/HandsLoggerWithURDF/tempdata/PID 0 (test)/files/Reachy_PID0_JointMotion_gesture_9_42.csv
Time,r_shoulder,r_shoulder_x,r_upper_arm,r_forearm,r_wrist,r_wrist2hand,
616.9145,-0.0141006,-6.320493E-09,NaN,-0.9018154,-1.334512E-07,NaN,-1.559715,-3.669061E-07,NaN,-2.096535,1.818921E-05,0.3743226,3.866878E-08,NaN,NaN,-0.09247584,-2.933673E-10,-2.45491E-08,-1.11427E-07,1.740391E-08,-2.622604E-08
616.9303,-0.01409946,-6.319715E-09,NaN,-0.9019305,-1.33452E-07,NaN,-1.559231,-3.673461E-07,NaN,-2.097271,1.818971E-05,0.3757058,3.911029E-08,NaN,NaN,-0.09234414,-2.887107E-10,-2.901945E-08,-1.114289E-07,1.740391E-08,-2.861022E-08
616.9439,-0.01409821,-6.318936E-09,NaN,-0.9020875,-1.334527E-07,NaN,-1.558837,-3.677801E-07,NaN,-2.098291,1.819021E-05,0.3773079,3.954586E-08,NaN,NaN,-0.09221543,-2.840541E-10,-2.223942E-08,-1.114308E-07,1.740391E-08,-2.622604E-08
616.9586,-0.01409821,-6.318936E-09,NaN,-0.9020875,-1.334527E-07,NaN,-1.558837,-3.677801E-07,NaN,-2.098291,1.819021E-05,0.3773079,3.954586E-08,NaN,NaN,-0.09221543,-2.840541E-10,-2.223942E-08,-1.114308E-07,1.740391E-08,-2.622604E-08
616.9726,-0.0140969,-6.318158E-09,NaN,-0.9022697,-1.334535E-07,NaN,-1.558561,-3.682084E-07,NaN,-2.099439,1.819071E-05,0.3788749,3.997563E-08,NaN,NaN,-0.09208917,-2.793975E-10,-1.717302E-08,-1.114327E-07,1.740391E-08,-2.861022E-08
616.988,-0.0140955,-6.317379E-09,NaN,-0.9024665,-1.334542E-07,NaN,-1.558354,-3.686281E-07,NaN,-2.100639,1.819121E-05,0.3803872,4.039688E-08,NaN,NaN,-0.09196529,-2.747409E-10,-1.359675E-08,-1.114345E-07,1.263554E-08,-2.622604E-08
617.0027,-0.01409418,-6.316598E-09,NaN,-0.9026023,-1.334551E-07,NaN,-1.558698,-3.693205E-07,NaN,-2.101264,1.819171E-05,0.3804964,4.109088E-08,NaN,NaN,-0.09197302,-2.654277E-10,-6.891223E-09,-1.114361E-07,1.263554E-08,-2.861022E-08
617.0171,-0.01409418,-6.316598E-09,NaN,-0.9026023,-1.334551E-07,NaN,-1.558698,-3.693205E-07,NaN,-2.101264,1.819171E-05,0.3804964,4.109088E-08,NaN,NaN,-0.09197302,-2.654277E-10,-6.891223E-09,-1.114361E-07,1.263554E-08,-2.861022E-08
617.0331,-0.01409296,-6.315817E-09,NaN,-0.9026998,-1.334559E-07,NaN,-1.558973,-3.700078E-07,NaN,-2.101601,1.819222E-05,0.3803462,4.177965E-08,NaN,NaN,-0.09198014,-2.700843E-10,-1.17341E-08,-1.114377E-07,1.501972E-08,-2.622604E-08
617.0474,-0.01409182,-6.315035E-09,NaN,-0.9027731,-1.334568E-07,NaN,-1.559138,-3.706899E-07,NaN,-2.101799,1.819273E-05,0.3801981,4.24633E-08,NaN,NaN,-0.0919872,-2.700843E-10,-1.590642E-08,-1.114392E-07,1.263554E-08,-2.861022E-08
617.0608,-0.01409074,-6.314253E-09,NaN,-0.9028313,-1.334576E-07,NaN,-1.559241,-3.713614E-07,NaN,-2.10193,1.819323E-05,0.3800755,4.31363E-08,NaN,NaN,-0.09199421,-2.700843E-10,-1.851413E-08,-1.114408E-07,1.025135E-08,-2.622604E-08
617.0756,-0.01409074,-6.314253E-09,NaN,-0.9028313,-1.334576E-07,NaN,-1.559241,-3.713614E-07,NaN,-2.10193,1.819323E-05,0.3800755,4.31363E-08,NaN,NaN,-0.09199421,-2.700843E-10,-1.851413E-08,-1.114408E-07,1.025135E-08,-2.622604E-08
617.0895,-0.01408983,-6.31347E-09,NaN,-0.9028125,-1.334584E-07,NaN,-1.559831,-3.720224E-07,NaN,-2.101433,1.819374E-05,0.3786125,4.379884E-08,NaN,NaN,-0.09213038,-2.654277E-10,-1.56084E-08,-1.114423E-07,7.867166E-09,-2.861022E-08
617.1046,-0.01408902,-6.312688E-09,NaN,-0.9027462,-1.334592E-07,NaN,-1.560317,-3.726731E-07,NaN,-2.100632,1.819424E-05,0.3769344,4.445114E-08,NaN,NaN,-0.09226348,-2.60771E-10,-2.358052E-08,-1.114438E-07,5.482981E-09,-2.622604E-08
617.1191,-0.01408902,-6.312688E-09,NaN,-0.9027462,-1.334592E-07,NaN,-1.560317,-3.726731E-07,NaN,-2.100632,1.819424E-05,0.3769344,4.445114E-08,NaN,NaN,-0.09226348,-2.60771E-10,-2.358052E-08,-1.114438E-07,5.482981E-09,-2.622604E-08
617.133,-0.0140883,-6.311905E-09,NaN,-0.9026509,-1.3346E-07,NaN,-1.560674,-3.733139E-07,NaN,-2.099693,1.819475E-05,0.3752949,4.50934E-08,NaN,NaN,-0.09239407,-2.60771E-10,-3.058407E-08,-1.114453E-07,5.482981E-09,-2.861022E-08
617.1486,-0.01408774,-6.311122E-09,NaN,-0.9024688,-1.334608E-07,NaN,-1.561471,-3.739419E-07,NaN,-2.098101,1.819525E-05,0.3723532,4.5723E-08,NaN,NaN,-0.09265145,-2.561144E-10,-3.10311E-08,-1.114468E-07,5.482981E-09,-2.622604E-08
617.1629,-0.01408731,-6.310338E-09,NaN,-0.902234,-1.334617E-07,NaN,-1.562135,-3.745604E-07,NaN,-2.096202,1.819575E-05,0.3692367,4.6343E-08,NaN,NaN,-0.09290344,-2.514578E-10,-4.175994E-08,-1.114483E-07,7.867166E-09,-2.861022E-08
617.1777,-0.01408731,-6.310338E-09,NaN,-0.902234,-1.334617E-07,NaN,-1.562135,-3.745604E-07,NaN,-2.096202,1.819575E-05,0.3692367,4.6343E-08,NaN,NaN,-0.09290344,-2.514578E-10,-4.175994E-08,-1.114483E-07,7.867166E-09,-2.861022E-08
617.1916,-0.01408697,-6.309555E-09,NaN,-0.9019677,-1.334624E-07,NaN,-1.562653,-3.751695E-07,NaN,-2.09417,1.819626E-05,0.3661924,4.69536E-08,NaN,NaN,-0.09315061,-2.514578E-10,-5.084964E-08,-1.114498E-07,7.867166E-09,-2.622604E-08
617.2071,-0.01408669,-6.308771E-09,NaN,-0.9016832,-1.334632E-07,NaN,-1.563085,-3.757693E-07,NaN,-2.092091,1.819676E-05,0.3632351,4.755498E-08,NaN,NaN,-0.09339306,-2.468012E-10,-5.762967E-08,-1.114513E-07,1.025135E-08,-2.861022E-08
617.2216,-0.01408656,-6.307987E-09,NaN,-0.9013193,-1.33464E-07,NaN,-1.563978,-3.763573E-07,NaN,-2.089412,1.819726E-05,0.3589827,4.814449E-08,NaN,NaN,-0.09376007,-2.421446E-10,-5.80022E-08,-1.114527E-07,1.501972E-08,-2.622604E-08
617.2363,-0.01408656,-6.307987E-09,NaN,-0.9013193,-1.33464E-07,NaN,-1.563978,-3.763573E-07,NaN,-2.089412,1.819726E-05,0.3589827,4.814449E-08,NaN,NaN,-0.09376007,-2.421446E-10,-5.80022E-08,-1.114527E-07,1.501972E-08,-2.622604E-08
617.2504,-0.01408656,-6.307204E-09,NaN,-0.9009082,-1.334648E-07,NaN,-1.564742,-3.769364E-07,NaN,-2.08646,1.819776E-05,0.3545809,4.872518E-08,NaN,NaN,-0.09411955,-2.37488E-10,-6.969961E-08,-1.114542E-07,1.501972E-08,-2.861022E-08
617.2658,-0.01408664,-6.306419E-09,NaN,-0.9004697,-1.334656E-07,NaN,-1.565361,-3.775041E-07,NaN,-2.083398,1.819827E-05,0.350275,4.929442E-08,NaN,NaN,-0.0944721,-2.37488E-10,-7.960888E-08,-1.114557E-07,7.867165E-09,-2.622604E-08
617.283,-0.01408678,-6.305635E-09,NaN,-0.9000162,-1.334664E-07,NaN,-1.565891,-3.780634E-07,NaN,-2.080308,1.819878E-05,0.3460787,4.985524E-08,NaN,NaN,-0.09481785,-2.37488E-10,-8.7581E-08,-1.114571E-07,7.867165E-09,-2.861022E-08
617.2953,-0.01408678,-6.305635E-09,NaN,-0.9000162,-1.334664E-07,NaN,-1.565891,-3.780634E-07,NaN,-2.080308,1.819878E-05,0.3460787,4.985524E-08,NaN,NaN,-0.09481785,-2.37488E-10,-8.7581E-08,-1.114571E-07,7.867165E-09,-2.861022E-08
617.3113,-0.01408707,-6.30485E-09,NaN,-0.8994864,-1.334672E-07,NaN,-1.566868,-3.786144E-07,NaN,-2.076638,1.819929E-05,0.3405961,5.040781E-08,NaN,NaN,-0.09528615,-2.37488E-10,-9.085925E-08,-1.114586E-07,1.740391E-08,-2.622604E-08
617.3253,-0.01408748,-6.304066E-09,NaN,-0.8989117,-1.33468E-07,NaN,-1.567703,-3.791546E-07,NaN,-2.07271,1.819979E-05,0.3349992,5.094947E-08,NaN,NaN,-0.09574496,-2.328314E-10,-1.037488E-07,-1.114601E-07,1.263554E-08,-2.861022E-08
617.3389,-0.01408748,-6.304066E-09,NaN,-0.8989117,-1.33468E-07,NaN,-1.567703,-3.791546E-07,NaN,-2.07271,1.819979E-05,0.3349992,5.094947E-08,NaN,NaN,-0.09574496,-2.328314E-10,-1.037488E-07,-1.114601E-07,1.263554E-08,-2.861022E-08
617.3528,-0.01408798,-6.303281E-09,NaN,-0.8983119,-1.334688E-07,NaN,-1.568388,-3.796868E-07,NaN,-2.068689,1.82003E-05,0.3295249,5.148327E-08,NaN,NaN,-0.0961949,-2.328314E-10,-1.141796E-07,-1.114615E-07,7.867165E-09,-2.622604E-08
617.3682,-0.01408865,-6.302496E-09,NaN,-0.89763,-1.334695E-07,NaN,-1.56947,-3.802085E-07,NaN,-2.064065,1.82008E-05,0.3227864,5.200651E-08,NaN,NaN,-0.09676541,-2.281748E-10,-1.179049E-07,-1.11463E-07,1.025135E-08,-2.861022E-08
617.3826,-0.01408945,-6.301711E-09,NaN,-0.8969005,-1.334703E-07,NaN,-1.570381,-3.807227E-07,NaN,-2.05918,1.82013E-05,0.3159773,5.252225E-08,NaN,NaN,-0.09732448,-2.281748E-10,-1.311669E-07,-1.114644E-07,1.025135E-08,-2.622604E-08
617.3973,-0.01408945,-6.301711E-09,NaN,-0.8969005,-1.334703E-07,NaN,-1.570381,-3.807227E-07,NaN,-2.05918,1.82013E-05,0.3159773,5.252225E-08,NaN,NaN,-0.09732448,-2.281748E-10,-1.311669E-07,-1.114644E-07,1.025135E-08,-2.622604E-08
617.411,-0.01409035,-6.300925E-09,NaN,-0.8961449,-1.334711E-07,NaN,-1.571083,-3.812267E-07,NaN,-2.054205,1.820181E-05,0.3092746,5.30278E-08,NaN,NaN,-0.09787265,-2.235182E-10,-1.449505E-07,-1.114658E-07,5.482979E-09,-2.861022E-08
617.4262,-0.01409131,-6.30014E-09,NaN,-0.8953765,-1.334719E-07,NaN,-1.571468,-3.817236E-07,NaN,-2.049212,1.820231E-05,0.3025456,5.352619E-08,NaN,NaN,-0.09840984,-2.235182E-10,-1.667807E-07,-1.114673E-07,7.867165E-09,-2.622604E-08
617.4411,-0.01409244,-6.299354E-09,NaN,-0.8945344,-1.334726E-07,NaN,-1.571998,-3.822134E-07,NaN,-2.043661,1.820282E-05,0.2944837,5.401755E-08,NaN,NaN,-0.09906574,-2.188616E-10,-1.852581E-07,-1.114687E-07,3.098793E-09,-2.861022E-08
617.4556,-0.01409244,-6.299354E-09,NaN,-0.8945344,-1.334726E-07,NaN,-1.571998,-3.822134E-07,NaN,-2.043661,1.820282E-05,0.2944837,5.401755E-08,NaN,NaN,-0.09906574,-2.188616E-10,-1.852581E-07,-1.114687E-07,3.098793E-09,-2.861022E-08
617.4696,-0.01409369,-6.298568E-09,NaN,-0.8936506,-1.334734E-07,NaN,-1.572058,-3.826872E-07,NaN,-2.037873,1.820332E-05,0.2863048,5.449287E-08,NaN,NaN,-0.09970842,-2.188616E-10,-2.189347E-07,-1.114701E-07,7.867165E-09,-2.622604E-08
617.4849,-0.01409503,-6.297782E-09,NaN,-0.892745,-1.334742E-07,NaN,-1.571765,-3.831544E-07,NaN,-2.032024,1.820383E-05,0.2783614,5.496161E-08,NaN,NaN,-0.1003388,-2.14205E-10,-2.470979E-07,-1.114715E-07,7.867165E-09,-2.861022E-08
617.4996,-0.01409503,-6.297782E-09,NaN,-0.892745,-1.334742E-07,NaN,-1.571765,-3.831544E-07,NaN,-2.032024,1.820383E-05,0.2783614,5.496161E-08,NaN,NaN,-0.1003388,-2.14205E-10,-2.470979E-07,-1.114715E-07,7.867165E-09,-2.861022E-08
617.5135,-0.01409661,-6.296995E-09,NaN,-0.8917608,-1.334749E-07,NaN,-1.571828,-3.836123E-07,NaN,-2.025613,1.820433E-05,0.2692932,5.542109E-08,NaN,NaN,-0.1010864,-2.14205E-10,-2.614776E-07,-1.114729E-07,1.025135E-08,-2.622604E-08
617.5288,-0.01409856,-6.296209E-09,NaN,-0.8907323,-1.334757E-07,NaN,-1.571714,-3.84064E-07,NaN,-2.018975,1.820484E-05,0.2602277,5.587431E-08,NaN,NaN,-0.1018192,-2.095484E-10,-2.842018E-07,-1.114743E-07,1.501972E-08,-2.861022E-08
617.5433,-0.01410084,-6.295422E-09,NaN,-0.8896813,-1.334765E-07,NaN,-1.571478,-3.845131E-07,NaN,-2.012282,1.820535E-05,0.2514006,5.63249E-08,NaN,NaN,-0.1025378,-2.188616E-10,-3.022322E-07,-1.114757E-07,1.025135E-08,-2.622604E-08
617.5581,-0.01410084,-6.295422E-09,NaN,-0.8896813,-1.334765E-07,NaN,-1.571478,-3.845131E-07,NaN,-2.012282,1.820535E-05,0.2514006,5.63249E-08,NaN,NaN,-0.1025378,-2.188616E-10,-3.022322E-07,-1.114757E-07,1.025135E-08,-2.622604E-08
617.572,-0.01410337,-6.294635E-09,NaN,-0.888621,-1.334772E-07,NaN,-1.571245,-3.849561E-07,NaN,-2.005618,1.820585E-05,0.2428319,5.676941E-08,NaN,NaN,-0.1032426,-2.14205E-10,-3.141531E-07,-1.114771E-07,1.263554E-08,-2.861022E-08
617.5875,-0.0141063,-6.293849E-09,NaN,-0.8874904,-1.33478E-07,NaN,-1.571519,-3.853931E-07,NaN,-1.998435,1.820636E-05,0.2330259,5.720795E-08,NaN,NaN,-0.104063,-2.14205E-10,-3.166863E-07,-1.114785E-07,1.025135E-08,-2.622604E-08
617.6019,-0.01410962,-6.293061E-09,NaN,-0.8863215,-1.334787E-07,NaN,-1.571613,-3.858214E-07,NaN,-1.991047,1.820686E-05,0.2231631,5.763781E-08,NaN,NaN,-0.1048671,-2.095484E-10,-3.364304E-07,-1.114799E-07,1.025135E-08,-2.861022E-08
617.6175,-0.01410962,-6.293061E-09,NaN,-0.8863215,-1.334787E-07,NaN,-1.571613,-3.858214E-07,NaN,-1.991047,1.820686E-05,0.2231631,5.763781E-08,NaN,NaN,-0.1048671,-2.095484E-10,-3.364304E-07,-1.114799E-07,1.025135E-08,-2.861022E-08
617.6314,-0.01411327,-6.292274E-09,NaN,-0.8851342,-1.334795E-07,NaN,-1.571508,-3.86244E-07,NaN,-1.983616,1.820737E-05,0.2134991,5.8062E-08,NaN,NaN,-0.1056555,-2.095484E-10,-3.532687E-07,-1.114813E-07,1.025135E-08,-2.622604E-08
617.6458,-0.01411717,-6.291486E-09,NaN,-0.8839408,-1.334802E-07,NaN,-1.571315,-3.866583E-07,NaN,-1.976223,1.820787E-05,0.20409,5.847778E-08,NaN,NaN,-0.1064286,-2.048918E-10,-3.655622E-07,-1.114827E-07,7.867166E-09,-2.861022E-08
617.6602,-0.01412145,-6.290699E-09,NaN,-0.8826798,-1.33481E-07,NaN,-1.571538,-3.870671E-07,NaN,-1.968326,1.820839E-05,0.1934408,5.888817E-08,NaN,NaN,-0.107316,-2.14205E-10,-3.69213E-07,-1.11484E-07,1.025135E-08,-2.622604E-08
617.6747,-0.01412145,-6.290699E-09,NaN,-0.8826798,-1.33481E-07,NaN,-1.571538,-3.870671E-07,NaN,-1.968326,1.820839E-05,0.1934408,5.888817E-08,NaN,NaN,-0.107316,-2.14205E-10,-3.69213E-07,-1.11484E-07,1.025135E-08,-2.622604E-08
617.6887,-0.01412611,-6.289911E-09,NaN,-0.8813826,-1.334817E-07,NaN,-1.571555,-3.874707E-07,NaN,-1.96024,1.82089E-05,0.1828095,5.929326E-08,NaN,NaN,-0.1081858,-2.14205E-10,-3.851572E-07,-1.114854E-07,1.025135E-08,-2.861022E-08
617.7042,-0.01413109,-6.289123E-09,NaN,-0.880069,-1.334824E-07,NaN,-1.571401,-3.878662E-07,NaN,-1.952123,1.820941E-05,0.1724217,5.969033E-08,NaN,NaN,-0.1090387,-2.235182E-10,-3.976742E-07,-1.114868E-07,1.025135E-08,-2.622604E-08
617.7186,-0.01413109,-6.289123E-09,NaN,-0.880069,-1.334824E-07,NaN,-1.571401,-3.878662E-07,NaN,-1.952123,1.820941E-05,0.1724217,5.969033E-08,NaN,NaN,-0.1090387,-2.235182E-10,-3.976742E-07,-1.114868E-07,1.025135E-08,-2.622604E-08
617.7328,-0.0141365,-6.288334E-09,NaN,-0.8786817,-1.334832E-07,NaN,-1.571577,-3.882567E-07,NaN,-1.943475,1.820992E-05,0.160801,6.008236E-08,NaN,NaN,-0.1100044,-2.235182E-10,-4.018465E-07,-1.114881E-07,7.867166E-09,-2.861022E-08
617.748,-0.01414233,-6.287546E-09,NaN,-0.8772553,-1.334839E-07,NaN,-1.571527,-3.886394E-07,NaN,-1.934631,1.821044E-05,0.1492671,6.046663E-08,NaN,NaN,-0.110951,-2.328314E-10,-4.154066E-07,-1.114895E-07,1.025135E-08,-2.622604E-08
617.7661,-0.01414851,-6.286757E-09,NaN,-0.8758111,-1.334847E-07,NaN,-1.571328,-3.890174E-07,NaN,-1.925761,1.821095E-05,0.1380183,6.084611E-08,NaN,NaN,-0.1118793,-2.328314E-10,-4.239002E-07,-1.114908E-07,1.501972E-08,-2.861022E-08
617.7815,-0.01415494,-6.285968E-09,NaN,-0.8743623,-1.334854E-07,NaN,-1.571113,-3.893878E-07,NaN,-1.916946,1.821145E-05,0.1270676,6.121808E-08,NaN,NaN,-0.1127894,-2.281748E-10,-4.250178E-07,-1.114922E-07,1.263554E-08,-2.622604E-08
617.7918,-0.01415494,-6.285968E-09,NaN,-0.8743623,-1.334854E-07,NaN,-1.571113,-3.893878E-07,NaN,-1.916946,1.821145E-05,0.1270676,6.121808E-08,NaN,NaN,-0.1127894,-2.281748E-10,-4.250178E-07,-1.114922E-07,1.263554E-08,-2.622604E-08
617.8059,-0.01416177,-6.285179E-09,NaN,-0.872848,-1.334861E-07,NaN,-1.571299,-3.897537E-07,NaN,-1.907647,1.821195E-05,0.1148531,6.15855E-08,NaN,NaN,-0.1138111,-2.281748E-10,-4.168967E-07,-1.114935E-07,1.025135E-08,-2.861022E-08
617.8212,-0.01416896,-6.28439E-09,NaN,-0.8712999,-1.334869E-07,NaN,-1.571301,-3.901123E-07,NaN,-1.898179,1.821245E-05,0.1027457,6.194564E-08,NaN,NaN,-0.1148128,-2.188616E-10,-4.214043E-07,-1.114948E-07,1.025135E-08,-2.622604E-08
617.8358,-0.01416896,-6.28439E-09,NaN,-0.8712999,-1.334869E-07,NaN,-1.571301,-3.901123E-07,NaN,-1.898179,1.821245E-05,0.1027457,6.194564E-08,NaN,NaN,-0.1148128,-2.188616E-10,-4.214043E-07,-1.114948E-07,1.025135E-08,-2.622604E-08
617.8499,-0.01417647,-6.283601E-09,NaN,-0.869738,-1.334876E-07,NaN,-1.571166,-3.904666E-07,NaN,-1.888699,1.821296E-05,0.09091289,6.230147E-08,NaN,NaN,-0.1157949,-2.188616E-10,-4.238257E-07,-1.114962E-07,1.025135E-08,-2.861022E-08
617.8651,-0.01418421,-6.282811E-09,NaN,-0.8681745,-1.334883E-07,NaN,-1.570996,-3.908167E-07,NaN,-1.879286,1.821346E-05,0.07937082,6.265308E-08,NaN,NaN,-0.1167578,-2.095484E-10,-4.214043E-07,-1.114975E-07,1.263554E-08,-2.622604E-08
617.8798,-0.01418421,-6.282811E-09,NaN,-0.8681745,-1.334883E-07,NaN,-1.570996,-3.908167E-07,NaN,-1.879286,1.821346E-05,0.07937082,6.265308E-08,NaN,NaN,-0.1167578,-2.095484E-10,-4.214043E-07,-1.114975E-07,1.263554E-08,-2.622604E-08
617.8956,-0.01418978,-6.282022E-09,NaN,-0.8674486,-1.33489E-07,NaN,-1.567249,-3.911598E-07,NaN,-1.876892,1.821397E-05,0.08671668,6.299771E-08,NaN,NaN,-0.11615,-2.095484E-10,-4.560495E-07,-1.114988E-07,7.867166E-09,-2.861022E-08
617.9097,-0.01419262,-6.281232E-09,NaN,-0.8672429,-1.334897E-07,NaN,-1.565218,-3.914989E-07,NaN,-1.877898,1.821447E-05,0.09464412,6.333833E-08,NaN,NaN,-0.1155543,-2.095484E-10,-4.161889E-07,-1.115001E-07,7.146084E-10,-2.622604E-08
617.9244,-0.01419323,-6.280442E-09,NaN,-0.8673573,-1.334905E-07,NaN,-1.564092,-3.918312E-07,NaN,-1.880587,1.821498E-05,0.1020794,6.36722E-08,NaN,NaN,-0.1149702,-2.095484E-10,-3.942097E-07,-1.115015E-07,-4.053763E-09,-2.861022E-08
617.938,-0.01419323,-6.280442E-09,NaN,-0.8673573,-1.334905E-07,NaN,-1.564092,-3.918312E-07,NaN,-1.880587,1.821498E-05,0.1020794,6.36722E-08,NaN,NaN,-0.1149702,-2.095484E-10,-3.942097E-07,-1.115015E-07,-4.053763E-09,-2.861022E-08
617.9521,-0.01419303,-6.279652E-09,NaN,-0.8675995,-1.334912E-07,NaN,-1.563646,-3.921598E-07,NaN,-1.88352,1.821549E-05,0.1076529,6.400227E-08,NaN,NaN,-0.1145269,-2.095484E-10,-3.784889E-07,-1.115028E-07,-6.437949E-09,-2.622604E-08
617.9672,-0.01419253,-6.278861E-09,NaN,-0.8679196,-1.334919E-07,NaN,-1.563254,-3.924818E-07,NaN,-1.886571,1.8216E-05,0.1130004,6.43258E-08,NaN,NaN,-0.1140923,-2.095484E-10,-3.719697E-07,-1.115041E-07,-4.053763E-09,-2.861022E-08
617.9817,-0.01419188,-6.278071E-09,NaN,-0.8682861,-1.334926E-07,NaN,-1.562873,-3.928002E-07,NaN,-1.889663,1.82165E-05,0.1182363,6.464573E-08,NaN,NaN,-0.1136661,-2.095484E-10,-3.654132E-07,-1.115054E-07,-6.437949E-09,-2.622604E-08
617.9963,-0.01419188,-6.278071E-09,NaN,-0.8682861,-1.334926E-07,NaN,-1.562873,-3.928002E-07,NaN,-1.889663,1.82165E-05,0.1182363,6.464573E-08,NaN,NaN,-0.1136661,-2.095484E-10,-3.654132E-07,-1.115054E-07,-6.437949E-09,-2.622604E-08
618.0102,-0.01419114,-6.27728E-09,NaN,-0.8686798,-1.334933E-07,NaN,-1.562501,-3.931122E-07,NaN,-1.892758,1.821701E-05,0.1233683,6.49593E-08,NaN,NaN,-0.1132484,-2.095484E-10,-3.576273E-07,-1.115067E-07,-1.120632E-08,-2.861022E-08
618.0256,-0.01419049,-6.276489E-09,NaN,-0.8690192,-1.33494E-07,NaN,-1.562454,-3.934209E-07,NaN,-1.895257,1.821752E-05,0.126849,6.526948E-08,NaN,NaN,-0.1129681,-2.095484E-10,-3.476063E-07,-1.11508E-07,-1.120632E-08,-2.622604E-08
618.0402,-0.01418991,-6.275698E-09,NaN,-0.8693234,-1.334947E-07,NaN,-1.562307,-3.937234E-07,NaN,-1.897451,1.821803E-05,0.130204,6.55735E-08,NaN,NaN,-0.1126934,-2.095484E-10,-3.428379E-07,-1.115092E-07,-1.120632E-08,-2.861022E-08
618.0549,-0.01418991,-6.275698E-09,NaN,-0.8693234,-1.334947E-07,NaN,-1.562307,-3.937234E-07,NaN,-1.897451,1.821803E-05,0.130204,6.55735E-08,NaN,NaN,-0.1126934,-2.095484E-10,-3.428379E-07,-1.115092E-07,-1.120632E-08,-2.861022E-08
618.0687,-0.01418938,-6.274907E-09,NaN,-0.8696046,-1.334954E-07,NaN,-1.562107,-3.940227E-07,NaN,-1.899481,1.821852E-05,0.1335149,6.587431E-08,NaN,NaN,-0.1124241,-2.002351E-10,-3.37548E-07,-1.115105E-07,-1.359051E-08,-2.622604E-08
618.0845,-0.01418887,-6.274115E-09,NaN,-0.8698704,-1.334961E-07,NaN,-1.561887,-3.943168E-07,NaN,-1.901415,1.821903E-05,0.1367719,6.616995E-08,NaN,NaN,-0.11216,-2.002351E-10,-3.31513E-07,-1.115118E-07,-1.120632E-08,-2.861022E-08
618.099,-0.01418887,-6.274115E-09,NaN,-0.8698704,-1.334961E-07,NaN,-1.561887,-3.943168E-07,NaN,-1.901415,1.821903E-05,0.1367719,6.616995E-08,NaN,NaN,-0.11216,-2.002351E-10,-3.31513E-07,-1.115118E-07,-1.120632E-08,-2.861022E-08
618.113,-0.01418851,-6.273324E-09,NaN,-0.870056,-1.334968E-07,NaN,-1.561992,-3.946078E-07,NaN,-1.902708,1.821954E-05,0.1384234,6.646255E-08,NaN,NaN,-0.1120305,-2.002351E-10,-3.221998E-07,-1.115131E-07,-1.597469E-08,-2.622604E-08
618.1281,-0.01418827,-6.272533E-09,NaN,-0.8701915,-1.334975E-07,NaN,-1.561985,-3.948931E-07,NaN,-1.903681,1.822004E-05,0.139982,6.674934E-08,NaN,NaN,-0.1119035,-1.909219E-10,-3.192941E-07,-1.115143E-07,-2.074306E-08,-2.861022E-08
618.1426,-0.0141881,-6.271741E-09,NaN,-0.8702953,-1.334982E-07,NaN,-1.561916,-3.951755E-07,NaN,-1.904489,1.822055E-05,0.1415342,6.703326E-08,NaN,NaN,-0.111779,-1.909219E-10,-3.151218E-07,-1.115156E-07,-1.835888E-08,-2.622604E-08
618.1574,-0.0141881,-6.271741E-09,NaN,-0.8702953,-1.334982E-07,NaN,-1.561916,-3.951755E-07,NaN,-1.904489,1.822055E-05,0.1415342,6.703326E-08,NaN,NaN,-0.111779,-1.909219E-10,-3.151218E-07,-1.115156E-07,-1.835888E-08,-2.622604E-08
618.1714,-0.0141881,-6.270949E-09,NaN,-0.8703098,-1.334989E-07,NaN,-1.562155,-3.954522E-07,NaN,-1.90463,1.822104E-05,0.141524,6.731153E-08,NaN,NaN,-0.1117863,-1.816087E-10,-3.075967E-07,-1.115169E-07,-2.074306E-08,-2.861022E-08
618.1865,-0.01418825,-6.270157E-09,NaN,-0.8702709,-1.334996E-07,NaN,-1.562269,-3.957263E-07,NaN,-1.904444,1.822155E-05,0.141456,6.758709E-08,NaN,NaN,-0.1117935,-1.816087E-10,-3.060321E-07,-1.115181E-07,-2.312725E-08,-2.622604E-08
618.2021,-0.01418848,-6.269365E-09,NaN,-0.8701993,-1.335003E-07,NaN,-1.562313,-3.959948E-07,NaN,-1.904098,1.822205E-05,0.141416,6.785717E-08,NaN,NaN,-0.1118005,-1.722955E-10,-3.030518E-07,-1.115194E-07,-2.789562E-08,-2.861022E-08
618.2169,-0.01418848,-6.269365E-09,NaN,-0.8701993,-1.335003E-07,NaN,-1.562313,-3.959948E-07,NaN,-1.904098,1.822205E-05,0.141416,6.785717E-08,NaN,NaN,-0.1118005,-1.722955E-10,-3.030518E-07,-1.115194E-07,-2.789562E-08,-2.861022E-08
618.2307,-0.01418876,-6.268573E-09,NaN,-0.8701077,-1.33501E-07,NaN,-1.562327,-3.962608E-07,NaN,-1.903675,1.822255E-05,0.1413905,6.812471E-08,NaN,NaN,-0.1118074,-1.629822E-10,-2.99401E-07,-1.115206E-07,-2.551143E-08,-2.622604E-08
618.2465,-0.01418921,-6.267781E-09,NaN,-0.8699349,-1.335016E-07,NaN,-1.562659,-3.965215E-07,NaN,-1.902636,1.822304E-05,0.1398264,6.838693E-08,NaN,NaN,-0.1119435,-1.490124E-10,-2.93068E-07,-1.115219E-07,-3.027981E-08,-2.861022E-08
618.2593,-0.01418921,-6.267781E-09,NaN,-0.8699349,-1.335016E-07,NaN,-1.562659,-3.965215E-07,NaN,-1.902636,1.822304E-05,0.1398264,6.838693E-08,NaN,NaN,-0.1119435,-1.490124E-10,-2.93068E-07,-1.115219E-07,-3.027981E-08,-2.861022E-08
618.2731,-0.01418978,-6.266988E-09,NaN,-0.8697128,-1.335023E-07,NaN,-1.562867,-3.967798E-07,NaN,-1.901307,1.822354E-05,0.1382342,6.864676E-08,NaN,NaN,-0.1120769,-1.396992E-10,-2.919504E-07,-1.115231E-07,-3.266399E-08,-2.622604E-08
618.2886,-0.01419043,-6.266196E-09,NaN,-0.8694612,-1.33503E-07,NaN,-1.563003,-3.970329E-07,NaN,-1.899843,1.822404E-05,0.1366993,6.890142E-08,NaN,NaN,-0.1122078,-1.303859E-10,-2.894917E-07,-1.115243E-07,-3.027981E-08,-2.861022E-08
618.3032,-0.01419113,-6.265403E-09,NaN,-0.8691926,-1.335037E-07,NaN,-1.563105,-3.972838E-07,NaN,-1.898322,1.822454E-05,0.1352084,6.915383E-08,NaN,NaN,-0.1123361,-1.257293E-10,-2.866605E-07,-1.115256E-07,-2.551144E-08,-2.622604E-08
618.3179,-0.01419113,-6.265403E-09,NaN,-0.8691926,-1.335037E-07,NaN,-1.563105,-3.972838E-07,NaN,-1.898322,1.822454E-05,0.1352084,6.915383E-08,NaN,NaN,-0.1123361,-1.257293E-10,-2.866605E-07,-1.115256E-07,-2.551144E-08,-2.622604E-08
618.332,-0.014192,-6.26461E-09,NaN,-0.8688453,-1.335044E-07,NaN,-1.563516,-3.975297E-07,NaN,-1.896205,1.822504E-05,0.132205,6.940122E-08,NaN,NaN,-0.1125912,-1.164161E-10,-2.810726E-07,-1.115268E-07,-2.551144E-08,-2.861022E-08
618.3475,-0.01419299,-6.263817E-09,NaN,-0.868451,-1.33505E-07,NaN,-1.563798,-3.977734E-07,NaN,-1.893814,1.822554E-05,0.1292069,6.964651E-08,NaN,NaN,-0.1128413,-1.117595E-10,-2.811098E-07,-1.11528E-07,-2.074307E-08,-2.622604E-08
618.3622,-0.01419406,-6.263024E-09,NaN,-0.8680295,-1.335057E-07,NaN,-1.564004,-3.980123E-07,NaN,-1.891304,1.822604E-05,0.1262943,6.988692E-08,NaN,NaN,-0.1130866,-1.024462E-10,-2.791727E-07,-1.115292E-07,-1.59747E-08,-2.861022E-08
618.3763,-0.01419406,-6.263024E-09,NaN,-0.8680295,-1.335057E-07,NaN,-1.564004,-3.980123E-07,NaN,-1.891304,1.822604E-05,0.1262943,6.988692E-08,NaN,NaN,-0.1130866,-1.024462E-10,-2.791727E-07,-1.115292E-07,-1.59747E-08,-2.861022E-08
618.3904,-0.01419531,-6.262231E-09,NaN,-0.8675237,-1.335064E-07,NaN,-1.564489,-3.982521E-07,NaN,-1.888176,1.822654E-05,0.1219017,7.012819E-08,NaN,NaN,-0.1134564,-9.778963E-11,-2.746278E-07,-1.115304E-07,-1.120632E-08,-2.622604E-08
618.4059,-0.01419679,-6.261438E-09,NaN,-0.8669682,-1.33507E-07,NaN,-1.564834,-3.98487E-07,NaN,-1.884769,1.822704E-05,0.1175512,7.036465E-08,NaN,NaN,-0.1138189,-9.313302E-11,-2.748141E-07,-1.115317E-07,-1.120632E-08,-2.861022E-08
618.4205,-0.01419855,-6.260644E-09,NaN,-0.8663845,-1.335077E-07,NaN,-1.565096,-3.987201E-07,NaN,-1.881249,1.822755E-05,0.1133144,7.059923E-08,NaN,NaN,-0.1141744,-8.84764E-11,-2.740318E-07,-1.115329E-07,-6.437952E-09,-2.622604E-08
618.4351,-0.01419855,-6.260644E-09,NaN,-0.8663845,-1.335077E-07,NaN,-1.565096,-3.987201E-07,NaN,-1.881249,1.822755E-05,0.1133144,7.059923E-08,NaN,NaN,-0.1141744,-8.84764E-11,-2.740318E-07,-1.115329E-07,-6.437952E-09,-2.622604E-08
618.4492,-0.01420053,-6.25985E-09,NaN,-0.865786,-1.335084E-07,NaN,-1.565316,-3.989484E-07,NaN,-1.877699,1.822804E-05,0.1091755,7.082913E-08,NaN,NaN,-0.1145229,-7.916318E-11,-2.718711E-07,-1.115341E-07,-8.822138E-09,-2.861022E-08
618.4645,-0.0142029,-6.259057E-09,NaN,-0.8651117,-1.33509E-07,NaN,-1.565813,-3.99175E-07,NaN,-1.873581,1.822855E-05,0.1035679,7.105728E-08,NaN,NaN,-0.1149939,-7.450656E-11,-2.660969E-07,-1.115353E-07,-1.359051E-08,-2.622604E-08
618.4813,-0.01420565,-6.258263E-09,NaN,-0.8643937,-1.335097E-07,NaN,-1.566174,-3.993971E-07,NaN,-1.869217,1.822904E-05,0.0980336,7.128087E-08,NaN,NaN,-0.1154558,-6.519334E-11,-2.652029E-07,-1.115365E-07,-1.59747E-08,-2.861022E-08
618.4944,-0.01420565,-6.258263E-09,NaN,-0.8643937,-1.335097E-07,NaN,-1.566174,-3.993971E-07,NaN,-1.869217,1.822904E-05,0.0980336,7.128087E-08,NaN,NaN,-0.1154558,-6.519334E-11,-2.652029E-07,-1.115365E-07,-1.59747E-08,-2.861022E-08
618.5084,-0.01420872,-6.257469E-09,NaN,-0.8636518,-1.335104E-07,NaN,-1.566455,-3.996175E-07,NaN,-1.864763,1.822955E-05,0.09263466,7.150283E-08,NaN,NaN,-0.1159085,-6.053672E-11,-2.634147E-07,-1.115376E-07,-1.359051E-08,-2.622604E-08
618.5228,-0.01421203,-6.256675E-09,NaN,-0.8628986,-1.33511E-07,NaN,-1.566693,-3.998335E-07,NaN,-1.860297,1.823004E-05,0.08735546,7.172036E-08,NaN,NaN,-0.1163525,-5.12235E-11,-2.602482E-07,-1.115388E-07,-8.822139E-09,-2.861022E-08
618.5375,-0.01421203,-6.256675E-09,NaN,-0.8628986,-1.33511E-07,NaN,-1.566693,-3.998335E-07,NaN,-1.860297,1.823004E-05,0.08735546,7.172036E-08,NaN,NaN,-0.1163525,-5.12235E-11,-2.602482E-07,-1.115388E-07,-8.822139E-09,-2.861022E-08
618.5513,-0.01421574,-6.255881E-09,NaN,-0.8620725,-1.335117E-07,NaN,-1.567186,-4.00048E-07,NaN,-1.855281,1.823055E-05,0.08062413,7.193638E-08,NaN,NaN,-0.1169171,-4.656689E-11,-2.54623E-07,-1.1154E-07,-1.359051E-08,-2.622604E-08
618.5666,-0.01421983,-6.255087E-09,NaN,-0.861205,-1.335123E-07,NaN,-1.567542,-4.002582E-07,NaN,-1.850033,1.823105E-05,0.07399996,7.21481E-08,NaN,NaN,-0.1174706,-3.725366E-11,-2.522202E-07,-1.115412E-07,-1.59747E-08,-2.861022E-08
618.5814,-0.01422423,-6.254293E-09,NaN,-0.8603159,-1.33513E-07,NaN,-1.567821,-4.00467E-07,NaN,-1.844709,1.823155E-05,0.06753169,7.23584E-08,NaN,NaN,-0.1180134,-3.259705E-11,-2.478058E-07,-1.115424E-07,-1.835888E-08,-2.622604E-08
618.5958,-0.01422423,-6.254293E-09,NaN,-0.8603159,-1.33513E-07,NaN,-1.567821,-4.00467E-07,NaN,-1.844709,1.823155E-05,0.06753169,7.23584E-08,NaN,NaN,-0.1180134,-3.259705E-11,-2.478058E-07,-1.115424E-07,-1.835888E-08,-2.622604E-08
618.6098,-0.01422908,-6.253498E-09,NaN,-0.8593481,-1.335136E-07,NaN,-1.568318,-4.006716E-07,NaN,-1.83881,1.823205E-05,0.05963726,7.256452E-08,NaN,NaN,-0.1186748,-2.328382E-11,-2.39964E-07,-1.115435E-07,-1.835888E-08,-2.861022E-08
618.625,-0.01423436,-6.252704E-09,NaN,-0.858336,-1.335143E-07,NaN,-1.568674,-4.008749E-07,NaN,-1.832674,1.823255E-05,0.05188519,7.276934E-08,NaN,NaN,-0.1193234,-1.862721E-11,-2.36397E-07,-1.115447E-07,-2.074307E-08,-2.622604E-08
618.6399,-0.01423436,-6.252704E-09,NaN,-0.858336,-1.335143E-07,NaN,-1.568674,-4.008749E-07,NaN,-1.832674,1.823255E-05,0.05188519,7.276934E-08,NaN,NaN,-0.1193234,-1.862721E-11,-2.36397E-07,-1.115447E-07,-2.074307E-08,-2.622604E-08
618.6536,-0.01423998,-6.251909E-09,NaN,-0.8573012,-1.335149E-07,NaN,-1.568949,-4.010741E-07,NaN,-1.826465,1.823305E-05,0.04431169,7.297007E-08,NaN,NaN,-0.1199592,-1.397059E-11,-2.318801E-07,-1.115459E-07,-2.551144E-08,-2.861022E-08
618.6692,-0.01424585,-6.251114E-09,NaN,-0.856257,-1.335155E-07,NaN,-1.569178,-4.012721E-07,NaN,-1.820266,1.823355E-05,0.03690069,7.316961E-08,NaN,NaN,-0.1205825,-9.313982E-12,-2.259895E-07,-1.11547E-07,-2.789562E-08,-2.622604E-08
618.6838,-0.01425213,-6.250319E-09,NaN,-0.8551424,-1.335162E-07,NaN,-1.569611,-4.014661E-07,NaN,-1.81354,1.823405E-05,0.02807295,7.336516E-08,NaN,NaN,-0.1213231,-4.657369E-12,-2.16839E-07,-1.115482E-07,-2.789562E-08,-2.861022E-08
618.6984,-0.01425213,-6.250319E-09,NaN,-0.8551424,-1.335162E-07,NaN,-1.569611,-4.014661E-07,NaN,-1.81354,1.823405E-05,0.02807295,7.336516E-08,NaN,NaN,-0.1213231,-4.657369E-12,-2.16839E-07,-1.115482E-07,-2.789562E-08,-2.861022E-08
618.7134,-0.01425878,-6.249524E-09,NaN,-0.8539892,-1.335168E-07,NaN,-1.569913,-4.016591E-07,NaN,-1.806607,1.823456E-05,0.01941569,7.355964E-08,NaN,NaN,-0.1220491,-7.563394E-16,-2.097703E-07,-1.115493E-07,-3.266399E-08,-2.622604E-08
618.7276,-0.01426574,-6.248729E-09,NaN,-0.8528174,-1.335175E-07,NaN,-1.570142,-4.018482E-07,NaN,-1.799622,1.823506E-05,0.01095217,7.375024E-08,NaN,NaN,-0.122761,4.655856E-12,-2.011276E-07,-1.115505E-07,-3.027981E-08,-2.861022E-08
618.7422,-0.01427292,-6.247934E-09,NaN,-0.8516394,-1.335181E-07,NaN,-1.570327,-4.020362E-07,NaN,-1.792662,1.823556E-05,0.002667846,7.393984E-08,NaN,NaN,-0.1234588,9.312469E-12,-1.921869E-07,-1.115516E-07,-2.789562E-08,-2.622604E-08
618.7568,-0.01427292,-6.247934E-09,NaN,-0.8516394,-1.335181E-07,NaN,-1.570327,-4.020362E-07,NaN,-1.792662,1.823556E-05,0.002667846,7.393984E-08,NaN,NaN,-0.1234588,9.312469E-12,-1.921869E-07,-1.115516E-07,-2.789562E-08,-2.622604E-08
618.7739,-0.01428048,-6.247138E-09,NaN,-0.8503935,-1.335187E-07,NaN,-1.570646,-4.022205E-07,NaN,-1.78519,1.823606E-05,-0.007036963,7.412566E-08,NaN,NaN,-0.1242724,1.862569E-11,-1.794278E-07,-1.115527E-07,-2.789562E-08,-2.861022E-08
618.7869,-0.01428841,-6.246343E-09,NaN,-0.8491112,-1.335194E-07,NaN,-1.570711,-4.024039E-07,NaN,-1.777523,1.823656E-05,-0.01660505,7.431058E-08,NaN,NaN,-0.1250701,2.328231E-11,-1.76075E-07,-1.115539E-07,-2.312725E-08,-2.622604E-08
618.8006,-0.01429662,-6.245547E-09,NaN,-0.8478123,-1.3352E-07,NaN,-1.570618,-4.025836E-07,NaN,-1.769817,1.823706E-05,-0.02595244,7.449181E-08,NaN,NaN,-0.1258522,3.259553E-11,-1.700401E-07,-1.11555E-07,-3.027981E-08,-2.861022E-08
618.8157,-0.01429662,-6.245547E-09,NaN,-0.8478123,-1.3352E-07,NaN,-1.570618,-4.025836E-07,NaN,-1.769817,1.823706E-05,-0.02595244,7.449181E-08,NaN,NaN,-0.1258522,3.259553E-11,-1.700401E-07,-1.11555E-07,-3.027981E-08,-2.861022E-08
618.8289,-0.01430463,-6.244751E-09,NaN,-0.8465093,-1.335206E-07,NaN,-1.570485,-4.027597E-07,NaN,-1.762147,1.823756E-05,-0.03506974,7.46694E-08,NaN,NaN,-0.126618,3.725214E-11,-1.616581E-07,-1.115561E-07,-3.266399E-08,-2.622604E-08
618.8443,-0.01431255,-6.243956E-09,NaN,-0.8452095,-1.335212E-07,NaN,-1.570381,-4.02935E-07,NaN,-1.754549,1.823806E-05,-0.04397292,7.484626E-08,NaN,NaN,-0.1273689,4.656537E-11,-1.499235E-07,-1.115573E-07,-2.789562E-08,-2.861022E-08
618.8586,-0.01431255,-6.243956E-09,NaN,-0.8452095,-1.335212E-07,NaN,-1.570381,-4.02935E-07,NaN,-1.754549,1.823806E-05,-0.04397292,7.484626E-08,NaN,NaN,-0.1273689,4.656537E-11,-1.499235E-07,-1.115573E-07,-2.789562E-08,-2.861022E-08
618.8726,-0.01432041,-6.243159E-09,NaN,-0.8439177,-1.335219E-07,NaN,-1.570325,-4.031068E-07,NaN,-1.747041,1.823856E-05,-0.05268275,7.501958E-08,NaN,NaN,-0.1281049,5.122198E-11,-1.372575E-07,-1.115584E-07,-3.981655E-08,-2.622604E-08
618.8881,-0.01432825,-6.242363E-09,NaN,-0.8426364,-1.335225E-07,NaN,-1.570305,-4.03278E-07,NaN,-1.739631,1.823906E-05,-0.06121477,7.519225E-08,NaN,NaN,-0.1288265,5.587859E-11,-1.228034E-07,-1.115595E-07,-3.743236E-08,-2.861022E-08
618.9026,-0.01433589,-6.241567E-09,NaN,-0.8414367,-1.335231E-07,NaN,-1.570155,-4.034457E-07,NaN,-1.732896,1.823958E-05,-0.06801566,7.536152E-08,NaN,NaN,-0.1294047,5.122198E-11,-1.154273E-07,-1.115606E-07,-3.743236E-08,-2.622604E-08
618.9173,-0.01433589,-6.241567E-09,NaN,-0.8414367,-1.335231E-07,NaN,-1.570155,-4.034457E-07,NaN,-1.732896,1.823958E-05,-0.06801566,7.536152E-08,NaN,NaN,-0.1294047,5.122198E-11,-1.154273E-07,-1.115606E-07,-3.743236E-08,-2.622604E-08
618.9313,-0.01434328,-6.240771E-09,NaN,-0.8402928,-1.335237E-07,NaN,-1.570108,-4.036129E-07,NaN,-1.726538,1.824007E-05,-0.07467631,7.553022E-08,NaN,NaN,-0.1299715,6.053521E-11,-1.046985E-07,-1.115617E-07,-3.981655E-08,-2.861022E-08
618.9465,-0.01435045,-6.239974E-09,NaN,-0.8391884,-1.335244E-07,NaN,-1.570091,-4.037767E-07,NaN,-1.720412,1.824058E-05,-0.08121501,7.569554E-08,NaN,NaN,-0.1305273,6.519182E-11,-9.337357E-08,-1.115628E-07,-3.981655E-08,-2.622604E-08
618.9612,-0.01435744,-6.239177E-09,NaN,-0.8381133,-1.33525E-07,NaN,-1.570082,-4.0394E-07,NaN,-1.714448,1.824107E-05,-0.08762686,7.586036E-08,NaN,NaN,-0.1310721,7.450505E-11,-8.279375E-08,-1.115639E-07,-4.696911E-08,-2.861022E-08
618.9758,-0.01435744,-6.239177E-09,NaN,-0.8381133,-1.33525E-07,NaN,-1.570082,-4.0394E-07,NaN,-1.714448,1.824107E-05,-0.08762686,7.586036E-08,NaN,NaN,-0.1310721,7.450505E-11,-8.279375E-08,-1.115639E-07,-4.696911E-08,-2.861022E-08
618.9897,-0.0143641,-6.23838E-09,NaN,-0.8371304,-1.335256E-07,NaN,-1.569955,-4.041E-07,NaN,-1.709179,1.824159E-05,-0.09235628,7.602188E-08,NaN,NaN,-0.131477,6.984843E-11,-7.96645E-08,-1.11565E-07,-4.696911E-08,-2.622604E-08
619.0051,-0.01437042,-6.237584E-09,NaN,-0.8362088,-1.335262E-07,NaN,-1.569882,-4.042567E-07,NaN,-1.704288,1.824209E-05,-0.09699851,7.618016E-08,NaN,NaN,-0.1318739,7.916166E-11,-7.325701E-08,-1.115661E-07,-3.981655E-08,-2.861022E-08
619.0198,-0.01437042,-6.237584E-09,NaN,-0.8362088,-1.335262E-07,NaN,-1.569882,-4.042567E-07,NaN,-1.704288,1.824209E-05,-0.09699851,7.618016E-08,NaN,NaN,-0.1318739,7.916166E-11,-7.325701E-08,-1.115661E-07,-3.981655E-08,-2.861022E-08
619.0337,-0.01437644,-6.236787E-09,NaN,-0.8353292,-1.335268E-07,NaN,-1.56983,-4.044131E-07,NaN,-1.699621,1.82426E-05,-0.1015542,7.633808E-08,NaN,NaN,-0.132263,7.450504E-11,-6.707302E-08,-1.115672E-07,-4.220074E-08,-2.622604E-08
619.0493,-0.01438205,-6.23599E-09,NaN,-0.8345487,-1.335274E-07,NaN,-1.569684,-4.045664E-07,NaN,-1.695672,1.82431E-05,-0.1044705,7.649283E-08,NaN,NaN,-0.1325153,8.381826E-11,-6.796709E-08,-1.115683E-07,-4.458493E-08,-2.861022E-08
619.0637,-0.01438724,-6.235192E-09,NaN,-0.8338328,-1.33528E-07,NaN,-1.569588,-4.047193E-07,NaN,-1.692102,1.824361E-05,-0.1073355,7.66473E-08,NaN,NaN,-0.1327626,7.916165E-11,-6.602994E-08,-1.115694E-07,-4.458493E-08,-2.622604E-08
619.0793,-0.01438724,-6.235192E-09,NaN,-0.8338328,-1.33528E-07,NaN,-1.569588,-4.047193E-07,NaN,-1.692102,1.824361E-05,-0.1073355,7.66473E-08,NaN,NaN,-0.1327626,7.916165E-11,-6.602994E-08,-1.115694E-07,-4.458493E-08,-2.622604E-08
619.0931,-0.01439208,-6.234395E-09,NaN,-0.83316,-1.335286E-07,NaN,-1.569514,-4.048691E-07,NaN,-1.688748,1.824411E-05,-0.1101483,7.679866E-08,NaN,NaN,-0.133005,8.847487E-11,-6.327323E-08,-1.115704E-07,-4.458493E-08,-2.861022E-08
619.1077,-0.01439667,-6.233596E-09,NaN,-0.8325169,-1.335292E-07,NaN,-1.569448,-4.051389E-07,NaN,-1.685525,1.824461E-05,-0.1129071,7.706999E-08,NaN,NaN,-0.1332427,9.313149E-11,-5.962244E-08,-1.115715E-07,-4.458493E-08,-2.622604E-08
619.1222,-0.01440085,-6.232797E-09,NaN,-0.8319643,-1.335298E-07,NaN,-1.569298,-4.054033E-07,NaN,-1.682965,1.824512E-05,-0.1140653,7.733593E-08,NaN,NaN,-0.1333465,9.313149E-11,-6.386927E-08,-1.115726E-07,-4.696911E-08,-2.861022E-08
619.1367,-0.01440085,-6.232797E-09,NaN,-0.8319643,-1.335298E-07,NaN,-1.569298,-4.054033E-07,NaN,-1.682965,1.824512E-05,-0.1140653,7.733593E-08,NaN,NaN,-0.1333465,9.313149E-11,-6.386927E-08,-1.115726E-07,-4.696911E-08,-2.861022E-08
619.1506,-0.01440465,-6.231998E-09,NaN,-0.8314699,-1.335303E-07,NaN,-1.569191,-4.054088E-07,NaN,-1.680746,1.824563E-05,-0.1152051,7.734293E-08,NaN,NaN,-0.1334482,9.313149E-11,-6.565741E-08,-1.115739E-07,-4.458493E-08,-2.622604E-08
619.166,-0.01440814,-6.2312E-09,NaN,-0.8310137,-1.335307E-07,NaN,-1.569101,-4.054056E-07,NaN,-1.678714,1.824614E-05,-0.1163257,7.734125E-08,NaN,NaN,-0.133548,8.847487E-11,-6.662599E-08,-1.115753E-07,-4.458493E-08,-2.861022E-08
619.1819,-0.01441137,-6.230401E-09,NaN,-0.8305832,-1.335312E-07,NaN,-1.56902,-4.053995E-07,NaN,-1.67679,1.824665E-05,-0.1174252,7.733668E-08,NaN,NaN,-0.1336458,8.381826E-11,-6.68495E-08,-1.115767E-07,-4.220074E-08,-2.622604E-08
619.1954,-0.01441137,-6.230401E-09,NaN,-0.8305832,-1.335312E-07,NaN,-1.56902,-4.053995E-07,NaN,-1.67679,1.824665E-05,-0.1174252,7.733668E-08,NaN,NaN,-0.1336458,8.381826E-11,-6.68495E-08,-1.115767E-07,-4.220074E-08,-2.622604E-08
619.209,-0.01441423,-6.229603E-09,NaN,-0.8302397,-1.335317E-07,NaN,-1.568864,-4.053935E-07,NaN,-1.675507,1.824716E-05,-0.1169596,7.733212E-08,NaN,NaN,-0.1336124,8.381826E-11,-7.556668E-08,-1.115781E-07,-3.504818E-08,-2.861022E-08
619.2243,-0.01441671,-6.228804E-09,NaN,-0.8299514,-1.335322E-07,NaN,-1.568746,-4.053874E-07,NaN,-1.674545,1.824766E-05,-0.1165065,7.732755E-08,NaN,NaN,-0.1335796,8.381826E-11,-8.108011E-08,-1.115795E-07,-3.266399E-08,-2.622604E-08
619.2392,-0.01441671,-6.228804E-09,NaN,-0.8299514,-1.335322E-07,NaN,-1.568746,-4.053874E-07,NaN,-1.674545,1.824766E-05,-0.1165065,7.732755E-08,NaN,NaN,-0.1335796,8.381826E-11,-8.108011E-08,-1.115795E-07,-3.266399E-08,-2.622604E-08
619.2531,-0.01441888,-6.228005E-09,NaN,-0.8296985,-1.335327E-07,NaN,-1.568644,-4.053813E-07,NaN,-1.673751,1.824817E-05,-0.1160648,7.732298E-08,NaN,NaN,-0.1335475,7.916164E-11,-8.525244E-08,-1.115809E-07,-3.743236E-08,-2.861022E-08
619.2686,-0.01442062,-6.227206E-09,NaN,-0.8295379,-1.335332E-07,NaN,-1.568475,-4.05378E-07,NaN,-1.673618,1.824868E-05,-0.1140893,7.732123E-08,NaN,NaN,-0.1333868,7.450503E-11,-9.709886E-08,-1.115823E-07,-3.743236E-08,-2.622604E-08
619.2832,-0.01442194,-6.226407E-09,NaN,-0.8294349,-1.335337E-07,NaN,-1.568341,-4.053747E-07,NaN,-1.67381,1.824918E-05,-0.1121555,7.731942E-08,NaN,NaN,-0.1332292,6.984841E-11,-1.061886E-07,-1.115836E-07,-3.266399E-08,-2.861022E-08
619.2978,-0.01442194,-6.226407E-09,NaN,-0.8294349,-1.335337E-07,NaN,-1.568341,-4.053747E-07,NaN,-1.67381,1.824918E-05,-0.1121555,7.731942E-08,NaN,NaN,-0.1332292,6.984841E-11,-1.061886E-07,-1.115836E-07,-3.266399E-08,-2.861022E-08
619.3118,-0.01442295,-6.225608E-09,NaN,-0.829368,-1.335342E-07,NaN,-1.568222,-4.053741E-07,NaN,-1.674162,1.824968E-05,-0.1102617,7.732038E-08,NaN,NaN,-0.1330747,7.450503E-11,-1.131921E-07,-1.11585E-07,-3.027981E-08,-2.622604E-08
619.3271,-0.01442384,-6.224808E-09,NaN,-0.8293236,-1.335347E-07,NaN,-1.568111,-4.053734E-07,NaN,-1.674591,1.825019E-05,-0.1084055,7.732122E-08,NaN,NaN,-0.1329232,6.984841E-11,-1.194506E-07,-1.115864E-07,-3.027981E-08,-2.861022E-08
619.3418,-0.01442451,-6.224009E-09,NaN,-0.8293611,-1.335352E-07,NaN,-1.567928,-4.053755E-07,NaN,-1.675631,1.825069E-05,-0.1050416,7.732478E-08,NaN,NaN,-0.1326454,7.450503E-11,-1.333087E-07,-1.115877E-07,-3.266399E-08,-2.622604E-08
619.3584,-0.01442451,-6.224009E-09,NaN,-0.8293611,-1.335352E-07,NaN,-1.567928,-4.053755E-07,NaN,-1.675631,1.825069E-05,-0.1050416,7.732478E-08,NaN,NaN,-0.1326454,7.450503E-11,-1.333087E-07,-1.115877E-07,-3.266399E-08,-2.622604E-08
619.3724,-0.01442506,-6.223209E-09,NaN,-0.8294489,-1.335357E-07,NaN,-1.567777,-4.053774E-07,NaN,-1.676959,1.82512E-05,-0.1017457,7.732818E-08,NaN,NaN,-0.1323731,6.984841E-11,-1.437395E-07,-1.115891E-07,-3.504818E-08,-2.861022E-08
619.3857,-0.01442552,-6.222409E-09,NaN,-0.8295673,-1.335362E-07,NaN,-1.56764,-4.053819E-07,NaN,-1.678421,1.825169E-05,-0.09851604,7.733424E-08,NaN,NaN,-0.1321061,7.450503E-11,-1.529782E-07,-1.115905E-07,-3.266399E-08,-2.622604E-08
619.4004,-0.01442594,-6.221609E-09,NaN,-0.8297042,-1.335367E-07,NaN,-1.567509,-4.053862E-07,NaN,-1.67994,1.82522E-05,-0.0953499,7.734009E-08,NaN,NaN,-0.1318443,6.984841E-11,-1.605033E-07,-1.115918E-07,-3.027981E-08,-2.861022E-08
619.4151,-0.01442594,-6.221609E-09,NaN,-0.8297042,-1.335367E-07,NaN,-1.567509,-4.053862E-07,NaN,-1.67994,1.82522E-05,-0.0953499,7.734009E-08,NaN,NaN,-0.1318443,6.984841E-11,-1.605033E-07,-1.115918E-07,-3.027981E-08,-2.861022E-08
619.4286,-0.0144262,-6.22081E-09,NaN,-0.8299211,-1.335372E-07,NaN,-1.5673,-4.053932E-07,NaN,-1.68205,1.825271E-05,-0.09069861,7.734855E-08,NaN,NaN,-0.1314584,6.51918E-11,-1.76224E-07,-1.115932E-07,-3.266399E-08,-2.622604E-08
619.444,-0.01442633,-6.220009E-09,NaN,-0.8301864,-1.335377E-07,NaN,-1.567124,-4.053998E-07,NaN,-1.684431,1.825322E-05,-0.08614045,7.735676E-08,NaN,NaN,-0.13108,6.053518E-11,-1.875489E-07,-1.115945E-07,-3.266399E-08,-2.861022E-08
619.4586,-0.01442633,-6.220009E-09,NaN,-0.8301864,-1.335377E-07,NaN,-1.567124,-4.053998E-07,NaN,-1.684431,1.825322E-05,-0.08614045,7.735676E-08,NaN,NaN,-0.13108,6.053518E-11,-1.875489E-07,-1.115945E-07,-3.266399E-08,-2.861022E-08
619.4727,-0.0144264,-6.219209E-09,NaN,-0.8304804,-1.335382E-07,NaN,-1.566961,-4.054091E-07,NaN,-1.686929,1.825372E-05,-0.08167298,7.736753E-08,NaN,NaN,-0.130709,6.51918E-11,-1.966386E-07,-1.115958E-07,-3.266399E-08,-2.622604E-08
619.4881,-0.01442628,-6.218409E-09,NaN,-0.8308601,-1.335387E-07,NaN,-1.566714,-4.054181E-07,NaN,-1.690042,1.825422E-05,-0.07574286,7.7378E-08,NaN,NaN,-0.130216,6.053518E-11,-2.132534E-07,-1.115972E-07,-3.027981E-08,-2.861022E-08
619.5027,-0.01442603,-6.217609E-09,NaN,-0.831291,-1.335392E-07,NaN,-1.566502,-4.054295E-07,NaN,-1.693431,1.825472E-05,-0.06993079,7.7391E-08,NaN,NaN,-0.1297327,6.51918E-11,-2.244665E-07,-1.115985E-07,-2.551144E-08,-2.622604E-08
619.5176,-0.01442603,-6.217609E-09,NaN,-0.831291,-1.335392E-07,NaN,-1.566502,-4.054295E-07,NaN,-1.693431,1.825472E-05,-0.06993079,7.7391E-08,NaN,NaN,-0.1297327,6.51918E-11,-2.244665E-07,-1.115985E-07,-2.551144E-08,-2.622604E-08
619.5313,-0.01442571,-6.216808E-09,NaN,-0.8317515,-1.335396E-07,NaN,-1.566303,-4.054407E-07,NaN,-1.696932,1.825523E-05,-0.06423382,7.740366E-08,NaN,NaN,-0.1292589,6.053518E-11,-2.341523E-07,-1.115998E-07,-2.551144E-08,-2.861022E-08
619.5472,-0.01442532,-6.216007E-09,NaN,-0.8322282,-1.335401E-07,NaN,-1.566111,-4.054543E-07,NaN,-1.700465,1.825573E-05,-0.05864801,7.74188E-08,NaN,NaN,-0.1287943,6.51918E-11,-2.419381E-07,-1.116011E-07,-2.551144E-08,-2.622604E-08
619.5615,-0.01442477,-6.215207E-09,NaN,-0.8327821,-1.335406E-07,NaN,-1.565817,-4.054675E-07,NaN,-1.704562,1.825623E-05,-0.05161494,7.743355E-08,NaN,NaN,-0.1282095,6.984841E-11,-2.563177E-07,-1.116024E-07,-3.027981E-08,-2.861022E-08
619.576,-0.01442477,-6.215207E-09,NaN,-0.8327821,-1.335406E-07,NaN,-1.565817,-4.054675E-07,NaN,-1.704562,1.825623E-05,-0.05161494,7.743355E-08,NaN,NaN,-0.1282095,6.984841E-11,-2.563177E-07,-1.116024E-07,-3.027981E-08,-2.861022E-08
619.5901,-0.0144241,-6.214406E-09,NaN,-0.8333812,-1.335411E-07,NaN,-1.56556,-4.054832E-07,NaN,-1.708902,1.825672E-05,-0.04472135,7.745074E-08,NaN,NaN,-0.1276362,7.450503E-11,-2.652212E-07,-1.116038E-07,-3.266399E-08,-2.622604E-08
619.6057,-0.01442335,-6.213605E-09,NaN,-0.8340055,-1.335416E-07,NaN,-1.565317,-4.054984E-07,NaN,-1.713332,1.825723E-05,-0.03796433,7.74675E-08,NaN,NaN,-0.1270742,6.984841E-11,-2.73007E-07,-1.116051E-07,-3.743236E-08,-2.861022E-08
619.62,-0.01442255,-6.212804E-09,NaN,-0.8346425,-1.335421E-07,NaN,-1.565081,-4.055161E-07,NaN,-1.717776,1.825773E-05,-0.03133907,7.748667E-08,NaN,NaN,-0.1265231,7.450503E-11,-2.800478E-07,-1.116064E-07,-3.981655E-08,-2.622604E-08
619.6367,-0.01442255,-6.212804E-09,NaN,-0.8346425,-1.335421E-07,NaN,-1.565081,-4.055161E-07,NaN,-1.717776,1.825773E-05,-0.03133907,7.748667E-08,NaN,NaN,-0.1265231,7.450503E-11,-2.800478E-07,-1.116064E-07,-3.981655E-08,-2.622604E-08
619.6521,-0.01442159,-6.212003E-09,NaN,-0.8353537,-1.335425E-07,NaN,-1.564724,-4.055361E-07,NaN,-1.722769,1.825823E-05,-0.02328023,7.75082E-08,NaN,NaN,-0.1258536,7.916164E-11,-2.910002E-07,-1.116077E-07,-3.743236E-08,-2.861022E-08
619.6638,-0.01442051,-6.211202E-09,NaN,-0.8361077,-1.33543E-07,NaN,-1.56441,-4.055556E-07,NaN,-1.72799,1.825873E-05,-0.01538079,7.752921E-08,NaN,NaN,-0.1251972,8.381826E-11,-2.970538E-07,-1.116089E-07,-3.266399E-08,-2.622604E-08
619.6785,-0.01442051,-6.211202E-09,NaN,-0.8361077,-1.33543E-07,NaN,-1.56441,-4.055556E-07,NaN,-1.72799,1.825873E-05,-0.01538079,7.752921E-08,NaN,NaN,-0.1251972,8.381826E-11,-2.970538E-07,-1.116089E-07,-3.266399E-08,-2.622604E-08
619.6923,-0.01441935,-6.210401E-09,NaN,-0.8368846,-1.335435E-07,NaN,-1.564113,-4.055774E-07,NaN,-1.733289,1.825923E-05,-0.007638427,7.755254E-08,NaN,NaN,-0.1245536,7.916164E-11,-3.028373E-07,-1.116102E-07,-3.027981E-08,-2.861022E-08
619.7077,-0.01441793,-6.2096E-09,NaN,-0.8377414,-1.33544E-07,NaN,-1.563682,-4.055986E-07,NaN,-1.739161,1.825973E-05,0.001519805,7.757532E-08,NaN,NaN,-0.1237934,8.381826E-11,-3.089188E-07,-1.116115E-07,-3.504818E-08,-2.622604E-08
619.7222,-0.01441617,-6.208798E-09,NaN,-0.8386437,-1.335444E-07,NaN,-1.5633,-4.056222E-07,NaN,-1.74527,1.826023E-05,0.01049752,7.760045E-08,NaN,NaN,-0.123048,7.916164E-11,-3.117501E-07,-1.116128E-07,-3.504818E-08,-2.861022E-08
619.7367,-0.01441617,-6.208798E-09,NaN,-0.8386437,-1.335444E-07,NaN,-1.5633,-4.056222E-07,NaN,-1.74527,1.826023E-05,0.01049752,7.760045E-08,NaN,NaN,-0.123048,7.916164E-11,-3.117501E-07,-1.116128E-07,-3.504818E-08,-2.861022E-08
619.7509,-0.01441411,-6.207996E-09,NaN,-0.8395701,-1.335449E-07,NaN,-1.562938,-4.056453E-07,NaN,-1.751452,1.826073E-05,0.0192962,7.762499E-08,NaN,NaN,-0.1223173,7.450503E-11,-3.13175E-07,-1.116141E-07,-3.504818E-08,-2.622604E-08
619.7663,-0.01441181,-6.207195E-09,NaN,-0.8405071,-1.335454E-07,NaN,-1.562583,-4.056705E-07,NaN,-1.757628,1.826123E-05,0.02792294,7.765179E-08,NaN,NaN,-0.1216009,6.984841E-11,-3.139107E-07,-1.116153E-07,-3.981655E-08,-2.861022E-08
619.7809,-0.0144114,-6.206393E-09,NaN,-0.8406152,-1.335459E-07,NaN,-1.564248,-4.056952E-07,NaN,-1.756866,1.826172E-05,0.01750153,7.767797E-08,NaN,NaN,-0.1224501,6.053519E-11,-2.849466E-07,-1.116166E-07,-3.981655E-08,-2.622604E-08
619.7953,-0.0144114,-6.206393E-09,NaN,-0.8406152,-1.335459E-07,NaN,-1.564248,-4.056952E-07,NaN,-1.756866,1.826172E-05,0.01750153,7.767797E-08,NaN,NaN,-0.1224501,6.053519E-11,-2.849466E-07,-1.116166E-07,-3.981655E-08,-2.622604E-08
619.8094,-0.01441233,-6.205592E-09,NaN,-0.8402128,-1.335463E-07,NaN,-1.565107,-4.057221E-07,NaN,-1.752743,1.826221E-05,0.00735098,7.770637E-08,NaN,NaN,-0.1232827,5.587858E-11,-2.703062E-07,-1.116179E-07,-3.504818E-08,-2.861022E-08
619.8247,-0.01441429,-6.20479E-09,NaN,-0.839497,-1.335468E-07,NaN,-1.565583,-4.057483E-07,NaN,-1.746989,1.826269E-05,-0.002470201,7.773413E-08,NaN,NaN,-0.1240989,5.122196E-11,-2.555913E-07,-1.116191E-07,-3.266399E-08,-2.622604E-08
619.8395,-0.01441429,-6.20479E-09,NaN,-0.839497,-1.335468E-07,NaN,-1.565583,-4.057483E-07,NaN,-1.746989,1.826269E-05,-0.002470201,7.773413E-08,NaN,NaN,-0.1240989,5.122196E-11,-2.555913E-07,-1.116191E-07,-3.266399E-08,-2.622604E-08
619.8541,-0.01441726,-6.203988E-09,NaN,-0.8386605,-1.335473E-07,NaN,-1.565724,-4.057767E-07,NaN,-1.741036,1.826317E-05,-0.01046838,7.776408E-08,NaN,NaN,-0.1247698,5.122196E-11,-2.438194E-07,-1.116204E-07,-3.02798E-08,-2.861022E-08
619.8694,-0.01442103,-6.203187E-09,NaN,-0.8377531,-1.335477E-07,NaN,-1.565851,-4.058045E-07,NaN,-1.735015,1.826366E-05,-0.01829053,7.779335E-08,NaN,NaN,-0.1254275,4.656535E-11,-2.316004E-07,-1.116216E-07,-3.266399E-08,-2.622604E-08
619.8843,-0.01442541,-6.202385E-09,NaN,-0.836806,-1.335482E-07,NaN,-1.565965,-4.058315E-07,NaN,-1.728996,1.826414E-05,-0.02595493,7.782195E-08,NaN,NaN,-0.1260723,4.190874E-11,-2.204991E-07,-1.116229E-07,-3.02798E-08,-2.861022E-08
619.8986,-0.01442541,-6.202385E-09,NaN,-0.836806,-1.335482E-07,NaN,-1.565965,-4.058315E-07,NaN,-1.728996,1.826414E-05,-0.02595493,7.782195E-08,NaN,NaN,-0.1260723,4.190874E-11,-2.204991E-07,-1.116229E-07,-3.02798E-08,-2.861022E-08
619.9147,-0.01443022,-6.201584E-09,NaN,-0.8358387,-1.335487E-07,NaN,-1.566065,-4.058608E-07,NaN,-1.723019,1.826462E-05,-0.03346464,7.785273E-08,NaN,NaN,-0.1267045,4.190874E-11,-2.102173E-07,-1.116241E-07,-2.551143E-08,-2.622604E-08
619.929,-0.01443517,-6.200782E-09,NaN,-0.8349326,-1.335491E-07,NaN,-1.566024,-4.05895E-07,NaN,-1.717675,1.82651E-05,-0.03926015,7.788847E-08,NaN,NaN,-0.1271949,4.190874E-11,-2.040333E-07,-1.116253E-07,-2.789562E-08,-2.861022E-08
619.9425,-0.0144401,-6.199981E-09,NaN,-0.8340682,-1.335496E-07,NaN,-1.566035,-4.059284E-07,NaN,-1.712678,1.826558E-05,-0.04494849,7.792342E-08,NaN,NaN,-0.1276757,4.190874E-11,-1.96471E-07,-1.116266E-07,-2.789562E-08,-2.622604E-08
619.9572,-0.0144401,-6.199981E-09,NaN,-0.8340682,-1.335496E-07,NaN,-1.566035,-4.059284E-07,NaN,-1.712678,1.826558E-05,-0.04494849,7.792342E-08,NaN,NaN,-0.1276757,4.190874E-11,-1.96471E-07,-1.116266E-07,-2.789562E-08,-2.622604E-08
619.9711,-0.01444498,-6.199179E-09,NaN,-0.8332335,-1.3355E-07,NaN,-1.566065,-4.059611E-07,NaN,-1.707887,1.826606E-05,-0.05053046,7.795759E-08,NaN,NaN,-0.1281471,3.725213E-11,-1.891321E-07,-1.116278E-07,-2.551143E-08,-2.861022E-08
619.9863,-0.01444979,-6.198377E-09,NaN,-0.8324208,-1.335505E-07,NaN,-1.5661,-4.059958E-07,NaN,-1.703233,1.826654E-05,-0.05600376,7.799384E-08,NaN,NaN,-0.1286093,3.725213E-11,-1.821286E-07,-1.11629E-07,-2.789562E-08,-2.622604E-08
620.001,-0.01445436,-6.197576E-09,NaN,-0.8316946,-1.335509E-07,NaN,-1.566025,-4.060297E-07,NaN,-1.699254,1.826702E-05,-0.0598122,7.802928E-08,NaN,NaN,-0.128933,3.259552E-11,-1.800424E-07,-1.116302E-07,-2.312725E-08,-2.861022E-08
620.0154,-0.01445436,-6.197576E-09,NaN,-0.8316946,-1.335509E-07,NaN,-1.566025,-4.060297E-07,NaN,-1.699254,1.826702E-05,-0.0598122,7.802928E-08,NaN,NaN,-0.128933,3.259552E-11,-1.800424E-07,-1.116302E-07,-2.312725E-08,-2.861022E-08
620.0294,-0.01445865,-6.196775E-09,NaN,-0.8310251,-1.335514E-07,NaN,-1.565999,-4.060657E-07,NaN,-1.695633,1.82675E-05,-0.06355315,7.806676E-08,NaN,NaN,-0.1292505,3.259552E-11,-1.761681E-07,-1.116315E-07,-2.551143E-08,-2.622604E-08
620.0448,-0.01446269,-6.195974E-09,NaN,-0.8303936,-1.335518E-07,NaN,-1.565993,-4.061008E-07,NaN,-1.692217,1.826797E-05,-0.06722544,7.810342E-08,NaN,NaN,-0.1295617,3.259552E-11,-1.716978E-07,-1.116327E-07,-2.551143E-08,-2.861022E-08
620.0594,-0.01446269,-6.195974E-09,NaN,-0.8303936,-1.335518E-07,NaN,-1.565993,-4.061008E-07,NaN,-1.692217,1.826797E-05,-0.06722544,7.810342E-08,NaN,NaN,-0.1295617,3.259552E-11,-1.716978E-07,-1.116327E-07,-2.551143E-08,-2.861022E-08
620.0734,-0.01446635,-6.195173E-09,NaN,-0.8298576,-1.335523E-07,NaN,-1.565897,-4.06138E-07,NaN,-1.6895,1.826845E-05,-0.06927408,7.814209E-08,NaN,NaN,-0.1297375,3.259552E-11,-1.737839E-07,-1.116339E-07,-2.789562E-08,-2.622604E-08
620.0891,-0.01446963,-6.194372E-09,NaN,-0.829383,-1.335527E-07,NaN,-1.565849,-4.061743E-07,NaN,-1.687145,1.826892E-05,-0.07128974,7.817992E-08,NaN,NaN,-0.1299098,3.259552E-11,-1.732624E-07,-1.116351E-07,-2.789562E-08,-2.861022E-08
620.1033,-0.0144726,-6.193571E-09,NaN,-0.8289483,-1.335532E-07,NaN,-1.56582,-4.062126E-07,NaN,-1.684988,1.82694E-05,-0.07327035,7.821975E-08,NaN,NaN,-0.1300788,2.79389E-11,-1.722938E-07,-1.116363E-07,-3.02798E-08,-2.622604E-08
620.1194,-0.0144726,-6.193571E-09,NaN,-0.8289483,-1.335532E-07,NaN,-1.56582,-4.062126E-07,NaN,-1.684988,1.82694E-05,-0.07327035,7.821975E-08,NaN,NaN,-0.1300788,2.79389E-11,-1.722938E-07,-1.116363E-07,-3.02798E-08,-2.622604E-08
620.1321,-0.01447532,-6.192769E-09,NaN,-0.8285403,-1.335536E-07,NaN,-1.565799,-4.0625E-07,NaN,-1.682945,1.826988E-05,-0.07521369,7.825871E-08,NaN,NaN,-0.1302444,2.328229E-11,-1.704312E-07,-1.116375E-07,-2.551143E-08,-2.861022E-08
620.1477,-0.01447767,-6.191968E-09,NaN,-0.8282199,-1.335541E-07,NaN,-1.565695,-4.062894E-07,NaN,-1.681547,1.827036E-05,-0.07556938,7.829964E-08,NaN,NaN,-0.1302775,1.862568E-11,-1.757956E-07,-1.116386E-07,-2.789562E-08,-2.622604E-08
620.1618,-0.01447966,-6.191167E-09,NaN,-0.8279549,-1.335545E-07,NaN,-1.565631,-4.063279E-07,NaN,-1.680475,1.827084E-05,-0.07592379,7.833967E-08,NaN,NaN,-0.13031,1.396907E-11,-1.787013E-07,-1.116398E-07,-2.551143E-08,-2.861022E-08
620.1766,-0.01447966,-6.191167E-09,NaN,-0.8279549,-1.335545E-07,NaN,-1.565631,-4.063279E-07,NaN,-1.680475,1.827084E-05,-0.07592379,7.833967E-08,NaN,NaN,-0.13031,1.396907E-11,-1.787013E-07,-1.116398E-07,-2.551143E-08,-2.861022E-08
620.1904,-0.01448135,-6.190366E-09,NaN,-0.8277254,-1.33555E-07,NaN,-1.565584,-4.063684E-07,NaN,-1.679572,1.827132E-05,-0.07627486,7.838165E-08,NaN,NaN,-0.1303418,1.396907E-11,-1.802659E-07,-1.11641E-07,-2.551143E-08,-2.622604E-08
620.2067,-0.01448281,-6.189565E-09,NaN,-0.8275188,-1.335554E-07,NaN,-1.565544,-4.064079E-07,NaN,-1.678761,1.82718E-05,-0.07662044,7.842273E-08,NaN,NaN,-0.130373,9.312455E-12,-1.813835E-07,-1.116422E-07,-2.074306E-08,-2.861022E-08
620.2215,-0.01448392,-6.188764E-09,NaN,-0.8273965,-1.335558E-07,NaN,-1.565426,-4.064494E-07,NaN,-1.678575,1.827227E-05,-0.07541096,7.846574E-08,NaN,NaN,-0.1302742,9.312455E-12,-1.897282E-07,-1.116434E-07,-2.074306E-08,-2.622604E-08
620.2349,-0.01448392,-6.188764E-09,NaN,-0.8273965,-1.335558E-07,NaN,-1.565426,-4.064494E-07,NaN,-1.678575,1.827227E-05,-0.07541096,7.846574E-08,NaN,NaN,-0.1302742,9.312455E-12,-1.897282E-07,-1.116434E-07,-2.074306E-08,-2.622604E-08
620.2492,-0.01448481,-6.187963E-09,NaN,-0.8273268,-1.335563E-07,NaN,-1.565344,-4.0649E-07,NaN,-1.678695,1.827275E-05,-0.07423005,7.850782E-08,NaN,NaN,-0.1301774,4.655843E-12,-1.949436E-07,-1.116445E-07,-1.835888E-08,-2.861022E-08
620.2642,-0.01448557,-6.187163E-09,NaN,-0.8272899,-1.335567E-07,NaN,-1.565278,-4.065325E-07,NaN,-1.678966,1.827323E-05,-0.07307536,7.855181E-08,NaN,NaN,-0.1300825,4.655843E-12,-1.990414E-07,-1.116457E-07,-2.074306E-08,-2.622604E-08
620.2786,-0.01448557,-6.187163E-09,NaN,-0.8272899,-1.335567E-07,NaN,-1.565278,-4.065325E-07,NaN,-1.678966,1.827323E-05,-0.07307536,7.855181E-08,NaN,NaN,-0.1300825,4.655843E-12,-1.990414E-07,-1.116457E-07,-2.074306E-08,-2.622604E-08
620.2927,-0.01448615,-6.186362E-09,NaN,-0.8273411,-1.335572E-07,NaN,-1.565136,-4.06574E-07,NaN,-1.679886,1.827371E-05,-0.07039522,7.859484E-08,NaN,NaN,-0.1298601,-7.702172E-16,-2.088762E-07,-1.116469E-07,-2.074306E-08,-2.861022E-08
620.3079,-0.01448659,-6.185561E-09,NaN,-0.8274464,-1.335576E-07,NaN,-1.565031,-4.066174E-07,NaN,-1.681114,1.827418E-05,-0.06777216,7.863977E-08,NaN,NaN,-0.1296421,-7.702172E-16,-2.166248E-07,-1.11648E-07,-2.074306E-08,-2.622604E-08
620.3226,-0.01448695,-6.184761E-09,NaN,-0.8275847,-1.33558E-07,NaN,-1.564941,-4.066598E-07,NaN,-1.682487,1.827466E-05,-0.06520329,7.868373E-08,NaN,NaN,-0.1294284,-7.702172E-16,-2.223244E-07,-1.116492E-07,-1.835888E-08,-2.861022E-08
620.3371,-0.01448695,-6.184761E-09,NaN,-0.8275847,-1.33558E-07,NaN,-1.564941,-4.066598E-07,NaN,-1.682487,1.827466E-05,-0.06520329,7.868373E-08,NaN,NaN,-0.1294284,-7.702172E-16,-2.223244E-07,-1.116492E-07,-1.835888E-08,-2.861022E-08
620.3511,-0.01448726,-6.18396E-09,NaN,-0.8277427,-1.335585E-07,NaN,-1.564858,-4.067013E-07,NaN,-1.683924,1.827513E-05,-0.06268571,7.872674E-08,NaN,NaN,-0.1292188,-7.702172E-16,-2.271673E-07,-1.116503E-07,-1.359051E-08,-2.622604E-08
620.3668,-0.01448742,-6.18316E-09,NaN,-0.8279814,-1.335591E-07,NaN,-1.56469,-4.063972E-07,NaN,-1.685955,1.827561E-05,-0.05866615,7.842416E-08,NaN,NaN,-0.1288841,-9.313996E-12,-2.380079E-07,-1.116497E-07,-1.597469E-08,-2.861022E-08
620.3813,-0.01448746,-6.18236E-09,NaN,-0.8282689,-1.335592E-07,NaN,-1.564557,-4.062316E-07,NaN,-1.68826,1.827609E-05,-0.05472929,7.826007E-08,NaN,NaN,-0.1285559,-1.397061E-11,-2.46129E-07,-1.116487E-07,-1.120632E-08,-2.622604E-08
620.3958,-0.01448746,-6.18236E-09,NaN,-0.8282689,-1.335592E-07,NaN,-1.564557,-4.062316E-07,NaN,-1.68826,1.827609E-05,-0.05472929,7.826007E-08,NaN,NaN,-0.1285559,-1.397061E-11,-2.46129E-07,-1.116487E-07,-1.120632E-08,-2.622604E-08
620.4097,-0.01448742,-6.18156E-09,NaN,-0.8285852,-1.335592E-07,NaN,-1.564439,-4.061396E-07,NaN,-1.690686,1.827656E-05,-0.05087206,7.816963E-08,NaN,NaN,-0.1282341,-1.862722E-11,-2.525366E-07,-1.116475E-07,-8.822134E-09,-2.861022E-08
620.425,-0.01448733,-6.18076E-09,NaN,-0.8289179,-1.33559E-07,NaN,-1.564328,-4.060888E-07,NaN,-1.693154,1.827702E-05,-0.04709103,7.812039E-08,NaN,NaN,-0.1279186,-1.862722E-11,-2.574912E-07,-1.116463E-07,-4.053763E-09,-2.622604E-08
620.4398,-0.01448733,-6.18076E-09,NaN,-0.8289179,-1.33559E-07,NaN,-1.564328,-4.060888E-07,NaN,-1.693154,1.827702E-05,-0.04709103,7.812039E-08,NaN,NaN,-0.1279186,-1.862722E-11,-2.574912E-07,-1.116463E-07,-4.053763E-09,-2.622604E-08
620.4537,-0.0144871,-6.17996E-09,NaN,-0.8293284,-1.335586E-07,NaN,-1.564121,-4.060615E-07,NaN,-1.6962,1.827749E-05,-0.04182868,7.80946E-08,NaN,NaN,-0.12748,-2.328383E-11,-2.676985E-07,-1.11645E-07,7.146088E-10,-2.861022E-08
620.4691,-0.01448674,-6.17916E-09,NaN,-0.8297852,-1.335583E-07,NaN,-1.563951,-4.060459E-07,NaN,-1.699504,1.827796E-05,-0.03667324,7.808053E-08,NaN,NaN,-0.12705,-2.328383E-11,-2.748883E-07,-1.116436E-07,5.48298E-09,-2.622604E-08
620.4835,-0.01448631,-6.178361E-09,NaN,-0.8302685,-1.335579E-07,NaN,-1.563797,-4.06039E-07,NaN,-1.702912,1.827843E-05,-0.03162135,7.807513E-08,NaN,NaN,-0.1266284,-2.794045E-11,-2.81184E-07,-1.116423E-07,1.025135E-08,-2.861022E-08
620.4991,-0.01448631,-6.178361E-09,NaN,-0.8302685,-1.335579E-07,NaN,-1.563797,-4.06039E-07,NaN,-1.702912,1.827843E-05,-0.03162135,7.807513E-08,NaN,NaN,-0.1266284,-2.794045E-11,-2.81184E-07,-1.116423E-07,1.025135E-08,-2.861022E-08
620.5153,-0.01448571,-6.177562E-09,NaN,-0.8308353,-1.335579E-07,NaN,-1.56354,-4.058375E-07,NaN,-1.706922,1.827891E-05,-0.0251098,7.787515E-08,NaN,NaN,-0.1260858,-4.191028E-11,-2.907208E-07,-1.1164E-07,1.025135E-08,-2.622604E-08
620.5273,-0.01448499,-6.176762E-09,NaN,-0.831451,-1.335579E-07,NaN,-1.563324,-4.056708E-07,NaN,-1.711195,1.827939E-05,-0.01872957,7.771005E-08,NaN,NaN,-0.1255538,-6.053674E-11,-2.979851E-07,-1.116376E-07,7.867166E-09,-2.861022E-08
620.5419,-0.01448418,-6.175963E-09,NaN,-0.8320942,-1.335578E-07,NaN,-1.563123,-4.055186E-07,NaN,-1.715569,1.827987E-05,-0.012477,7.75594E-08,NaN,NaN,-0.1250322,-7.450657E-11,-3.038897E-07,-1.116352E-07,1.025135E-08,-2.622604E-08
620.5566,-0.01448418,-6.175963E-09,NaN,-0.8320942,-1.335578E-07,NaN,-1.563123,-4.055186E-07,NaN,-1.715569,1.827987E-05,-0.012477,7.75594E-08,NaN,NaN,-0.1250322,-7.450657E-11,-3.038897E-07,-1.116352E-07,1.025135E-08,-2.622604E-08
620.5704,-0.01448331,-6.175163E-09,NaN,-0.8327515,-1.335577E-07,NaN,-1.56293,-4.053749E-07,NaN,-1.719962,1.828035E-05,-0.006346988,7.741727E-08,NaN,NaN,-0.1245208,-8.847641E-11,-3.08509E-07,-1.116328E-07,1.025135E-08,-2.861022E-08
620.587,-0.01448229,-6.174364E-09,NaN,-0.8334838,-1.335575E-07,NaN,-1.562611,-4.052368E-07,NaN,-1.724908,1.828083E-05,0.001228782,7.728067E-08,NaN,NaN,-0.1238901,-1.024463E-10,-3.160201E-07,-1.116304E-07,1.263554E-08,-2.622604E-08
620.6003,-0.01448115,-6.173565E-09,NaN,-0.8342591,-1.335574E-07,NaN,-1.562337,-4.051013E-07,NaN,-1.730085,1.828131E-05,0.008653047,7.714669E-08,NaN,NaN,-0.1232718,-1.164161E-10,-3.206279E-07,-1.11628E-07,1.263554E-08,-2.861022E-08
620.615,-0.01448115,-6.173565E-09,NaN,-0.8342591,-1.335574E-07,NaN,-1.562337,-4.051013E-07,NaN,-1.730085,1.828131E-05,0.008653047,7.714669E-08,NaN,NaN,-0.1232718,-1.164161E-10,-3.206279E-07,-1.11628E-07,1.263554E-08,-2.861022E-08
620.6289,-0.01447993,-6.172764E-09,NaN,-0.8350575,-1.335568E-07,NaN,-1.562081,-4.052961E-07,NaN,-1.735341,1.828177E-05,0.0159286,7.734306E-08,NaN,NaN,-0.1226657,-1.117595E-10,-3.239434E-07,-1.11628E-07,1.501972E-08,-2.622604E-08
620.6441,-0.01447856,-6.171965E-09,NaN,-0.8358665,-1.33557E-07,NaN,-1.561832,-4.050069E-07,NaN,-1.740599,1.828225E-05,0.02306149,7.705541E-08,NaN,NaN,-0.1220714,-1.210727E-10,-3.256943E-07,-1.11626E-07,1.740391E-08,-2.861022E-08
620.6589,-0.01447856,-6.171965E-09,NaN,-0.8358665,-1.33557E-07,NaN,-1.561832,-4.050069E-07,NaN,-1.740599,1.828225E-05,0.02306149,7.705541E-08,NaN,NaN,-0.1220714,-1.210727E-10,-3.256943E-07,-1.11626E-07,1.740391E-08,-2.861022E-08
620.6729,-0.01447689,-6.171164E-09,NaN,-0.8367478,-1.335567E-07,NaN,-1.561436,-4.051213E-07,NaN,-1.746395,1.828272E-05,0.03162685,7.717134E-08,NaN,NaN,-0.1213594,-1.210727E-10,-3.312543E-07,-1.116262E-07,1.740391E-08,-2.622604E-08
620.6882,-0.01447489,-6.170363E-09,NaN,-0.8376697,-1.335567E-07,NaN,-1.561092,-4.051173E-07,NaN,-1.752409,1.828318E-05,0.04002224,7.716888E-08,NaN,NaN,-0.1206614,-1.117595E-10,-3.318875E-07,-1.116267E-07,1.263554E-08,-2.861022E-08
620.7028,-0.01447262,-6.169563E-09,NaN,-0.8386125,-1.335569E-07,NaN,-1.560769,-4.050538E-07,NaN,-1.75849,1.828364E-05,0.04824853,7.710695E-08,NaN,NaN,-0.1199771,-1.024462E-10,-3.322973E-07,-1.116274E-07,1.740391E-08,-2.622604E-08
620.7177,-0.01447262,-6.169563E-09,NaN,-0.8386125,-1.335569E-07,NaN,-1.560769,-4.050538E-07,NaN,-1.75849,1.828364E-05,0.04824853,7.710695E-08,NaN,NaN,-0.1199771,-1.024462E-10,-3.322973E-07,-1.116274E-07,1.740391E-08,-2.622604E-08
620.7316,-0.01446988,-6.168762E-09,NaN,-0.8395641,-1.335573E-07,NaN,-1.560455,-4.049575E-07,NaN,-1.76456,1.82841E-05,0.05631468,7.70122E-08,NaN,NaN,-0.1193061,-9.313302E-11,-3.304347E-07,-1.116282E-07,1.978809E-08,-2.861022E-08
620.7469,-0.01446682,-6.167961E-09,NaN,-0.840517,-1.335577E-07,NaN,-1.560143,-4.048432E-07,NaN,-1.770584,1.828456E-05,0.06422374,7.68994E-08,NaN,NaN,-0.1186483,-8.38198E-11,-3.280132E-07,-1.11629E-07,1.978809E-08,-2.622604E-08
620.7614,-0.01446354,-6.167161E-09,NaN,-0.8414663,-1.335581E-07,NaN,-1.559833,-4.047197E-07,NaN,-1.776541,1.828502E-05,0.07197928,7.677742E-08,NaN,NaN,-0.1180034,-7.450657E-11,-3.245487E-07,-1.116298E-07,1.263554E-08,-2.861022E-08
620.7761,-0.01446354,-6.167161E-09,NaN,-0.8414663,-1.335581E-07,NaN,-1.559833,-4.047197E-07,NaN,-1.776541,1.828502E-05,0.07197928,7.677742E-08,NaN,NaN,-0.1180034,-7.450657E-11,-3.245487E-07,-1.116298E-07,1.263554E-08,-2.861022E-08
620.792,-0.01446014,-6.166363E-09,NaN,-0.8424092,-1.335586E-07,NaN,-1.559525,-4.046303E-07,NaN,-1.782424,1.82855E-05,0.07958438,7.668956E-08,NaN,NaN,-0.1173711,-8.38198E-11,-3.204136E-07,-1.116307E-07,7.867164E-09,-2.622604E-08
620.8064,-0.01445685,-6.165565E-09,NaN,-0.8432745,-1.335591E-07,NaN,-1.559415,-4.045369E-07,NaN,-1.787652,1.828597E-05,0.08546231,7.659769E-08,NaN,NaN,-0.1168806,-7.916318E-11,-3.152355E-07,-1.116315E-07,7.867164E-09,-2.861022E-08
620.8198,-0.01445685,-6.165565E-09,NaN,-0.8432745,-1.335591E-07,NaN,-1.559415,-4.045369E-07,NaN,-1.787652,1.828597E-05,0.08546231,7.659769E-08,NaN,NaN,-0.1168806,-7.916318E-11,-3.152355E-07,-1.116315E-07,7.867164E-09,-2.861022E-08
620.8337,-0.01445375,-6.164767E-09,NaN,-0.8440882,-1.335596E-07,NaN,-1.559236,-4.044452E-07,NaN,-1.792526,1.828643E-05,0.09122561,7.650753E-08,NaN,NaN,-0.1163997,-7.450657E-11,-3.112867E-07,-1.116324E-07,7.867164E-09,-2.622604E-08
620.8491,-0.01445082,-6.163969E-09,NaN,-0.8448663,-1.335601E-07,NaN,-1.559029,-4.043553E-07,NaN,-1.79719,1.82869E-05,0.09688776,7.641906E-08,NaN,NaN,-0.1159282,-7.450657E-11,-3.070771E-07,-1.116332E-07,1.263554E-08,-2.861022E-08
620.8636,-0.01444804,-6.163172E-09,NaN,-0.845619,-1.335606E-07,NaN,-1.558812,-4.042669E-07,NaN,-1.801716,1.828737E-05,0.1024441,7.633223E-08,NaN,NaN,-0.115466,-6.984995E-11,-3.021225E-07,-1.116341E-07,7.14607E-10,-2.622604E-08
620.8782,-0.01444804,-6.163172E-09,NaN,-0.845619,-1.335606E-07,NaN,-1.558812,-4.042669E-07,NaN,-1.801716,1.828737E-05,0.1024441,7.633223E-08,NaN,NaN,-0.115466,-6.984995E-11,-3.021225E-07,-1.116341E-07,7.14607E-10,-2.622604E-08
620.8922,-0.01444558,-6.162375E-09,NaN,-0.8462833,-1.335611E-07,NaN,-1.558813,-4.041802E-07,NaN,-1.805564,1.828784E-05,0.106313,7.624702E-08,NaN,NaN,-0.1151422,-6.984995E-11,-2.970934E-07,-1.116349E-07,7.14607E-10,-2.861022E-08
620.9076,-0.01444344,-6.161578E-09,NaN,-0.84689,-1.335617E-07,NaN,-1.558733,-4.040951E-07,NaN,-1.809055,1.828831E-05,0.1101029,7.616339E-08,NaN,NaN,-0.1148247,-6.519334E-11,-2.937406E-07,-1.116358E-07,7.867165E-09,-2.622604E-08
620.9221,-0.01444157,-6.160781E-09,NaN,-0.8474586,-1.335622E-07,NaN,-1.558619,-4.040143E-07,NaN,-1.812343,1.828878E-05,0.1138324,7.608413E-08,NaN,NaN,-0.1145134,-6.519334E-11,-2.892702E-07,-1.116366E-07,3.098793E-09,-2.861022E-08
620.9367,-0.01444157,-6.160781E-09,NaN,-0.8474586,-1.335622E-07,NaN,-1.558619,-4.040143E-07,NaN,-1.812343,1.828878E-05,0.1138324,7.608413E-08,NaN,NaN,-0.1145134,-6.519334E-11,-2.892702E-07,-1.116366E-07,3.098793E-09,-2.861022E-08
620.9508,-0.01444012,-6.159984E-09,NaN,-0.8479317,-1.335627E-07,NaN,-1.558725,-4.03935E-07,NaN,-1.81493,1.828924E-05,0.1159143,7.600634E-08,NaN,NaN,-0.1143376,-6.053672E-11,-2.849489E-07,-1.116375E-07,7.146075E-10,-2.622604E-08
620.9662,-0.01443901,-6.159187E-09,NaN,-0.8483438,-1.335632E-07,NaN,-1.558739,-4.038571E-07,NaN,-1.817158,1.828971E-05,0.1179511,7.592998E-08,NaN,NaN,-0.1141652,-6.053672E-11,-2.820432E-07,-1.116383E-07,-4.053764E-09,-2.861022E-08
620.9807,-0.01443806,-6.15839E-09,NaN,-0.8487164,-1.335637E-07,NaN,-1.558713,-4.037835E-07,NaN,-1.81919,1.829018E-05,0.1199639,7.585786E-08,NaN,NaN,-0.1139962,-5.588011E-11,-2.784669E-07,-1.116392E-07,-1.120632E-08,-2.622604E-08
620.9951,-0.01443806,-6.15839E-09,NaN,-0.8487164,-1.335637E-07,NaN,-1.558713,-4.037835E-07,NaN,-1.81919,1.829018E-05,0.1199639,7.585786E-08,NaN,NaN,-0.1139962,-5.588011E-11,-2.784669E-07,-1.116392E-07,-1.120632E-08,-2.622604E-08
621.0093,-0.0144372,-6.157594E-09,NaN,-0.849063,-1.335642E-07,NaN,-1.558671,-4.037112E-07,NaN,-1.821111,1.829065E-05,0.121944,7.578706E-08,NaN,NaN,-0.1138305,-5.588011E-11,-2.748161E-07,-1.1164E-07,-8.822136E-09,-2.861022E-08
621.0246,-0.01443651,-6.156797E-09,NaN,-0.8493226,-1.335647E-07,NaN,-1.558866,-4.036402E-07,NaN,-1.822383,1.829112E-05,0.1223083,7.571757E-08,NaN,NaN,-0.1137974,-5.12235E-11,-2.708673E-07,-1.116409E-07,-6.43795E-09,-2.622604E-08
621.0389,-0.01443651,-6.156797E-09,NaN,-0.8493226,-1.335647E-07,NaN,-1.558866,-4.036402E-07,NaN,-1.822383,1.829112E-05,0.1223083,7.571757E-08,NaN,NaN,-0.1137974,-5.12235E-11,-2.708673E-07,-1.116409E-07,-6.43795E-09,-2.622604E-08
621.0547,-0.01443593,-6.156E-09,NaN,-0.8495274,-1.335652E-07,NaN,-1.558965,-4.035733E-07,NaN,-1.823332,1.829159E-05,0.1226576,7.565217E-08,NaN,NaN,-0.1137649,-5.12235E-11,-2.694517E-07,-1.116417E-07,-1.359051E-08,-2.861022E-08
621.0685,-0.01443544,-6.155204E-09,NaN,-0.8496974,-1.335656E-07,NaN,-1.55902,-4.035076E-07,NaN,-1.824114,1.829205E-05,0.1230171,7.558796E-08,NaN,NaN,-0.113733,-4.656689E-11,-2.670675E-07,-1.116425E-07,-1.120632E-08,-2.622604E-08
621.084,-0.01443498,-6.154408E-09,NaN,-0.8498452,-1.335661E-07,NaN,-1.559057,-4.03443E-07,NaN,-1.824806,1.829253E-05,0.1233769,7.552492E-08,NaN,NaN,-0.1137018,-5.12235E-11,-2.644598E-07,-1.116433E-07,-1.120632E-08,-2.861022E-08
621.0988,-0.01443498,-6.154408E-09,NaN,-0.8498452,-1.335661E-07,NaN,-1.559057,-4.03443E-07,NaN,-1.824806,1.829253E-05,0.1233769,7.552492E-08,NaN,NaN,-0.1137018,-5.12235E-11,-2.644598E-07,-1.116433E-07,-1.120632E-08,-2.861022E-08
621.1125,-0.01443469,-6.153611E-09,NaN,-0.8499094,-1.335666E-07,NaN,-1.559332,-4.033824E-07,NaN,-1.82487,1.8293E-05,0.1221537,7.546586E-08,NaN,NaN,-0.1138005,-5.12235E-11,-2.625227E-07,-1.116442E-07,-1.120632E-08,-2.622604E-08
621.1268,-0.01443451,-6.152815E-09,NaN,-0.8499216,-1.335671E-07,NaN,-1.559506,-4.033229E-07,NaN,-1.82463,1.829347E-05,0.1209463,7.540785E-08,NaN,NaN,-0.1138972,-5.588011E-11,-2.619266E-07,-1.11645E-07,-1.359051E-08,-2.861022E-08
621.1412,-0.01443442,-6.152019E-09,NaN,-0.8499035,-1.335676E-07,NaN,-1.55963,-4.032645E-07,NaN,-1.824239,1.829395E-05,0.1197808,7.53509E-08,NaN,NaN,-0.1139921,-5.588011E-11,-2.602875E-07,-1.116458E-07,-1.835888E-08,-2.622604E-08
621.1559,-0.01443442,-6.152019E-09,NaN,-0.8499035,-1.335676E-07,NaN,-1.55963,-4.032645E-07,NaN,-1.824239,1.829395E-05,0.1197808,7.53509E-08,NaN,NaN,-0.1139921,-5.588011E-11,-2.602875E-07,-1.116458E-07,-1.835888E-08,-2.622604E-08
621.1697,-0.0144345,-6.151223E-09,NaN,-0.8497974,-1.335681E-07,NaN,-1.559978,-4.032099E-07,NaN,-1.823198,1.829441E-05,0.1170676,7.529779E-08,NaN,NaN,-0.1142144,-5.12235E-11,-2.588719E-07,-1.116466E-07,-1.835888E-08,-2.861022E-08
621.1851,-0.01443471,-6.150427E-09,NaN,-0.8496374,-1.335686E-07,NaN,-1.560215,-4.031562E-07,NaN,-1.821849,1.829488E-05,0.1144027,7.524564E-08,NaN,NaN,-0.1144324,-4.656689E-11,-2.587229E-07,-1.116474E-07,-1.835888E-08,-2.622604E-08
621.2,-0.01443471,-6.150427E-09,NaN,-0.8496374,-1.335686E-07,NaN,-1.560215,-4.031562E-07,NaN,-1.821849,1.829488E-05,0.1144027,7.524564E-08,NaN,NaN,-0.1144324,-4.656689E-11,-2.587229E-07,-1.116474E-07,-1.835888E-08,-2.622604E-08
621.2138,-0.014435,-6.149631E-09,NaN,-0.849445,-1.335691E-07,NaN,-1.560398,-4.031035E-07,NaN,-1.820358,1.829535E-05,0.1118099,7.519442E-08,NaN,NaN,-0.1146461,-5.12235E-11,-2.573818E-07,-1.116483E-07,-1.835888E-08,-2.861022E-08
621.2291,-0.01443535,-6.148835E-09,NaN,-0.8492334,-1.335696E-07,NaN,-1.560553,-4.030545E-07,NaN,-1.818806,1.829582E-05,0.1092771,7.514694E-08,NaN,NaN,-0.1148556,-5.12235E-11,-2.558172E-07,-1.116491E-07,-1.835888E-08,-2.622604E-08
621.2436,-0.01443585,-6.148039E-09,NaN,-0.8489416,-1.3357E-07,NaN,-1.560934,-4.030063E-07,NaN,-1.816658,1.829629E-05,0.1052195,7.51003E-08,NaN,NaN,-0.1151903,-5.12235E-11,-2.53433E-07,-1.116499E-07,-1.597469E-08,-2.861022E-08
621.2583,-0.01443585,-6.148039E-09,NaN,-0.8489416,-1.3357E-07,NaN,-1.560934,-4.030063E-07,NaN,-1.816658,1.829629E-05,0.1052195,7.51003E-08,NaN,NaN,-0.1151903,-5.12235E-11,-2.53433E-07,-1.116499E-07,-1.597469E-08,-2.861022E-08
621.2723,-0.01443648,-6.147244E-09,NaN,-0.8486016,-1.335705E-07,NaN,-1.561206,-4.02959E-07,NaN,-1.814235,1.829677E-05,0.1012379,7.505449E-08,NaN,NaN,-0.1155185,-5.588011E-11,-2.53433E-07,-1.116507E-07,-2.074307E-08,-2.622604E-08
621.2877,-0.01443719,-6.146448E-09,NaN,-0.8482334,-1.33571E-07,NaN,-1.561421,-4.029181E-07,NaN,-1.811695,1.829724E-05,0.09735368,7.501514E-08,NaN,NaN,-0.1158402,-6.053672E-11,-2.525016E-07,-1.116515E-07,-1.59747E-08,-2.861022E-08
621.3023,-0.01443794,-6.145652E-09,NaN,-0.8478494,-1.335715E-07,NaN,-1.561609,-4.02878E-07,NaN,-1.809114,1.829771E-05,0.09355488,7.497647E-08,NaN,NaN,-0.1161556,-6.053672E-11,-2.510115E-07,-1.116523E-07,-1.359051E-08,-2.622604E-08
621.3173,-0.01443794,-6.145652E-09,NaN,-0.8478494,-1.335715E-07,NaN,-1.561609,-4.02878E-07,NaN,-1.809114,1.829771E-05,0.09355488,7.497647E-08,NaN,NaN,-0.1161556,-6.053672E-11,-2.510115E-07,-1.116523E-07,-1.359051E-08,-2.622604E-08
621.3312,-0.01443886,-6.144857E-09,NaN,-0.8473881,-1.33572E-07,NaN,-1.562007,-4.028385E-07,NaN,-1.805955,1.829819E-05,0.08825644,7.493847E-08,NaN,NaN,-0.1165942,-6.053672E-11,-2.482921E-07,-1.116531E-07,-1.359051E-08,-2.861022E-08
621.3464,-0.0144399,-6.144062E-09,NaN,-0.8468812,-1.335724E-07,NaN,-1.562296,-4.028024E-07,NaN,-1.802538,1.829866E-05,0.0830626,7.490394E-08,NaN,NaN,-0.1170242,-6.053672E-11,-2.471372E-07,-1.116539E-07,-1.359051E-08,-2.622604E-08
621.363,-0.01444101,-6.143266E-09,NaN,-0.8463483,-1.335729E-07,NaN,-1.562528,-4.02767E-07,NaN,-1.799019,1.829913E-05,0.07798981,7.487001E-08,NaN,NaN,-0.1174457,-6.053672E-11,-2.446785E-07,-1.116546E-07,-1.120632E-08,-2.861022E-08
621.3765,-0.01444101,-6.143266E-09,NaN,-0.8463483,-1.335729E-07,NaN,-1.562528,-4.02767E-07,NaN,-1.799019,1.829913E-05,0.07798981,7.487001E-08,NaN,NaN,-0.1174457,-6.053672E-11,-2.446785E-07,-1.116546E-07,-1.120632E-08,-2.861022E-08
621.3906,-0.01444231,-6.142471E-09,NaN,-0.8457325,-1.335734E-07,NaN,-1.562944,-4.027321E-07,NaN,-1.794898,1.82996E-05,0.07144759,7.483665E-08,NaN,NaN,-0.1179884,-6.053672E-11,-2.414003E-07,-1.116554E-07,-8.822139E-09,-2.622604E-08
621.4049,-0.01444394,-6.141676E-09,NaN,-0.8450683,-1.335738E-07,NaN,-1.563246,-4.027006E-07,NaN,-1.790514,1.830007E-05,0.06504043,7.480668E-08,NaN,NaN,-0.1185203,-6.053672E-11,-2.392769E-07,-1.116562E-07,-6.437954E-09,-2.861022E-08
621.4196,-0.01444394,-6.141676E-09,NaN,-0.8450683,-1.335738E-07,NaN,-1.563246,-4.027006E-07,NaN,-1.790514,1.830007E-05,0.06504043,7.480668E-08,NaN,NaN,-0.1185203,-6.053672E-11,-2.392769E-07,-1.116562E-07,-6.437954E-09,-2.861022E-08
621.4333,-0.01444586,-6.14088E-09,NaN,-0.8443773,-1.335743E-07,NaN,-1.563487,-4.026696E-07,NaN,-1.786032,1.830054E-05,0.05877891,7.47772E-08,NaN,NaN,-0.1190419,-6.053672E-11,-2.360172E-07,-1.11657E-07,-8.822139E-09,-2.622604E-08
621.4487,-0.01444803,-6.140085E-09,NaN,-0.8436727,-1.335748E-07,NaN,-1.563696,-4.026391E-07,NaN,-1.781534,1.830102E-05,0.05265043,7.474821E-08,NaN,NaN,-0.1195533,-6.519334E-11,-2.325341E-07,-1.116578E-07,-8.822139E-09,-2.861022E-08
621.4631,-0.01445058,-6.13929E-09,NaN,-0.8428936,-1.335753E-07,NaN,-1.564077,-4.026119E-07,NaN,-1.776484,1.830149E-05,0.04507125,7.472253E-08,NaN,NaN,-0.120184,-6.519334E-11,-2.269834E-07,-1.116586E-07,-8.822139E-09,-2.622604E-08
621.4777,-0.01445058,-6.13929E-09,NaN,-0.8428936,-1.335753E-07,NaN,-1.564077,-4.026119E-07,NaN,-1.776484,1.830149E-05,0.04507125,7.472253E-08,NaN,NaN,-0.120184,-6.519334E-11,-2.269834E-07,-1.116586E-07,-8.822139E-09,-2.622604E-08
621.4916,-0.01445352,-6.138495E-09,NaN,-0.8420721,-1.335757E-07,NaN,-1.564352,-4.025852E-07,NaN,-1.771204,1.830196E-05,0.03765085,7.469733E-08,NaN,NaN,-0.1208023,-6.053672E-11,-2.223733E-07,-1.116593E-07,-8.822139E-09,-2.861022E-08
621.507,-0.01445676,-6.137701E-09,NaN,-0.841228,-1.335762E-07,NaN,-1.56457,-4.025589E-07,NaN,-1.765847,1.830243E-05,0.03039433,7.467253E-08,NaN,NaN,-0.1214085,-5.588011E-11,-2.173815E-07,-1.116601E-07,-1.120632E-08,-2.622604E-08
621.5227,-0.01446024,-6.136906E-09,NaN,-0.8403738,-1.335767E-07,NaN,-1.564756,-4.02533E-07,NaN,-1.760491,1.83029E-05,0.02329008,7.464813E-08,NaN,NaN,-0.1220028,-5.12235E-11,-2.108506E-07,-1.116609E-07,-1.120632E-08,-2.861022E-08
621.5365,-0.01446024,-6.136906E-09,NaN,-0.8403738,-1.335767E-07,NaN,-1.564756,-4.02533E-07,NaN,-1.760491,1.83029E-05,0.02329008,7.464813E-08,NaN,NaN,-0.1220028,-5.12235E-11,-2.108506E-07,-1.116609E-07,-1.120632E-08,-2.861022E-08
621.5501,-0.0144641,-6.136111E-09,NaN,-0.8394479,-1.335771E-07,NaN,-1.56509,-4.025103E-07,NaN,-1.7546,1.830337E-05,0.01475811,7.462695E-08,NaN,NaN,-0.1227148,-4.656689E-11,-1.997306E-07,-1.116616E-07,-6.437953E-09,-2.622604E-08
621.5658,-0.01446834,-6.135316E-09,NaN,-0.8384818,-1.335776E-07,NaN,-1.565324,-4.024879E-07,NaN,-1.748491,1.830385E-05,0.006407809,7.460608E-08,NaN,NaN,-0.1234128,-4.656689E-11,-1.92131E-07,-1.116624E-07,-1.120632E-08,-2.861022E-08
621.5803,-0.01447288,-6.134521E-09,NaN,-0.8374953,-1.33578E-07,NaN,-1.565504,-4.0248E-07,NaN,-1.742319,1.830433E-05,-0.001761591,7.459965E-08,NaN,NaN,-0.1240972,-3.725366E-11,-1.845314E-07,-1.116631E-07,-1.120632E-08,-2.622604E-08
621.5947,-0.01447288,-6.134521E-09,NaN,-0.8374953,-1.33578E-07,NaN,-1.565504,-4.0248E-07,NaN,-1.742319,1.830433E-05,-0.001761591,7.459965E-08,NaN,NaN,-0.1240972,-3.725366E-11,-1.845314E-07,-1.116631E-07,-1.120632E-08,-2.622604E-08
621.6089,-0.01447785,-6.133727E-09,NaN,-0.8364313,-1.335789E-07,NaN,-1.565802,-4.022662E-07,NaN,-1.735586,1.830482E-05,-0.01132991,7.438734E-08,NaN,NaN,-0.1248975,-4.191027E-11,-1.719026E-07,-1.116629E-07,-8.822139E-09,-2.861022E-08
621.6245,-0.01448324,-6.132932E-09,NaN,-0.8353242,-1.335797E-07,NaN,-1.566002,-4.020846E-07,NaN,-1.728629,1.83053E-05,-0.02069223,7.420732E-08,NaN,NaN,-0.1256821,-3.725366E-11,-1.606523E-07,-1.116627E-07,-8.822139E-09,-2.622604E-08
621.6386,-0.01448324,-6.132932E-09,NaN,-0.8353242,-1.335797E-07,NaN,-1.566002,-4.020846E-07,NaN,-1.728629,1.83053E-05,-0.02069223,7.420732E-08,NaN,NaN,-0.1256821,-3.725366E-11,-1.606523E-07,-1.116627E-07,-8.822139E-09,-2.622604E-08
621.6547,-0.01448896,-6.132137E-09,NaN,-0.8341956,-1.335805E-07,NaN,-1.566148,-4.019178E-07,NaN,-1.721611,1.830579E-05,-0.02985389,7.404201E-08,NaN,NaN,-0.1264513,-3.725366E-11,-1.485823E-07,-1.116624E-07,-8.822139E-09,-2.861022E-08
621.6688,-0.01449493,-6.131342E-09,NaN,-0.8330586,-1.335813E-07,NaN,-1.566261,-4.017626E-07,NaN,-1.714612,1.830628E-05,-0.0388254,7.388832E-08,NaN,NaN,-0.1272054,-3.725366E-11,-1.372947E-07,-1.116621E-07,-6.437954E-09,-2.622604E-08
621.6827,-0.01449857,-6.130547E-09,NaN,-0.8327532,-1.33582E-07,NaN,-1.564916,-4.016132E-07,NaN,-1.714552,1.830678E-05,-0.02888364,7.374037E-08,NaN,NaN,-0.1263926,-4.191027E-11,-1.895978E-07,-1.116618E-07,-4.053768E-09,-2.861022E-08
621.6971,-0.01449857,-6.130547E-09,NaN,-0.8327532,-1.33582E-07,NaN,-1.564916,-4.016132E-07,NaN,-1.714552,1.830678E-05,-0.02888364,7.374037E-08,NaN,NaN,-0.1263926,-4.191027E-11,-1.895978E-07,-1.116618E-07,-4.053768E-09,-2.861022E-08
621.7111,-0.0144994,-6.129752E-09,NaN,-0.8329607,-1.335827E-07,NaN,-1.564202,-4.017102E-07,NaN,-1.717849,1.830727E-05,-0.01922144,7.383893E-08,NaN,NaN,-0.1255957,-4.656688E-11,-2.153954E-07,-1.116614E-07,3.098789E-09,-2.622604E-08
621.7262,-0.01449889,-6.128958E-09,NaN,-0.8334838,-1.335829E-07,NaN,-1.563736,-4.019715E-07,NaN,-1.722795,1.830775E-05,-0.009814785,7.410173E-08,NaN,NaN,-0.1248146,-4.191027E-11,-2.336493E-07,-1.116624E-07,7.867161E-09,-2.861022E-08
621.7408,-0.01449774,-6.128163E-09,NaN,-0.8341995,-1.335831E-07,NaN,-1.563362,-4.021937E-07,NaN,-1.728532,1.830824E-05,-0.0006160187,7.432546E-08,NaN,NaN,-0.1240487,-4.191027E-11,-2.45086E-07,-1.116634E-07,5.482975E-09,-2.622604E-08
621.7553,-0.01449774,-6.128163E-09,NaN,-0.8341995,-1.335831E-07,NaN,-1.563362,-4.021937E-07,NaN,-1.728532,1.830824E-05,-0.0006160187,7.432546E-08,NaN,NaN,-0.1240487,-4.191027E-11,-2.45086E-07,-1.116634E-07,5.482975E-09,-2.622604E-08
621.7693,-0.01449633,-6.127369E-09,NaN,-0.8349614,-1.335834E-07,NaN,-1.563157,-4.023945E-07,NaN,-1.734055,1.830872E-05,0.006828497,7.452778E-08,NaN,NaN,-0.1234273,-3.725366E-11,-2.496966E-07,-1.116644E-07,7.867161E-09,-2.861022E-08
621.7846,-0.01449462,-6.126574E-09,NaN,-0.8357485,-1.335837E-07,NaN,-1.562917,-4.025828E-07,NaN,-1.739448,1.830921E-05,0.01412998,7.471759E-08,NaN,NaN,-0.122818,-3.725366E-11,-2.534475E-07,-1.116655E-07,7.867161E-09,-2.622604E-08
621.7994,-0.01449462,-6.126574E-09,NaN,-0.8357485,-1.335837E-07,NaN,-1.562917,-4.025828E-07,NaN,-1.739448,1.830921E-05,0.01412998,7.471759E-08,NaN,NaN,-0.122818,-3.725366E-11,-2.534475E-07,-1.116655E-07,7.867161E-09,-2.622604E-08
621.8133,-0.01449266,-6.12578E-09,NaN,-0.8365476,-1.335841E-07,NaN,-1.562663,-4.027617E-07,NaN,-1.744741,1.83097E-05,0.02129503,7.489795E-08,NaN,NaN,-0.1222207,-3.259705E-11,-2.571542E-07,-1.116666E-07,1.263553E-08,-2.861022E-08
621.8285,-0.01449077,-6.124985E-09,NaN,-0.837281,-1.335844E-07,NaN,-1.562557,-4.029369E-07,NaN,-1.749376,1.831019E-05,0.02675192,7.507468E-08,NaN,NaN,-0.1217646,-3.259705E-11,-2.566047E-07,-1.116676E-07,1.501972E-08,-2.622604E-08
621.8431,-0.014489,-6.124191E-09,NaN,-0.8379709,-1.335847E-07,NaN,-1.562395,-4.031057E-07,NaN,-1.75366,1.831067E-05,0.03210824,7.524504E-08,NaN,NaN,-0.1213173,-2.794043E-11,-2.564091E-07,-1.116687E-07,1.501972E-08,-2.861022E-08
621.8579,-0.014489,-6.124191E-09,NaN,-0.8379709,-1.335847E-07,NaN,-1.562395,-4.031057E-07,NaN,-1.75366,1.831067E-05,0.03210824,7.524504E-08,NaN,NaN,-0.1213173,-2.794043E-11,-2.564091E-07,-1.116687E-07,1.501972E-08,-2.861022E-08
621.8719,-0.01448735,-6.123396E-09,NaN,-0.8386306,-1.335851E-07,NaN,-1.562211,-4.032711E-07,NaN,-1.757739,1.831117E-05,0.03736854,7.541197E-08,NaN,NaN,-0.1208789,-3.725366E-11,-2.568003E-07,-1.116698E-07,1.74039E-08,-2.622604E-08
621.8872,-0.01448582,-6.122602E-09,NaN,-0.8392687,-1.335854E-07,NaN,-1.562019,-4.03436E-07,NaN,-1.761688,1.831164E-05,0.04252985,7.557836E-08,NaN,NaN,-0.120449,-2.328382E-11,-2.574522E-07,-1.116709E-07,1.978809E-08,-2.861022E-08
621.902,-0.0144846,-6.121807E-09,NaN,-0.8398215,-1.335858E-07,NaN,-1.561999,-4.035975E-07,NaN,-1.764968,1.831213E-05,0.04601677,7.57414E-08,NaN,NaN,-0.120157,-1.862721E-11,-2.556082E-07,-1.11672E-07,1.978809E-08,-2.622604E-08
621.9166,-0.0144846,-6.121807E-09,NaN,-0.8398215,-1.335858E-07,NaN,-1.561999,-4.035975E-07,NaN,-1.764968,1.831213E-05,0.04601677,7.57414E-08,NaN,NaN,-0.120157,-1.862721E-11,-2.556082E-07,-1.11672E-07,1.978809E-08,-2.622604E-08
621.931,-0.01448357,-6.121012E-09,NaN,-0.8403189,-1.335862E-07,NaN,-1.561915,-4.037558E-07,NaN,-1.7679,1.831261E-05,0.04943982,7.590116E-08,NaN,NaN,-0.1198706,-1.397059E-11,-2.552357E-07,-1.11673E-07,1.978809E-08,-2.861022E-08
621.9479,-0.01448267,-6.120217E-09,NaN,-0.8407801,-1.335865E-07,NaN,-1.561804,-4.039108E-07,NaN,-1.770637,1.83131E-05,0.0528058,7.605769E-08,NaN,NaN,-0.11959,-9.313982E-12,-2.544161E-07,-1.116741E-07,1.74039E-08,-2.622604E-08
621.9612,-0.01448183,-6.119422E-09,NaN,-0.8412167,-1.335869E-07,NaN,-1.561685,-4.040655E-07,NaN,-1.773258,1.831358E-05,0.05611002,7.621389E-08,NaN,NaN,-0.1193148,-4.657369E-12,-2.534103E-07,-1.116752E-07,1.74039E-08,-2.861022E-08
621.975,-0.01448183,-6.119422E-09,NaN,-0.8412167,-1.335869E-07,NaN,-1.561685,-4.040655E-07,NaN,-1.773258,1.831358E-05,0.05611002,7.621389E-08,NaN,NaN,-0.1193148,-4.657369E-12,-2.534103E-07,-1.116752E-07,1.74039E-08,-2.861022E-08
621.9904,-0.01448116,-6.118627E-09,NaN,-0.841567,-1.335872E-07,NaN,-1.56175,-4.04217E-07,NaN,-1.775225,1.831407E-05,0.05777407,7.636694E-08,NaN,NaN,-0.1191744,-4.657369E-12,-2.505791E-07,-1.116762E-07,1.501972E-08,-2.622604E-08
622.0043,-0.01448061,-6.117832E-09,NaN,-0.8418624,-1.335876E-07,NaN,-1.561743,-4.043683E-07,NaN,-1.776861,1.831455E-05,0.05940897,7.651972E-08,NaN,NaN,-0.1190367,-7.563394E-16,-2.494987E-07,-1.116773E-07,1.025135E-08,-2.861022E-08
622.0189,-0.01448061,-6.117832E-09,NaN,-0.8418624,-1.335876E-07,NaN,-1.561743,-4.043683E-07,NaN,-1.776861,1.831455E-05,0.05940897,7.651972E-08,NaN,NaN,-0.1190367,-7.563394E-16,-2.494987E-07,-1.116773E-07,1.025135E-08,-2.861022E-08
622.0327,-0.01448013,-6.117037E-09,NaN,-0.8421226,-1.335879E-07,NaN,-1.561706,-4.045165E-07,NaN,-1.77832,1.831504E-05,0.06102322,7.666942E-08,NaN,NaN,-0.1189018,-7.563394E-16,-2.481204E-07,-1.116784E-07,7.867161E-09,-2.622604E-08
622.0482,-0.01447984,-6.116242E-09,NaN,-0.8422906,-1.335883E-07,NaN,-1.561849,-4.046645E-07,NaN,-1.779105,1.831553E-05,0.06103294,7.681891E-08,NaN,NaN,-0.1188989,4.655856E-12,-2.451774E-07,-1.116794E-07,1.025135E-08,-2.861022E-08
622.0626,-0.01447969,-6.115447E-09,NaN,-0.8424008,-1.335886E-07,NaN,-1.561911,-4.048095E-07,NaN,-1.779555,1.831602E-05,0.06104717,7.696539E-08,NaN,NaN,-0.118896,4.655856E-12,-2.440225E-07,-1.116805E-07,7.867161E-09,-2.622604E-08
622.0774,-0.01447969,-6.115447E-09,NaN,-0.8424008,-1.335886E-07,NaN,-1.561911,-4.048095E-07,NaN,-1.779555,1.831602E-05,0.06104717,7.696539E-08,NaN,NaN,-0.118896,4.655856E-12,-2.440225E-07,-1.116805E-07,7.867161E-09,-2.622604E-08
622.0912,-0.01447961,-6.114651E-09,NaN,-0.8424751,-1.33589E-07,NaN,-1.561937,-4.051404E-07,NaN,-1.779836,1.83165E-05,0.0610741,7.729784E-08,NaN,NaN,-0.1188933,9.312469E-12,-2.42756E-07,-1.116815E-07,7.867161E-09,-2.622604E-08
622.1067,-0.01447958,-6.113854E-09,NaN,-0.8425267,-1.335893E-07,NaN,-1.561949,-4.054676E-07,NaN,-1.78003,1.831697E-05,0.06110607,7.762653E-08,NaN,NaN,-0.1188905,1.862569E-11,-2.413031E-07,-1.116825E-07,7.146039E-10,-2.622604E-08
622.1215,-0.01447973,-6.113059E-09,NaN,-0.8424965,-1.335896E-07,NaN,-1.562148,-4.056706E-07,NaN,-1.779602,1.831746E-05,0.05956211,7.783109E-08,NaN,NaN,-0.1190172,1.396908E-11,-2.381739E-07,-1.116836E-07,-1.669582E-09,-2.861022E-08
622.136,-0.01447973,-6.113059E-09,NaN,-0.8424965,-1.335896E-07,NaN,-1.562148,-4.056706E-07,NaN,-1.779602,1.831746E-05,0.05956211,7.783109E-08,NaN,NaN,-0.1190172,1.396908E-11,-2.381739E-07,-1.116836E-07,-1.669582E-09,-2.861022E-08
622.1503,-0.01448001,-6.112265E-09,NaN,-0.8424159,-1.3359E-07,NaN,-1.562264,-4.058724E-07,NaN,-1.778874,1.831795E-05,0.05805273,7.803439E-08,NaN,NaN,-0.1191415,4.655856E-12,-2.370935E-07,-1.116846E-07,-4.053768E-09,-2.622604E-08
622.1657,-0.01448036,-6.11147E-09,NaN,-0.8423045,-1.335903E-07,NaN,-1.562342,-4.060701E-07,NaN,-1.778004,1.831844E-05,0.05658634,7.823363E-08,NaN,NaN,-0.1192633,4.655856E-12,-2.357152E-07,-1.116857E-07,-6.437953E-09,-2.861022E-08
622.1802,-0.01448076,-6.110676E-09,NaN,-0.8421748,-1.335907E-07,NaN,-1.562402,-4.062639E-07,NaN,-1.777067,1.831893E-05,0.05515466,7.842888E-08,NaN,NaN,-0.1193827,-4.657369E-12,-2.340388E-07,-1.116867E-07,7.146039E-10,-2.622604E-08
622.1949,-0.01448076,-6.110676E-09,NaN,-0.8421748,-1.335907E-07,NaN,-1.562402,-4.062639E-07,NaN,-1.777067,1.831893E-05,0.05515466,7.842888E-08,NaN,NaN,-0.1193827,-4.657369E-12,-2.340388E-07,-1.116867E-07,7.146039E-10,-2.622604E-08
622.2089,-0.01448134,-6.109881E-09,NaN,-0.8419648,-1.33591E-07,NaN,-1.562645,-4.064566E-07,NaN,-1.775529,1.831942E-05,0.05217671,7.862305E-08,NaN,NaN,-0.1196291,-1.397059E-11,-2.314311E-07,-1.116877E-07,7.146039E-10,-2.861022E-08
622.2239,-0.01448203,-6.109087E-09,NaN,-0.8417064,-1.335913E-07,NaN,-1.562802,-4.066453E-07,NaN,-1.77371,1.831992E-05,0.0492631,7.881334E-08,NaN,NaN,-0.1198708,-2.328382E-11,-2.2914E-07,-1.116887E-07,5.482975E-09,-2.622604E-08
622.2396,-0.01448203,-6.109087E-09,NaN,-0.8417064,-1.335913E-07,NaN,-1.562802,-4.066453E-07,NaN,-1.77371,1.831992E-05,0.0492631,7.881334E-08,NaN,NaN,-0.1198708,-2.328382E-11,-2.2914E-07,-1.116887E-07,5.482975E-09,-2.622604E-08
622.2536,-0.0144828,-6.108292E-09,NaN,-0.8414192,-1.335917E-07,NaN,-1.562918,-4.068331E-07,NaN,-1.771764,1.83204E-05,0.04642052,7.900265E-08,NaN,NaN,-0.1201077,-1.862721E-11,-2.269235E-07,-1.116897E-07,5.482975E-09,-2.861022E-08
622.2679,-0.01448377,-6.107497E-09,NaN,-0.8410461,-1.33592E-07,NaN,-1.563199,-4.070171E-07,NaN,-1.769194,1.832089E-05,0.04206402,7.918817E-08,NaN,NaN,-0.1204693,-2.794043E-11,-2.223227E-07,-1.116908E-07,7.867161E-09,-2.622604E-08
622.2826,-0.01448486,-6.106702E-09,NaN,-0.8406217,-1.335924E-07,NaN,-1.563387,-4.071974E-07,NaN,-1.766338,1.832137E-05,0.03780233,7.936998E-08,NaN,NaN,-0.1208239,-2.794043E-11,-2.192121E-07,-1.116918E-07,1.025135E-08,-2.861022E-08
622.2972,-0.01448486,-6.106702E-09,NaN,-0.8406217,-1.335924E-07,NaN,-1.563387,-4.071974E-07,NaN,-1.766338,1.832137E-05,0.03780233,7.936998E-08,NaN,NaN,-0.1208239,-2.794043E-11,-2.192121E-07,-1.116918E-07,1.025135E-08,-2.861022E-08
622.311,-0.01448604,-6.105907E-09,NaN,-0.8401676,-1.335927E-07,NaN,-1.563531,-4.073769E-07,NaN,-1.763362,1.832187E-05,0.03363908,7.955097E-08,NaN,NaN,-0.1211715,-3.725366E-11,-2.168838E-07,-1.116928E-07,3.098789E-09,-2.622604E-08
622.3261,-0.01448734,-6.105112E-09,NaN,-0.8396971,-1.33593E-07,NaN,-1.563651,-4.075528E-07,NaN,-1.760345,1.832235E-05,0.02956476,7.972834E-08,NaN,NaN,-0.1215123,-3.259705E-11,-2.130468E-07,-1.116938E-07,7.146035E-10,-2.861022E-08
622.3408,-0.014489,-6.104317E-09,NaN,-0.8391494,-1.335934E-07,NaN,-1.56393,-4.077279E-07,NaN,-1.756756,1.832284E-05,0.0240004,7.990498E-08,NaN,NaN,-0.1219759,-4.191027E-11,-2.06276E-07,-1.116948E-07,7.146035E-10,-2.622604E-08
622.3555,-0.014489,-6.104317E-09,NaN,-0.8391494,-1.335934E-07,NaN,-1.56393,-4.077279E-07,NaN,-1.756756,1.832284E-05,0.0240004,7.990498E-08,NaN,NaN,-0.1219759,-4.191027E-11,-2.06276E-07,-1.116948E-07,7.146035E-10,-2.622604E-08
622.3695,-0.01449102,-6.103523E-09,NaN,-0.8385563,-1.335937E-07,NaN,-1.564121,-4.078995E-07,NaN,-1.752914,1.832332E-05,0.01855595,8.007808E-08,NaN,NaN,-0.1224303,-4.191027E-11,-2.012679E-07,-1.116958E-07,-4.053768E-09,-2.861022E-08
622.3848,-0.01449335,-6.102728E-09,NaN,-0.8379381,-1.335941E-07,NaN,-1.564268,-4.080676E-07,NaN,-1.748975,1.832382E-05,0.0132324,8.024771E-08,NaN,NaN,-0.1228759,-5.12235E-11,-1.963342E-07,-1.116968E-07,-6.437954E-09,-2.622604E-08
622.3996,-0.01449335,-6.102728E-09,NaN,-0.8379381,-1.335941E-07,NaN,-1.564268,-4.080676E-07,NaN,-1.748975,1.832382E-05,0.0132324,8.024771E-08,NaN,NaN,-0.1228759,-5.12235E-11,-1.963342E-07,-1.116968E-07,-6.437954E-09,-2.622604E-08
622.4136,-0.01449613,-6.101933E-09,NaN,-0.8372376,-1.335944E-07,NaN,-1.564549,-4.082351E-07,NaN,-1.744441,1.83243E-05,0.006449305,8.041676E-08,NaN,NaN,-0.1234421,-5.12235E-11,-1.893679E-07,-1.116978E-07,7.146035E-10,-2.861022E-08
622.4288,-0.01449936,-6.101138E-09,NaN,-0.8364896,-1.335947E-07,NaN,-1.56474,-4.083993E-07,NaN,-1.73965,1.832479E-05,-0.0001865244,8.058242E-08,NaN,NaN,-0.1239972,-6.053672E-11,-1.832211E-07,-1.116987E-07,7.867161E-09,-2.622604E-08
622.4433,-0.01450292,-6.100343E-09,NaN,-0.8357155,-1.335951E-07,NaN,-1.564886,-4.085629E-07,NaN,-1.734766,1.832528E-05,-0.006677655,8.074759E-08,NaN,NaN,-0.1245414,-6.053672E-11,-1.762176E-07,-1.116997E-07,5.482975E-09,-2.861022E-08
622.4592,-0.01450292,-6.100343E-09,NaN,-0.8357155,-1.335951E-07,NaN,-1.564886,-4.085629E-07,NaN,-1.734766,1.832528E-05,-0.006677655,8.074759E-08,NaN,NaN,-0.1245414,-6.053672E-11,-1.762176E-07,-1.116997E-07,5.482975E-09,-2.861022E-08
622.472,-0.01450675,-6.099548E-09,NaN,-0.8349289,-1.335954E-07,NaN,-1.565005,-4.087233E-07,NaN,-1.729871,1.832576E-05,-0.01303349,8.090944E-08,NaN,NaN,-0.1250749,-6.053672E-11,-1.68618E-07,-1.117007E-07,1.263553E-08,-2.622604E-08
622.4876,-0.014511,-6.098753E-09,NaN,-0.8340687,-1.335957E-07,NaN,-1.565245,-4.088803E-07,NaN,-1.72443,1.832624E-05,-0.02082566,8.106804E-08,NaN,NaN,-0.1257274,-5.588011E-11,-1.576284E-07,-1.117017E-07,1.74039E-08,-2.861022E-08
622.502,-0.01451565,-6.097958E-09,NaN,-0.833167,-1.33596E-07,NaN,-1.565403,-4.090371E-07,NaN,-1.718765,1.832673E-05,-0.02845013,8.122628E-08,NaN,NaN,-0.1263671,-6.519334E-11,-1.476446E-07,-1.117027E-07,1.501972E-08,-2.622604E-08
622.5165,-0.01451565,-6.097958E-09,NaN,-0.833167,-1.33596E-07,NaN,-1.565403,-4.090371E-07,NaN,-1.718765,1.832673E-05,-0.02845013,8.122628E-08,NaN,NaN,-0.1263671,-6.519334E-11,-1.476446E-07,-1.117027E-07,1.501972E-08,-2.622604E-08
622.5324,-0.0145206,-6.097163E-09,NaN,-0.8322436,-1.335964E-07,NaN,-1.56552,-4.091906E-07,NaN,-1.713028,1.832721E-05,-0.03591188,8.138134E-08,NaN,NaN,-0.1269943,-6.053672E-11,-1.363942E-07,-1.117036E-07,1.74039E-08,-2.861022E-08
622.5468,-0.01452579,-6.096368E-09,NaN,-0.831311,-1.335967E-07,NaN,-1.565611,-4.093439E-07,NaN,-1.707296,1.832771E-05,-0.04321945,8.153612E-08,NaN,NaN,-0.1276091,-6.984995E-11,-1.2723E-07,-1.117046E-07,1.501972E-08,-2.622604E-08
622.5601,-0.01453138,-6.095573E-09,NaN,-0.8303075,-1.33597E-07,NaN,-1.565797,-4.09494E-07,NaN,-1.701035,1.832819E-05,-0.0519371,8.168779E-08,NaN,NaN,-0.1283413,-6.984995E-11,-1.129249E-07,-1.117056E-07,1.74039E-08,-2.861022E-08
622.5748,-0.01453138,-6.095573E-09,NaN,-0.8303075,-1.33597E-07,NaN,-1.565797,-4.09494E-07,NaN,-1.701035,1.832819E-05,-0.0519371,8.168779E-08,NaN,NaN,-0.1283413,-6.984995E-11,-1.129249E-07,-1.117056E-07,1.74039E-08,-2.861022E-08
622.5887,-0.01453735,-6.094778E-09,NaN,-0.8292649,-1.335973E-07,NaN,-1.56591,-4.096411E-07,NaN,-1.694562,1.832868E-05,-0.06046842,8.18364E-08,NaN,NaN,-0.1290592,-7.916317E-11,-9.988639E-08,-1.117065E-07,1.025135E-08,-2.622604E-08
622.6038,-0.01454361,-6.093982E-09,NaN,-0.8282027,-1.335977E-07,NaN,-1.565984,-4.097881E-07,NaN,-1.68803,1.832917E-05,-0.06882045,8.198484E-08,NaN,NaN,-0.1297629,-7.916317E-11,-8.729491E-08,-1.117075E-07,1.501972E-08,-2.861022E-08
622.6187,-0.01454361,-6.093982E-09,NaN,-0.8282027,-1.335977E-07,NaN,-1.565984,-4.097881E-07,NaN,-1.68803,1.832917E-05,-0.06882045,8.198484E-08,NaN,NaN,-0.1297629,-7.916317E-11,-8.729491E-08,-1.117075E-07,1.501972E-08,-2.861022E-08
622.6326,-0.01454969,-6.093187E-09,NaN,-0.8271335,-1.33598E-07,NaN,-1.566034,-4.09932E-07,NaN,-1.681515,1.832966E-05,-0.07700079,8.213031E-08,NaN,NaN,-0.130452,-8.847639E-11,-7.403288E-08,-1.117084E-07,1.501972E-08,-2.622604E-08
622.6479,-0.01455568,-6.092391E-09,NaN,-0.8260649,-1.335983E-07,NaN,-1.566067,-4.100731E-07,NaN,-1.675056,1.833014E-05,-0.08501487,8.227284E-08,NaN,NaN,-0.1311276,-8.847639E-11,-6.099437E-08,-1.117094E-07,1.978809E-08,-2.861022E-08
622.6624,-0.01456163,-6.091596E-09,NaN,-0.8250014,-1.335986E-07,NaN,-1.566087,-4.10214E-07,NaN,-1.66867,1.833064E-05,-0.09286691,8.241533E-08,NaN,NaN,-0.1317899,-9.778962E-11,-4.765783E-08,-1.117103E-07,2.455646E-08,-2.622604E-08
622.6769,-0.01456163,-6.091596E-09,NaN,-0.8250014,-1.335986E-07,NaN,-1.566087,-4.10214E-07,NaN,-1.66867,1.833064E-05,-0.09286691,8.241533E-08,NaN,NaN,-0.1317899,-9.778962E-11,-4.765783E-08,-1.117103E-07,2.455646E-08,-2.622604E-08
622.691,-0.01456757,-6.090801E-09,NaN,-0.8239458,-1.33599E-07,NaN,-1.566095,-4.103521E-07,NaN,-1.662366,1.833112E-05,-0.1005606,8.255495E-08,NaN,NaN,-0.1324392,-9.778962E-11,-3.618393E-08,-1.117113E-07,2.694065E-08,-2.861022E-08
622.7065,-0.0145733,-6.090005E-09,NaN,-0.8229691,-1.335993E-07,NaN,-1.566029,-4.104903E-07,NaN,-1.656722,1.833161E-05,-0.1065572,8.269458E-08,NaN,NaN,-0.1329465,-1.071028E-10,-3.096853E-08,-1.117122E-07,2.455646E-08,-2.622604E-08
622.7214,-0.0145788,-6.08921E-09,NaN,-0.8220455,-1.335996E-07,NaN,-1.565992,-4.106256E-07,NaN,-1.651439,1.83321E-05,-0.1124389,8.283139E-08,NaN,NaN,-0.1334439,-1.071028E-10,-2.396498E-08,-1.117131E-07,2.455646E-08,-2.861022E-08
622.7358,-0.0145788,-6.08921E-09,NaN,-0.8220455,-1.335996E-07,NaN,-1.565992,-4.106256E-07,NaN,-1.651439,1.83321E-05,-0.1124389,8.283139E-08,NaN,NaN,-0.1334439,-1.071028E-10,-2.396498E-08,-1.117131E-07,2.455646E-08,-2.861022E-08
622.7498,-0.01458408,-6.088414E-09,NaN,-0.8211587,-1.335999E-07,NaN,-1.565966,-4.107581E-07,NaN,-1.646374,1.833259E-05,-0.1182058,8.296545E-08,NaN,NaN,-0.1339315,-1.164161E-10,-1.666341E-08,-1.117141E-07,2.217227E-08,-2.622604E-08
622.7652,-0.0145892,-6.087618E-09,NaN,-0.8202987,-1.336002E-07,NaN,-1.565943,-4.108908E-07,NaN,-1.641454,1.833307E-05,-0.1238585,8.309963E-08,NaN,NaN,-0.1344096,-1.164161E-10,-8.467775E-09,-1.11715E-07,1.978809E-08,-2.861022E-08
622.7802,-0.01459398,-6.086823E-09,NaN,-0.8195283,-1.336006E-07,NaN,-1.565873,-4.109692E-07,NaN,-1.637216,1.833356E-05,-0.1278641,8.317954E-08,NaN,NaN,-0.134749,-1.164161E-10,-9.212833E-09,-1.117159E-07,1.74039E-08,-2.622604E-08
622.7943,-0.01459398,-6.086823E-09,NaN,-0.8195283,-1.336006E-07,NaN,-1.565873,-4.109692E-07,NaN,-1.637216,1.833356E-05,-0.1278641,8.317954E-08,NaN,NaN,-0.134749,-1.164161E-10,-9.212833E-09,-1.117159E-07,1.74039E-08,-2.622604E-08
622.8104,-0.01459843,-6.086027E-09,NaN,-0.8188167,-1.336009E-07,NaN,-1.565828,-4.11046E-07,NaN,-1.633342,1.833405E-05,-0.1317924,8.325782E-08,NaN,NaN,-0.1350818,-1.117595E-10,-6.977659E-09,-1.117169E-07,1.263553E-08,-2.861022E-08
622.8246,-0.0146026,-6.085231E-09,NaN,-0.8181445,-1.336012E-07,NaN,-1.565794,-4.11124E-07,NaN,-1.629677,1.833453E-05,-0.1356438,8.333731E-08,NaN,NaN,-0.135408,-1.071028E-10,-3.252369E-09,-1.117178E-07,1.501972E-08,-2.622604E-08
622.8382,-0.0146026,-6.085231E-09,NaN,-0.8181445,-1.336012E-07,NaN,-1.565794,-4.11124E-07,NaN,-1.629677,1.833453E-05,-0.1356438,8.333731E-08,NaN,NaN,-0.135408,-1.071028E-10,-3.252369E-09,-1.117178E-07,1.501972E-08,-2.622604E-08
622.8522,-0.01460635,-6.084435E-09,NaN,-0.817569,-1.336015E-07,NaN,-1.565729,-4.112003E-07,NaN,-1.626716,1.833501E-05,-0.1378885,8.341518E-08,NaN,NaN,-0.1355986,-1.024462E-10,-8.765799E-09,-1.117187E-07,1.501972E-08,-2.861022E-08
622.8674,-0.01460969,-6.083639E-09,NaN,-0.8170556,-1.336018E-07,NaN,-1.565685,-4.112751E-07,NaN,-1.62412,1.83355E-05,-0.1400893,8.349146E-08,NaN,NaN,-0.1357855,-9.778961E-11,-1.204405E-08,-1.117196E-07,1.74039E-08,-2.622604E-08
622.8821,-0.0146127,-6.082844E-09,NaN,-0.816583,-1.336021E-07,NaN,-1.56565,-4.113512E-07,NaN,-1.621727,1.833598E-05,-0.1422466,8.3569E-08,NaN,NaN,-0.1359687,-9.313299E-11,-1.278911E-08,-1.117205E-07,1.501972E-08,-2.861022E-08
622.8963,-0.0146127,-6.082844E-09,NaN,-0.816583,-1.336021E-07,NaN,-1.56565,-4.113512E-07,NaN,-1.621727,1.833598E-05,-0.1422466,8.3569E-08,NaN,NaN,-0.1359687,-9.313299E-11,-1.278911E-08,-1.117205E-07,1.501972E-08,-2.861022E-08
622.9103,-0.01461546,-6.082048E-09,NaN,-0.8161377,-1.336024E-07,NaN,-1.565619,-4.114256E-07,NaN,-1.619451,1.833647E-05,-0.1443613,8.364495E-08,NaN,NaN,-0.1361483,-9.313299E-11,-1.338516E-08,-1.117214E-07,1.74039E-08,-2.622604E-08
622.9269,-0.01461783,-6.081252E-09,NaN,-0.8157804,-1.336027E-07,NaN,-1.565566,-4.115013E-07,NaN,-1.617825,1.833696E-05,-0.1449067,8.372217E-08,NaN,NaN,-0.1361951,-9.313299E-11,-2.381597E-08,-1.117224E-07,1.74039E-08,-2.861022E-08
622.9402,-0.01461982,-6.080456E-09,NaN,-0.8154791,-1.336031E-07,NaN,-1.565526,-4.115754E-07,NaN,-1.616527,1.833745E-05,-0.1454401,8.379781E-08,NaN,NaN,-0.136241,-9.313299E-11,-3.007446E-08,-1.117233E-07,1.74039E-08,-2.622604E-08
622.9549,-0.01461982,-6.080456E-09,NaN,-0.8154791,-1.336031E-07,NaN,-1.565526,-4.115754E-07,NaN,-1.616527,1.833745E-05,-0.1454401,8.379781E-08,NaN,NaN,-0.136241,-9.313299E-11,-3.007446E-08,-1.117233E-07,1.74039E-08,-2.622604E-08
622.9689,-0.0146215,-6.079661E-09,NaN,-0.8152137,-1.336034E-07,NaN,-1.565493,-4.115255E-07,NaN,-1.615403,1.833793E-05,-0.1459621,8.374944E-08,NaN,NaN,-0.1362861,-8.381977E-11,-3.57369E-08,-1.117242E-07,1.74039E-08,-2.861022E-08
622.9845,-0.01462295,-6.078865E-09,NaN,-0.8149716,-1.336037E-07,NaN,-1.565463,-4.114765E-07,NaN,-1.614374,1.833842E-05,-0.1464735,8.370196E-08,NaN,NaN,-0.1363302,-8.381977E-11,-4.005824E-08,-1.11725E-07,1.501972E-08,-2.622604E-08
622.999,-0.01462295,-6.078865E-09,NaN,-0.8149716,-1.336037E-07,NaN,-1.565463,-4.114765E-07,NaN,-1.614374,1.833842E-05,-0.1464735,8.370196E-08,NaN,NaN,-0.1363302,-8.381977E-11,-4.005824E-08,-1.11725E-07,1.501972E-08,-2.622604E-08
623.0129,-0.01462402,-6.07807E-09,NaN,-0.8148143,-1.33604E-07,NaN,-1.565415,-4.114284E-07,NaN,-1.613973,1.833891E-05,-0.1454484,8.365533E-08,NaN,NaN,-0.1362442,-8.381977E-11,-5.436335E-08,-1.117259E-07,1.978809E-08,-2.861022E-08
623.0281,-0.01462487,-6.077275E-09,NaN,-0.8147101,-1.336043E-07,NaN,-1.565376,-4.113839E-07,NaN,-1.613883,1.83394E-05,-0.1444411,8.361237E-08,NaN,NaN,-0.13616,-8.381977E-11,-6.52412E-08,-1.117268E-07,1.978809E-08,-2.622604E-08
623.043,-0.01462558,-6.07648E-09,NaN,-0.814639,-1.336046E-07,NaN,-1.565342,-4.113402E-07,NaN,-1.613946,1.833989E-05,-0.1434522,8.357018E-08,NaN,NaN,-0.1360773,-8.381977E-11,-7.433091E-08,-1.117277E-07,1.978809E-08,-2.861022E-08
623.0574,-0.01462558,-6.07648E-09,NaN,-0.814639,-1.336046E-07,NaN,-1.565342,-4.113402E-07,NaN,-1.613946,1.833989E-05,-0.1434522,8.357018E-08,NaN,NaN,-0.1360773,-8.381977E-11,-7.433091E-08,-1.117277E-07,1.978809E-08,-2.861022E-08
623.0715,-0.01462609,-6.075684E-09,NaN,-0.8146566,-1.336049E-07,NaN,-1.565291,-4.112973E-07,NaN,-1.614661,1.834038E-05,-0.1409556,8.352875E-08,NaN,NaN,-0.1358671,-8.381977E-11,-9.310638E-08,-1.117286E-07,2.455646E-08,-2.622604E-08
623.0868,-0.01462647,-6.074889E-09,NaN,-0.8147287,-1.336052E-07,NaN,-1.565246,-4.112579E-07,NaN,-1.615689,1.834087E-05,-0.1385047,8.349087E-08,NaN,NaN,-0.1356609,-8.381977E-11,-1.078585E-07,-1.117294E-07,1.74039E-08,-2.861022E-08
623.1035,-0.01462676,-6.074094E-09,NaN,-0.8148342,-1.336056E-07,NaN,-1.565205,-4.112192E-07,NaN,-1.616864,1.834136E-05,-0.1361,8.345368E-08,NaN,NaN,-0.1354588,-8.381977E-11,-1.194814E-07,-1.117303E-07,1.74039E-08,-2.622604E-08
623.1171,-0.01462676,-6.074094E-09,NaN,-0.8148342,-1.336056E-07,NaN,-1.565205,-4.112192E-07,NaN,-1.616864,1.834136E-05,-0.1361,8.345368E-08,NaN,NaN,-0.1354588,-8.381977E-11,-1.194814E-07,-1.117303E-07,1.74039E-08,-2.622604E-08
623.131,-0.01462701,-6.073298E-09,NaN,-0.8149598,-1.336059E-07,NaN,-1.565164,-4.111812E-07,NaN,-1.618105,1.834185E-05,-0.1337413,8.341713E-08,NaN,NaN,-0.1352606,-8.381977E-11,-1.296142E-07,-1.117312E-07,1.74039E-08,-2.861022E-08
623.1454,-0.01462709,-6.072503E-09,NaN,-0.8151665,-1.336062E-07,NaN,-1.5651,-4.111466E-07,NaN,-1.619944,1.834233E-05,-0.1298995,8.338407E-08,NaN,NaN,-0.1349371,-8.381977E-11,-1.498798E-07,-1.11732E-07,1.501972E-08,-2.622604E-08
623.1597,-0.01462709,-6.072503E-09,NaN,-0.8151665,-1.336062E-07,NaN,-1.5651,-4.111466E-07,NaN,-1.619944,1.834233E-05,-0.1298995,8.338407E-08,NaN,NaN,-0.1349371,-8.381977E-11,-1.498798E-07,-1.11732E-07,1.501972E-08,-2.622604E-08
623.1737,-0.01462705,-6.071708E-09,NaN,-0.8154224,-1.336065E-07,NaN,-1.565043,-4.111126E-07,NaN,-1.62206,1.834282E-05,-0.1261299,8.335157E-08,NaN,NaN,-0.1346199,-8.381977E-11,-1.658985E-07,-1.117329E-07,1.263553E-08,-2.861022E-08
623.1889,-0.01462694,-6.070912E-09,NaN,-0.8157075,-1.336068E-07,NaN,-1.564987,-4.11082E-07,NaN,-1.624299,1.834331E-05,-0.122432,8.332247E-08,NaN,NaN,-0.1343089,-8.381977E-11,-1.790116E-07,-1.117338E-07,1.501972E-08,-2.622604E-08
623.2036,-0.01462677,-6.070117E-09,NaN,-0.8160093,-1.336071E-07,NaN,-1.564931,-4.110519E-07,NaN,-1.626582,1.83438E-05,-0.1188051,8.329386E-08,NaN,NaN,-0.134004,-8.381977E-11,-1.90411E-07,-1.117346E-07,1.501972E-08,-2.861022E-08
623.2182,-0.01462677,-6.070117E-09,NaN,-0.8160093,-1.336071E-07,NaN,-1.564931,-4.110519E-07,NaN,-1.626582,1.83438E-05,-0.1188051,8.329386E-08,NaN,NaN,-0.134004,-8.381977E-11,-1.90411E-07,-1.117346E-07,1.501972E-08,-2.861022E-08
623.2322,-0.01462645,-6.069321E-09,NaN,-0.8163894,-1.336074E-07,NaN,-1.564843,-4.110223E-07,NaN,-1.629446,1.834429E-05,-0.1137161,8.326575E-08,NaN,NaN,-0.1335758,-8.381977E-11,-2.111236E-07,-1.117355E-07,7.867159E-09,-2.622604E-08
623.2477,-0.014626,-6.068526E-09,NaN,-0.8168162,-1.336077E-07,NaN,-1.564761,-4.109931E-07,NaN,-1.63257,1.834477E-05,-0.1087238,8.323811E-08,NaN,NaN,-0.133156,-7.450655E-11,-2.271423E-07,-1.117363E-07,1.025134E-08,-2.861022E-08
623.2621,-0.01462548,-6.06773E-09,NaN,-0.8172697,-1.33608E-07,NaN,-1.564682,-4.109673E-07,NaN,-1.635801,1.834525E-05,-0.1038271,8.321377E-08,NaN,NaN,-0.1327444,-6.053671E-11,-2.409259E-07,-1.117372E-07,1.263553E-08,-2.622604E-08
