JMolnar6/NonAnthroHands_User_Study/HandsLoggerWithURDF/tempdata/PID 0 (test)/files/Reachy_PID0_JointMotion_gesture_12_57.csv
Time,r_shoulder,r_shoulder_x,r_upper_arm,r_forearm,r_wrist,r_wrist2hand,
803.7833,-0.644776,4.631707E-10,NaN,-0.6365081,-1.321122E-07,NaN,0.118771,-4.731943E-07,NaN,-0.646167,2.228815E-05,0.08288258,5.164243E-08,NaN,NaN,0.1334802,-3.771863E-10,-1.825002E-06,-1.097034E-07,7.346751E-09,-2.622604E-08
803.7971,-0.644776,4.631707E-10,NaN,-0.6365081,-1.321122E-07,NaN,0.118771,-4.731943E-07,NaN,-0.646167,2.228815E-05,0.08288258,5.164243E-08,NaN,NaN,0.1334802,-3.771863E-10,-1.825002E-06,-1.097034E-07,7.346751E-09,-2.622604E-08
803.8111,-0.6406056,4.638043E-10,NaN,-0.6329093,-1.321113E-07,NaN,0.117768,-4.730892E-07,NaN,-0.6446522,2.228852E-05,0.08480489,5.153863E-08,NaN,NaN,0.13358,-3.771863E-10,-1.822618E-06,-1.097022E-07,6.154658E-09,-2.861022E-08
803.8266,-0.6364058,4.644377E-10,NaN,-0.629279,-1.321105E-07,NaN,0.1168412,-4.729831E-07,NaN,-0.6431276,2.228891E-05,0.08674116,5.143399E-08,NaN,NaN,0.1336779,-3.911561E-10,-1.821425E-06,-1.09701E-07,4.366519E-09,-2.622604E-08
803.8423,-0.6322095,4.650712E-10,NaN,-0.6256462,-1.321096E-07,NaN,0.1160183,-4.728791E-07,NaN,-0.6415994,2.228928E-05,0.08862656,5.133134E-08,NaN,NaN,0.133774,-3.911561E-10,-1.817849E-06,-1.096997E-07,3.174426E-09,-2.861022E-08
803.856,-0.6322095,4.650712E-10,NaN,-0.6256462,-1.321096E-07,NaN,0.1160183,-4.728791E-07,NaN,-0.6415994,2.228928E-05,0.08862656,5.133134E-08,NaN,NaN,0.133774,-3.911561E-10,-1.817849E-06,-1.096997E-07,3.174426E-09,-2.861022E-08
803.8699,-0.6282623,4.657046E-10,NaN,-0.622228,-1.321088E-07,NaN,0.1158356,-4.727742E-07,NaN,-0.6403292,2.228967E-05,0.08977335,5.122783E-08,NaN,NaN,0.1341496,-4.05126E-10,-1.814273E-06,-1.096985E-07,5.558611E-09,-2.622604E-08
803.8855,-0.6244796,4.663381E-10,NaN,-0.6189514,-1.321079E-07,NaN,0.1158267,-4.726685E-07,NaN,-0.6390894,2.229004E-05,0.09061883,5.112348E-08,NaN,NaN,0.1345177,-4.05126E-10,-1.804736E-06,-1.096973E-07,6.154658E-09,-2.861022E-08
803.9001,-0.6208115,4.669714E-10,NaN,-0.6157732,-1.321071E-07,NaN,0.1158262,-4.725648E-07,NaN,-0.6378836,2.229043E-05,0.09136079,5.102112E-08,NaN,NaN,0.1348786,-4.190958E-10,-1.792815E-06,-1.096961E-07,4.962565E-09,-2.622604E-08
803.9147,-0.6208115,4.669714E-10,NaN,-0.6157732,-1.321071E-07,NaN,0.1158262,-4.725648E-07,NaN,-0.6378836,2.229043E-05,0.09136079,5.102112E-08,NaN,NaN,0.1348786,-4.190958E-10,-1.792815E-06,-1.096961E-07,4.962565E-09,-2.622604E-08
803.9289,-0.6174541,4.676048E-10,NaN,-0.6128673,-1.321062E-07,NaN,0.1163415,-4.724602E-07,NaN,-0.636962,2.22908E-05,0.09139833,5.091791E-08,NaN,NaN,0.1355139,-4.237524E-10,-1.785663E-06,-1.096949E-07,9.13489E-09,-2.861022E-08
803.9442,-0.6142955,4.682381E-10,NaN,-0.6101361,-1.321054E-07,NaN,0.1169262,-4.723576E-07,NaN,-0.6360866,2.229119E-05,0.09118796,5.081666E-08,NaN,NaN,0.1361366,-4.377222E-10,-1.767781E-06,-1.096938E-07,9.13489E-09,-2.622604E-08
803.9589,-0.6142955,4.682381E-10,NaN,-0.6101361,-1.321054E-07,NaN,0.1169262,-4.723576E-07,NaN,-0.6360866,2.229119E-05,0.09118796,5.081666E-08,NaN,NaN,0.1361366,-4.377222E-10,-1.767781E-06,-1.096938E-07,9.13489E-09,-2.622604E-08
803.973,-0.6112694,4.688714E-10,NaN,-0.6075211,-1.321045E-07,NaN,0.1174429,-4.722541E-07,NaN,-0.635253,2.229156E-05,0.09092369,5.071453E-08,NaN,NaN,0.136747,-4.423788E-10,-1.75288E-06,-1.096926E-07,1.092303E-08,-2.861022E-08
803.9887,-0.6083362,4.695048E-10,NaN,-0.6049873,-1.321037E-07,NaN,0.1178744,-4.721497E-07,NaN,-0.6344514,2.229194E-05,0.0906683,5.061152E-08,NaN,NaN,0.1373455,-4.470354E-10,-1.737383E-06,-1.096914E-07,9.730937E-09,-2.622604E-08
804.0032,-0.6056968,4.70138E-10,NaN,-0.602713,-1.321029E-07,NaN,0.118785,-4.720473E-07,NaN,-0.6339278,2.229232E-05,0.08976415,5.051048E-08,NaN,NaN,0.1382137,-4.51692E-10,-1.719502E-06,-1.096902E-07,9.13489E-09,-2.861022E-08
804.0185,-0.6056968,4.70138E-10,NaN,-0.602713,-1.321029E-07,NaN,0.118785,-4.720473E-07,NaN,-0.6339278,2.229232E-05,0.08976415,5.051048E-08,NaN,NaN,0.1382137,-4.51692E-10,-1.719502E-06,-1.096902E-07,9.13489E-09,-2.861022E-08
804.0338,-0.6032445,4.707713E-10,NaN,-0.6006044,-1.32102E-07,NaN,0.1197507,-4.71944E-07,NaN,-0.6334425,2.229269E-05,0.0886424,5.040854E-08,NaN,NaN,0.1390648,-4.563487E-10,-1.700428E-06,-1.09689E-07,1.211512E-08,-2.622604E-08
804.0478,-0.6009153,4.714044E-10,NaN,-0.5986047,-1.321012E-07,NaN,0.12064,-4.718426E-07,NaN,-0.632991,2.229307E-05,0.08748731,5.030856E-08,NaN,NaN,0.1398992,-4.610053E-10,-1.678374E-06,-1.096879E-07,1.211512E-08,-2.861022E-08
804.0626,-0.5986707,4.720375E-10,NaN,-0.5966796,-1.321004E-07,NaN,0.121436,-4.717403E-07,NaN,-0.6325645,2.229345E-05,0.08635849,5.020765E-08,NaN,NaN,0.1407172,-4.656619E-10,-1.658109E-06,-1.096867E-07,1.628745E-08,-2.622604E-08
804.0773,-0.5986707,4.720375E-10,NaN,-0.5966796,-1.321004E-07,NaN,0.121436,-4.717403E-07,NaN,-0.6325645,2.229345E-05,0.08635849,5.020765E-08,NaN,NaN,0.1407172,-4.656619E-10,-1.658109E-06,-1.096867E-07,1.628745E-08,-2.622604E-08
804.0934,-0.5967113,4.726706E-10,NaN,-0.5950077,-1.320996E-07,NaN,0.1226999,-4.716316E-07,NaN,-0.6324093,2.229382E-05,0.08459912,5.010022E-08,NaN,NaN,0.1418007,-4.656619E-10,-1.637247E-06,-1.096856E-07,1.56914E-08,-2.861022E-08
804.1069,-0.594932,4.733036E-10,NaN,-0.5934962,-1.320985E-07,NaN,0.1240096,-4.716461E-07,NaN,-0.6322855,2.229419E-05,0.08263782,5.011615E-08,NaN,NaN,0.1428628,-4.656619E-10,-1.611021E-06,-1.096849E-07,1.509536E-08,-2.622604E-08
804.1217,-0.5932694,4.739366E-10,NaN,-0.5920885,-1.320976E-07,NaN,0.1252328,-4.716434E-07,NaN,-0.632189,2.229457E-05,0.08065872,5.011479E-08,NaN,NaN,0.143904,-4.656619E-10,-1.585391E-06,-1.096842E-07,1.747954E-08,-2.861022E-08
804.1362,-0.5932694,4.739366E-10,NaN,-0.5920885,-1.320976E-07,NaN,0.1252328,-4.716434E-07,NaN,-0.632189,2.229457E-05,0.08065872,5.011479E-08,NaN,NaN,0.143904,-4.656619E-10,-1.585391E-06,-1.096842E-07,1.747954E-08,-2.861022E-08
804.1503,-0.5919085,4.745696E-10,NaN,-0.5909497,-1.320966E-07,NaN,0.1268937,-4.716321E-07,NaN,-0.6323662,2.229494E-05,0.07805409,5.010494E-08,NaN,NaN,0.1452064,-4.656619E-10,-1.563933E-06,-1.096836E-07,1.747954E-08,-2.622604E-08
804.1658,-0.590736,4.752024E-10,NaN,-0.5899792,-1.320956E-07,NaN,0.1285678,-4.716154E-07,NaN,-0.6325746,2.229531E-05,0.07526577,5.008959E-08,NaN,NaN,0.1464831,-4.656619E-10,-1.535919E-06,-1.09683E-07,1.509536E-08,-2.861022E-08
804.1801,-0.5896832,4.758353E-10,NaN,-0.5891157,-1.320947E-07,NaN,0.1301267,-4.715961E-07,NaN,-0.6328086,2.229568E-05,0.07248147,5.007167E-08,NaN,NaN,0.1477347,-4.656619E-10,-1.504925E-06,-1.096824E-07,1.390326E-08,-2.622604E-08
804.1949,-0.5896832,4.758353E-10,NaN,-0.5891157,-1.320947E-07,NaN,0.1301267,-4.715961E-07,NaN,-0.6328086,2.229568E-05,0.07248147,5.007167E-08,NaN,NaN,0.1477347,-4.656619E-10,-1.504925E-06,-1.096824E-07,1.390326E-08,-2.622604E-08
804.2093,-0.5887077,4.76468E-10,NaN,-0.5883211,-1.320937E-07,NaN,0.1315578,-4.715743E-07,NaN,-0.6330586,2.229606E-05,0.06976072,5.005122E-08,NaN,NaN,0.1489618,-4.656619E-10,-1.474526E-06,-1.096818E-07,1.271117E-08,-2.861022E-08
804.2247,-0.5880072,4.771006E-10,NaN,-0.5877721,-1.320928E-07,NaN,0.1334188,-4.715528E-07,NaN,-0.6335714,2.229643E-05,0.0664499,5.003112E-08,NaN,NaN,0.1504463,-4.656619E-10,-1.443532E-06,-1.096812E-07,1.56914E-08,-2.622604E-08
804.2394,-0.5880072,4.771006E-10,NaN,-0.5877721,-1.320928E-07,NaN,0.1334188,-4.715528E-07,NaN,-0.6335714,2.229643E-05,0.0664499,5.003112E-08,NaN,NaN,0.1504463,-4.656619E-10,-1.443532E-06,-1.096812E-07,1.56914E-08,-2.622604E-08
804.2537,-0.587477,4.777332E-10,NaN,-0.5873755,-1.320918E-07,NaN,0.1352993,-4.715288E-07,NaN,-0.6341048,2.22968E-05,0.06296913,5.000854E-08,NaN,NaN,0.1519017,-4.656619E-10,-1.411941E-06,-1.096806E-07,1.509536E-08,-2.861022E-08
804.2692,-0.5870534,4.783658E-10,NaN,-0.5870742,-1.320909E-07,NaN,0.1370687,-4.715053E-07,NaN,-0.6346551,2.229718E-05,0.05950169,4.998635E-08,NaN,NaN,0.1533284,-4.656619E-10,-1.379159E-06,-1.0968E-07,1.56914E-08,-2.622604E-08
804.2839,-0.5866966,4.789983E-10,NaN,-0.5868325,-1.3209E-07,NaN,0.1387103,-4.714793E-07,NaN,-0.6352139,2.229755E-05,0.05610716,4.996172E-08,NaN,NaN,0.1547273,-4.656619E-10,-1.349357E-06,-1.096794E-07,1.509536E-08,-2.861022E-08
804.2986,-0.5866966,4.789983E-10,NaN,-0.5868325,-1.3209E-07,NaN,0.1387103,-4.714793E-07,NaN,-0.6352139,2.229755E-05,0.05610716,4.996172E-08,NaN,NaN,0.1547273,-4.656619E-10,-1.349357E-06,-1.096794E-07,1.509536E-08,-2.861022E-08
804.3127,-0.5866057,4.796307E-10,NaN,-0.5868285,-1.320891E-07,NaN,0.1407728,-4.714537E-07,NaN,-0.63603,2.229792E-05,0.05213636,4.993753E-08,NaN,NaN,0.1563802,-4.656619E-10,-1.316574E-06,-1.096788E-07,1.867163E-08,-2.622604E-08
804.3279,-0.5866771,4.802631E-10,NaN,-0.5869697,-1.320881E-07,NaN,0.1428486,-4.714257E-07,NaN,-0.636861,2.229829E-05,0.04800615,4.991093E-08,NaN,NaN,0.1580006,-4.656619E-10,-1.284388E-06,-1.096782E-07,1.628745E-08,-2.861022E-08
804.3438,-0.5868478,4.808953E-10,NaN,-0.5871997,-1.320872E-07,NaN,0.1448063,-4.713982E-07,NaN,-0.6377034,2.229867E-05,0.04390039,4.98848E-08,NaN,NaN,0.1595892,-4.656619E-10,-1.248029E-06,-1.096776E-07,1.56914E-08,-2.622604E-08
804.3577,-0.5868478,4.808953E-10,NaN,-0.5871997,-1.320872E-07,NaN,0.1448063,-4.713982E-07,NaN,-0.6377034,2.229867E-05,0.04390039,4.98848E-08,NaN,NaN,0.1595892,-4.656619E-10,-1.248029E-06,-1.096776E-07,1.56914E-08,-2.622604E-08
804.3718,-0.5873019,4.815275E-10,NaN,-0.5876831,-1.320863E-07,NaN,0.1471546,-4.713712E-07,NaN,-0.6388059,2.229904E-05,0.03922107,4.985913E-08,NaN,NaN,0.1614282,-4.656619E-10,-1.219418E-06,-1.09677E-07,1.56914E-08,-2.861022E-08
804.3871,-0.5879273,4.821598E-10,NaN,-0.5883198,-1.320854E-07,NaN,0.1494858,-4.713445E-07,NaN,-0.6399238,2.229941E-05,0.03439698,4.983391E-08,NaN,NaN,0.1632311,-4.656619E-10,-1.182464E-06,-1.096765E-07,1.56914E-08,-2.622604E-08
804.4017,-0.5886545,4.82792E-10,NaN,-0.5890474,-1.320845E-07,NaN,0.1516709,-4.713156E-07,NaN,-0.6410522,2.229979E-05,0.02961745,4.980631E-08,NaN,NaN,0.1649986,-4.656619E-10,-1.13776E-06,-1.096759E-07,1.68835E-08,-2.861022E-08
804.4163,-0.5886545,4.82792E-10,NaN,-0.5890474,-1.320845E-07,NaN,0.1516709,-4.713156E-07,NaN,-0.6410522,2.229979E-05,0.02961745,4.980631E-08,NaN,NaN,0.1649986,-4.656619E-10,-1.13776E-06,-1.096759E-07,1.68835E-08,-2.861022E-08
804.4302,-0.5894406,4.834241E-10,NaN,-0.5898273,-1.320836E-07,NaN,0.1536973,-4.712871E-07,NaN,-0.6421828,2.230016E-05,0.02494278,4.97792E-08,NaN,NaN,0.1667315,-4.656619E-10,-1.103189E-06,-1.096753E-07,1.68835E-08,-2.622604E-08
804.4458,-0.5904824,4.840562E-10,NaN,-0.5908354,-1.320829E-07,NaN,0.1561051,-4.711378E-07,NaN,-0.643565,2.230054E-05,0.01973002,4.963124E-08,NaN,NaN,0.168712,-4.703185E-10,-1.068619E-06,-1.096743E-07,2.165187E-08,-2.861022E-08
804.4604,-0.5916752,4.846882E-10,NaN,-0.5919781,-1.320822E-07,NaN,0.158503,-4.710082E-07,NaN,-0.6449542,2.230091E-05,0.01438453,4.950306E-08,NaN,NaN,0.1706535,-4.749751E-10,-1.029876E-06,-1.096732E-07,2.582419E-08,-2.622604E-08
804.4756,-0.5916752,4.846882E-10,NaN,-0.5919781,-1.320822E-07,NaN,0.158503,-4.710082E-07,NaN,-0.6449542,2.230091E-05,0.01438453,4.950306E-08,NaN,NaN,0.1706535,-4.749751E-10,-1.029876E-06,-1.096732E-07,2.582419E-08,-2.622604E-08
804.4896,-0.5929545,4.853202E-10,NaN,-0.5931974,-1.320815E-07,NaN,0.1607604,-4.708868E-07,NaN,-0.6463469,2.230128E-05,0.009090971,4.938299E-08,NaN,NaN,0.1725571,-4.749751E-10,-9.869603E-07,-1.096721E-07,2.642024E-08,-2.861022E-08
804.5049,-0.5942804,4.859522E-10,NaN,-0.5944577,-1.320807E-07,NaN,0.1628616,-4.707704E-07,NaN,-0.6477357,2.230166E-05,0.003909053,4.926803E-08,NaN,NaN,0.1744233,-4.796317E-10,-9.476213E-07,-1.09671E-07,2.820838E-08,-2.622604E-08
804.5211,-0.5958526,4.865841E-10,NaN,-0.5959371,-1.3208E-07,NaN,0.1653352,-4.706563E-07,NaN,-0.6493719,2.230203E-05,-0.001798549,4.915527E-08,NaN,NaN,0.1765344,-4.796317E-10,-9.076862E-07,-1.096699E-07,2.880442E-08,-2.861022E-08
804.5345,-0.5958526,4.865841E-10,NaN,-0.5959371,-1.3208E-07,NaN,0.1653352,-4.706563E-07,NaN,-0.6493719,2.230203E-05,-0.001798549,4.915527E-08,NaN,NaN,0.1765344,-4.796317E-10,-9.076862E-07,-1.096699E-07,2.880442E-08,-2.861022E-08
804.5487,-0.5975668,4.872159E-10,NaN,-0.5975425,-1.320792E-07,NaN,0.1677958,-4.705443E-07,NaN,-0.6510104,2.230241E-05,-0.007631816,4.904467E-08,NaN,NaN,0.1786042,-4.842883E-10,-8.629827E-07,-1.096688E-07,3.297675E-08,-2.622604E-08
804.564,-0.5993593,4.878477E-10,NaN,-0.5992168,-1.320785E-07,NaN,0.1701112,-4.704345E-07,NaN,-0.6526481,2.230278E-05,-0.01340464,4.893619E-08,NaN,NaN,0.1806334,-4.842883E-10,-8.224515E-07,-1.096677E-07,3.595698E-08,-2.861022E-08
804.5787,-0.5993593,4.878477E-10,NaN,-0.5992168,-1.320785E-07,NaN,0.1701112,-4.704345E-07,NaN,-0.6526481,2.230278E-05,-0.01340464,4.893619E-08,NaN,NaN,0.1806334,-4.842883E-10,-8.224515E-07,-1.096677E-07,3.595698E-08,-2.861022E-08
804.5949,-0.6014152,4.884794E-10,NaN,-0.6011248,-1.320777E-07,NaN,0.1727683,-4.703267E-07,NaN,-0.6545367,2.230316E-05,-0.0197015,4.882978E-08,NaN,NaN,0.1829043,-4.889449E-10,-7.854966E-07,-1.096666E-07,3.23807E-08,-2.622604E-08
804.6083,-0.6036208,4.89111E-10,NaN,-0.6031651,-1.320769E-07,NaN,0.175383,-4.702209E-07,NaN,-0.6564291,2.230354E-05,-0.02611078,4.872541E-08,NaN,NaN,0.1851307,-4.936015E-10,-7.467536E-07,-1.096655E-07,3.178466E-08,-2.861022E-08
804.6228,-0.6059067,4.897427E-10,NaN,-0.6052757,-1.320762E-07,NaN,0.177827,-4.701143E-07,NaN,-0.6583204,2.230391E-05,-0.03244195,4.862021E-08,NaN,NaN,0.1873136,-4.936015E-10,-7.026462E-07,-1.096644E-07,2.820838E-08,-2.622604E-08
804.6375,-0.6059067,4.897427E-10,NaN,-0.6052757,-1.320762E-07,NaN,0.177827,-4.701143E-07,NaN,-0.6583204,2.230391E-05,-0.03244195,4.862021E-08,NaN,NaN,0.1873136,-4.936015E-10,-7.026462E-07,-1.096644E-07,2.820838E-08,-2.622604E-08
804.6517,-0.6082305,4.903743E-10,NaN,-0.6074188,-1.320754E-07,NaN,0.1800899,-4.700126E-07,NaN,-0.6602026,2.230429E-05,-0.038635,4.851984E-08,NaN,NaN,0.1894536,-4.982582E-10,-6.639032E-07,-1.096633E-07,2.880443E-08,-2.861022E-08
804.6671,-0.6107919,4.910058E-10,NaN,-0.6097715,-1.320747E-07,NaN,0.1826878,-4.6991E-07,NaN,-0.6623277,2.230466E-05,-0.04531856,4.841857E-08,NaN,NaN,0.1918332,-5.029148E-10,-6.245642E-07,-1.096622E-07,3.297675E-08,-2.622604E-08
804.6815,-0.6134841,4.916372E-10,NaN,-0.6122391,-1.32074E-07,NaN,0.1852547,-4.698064E-07,NaN,-0.664449,2.230504E-05,-0.0521066,4.831641E-08,NaN,NaN,0.1941662,-5.075714E-10,-5.810528E-07,-1.096612E-07,3.655303E-08,-2.861022E-08
804.6963,-0.6134841,4.916372E-10,NaN,-0.6122391,-1.32074E-07,NaN,0.1852547,-4.698064E-07,NaN,-0.664449,2.230504E-05,-0.0521066,4.831641E-08,NaN,NaN,0.1941662,-5.075714E-10,-5.810528E-07,-1.096612E-07,3.655303E-08,-2.861022E-08
804.7103,-0.6162428,4.922686E-10,NaN,-0.6147641,-1.320732E-07,NaN,0.1876606,-4.697048E-07,NaN,-0.6665627,2.230542E-05,-0.05881276,4.82162E-08,NaN,NaN,0.1964535,-5.12228E-10,-5.381374E-07,-1.096601E-07,3.953326E-08,-2.622604E-08
804.7259,-0.6190289,4.929E-10,NaN,-0.6173118,-1.320725E-07,NaN,0.1898913,-4.696024E-07,NaN,-0.6686618,2.230579E-05,-0.06537714,4.811508E-08,NaN,NaN,0.1986959,-5.168846E-10,-4.922418E-07,-1.09659E-07,4.012931E-08,-2.861022E-08
804.7409,-0.6220449,4.935313E-10,NaN,-0.6200614,-1.320717E-07,NaN,0.1924491,-4.695018E-07,NaN,-0.6710001,2.230617E-05,-0.07242104,4.801589E-08,NaN,NaN,0.2011759,-5.168846E-10,-4.55883E-07,-1.096579E-07,3.834117E-08,-2.622604E-08
804.7555,-0.6220449,4.935313E-10,NaN,-0.6200614,-1.320717E-07,NaN,0.1924491,-4.695018E-07,NaN,-0.6710001,2.230617E-05,-0.07242104,4.801589E-08,NaN,NaN,0.2011759,-5.168846E-10,-4.55883E-07,-1.096579E-07,3.834117E-08,-2.622604E-08
804.7696,-0.6251845,4.941625E-10,NaN,-0.6229185,-1.32071E-07,NaN,0.194976,-4.694003E-07,NaN,-0.6733307,2.230653E-05,-0.07956553,4.791577E-08,NaN,NaN,0.2036074,-5.12228E-10,-4.117755E-07,-1.096569E-07,3.595698E-08,-2.861022E-08
804.7853,-0.6283838,4.947936E-10,NaN,-0.6258266,-1.320703E-07,NaN,0.1973405,-4.693007E-07,NaN,-0.6756499,2.230691E-05,-0.08662246,4.781756E-08,NaN,NaN,0.2059912,-5.215412E-10,-3.670721E-07,-1.096558E-07,3.35728E-08,-2.622604E-08
804.8,-0.6316042,4.954247E-10,NaN,-0.6287516,-1.320695E-07,NaN,0.1995278,-4.692002E-07,NaN,-0.6779513,2.230728E-05,-0.09353101,4.77184E-08,NaN,NaN,0.2083283,-5.168846E-10,-3.235607E-07,-1.096548E-07,3.178466E-08,-2.861022E-08
804.8148,-0.6316042,4.954247E-10,NaN,-0.6287516,-1.320695E-07,NaN,0.1995278,-4.692002E-07,NaN,-0.6779513,2.230728E-05,-0.09353101,4.77184E-08,NaN,NaN,0.2083283,-5.168846E-10,-3.235607E-07,-1.096548E-07,3.178466E-08,-2.861022E-08
804.8287,-0.6350498,4.960558E-10,NaN,-0.6318731,-1.320688E-07,NaN,0.2020285,-4.691015E-07,NaN,-0.6804895,2.230766E-05,-0.1009053,4.762113E-08,NaN,NaN,0.2109011,-5.261978E-10,-2.866058E-07,-1.096537E-07,3.118861E-08,-2.622604E-08
804.8452,-0.6386136,4.966868E-10,NaN,-0.6350966,-1.320681E-07,NaN,0.2044958,-4.690019E-07,NaN,-0.6830171,2.230803E-05,-0.1083748,4.75229E-08,NaN,NaN,0.2134236,-5.215412E-10,-2.436905E-07,-1.096527E-07,2.999652E-08,-2.861022E-08
804.8589,-0.6386136,4.966868E-10,NaN,-0.6350966,-1.320681E-07,NaN,0.2044958,-4.690019E-07,NaN,-0.6830171,2.230803E-05,-0.1083748,4.75229E-08,NaN,NaN,0.2134236,-5.215412E-10,-2.436905E-07,-1.096527E-07,2.999652E-08,-2.861022E-08
804.8729,-0.6422315,4.973177E-10,NaN,-0.6383657,-1.320674E-07,NaN,0.2067981,-4.689042E-07,NaN,-0.6855305,2.230841E-05,-0.1157504,4.742654E-08,NaN,NaN,0.2158966,-5.308544E-10,-1.971988E-07,-1.096516E-07,3.238071E-08,-2.622604E-08
804.8884,-0.646093,4.979487E-10,NaN,-0.6418465,-1.320666E-07,NaN,0.2093828,-4.688054E-07,NaN,-0.6882848,2.230879E-05,-0.123591,4.732918E-08,NaN,NaN,0.2186026,-5.308544E-10,-1.542835E-07,-1.096506E-07,3.059257E-08,-2.861022E-08
804.903,-0.650081,4.985796E-10,NaN,-0.645436,-1.320659E-07,NaN,0.2119075,-4.687086E-07,NaN,-0.6910304,2.230917E-05,-0.1315159,4.723369E-08,NaN,NaN,0.2212557,-5.401676E-10,-1.107721E-07,-1.096495E-07,3.118862E-08,-2.622604E-08
804.9178,-0.650081,4.985796E-10,NaN,-0.645436,-1.320659E-07,NaN,0.2119075,-4.687086E-07,NaN,-0.6910304,2.230917E-05,-0.1315159,4.723369E-08,NaN,NaN,0.2212557,-5.401676E-10,-1.107721E-07,-1.096495E-07,3.118862E-08,-2.622604E-08
804.9316,-0.6541256,4.992105E-10,NaN,-0.6490728,-1.320652E-07,NaN,0.2142448,-4.686107E-07,NaN,-0.6937625,2.230954E-05,-0.1393314,4.71372E-08,NaN,NaN,0.2238568,-5.401676E-10,-6.666467E-08,-1.096485E-07,3.238071E-08,-2.861022E-08
804.9471,-0.6581855,4.998412E-10,NaN,-0.6527206,-1.320645E-07,NaN,0.2163864,-4.685147E-07,NaN,-0.6964731,2.230992E-05,-0.1469766,4.704254E-08,NaN,NaN,0.226407,-5.494808E-10,-2.374933E-08,-1.096475E-07,3.297675E-08,-2.622604E-08
804.9618,-0.6624655,5.004721E-10,NaN,-0.6565581,-1.320638E-07,NaN,0.2188068,-4.684176E-07,NaN,-0.6994177,2.23103E-05,-0.1550545,4.694687E-08,NaN,NaN,0.2291886,-5.494808E-10,1.201346E-08,-1.096465E-07,3.059257E-08,-2.861022E-08
804.9767,-0.6624655,5.004721E-10,NaN,-0.6565581,-1.320638E-07,NaN,0.2188068,-4.684176E-07,NaN,-0.6994177,2.23103E-05,-0.1550545,4.694687E-08,NaN,NaN,0.2291886,-5.494808E-10,1.201346E-08,-1.096465E-07,3.059257E-08,-2.861022E-08
804.9908,-0.6668553,5.011028E-10,NaN,-0.6604887,-1.320631E-07,NaN,0.2211833,-4.683224E-07,NaN,-0.7023473,2.231068E-05,-0.1632118,4.685302E-08,NaN,NaN,0.2319158,-5.587941E-10,5.790903E-08,-1.096454E-07,3.35728E-08,-2.622604E-08
805.0076,-0.6712897,5.017335E-10,NaN,-0.6644556,-1.320624E-07,NaN,0.2233864,-4.682261E-07,NaN,-0.7052577,2.231105E-05,-0.1712592,4.675814E-08,NaN,NaN,0.2345896,-5.541375E-10,1.044007E-07,-1.096444E-07,3.297675E-08,-2.861022E-08
805.0211,-0.6757303,5.023642E-10,NaN,-0.6684253,-1.320616E-07,NaN,0.2254037,-4.681316E-07,NaN,-0.7081422,2.231143E-05,-0.1791355,4.666506E-08,NaN,NaN,0.237211,-5.634507E-10,1.4672E-07,-1.096434E-07,2.999652E-08,-2.622604E-08
805.0359,-0.6757303,5.023642E-10,NaN,-0.6684253,-1.320616E-07,NaN,0.2254037,-4.681316E-07,NaN,-0.7081422,2.231143E-05,-0.1791355,4.666506E-08,NaN,NaN,0.237211,-5.634507E-10,1.4672E-07,-1.096434E-07,2.999652E-08,-2.622604E-08
805.0502,-0.6803855,5.029948E-10,NaN,-0.6725783,-1.320609E-07,NaN,0.2276936,-4.680361E-07,NaN,-0.7112575,2.231179E-05,-0.1874353,4.657093E-08,NaN,NaN,0.2400624,-5.587941E-10,1.86059E-07,-1.096424E-07,3.118861E-08,-2.861022E-08
805.0653,-0.6851446,5.036253E-10,NaN,-0.6768185,-1.320602E-07,NaN,0.2299433,-4.679396E-07,NaN,-0.7143549,2.231218E-05,-0.1958132,4.647577E-08,NaN,NaN,0.242858,-5.681073E-10,2.325506E-07,-1.096414E-07,2.701629E-08,-2.622604E-08
805.0821,-0.6899427,5.042558E-10,NaN,-0.6810898,-1.320595E-07,NaN,0.2320219,-4.678449E-07,NaN,-0.7174303,2.231254E-05,-0.2040781,4.638243E-08,NaN,NaN,0.245599,-5.634507E-10,2.772541E-07,-1.096404E-07,2.671826E-08,-2.861022E-08
805.0958,-0.6899427,5.042558E-10,NaN,-0.6810898,-1.320595E-07,NaN,0.2320219,-4.678449E-07,NaN,-0.7174303,2.231254E-05,-0.2040781,4.638243E-08,NaN,NaN,0.245599,-5.634507E-10,2.772541E-07,-1.096404E-07,2.671826E-08,-2.861022E-08
805.1091,-0.6949739,5.048862E-10,NaN,-0.6855592,-1.320588E-07,NaN,0.2343437,-4.677491E-07,NaN,-0.7207403,2.231293E-05,-0.2127678,4.628804E-08,NaN,NaN,0.2485675,-5.727639E-10,3.186794E-07,-1.096394E-07,2.612222E-08,-2.622604E-08
805.1241,-0.7001171,5.055167E-10,NaN,-0.6901222,-1.320581E-07,NaN,0.2366009,-4.676552E-07,NaN,-0.7240351,2.231329E-05,-0.2215263,4.619544E-08,NaN,NaN,0.251478,-5.681073E-10,3.630848E-07,-1.096384E-07,2.314199E-08,-2.861022E-08
805.139,-0.7001171,5.055167E-10,NaN,-0.6901222,-1.320581E-07,NaN,0.2366009,-4.676552E-07,NaN,-0.7240351,2.231329E-05,-0.2215263,4.619544E-08,NaN,NaN,0.251478,-5.681073E-10,3.630848E-07,-1.096384E-07,2.314199E-08,-2.861022E-08
805.153,-0.7053018,5.06147E-10,NaN,-0.6947179,-1.320575E-07,NaN,0.2386674,-4.675601E-07,NaN,-0.727309,2.231368E-05,-0.230158,4.610179E-08,NaN,NaN,0.2543316,-5.774205E-10,4.101725E-07,-1.096374E-07,1.986373E-08,-2.622604E-08
805.1684,-0.7104871,5.067774E-10,NaN,-0.699311,-1.320568E-07,NaN,0.2405362,-4.674669E-07,NaN,-0.7305543,2.231404E-05,-0.2386012,4.600992E-08,NaN,NaN,0.2571292,-5.727639E-10,4.539819E-07,-1.096364E-07,1.956571E-08,-2.861022E-08
805.183,-0.7158833,5.074077E-10,NaN,-0.7040814,-1.320561E-07,NaN,0.2426471,-4.673726E-07,NaN,-0.7340278,2.231443E-05,-0.2474377,4.591698E-08,NaN,NaN,0.2601532,-5.820771E-10,4.93321E-07,-1.096354E-07,1.68835E-08,-2.622604E-08
805.1976,-0.7158833,5.074077E-10,NaN,-0.7040814,-1.320561E-07,NaN,0.2426471,-4.673726E-07,NaN,-0.7340278,2.231443E-05,-0.2474377,4.591698E-08,NaN,NaN,0.2601532,-5.820771E-10,4.93321E-07,-1.096354E-07,1.68835E-08,-2.622604E-08
805.2117,-0.721376,5.080379E-10,NaN,-0.708931,-1.320554E-07,NaN,0.2447124,-4.6728E-07,NaN,-0.7374806,2.231479E-05,-0.2563398,4.582581E-08,NaN,NaN,0.2631182,-5.774205E-10,5.383225E-07,-1.096344E-07,1.628745E-08,-2.861022E-08
805.2272,-0.726899,5.086681E-10,NaN,-0.7138034,-1.320547E-07,NaN,0.2466037,-4.671864E-07,NaN,-0.7409077,2.231517E-05,-0.2651164,4.573355E-08,NaN,NaN,0.2660252,-5.867337E-10,5.848141E-07,-1.096334E-07,1.926768E-08,-2.622604E-08
805.2418,-0.7324144,5.092983E-10,NaN,-0.7186659,-1.32054E-07,NaN,0.2483094,-4.670945E-07,NaN,-0.7443024,2.231554E-05,-0.2737056,4.564304E-08,NaN,NaN,0.2688751,-5.820771E-10,6.301136E-07,-1.096325E-07,1.807559E-08,-2.861022E-08
805.2567,-0.7324144,5.092983E-10,NaN,-0.7186659,-1.32054E-07,NaN,0.2483094,-4.670945E-07,NaN,-0.7443024,2.231554E-05,-0.2737056,4.564304E-08,NaN,NaN,0.2688751,-5.820771E-10,6.301136E-07,-1.096325E-07,1.807559E-08,-2.861022E-08
805.2707,-0.7381364,5.099283E-10,NaN,-0.7237002,-1.320533E-07,NaN,0.2502525,-4.670015E-07,NaN,-0.7479224,2.231592E-05,-0.28268,4.555144E-08,NaN,NaN,0.2719504,-5.913903E-10,6.700487E-07,-1.096315E-07,2.001274E-08,-2.622604E-08
805.2863,-0.7439497,5.105584E-10,NaN,-0.7288086,-1.320526E-07,NaN,0.2521557,-4.669103E-07,NaN,-0.7515197,2.231629E-05,-0.2917201,4.546158E-08,NaN,NaN,0.2749657,-5.867337E-10,7.150502E-07,-1.096305E-07,2.254594E-08,-2.861022E-08
805.301,-0.7497883,5.111884E-10,NaN,-0.7339351,-1.32052E-07,NaN,0.2538892,-4.668179E-07,NaN,-0.7550893,2.231667E-05,-0.3006333,4.537061E-08,NaN,NaN,0.2779219,-5.960469E-10,7.603498E-07,-1.096295E-07,2.656925E-08,-2.622604E-08
805.3158,-0.7497883,5.111884E-10,NaN,-0.7339351,-1.32052E-07,NaN,0.2538892,-4.668179E-07,NaN,-0.7550893,2.231667E-05,-0.3006333,4.537061E-08,NaN,NaN,0.2779219,-5.960469E-10,7.603498E-07,-1.096295E-07,2.656925E-08,-2.622604E-08
805.3297,-0.7558521,5.118184E-10,NaN,-0.739248,-1.320513E-07,NaN,0.2558318,-4.667273E-07,NaN,-0.758888,2.231704E-05,-0.3099344,4.528136E-08,NaN,NaN,0.2811014,-5.913903E-10,8.01179E-07,-1.096286E-07,2.299297E-08,-2.861022E-08
805.3459,-0.7620151,5.124483E-10,NaN,-0.7446411,-1.320506E-07,NaN,0.2577118,-4.666384E-07,NaN,-0.7626675,2.231742E-05,-0.3192929,4.519383E-08,NaN,NaN,0.2842188,-6.007035E-10,8.482667E-07,-1.096276E-07,1.874614E-08,-2.622604E-08
805.3597,-0.7620151,5.124483E-10,NaN,-0.7446411,-1.320506E-07,NaN,0.2577118,-4.666384E-07,NaN,-0.7626675,2.231742E-05,-0.3192929,4.519383E-08,NaN,NaN,0.2842188,-6.007035E-10,8.482667E-07,-1.096276E-07,1.874614E-08,-2.622604E-08
805.3739,-0.7682056,5.130781E-10,NaN,-0.7500539,-1.320499E-07,NaN,0.2594046,-4.665484E-07,NaN,-0.7664207,2.231779E-05,-0.3285117,4.510512E-08,NaN,NaN,0.2872752,-5.960469E-10,8.923741E-07,-1.096267E-07,1.747954E-08,-2.861022E-08
805.3891,-0.7743833,5.13708E-10,NaN,-0.7554524,-1.320493E-07,NaN,0.2609044,-4.664572E-07,NaN,-0.7701402,2.231817E-05,-0.3375282,4.501529E-08,NaN,NaN,0.2902717,-6.053602E-10,9.355875E-07,-1.096257E-07,1.792658E-08,-2.622604E-08
805.4036,-0.7807652,5.143378E-10,NaN,-0.7610174,-1.320486E-07,NaN,0.2626146,-4.663677E-07,NaN,-0.7740827,2.231854E-05,-0.3469024,4.492716E-08,NaN,NaN,0.2934906,-6.007035E-10,9.728403E-07,-1.096248E-07,1.293469E-08,-2.861022E-08
805.4183,-0.7807652,5.143378E-10,NaN,-0.7610174,-1.320486E-07,NaN,0.2626146,-4.663677E-07,NaN,-0.7740827,2.231854E-05,-0.3469024,4.492716E-08,NaN,NaN,0.2934906,-6.007035E-10,9.728403E-07,-1.096248E-07,1.293469E-08,-2.861022E-08
805.4323,-0.7872317,5.149675E-10,NaN,-0.7666494,-1.320479E-07,NaN,0.2642831,-4.662798E-07,NaN,-0.7780015,2.231892E-05,-0.3563316,4.484071E-08,NaN,NaN,0.2966466,-6.100168E-10,1.016054E-06,-1.096238E-07,1.408953E-08,-2.622604E-08
805.4478,-0.7937153,5.155972E-10,NaN,-0.7722921,-1.320473E-07,NaN,0.2657828,-4.661908E-07,NaN,-0.78189,2.231929E-05,-0.3656237,4.475307E-08,NaN,NaN,0.2997409,-6.053602E-10,1.059267E-06,-1.096229E-07,1.606393E-08,-2.861022E-08
805.4622,-0.8001785,5.162269E-10,NaN,-0.777914,-1.320466E-07,NaN,0.2671031,-4.661035E-07,NaN,-0.7857414,2.231967E-05,-0.374716,4.466711E-08,NaN,NaN,0.3027744,-6.146734E-10,1.100692E-06,-1.096219E-07,1.852262E-08,-2.622604E-08
805.4772,-0.8001785,5.162269E-10,NaN,-0.777914,-1.320466E-07,NaN,0.2671031,-4.661035E-07,NaN,-0.7857414,2.231967E-05,-0.374716,4.466711E-08,NaN,NaN,0.3027744,-6.146734E-10,1.100692E-06,-1.096219E-07,1.852262E-08,-2.622604E-08
805.493,-0.8068427,5.168566E-10,NaN,-0.7836979,-1.32046E-07,NaN,0.2686304,-4.660149E-07,NaN,-0.7898132,2.232004E-05,-0.3841593,4.457995E-08,NaN,NaN,0.3060296,-6.100168E-10,1.135263E-06,-1.09621E-07,2.269495E-08,-2.861022E-08
805.5066,-0.8135868,5.174863E-10,NaN,-0.7895442,-1.320453E-07,NaN,0.2701229,-4.659281E-07,NaN,-0.7938603,2.232042E-05,-0.3936584,4.449445E-08,NaN,NaN,0.3092212,-6.1933E-10,1.17937E-06,-1.096201E-07,2.016175E-08,-2.622604E-08
805.5214,-0.8203434,5.181159E-10,NaN,-0.7953972,-1.320446E-07,NaN,0.2714522,-4.6584E-07,NaN,-0.7978756,2.232079E-05,-0.40302,4.440775E-08,NaN,NaN,0.3123503,-6.146734E-10,1.220796E-06,-1.096191E-07,2.165187E-08,-2.861022E-08
805.5362,-0.8203434,5.181159E-10,NaN,-0.7953972,-1.320446E-07,NaN,0.2714522,-4.6584E-07,NaN,-0.7978756,2.232079E-05,-0.40302,4.440775E-08,NaN,NaN,0.3123503,-6.146734E-10,1.220796E-06,-1.096191E-07,2.165187E-08,-2.861022E-08
805.5504,-0.8273196,5.187455E-10,NaN,-0.8014262,-1.32044E-07,NaN,0.2729614,-4.657535E-07,NaN,-0.8021154,2.232117E-05,-0.4127368,4.43227E-08,NaN,NaN,0.3156991,-6.239866E-10,1.258049E-06,-1.096182E-07,2.20989E-08,-2.622604E-08
805.5656,-0.8343829,5.19375E-10,NaN,-0.8075235,-1.320433E-07,NaN,0.2744143,-4.656659E-07,NaN,-0.8063346,2.232154E-05,-0.4225017,4.423644E-08,NaN,NaN,0.3189826,-6.1933E-10,1.30156E-06,-1.096173E-07,2.3291E-08,-2.861022E-08
805.5803,-0.8414605,5.200045E-10,NaN,-0.813629,-1.320427E-07,NaN,0.2756883,-4.655799E-07,NaN,-0.8105242,2.232192E-05,-0.432117,4.415183E-08,NaN,NaN,0.3222018,-6.286432E-10,1.343581E-06,-1.096163E-07,2.627123E-08,-2.622604E-08
805.5947,-0.8414605,5.200045E-10,NaN,-0.813629,-1.320427E-07,NaN,0.2756883,-4.655799E-07,NaN,-0.8105242,2.232192E-05,-0.432117,4.415183E-08,NaN,NaN,0.3222018,-6.286432E-10,1.343581E-06,-1.096163E-07,2.627123E-08,-2.622604E-08
805.611,-0.8485126,5.20634E-10,NaN,-0.8197097,-1.32042E-07,NaN,0.2767787,-4.654927E-07,NaN,-0.8146763,2.232229E-05,-0.4415198,4.406599E-08,NaN,NaN,0.3253579,-6.239866E-10,1.38292E-06,-1.096154E-07,2.776134E-08,-2.861022E-08
805.6243,-0.8557643,5.212634E-10,NaN,-0.8259479,-1.320414E-07,NaN,0.2780525,-4.654071E-07,NaN,-0.8190469,2.232267E-05,-0.4512489,4.398178E-08,NaN,NaN,0.328733,-6.332998E-10,1.41615E-06,-1.096145E-07,2.865541E-08,-2.622604E-08
805.6392,-0.8557643,5.212634E-10,NaN,-0.8259479,-1.320414E-07,NaN,0.2780525,-4.654071E-07,NaN,-0.8190469,2.232267E-05,-0.4512489,4.398178E-08,NaN,NaN,0.328733,-6.332998E-10,1.41615E-06,-1.096145E-07,2.865541E-08,-2.622604E-08
805.6532,-0.8630894,5.218928E-10,NaN,-0.832242,-1.320407E-07,NaN,0.2792917,-4.653204E-07,NaN,-0.8233933,2.232304E-05,-0.4610241,4.389642E-08,NaN,NaN,0.3320423,-6.286432E-10,1.457128E-06,-1.096136E-07,3.014553E-08,-2.861022E-08
805.6683,-0.8704191,5.225221E-10,NaN,-0.8385362,-1.320401E-07,NaN,0.2803712,-4.652352E-07,NaN,-0.8277066,2.232342E-05,-0.4706533,4.381269E-08,NaN,NaN,0.3352868,-6.379564E-10,1.497212E-06,-1.096127E-07,2.746332E-08,-2.622604E-08
805.6832,-0.8777163,5.231514E-10,NaN,-0.8448001,-1.320395E-07,NaN,0.2812815,-4.651517E-07,NaN,-0.8319796,2.232379E-05,-0.4800735,4.373055E-08,NaN,NaN,0.3384677,-6.332998E-10,1.539084E-06,-1.096118E-07,2.895344E-08,-2.861022E-08
805.6978,-0.8777163,5.231514E-10,NaN,-0.8448001,-1.320395E-07,NaN,0.2812815,-4.651517E-07,NaN,-0.8319796,2.232379E-05,-0.4800735,4.373055E-08,NaN,NaN,0.3384677,-6.332998E-10,1.539084E-06,-1.096118E-07,2.895344E-08,-2.861022E-08
805.7115,-0.8852109,5.237806E-10,NaN,-0.8512175,-1.320388E-07,NaN,0.282373,-4.650669E-07,NaN,-0.8364685,2.232417E-05,-0.4898151,4.364714E-08,NaN,NaN,0.3418672,-6.42613E-10,1.571569E-06,-1.096109E-07,2.984751E-08,-2.622604E-08
805.727,-0.8927746,5.244098E-10,NaN,-0.8576869,-1.320382E-07,NaN,0.2834367,-4.649837E-07,NaN,-0.840933,2.232454E-05,-0.4996036,4.356531E-08,NaN,NaN,0.3452003,-6.379564E-10,1.610908E-06,-1.0961E-07,2.895344E-08,-2.861022E-08
805.7419,-0.9003386,5.25039E-10,NaN,-0.864153,-1.320375E-07,NaN,0.2843472,-4.648993E-07,NaN,-0.8453636,2.232492E-05,-0.5092463,4.348221E-08,NaN,NaN,0.3484682,-6.472696E-10,1.650545E-06,-1.096091E-07,2.746332E-08,-2.622604E-08
805.7567,-0.9003386,5.25039E-10,NaN,-0.864153,-1.320375E-07,NaN,0.2843472,-4.648993E-07,NaN,-0.8453636,2.232492E-05,-0.5092463,4.348221E-08,NaN,NaN,0.3484682,-6.472696E-10,1.650545E-06,-1.096091E-07,2.746332E-08,-2.622604E-08
805.7707,-0.908118,5.256681E-10,NaN,-0.8707862,-1.320369E-07,NaN,0.2854127,-4.648164E-07,NaN,-0.8500147,2.232528E-05,-0.5192159,4.34007E-08,NaN,NaN,0.351953,-6.42613E-10,1.67841E-06,-1.096082E-07,2.686727E-08,-2.861022E-08
805.786,-0.9159731,5.262971E-10,NaN,-0.8774768,-1.320363E-07,NaN,0.28643,-4.647322E-07,NaN,-0.8546461,2.232567E-05,-0.5292249,4.331791E-08,NaN,NaN,0.3553698,-6.519262E-10,1.718196E-06,-1.096073E-07,2.150286E-08,-2.622604E-08
805.8007,-0.9238295,5.269262E-10,NaN,-0.8841652,-1.320357E-07,NaN,0.2872796,-4.646496E-07,NaN,-0.8592461,2.232603E-05,-0.5390766,4.323669E-08,NaN,NaN,0.3587196,-6.472696E-10,1.757833E-06,-1.096064E-07,2.269495E-08,-2.861022E-08
805.8154,-0.9238295,5.269262E-10,NaN,-0.8841652,-1.320357E-07,NaN,0.2872796,-4.646496E-07,NaN,-0.8592461,2.232603E-05,-0.5390766,4.323669E-08,NaN,NaN,0.3587196,-6.472696E-10,1.757833E-06,-1.096064E-07,2.269495E-08,-2.861022E-08
805.8294,-0.931648,5.275551E-10,NaN,-0.8908198,-1.32035E-07,NaN,0.287958,-4.645658E-07,NaN,-0.8638059,2.232642E-05,-0.5487086,4.315418E-08,NaN,NaN,0.3620038,-6.565828E-10,1.796874E-06,-1.096055E-07,2.388704E-08,-2.622604E-08
805.8449,-0.9396634,5.281841E-10,NaN,-0.8976244,-1.320344E-07,NaN,0.2887968,-4.644835E-07,NaN,-0.8685801,2.232678E-05,-0.5586401,4.307324E-08,NaN,NaN,0.3655045,-6.519262E-10,1.829806E-06,-1.096047E-07,2.627123E-08,-2.861022E-08
805.8596,-0.9396634,5.281841E-10,NaN,-0.8976244,-1.320344E-07,NaN,0.2887968,-4.644835E-07,NaN,-0.8685801,2.232678E-05,-0.5586401,4.307324E-08,NaN,NaN,0.3655045,-6.519262E-10,1.829806E-06,-1.096047E-07,2.627123E-08,-2.861022E-08
805.8746,-0.9477414,5.288129E-10,NaN,-0.904475,-1.320338E-07,NaN,0.2896091,-4.644027E-07,NaN,-0.8733317,2.232717E-05,-0.5686093,4.299384E-08,NaN,NaN,0.3689369,-6.612395E-10,1.867878E-06,-1.096038E-07,2.150286E-08,-2.622604E-08
805.8891,-0.9558117,5.294418E-10,NaN,-0.9113163,-1.320332E-07,NaN,0.290273,-4.643206E-07,NaN,-0.8780487,2.232753E-05,-0.5784255,4.291312E-08,NaN,NaN,0.3723021,-6.565828E-10,1.906547E-06,-1.096029E-07,1.971472E-08,-2.861022E-08
805.9038,-0.9638377,5.300706E-10,NaN,-0.9181191,-1.320325E-07,NaN,0.2907802,-4.6424E-07,NaN,-0.8827228,2.232791E-05,-0.5880261,4.283393E-08,NaN,NaN,0.3756012,-6.658961E-10,1.943129E-06,-1.09602E-07,1.971472E-08,-2.622604E-08
805.9185,-0.9638377,5.300706E-10,NaN,-0.9181191,-1.320325E-07,NaN,0.2907802,-4.6424E-07,NaN,-0.8827228,2.232791E-05,-0.5880261,4.283393E-08,NaN,NaN,0.3756012,-6.658961E-10,1.943129E-06,-1.09602E-07,1.971472E-08,-2.622604E-08
805.9321,-0.9720594,5.306994E-10,NaN,-0.9250687,-1.320319E-07,NaN,0.2914462,-4.641581E-07,NaN,-0.8876088,2.232829E-05,-0.5979229,4.275341E-08,NaN,NaN,0.3791166,-6.658961E-10,1.969802E-06,-1.096012E-07,1.852262E-08,-2.861022E-08
805.9476,-0.9803397,5.313281E-10,NaN,-0.9320609,-1.320313E-07,NaN,0.2920922,-4.640778E-07,NaN,-0.8924728,2.232867E-05,-0.6078583,4.267443E-08,NaN,NaN,0.3825634,-6.752093E-10,2.008098E-06,-1.096003E-07,1.792658E-08,-2.622604E-08
805.9625,-0.988608,5.319568E-10,NaN,-0.9390408,-1.320307E-07,NaN,0.2925964,-4.639961E-07,NaN,-0.8973017,2.232904E-05,-0.6176412,4.259411E-08,NaN,NaN,0.3859427,-6.705527E-10,2.046394E-06,-1.095994E-07,1.911867E-08,-2.861022E-08
805.9784,-0.988608,5.319568E-10,NaN,-0.9390408,-1.320307E-07,NaN,0.2925964,-4.639961E-07,NaN,-0.8973017,2.232904E-05,-0.6176412,4.259411E-08,NaN,NaN,0.3859427,-6.705527E-10,2.046394E-06,-1.095994E-07,1.911867E-08,-2.861022E-08
805.9911,-0.9970893,5.325855E-10,NaN,-0.9461805,-1.320301E-07,NaN,0.293234,-4.639159E-07,NaN,-0.9023474,2.232942E-05,-0.6277267,4.251531E-08,NaN,NaN,0.3895366,-6.798659E-10,2.078506E-06,-1.095986E-07,1.971472E-08,-2.622604E-08
806.0065,-1.005635,5.332141E-10,NaN,-0.9533675,-1.320295E-07,NaN,0.2938318,-4.638344E-07,NaN,-0.9073765,2.232979E-05,-0.6378432,4.243519E-08,NaN,NaN,0.3930605,-6.752093E-10,2.116095E-06,-1.095977E-07,1.852262E-08,-2.861022E-08
806.0214,-1.014168,5.338427E-10,NaN,-0.9605433,-1.320288E-07,NaN,0.2942745,-4.637544E-07,NaN,-0.912373,2.233017E-05,-0.6477964,4.235658E-08,NaN,NaN,0.3965153,-6.845225E-10,2.154502E-06,-1.095969E-07,1.792658E-08,-2.622604E-08
806.0359,-1.014168,5.338427E-10,NaN,-0.9605433,-1.320288E-07,NaN,0.2942745,-4.637544E-07,NaN,-0.912373,2.233017E-05,-0.6477964,4.235658E-08,NaN,NaN,0.3965153,-6.845225E-10,2.154502E-06,-1.095969E-07,1.792658E-08,-2.622604E-08
806.0499,-1.022652,5.344714E-10,NaN,-0.9676777,-1.320282E-07,NaN,0.29456,-4.636759E-07,NaN,-0.917327,2.233054E-05,-0.6575248,4.227946E-08,NaN,NaN,0.3999023,-6.798659E-10,2.19034E-06,-1.09596E-07,1.733053E-08,-2.861022E-08
806.0654,-1.031332,5.350999E-10,NaN,-0.974956,-1.320276E-07,NaN,0.2949861,-4.635961E-07,NaN,-0.9224914,2.233092E-05,-0.6675309,4.220098E-08,NaN,NaN,0.4035038,-6.891791E-10,2.216715E-06,-1.095952E-07,1.733053E-08,-2.622604E-08
806.08,-1.040064,5.357284E-10,NaN,-0.9822716,-1.32027E-07,NaN,0.2953933,-4.635177E-07,NaN,-0.9276366,2.233129E-05,-0.6775664,4.212399E-08,NaN,NaN,0.4070351,-6.891791E-10,2.251658E-06,-1.095943E-07,1.852263E-08,-2.861022E-08
806.0954,-1.040064,5.357284E-10,NaN,-0.9822716,-1.32027E-07,NaN,0.2953933,-4.635177E-07,NaN,-0.9276366,2.233129E-05,-0.6775664,4.212399E-08,NaN,NaN,0.4070351,-6.891791E-10,2.251658E-06,-1.095943E-07,1.852263E-08,-2.861022E-08
806.1088,-1.048775,5.363568E-10,NaN,-0.9895697,-1.320264E-07,NaN,0.2956643,-4.63438E-07,NaN,-0.9327462,2.233167E-05,-0.6874432,4.204563E-08,NaN,NaN,0.4104971,-6.984923E-10,2.288045E-06,-1.095935E-07,2.090681E-08,-2.622604E-08
806.1262,-1.057431,5.369852E-10,NaN,-0.9968224,-1.320258E-07,NaN,0.2957923,-4.633597E-07,NaN,-0.9378105,2.233204E-05,-0.6971003,4.196875E-08,NaN,NaN,0.4138913,-6.938357E-10,2.323715E-06,-1.095927E-07,2.20989E-08,-2.861022E-08
806.1397,-1.057431,5.369852E-10,NaN,-0.9968224,-1.320258E-07,NaN,0.2957923,-4.633597E-07,NaN,-0.9378105,2.233204E-05,-0.6971003,4.196875E-08,NaN,NaN,0.4138913,-6.938357E-10,2.323715E-06,-1.095927E-07,2.20989E-08,-2.861022E-08
806.1537,-1.066283,5.376136E-10,NaN,-1.004217,-1.320252E-07,NaN,0.2960594,-4.632801E-07,NaN,-0.943083,2.233242E-05,-0.707033,4.189051E-08,NaN,NaN,0.4174998,-7.031489E-10,2.348451E-06,-1.095918E-07,2.686728E-08,-2.622604E-08
806.168,-1.075182,5.38242E-10,NaN,-1.011645,-1.320246E-07,NaN,0.2963134,-4.63202E-07,NaN,-0.9483371,2.233279E-05,-0.7169958,4.181375E-08,NaN,NaN,0.4210379,-6.984923E-10,2.381717E-06,-1.09591E-07,2.448309E-08,-2.861022E-08
806.1826,-1.084058,5.388703E-10,NaN,-1.019054,-1.32024E-07,NaN,0.2964375,-4.631253E-07,NaN,-0.9535553,2.233317E-05,-0.7268008,4.173844E-08,NaN,NaN,0.4245067,-7.078055E-10,2.418263E-06,-1.095902E-07,2.448309E-08,-2.622604E-08
806.1971,-1.084058,5.388703E-10,NaN,-1.019054,-1.32024E-07,NaN,0.2964375,-4.631253E-07,NaN,-0.9535553,2.233317E-05,-0.7268008,4.173844E-08,NaN,NaN,0.4245067,-7.078055E-10,2.418263E-06,-1.095902E-07,2.448309E-08,-2.622604E-08
806.2109,-1.093145,5.394986E-10,NaN,-1.026617,-1.320234E-07,NaN,0.296676,-4.630472E-07,NaN,-0.9589871,2.233354E-05,-0.7368885,4.166173E-08,NaN,NaN,0.4281884,-7.031489E-10,2.445867E-06,-1.095893E-07,2.567518E-08,-2.861022E-08
806.2263,-1.102285,5.401268E-10,NaN,-1.034218,-1.320228E-07,NaN,0.2968822,-4.629706E-07,NaN,-0.9644062,2.233392E-05,-0.7469984,4.158647E-08,NaN,NaN,0.4317983,-7.124621E-10,2.477457E-06,-1.095885E-07,2.448309E-08,-2.622604E-08
806.2408,-1.1114,5.40755E-10,NaN,-1.0418,-1.320222E-07,NaN,0.2969465,-4.628926E-07,NaN,-0.9697918,2.233429E-05,-0.7569405,4.150981E-08,NaN,NaN,0.4353374,-7.078055E-10,2.510463E-06,-1.095877E-07,2.567518E-08,-2.861022E-08
806.2556,-1.1114,5.40755E-10,NaN,-1.0418,-1.320222E-07,NaN,0.2969465,-4.628926E-07,NaN,-0.9697918,2.233429E-05,-0.7569405,4.150981E-08,NaN,NaN,0.4353374,-7.078055E-10,2.510463E-06,-1.095877E-07,2.567518E-08,-2.861022E-08
806.2697,-1.120453,5.413832E-10,NaN,-1.049334,-1.320217E-07,NaN,0.2968686,-4.62816E-07,NaN,-0.9751322,2.233467E-05,-0.7666556,4.143461E-08,NaN,NaN,0.4388072,-7.171188E-10,2.544289E-06,-1.095869E-07,2.567518E-08,-2.622604E-08
806.2851,-1.129704,5.420113E-10,NaN,-1.057008,-1.320211E-07,NaN,0.2969132,-4.627408E-07,NaN,-0.9806792,2.233504E-05,-0.7766309,4.136082E-08,NaN,NaN,0.4424898,-7.124621E-10,2.566194E-06,-1.095861E-07,2.686728E-08,-2.861022E-08
806.2997,-1.129704,5.420113E-10,NaN,-1.057008,-1.320211E-07,NaN,0.2969132,-4.627408E-07,NaN,-0.9806792,2.233504E-05,-0.7766309,4.136082E-08,NaN,NaN,0.4424898,-7.124621E-10,2.566194E-06,-1.095861E-07,2.686728E-08,-2.861022E-08
806.3138,-1.138995,5.426394E-10,NaN,-1.064711,-1.320205E-07,NaN,0.2969456,-4.626642E-07,NaN,-0.9862109,2.233542E-05,-0.7866274,4.128561E-08,NaN,NaN,0.4461006,-7.217754E-10,2.599498E-06,-1.095853E-07,2.686728E-08,-2.622604E-08
806.329,-1.148254,5.432676E-10,NaN,-1.072391,-1.320203E-07,NaN,0.296854,-4.624102E-07,NaN,-0.9917061,2.233579E-05,-0.796461,4.103292E-08,NaN,NaN,0.4496406,-7.124621E-10,2.630492E-06,-1.09587E-07,2.686728E-08,-2.861022E-08
806.3437,-1.157447,5.438958E-10,NaN,-1.080019,-1.320209E-07,NaN,0.2966338,-4.618479E-07,NaN,-0.9971532,2.233617E-05,-0.8060732,4.047195E-08,NaN,NaN,0.4531112,-6.984923E-10,2.66089E-06,-1.095894E-07,2.686728E-08,-2.622604E-08
806.3586,-1.157447,5.438958E-10,NaN,-1.080019,-1.320209E-07,NaN,0.2966338,-4.618479E-07,NaN,-0.9971532,2.233617E-05,-0.8060732,4.047195E-08,NaN,NaN,0.4531112,-6.984923E-10,2.66089E-06,-1.095894E-07,2.686728E-08,-2.622604E-08
806.3725,-1.166837,5.44524E-10,NaN,-1.087785,-1.32022E-07,NaN,0.2965347,-4.611272E-07,NaN,-1.002805,2.233654E-05,-0.815945,3.975263E-08,NaN,NaN,0.4567947,-6.798659E-10,2.683838E-06,-1.095922E-07,2.686728E-08,-2.861022E-08
806.3879,-1.176264,5.451523E-10,NaN,-1.095579,-1.320234E-07,NaN,0.2964281,-4.603275E-07,NaN,-1.008442,2.233692E-05,-0.8258381,3.895425E-08,NaN,NaN,0.4604063,-6.658961E-10,2.713193E-06,-1.095951E-07,2.567518E-08,-2.622604E-08
806.4047,-1.185655,5.457805E-10,NaN,-1.103347,-1.320249E-07,NaN,0.2962037,-4.594869E-07,NaN,-1.014042,2.233731E-05,-0.8355699,3.811504E-08,NaN,NaN,0.4639471,-6.519262E-10,2.74538E-06,-1.095981E-07,2.3291E-08,-2.861022E-08
806.4184,-1.185655,5.457805E-10,NaN,-1.103347,-1.320249E-07,NaN,0.2962037,-4.594869E-07,NaN,-1.014042,2.233731E-05,-0.8355699,3.811504E-08,NaN,NaN,0.4639471,-6.519262E-10,2.74538E-06,-1.095981E-07,2.3291E-08,-2.861022E-08
806.4324,-1.195258,5.464087E-10,NaN,-1.111263,-1.320266E-07,NaN,0.2960762,-4.586346E-07,NaN,-1.019853,2.233769E-05,-0.8455684,3.726402E-08,NaN,NaN,0.4676996,-6.42613E-10,2.766242E-06,-1.096012E-07,2.686728E-08,-2.622604E-08
806.4467,-1.204902,5.47037E-10,NaN,-1.119211,-1.320283E-07,NaN,0.2959227,-4.57782E-07,NaN,-1.025656,2.233808E-05,-0.8555804,3.64127E-08,NaN,NaN,0.4713787,-6.332998E-10,2.794405E-06,-1.096043E-07,2.567518E-08,-2.861022E-08
806.4612,-1.214508,5.476653E-10,NaN,-1.127133,-1.320301E-07,NaN,0.2956409,-4.569375E-07,NaN,-1.031423,2.233846E-05,-0.8654222,3.556956E-08,NaN,NaN,0.4749857,-6.239866E-10,2.824058E-06,-1.096075E-07,2.3291E-08,-2.622604E-08
806.477,-1.214508,5.476653E-10,NaN,-1.127133,-1.320301E-07,NaN,0.2956409,-4.569375E-07,NaN,-1.031423,2.233846E-05,-0.8654222,3.556956E-08,NaN,NaN,0.4749857,-6.239866E-10,2.824058E-06,-1.096075E-07,2.3291E-08,-2.622604E-08
806.4897,-1.224043,5.482936E-10,NaN,-1.135003,-1.320319E-07,NaN,0.2952323,-4.561095E-07,NaN,-1.037142,2.233885E-05,-0.8750376,3.474289E-08,NaN,NaN,0.4785221,-6.146734E-10,2.852668E-06,-1.096106E-07,2.448309E-08,-2.861022E-08
806.5052,-1.233775,5.489215E-10,NaN,-1.14301,-1.320337E-07,NaN,0.2949295,-4.554022E-07,NaN,-1.043063,2.233925E-05,-0.8849,3.403686E-08,NaN,NaN,0.4822702,-6.100168E-10,2.869656E-06,-1.096137E-07,2.448309E-08,-2.622604E-08
806.5199,-1.233775,5.489215E-10,NaN,-1.14301,-1.320337E-07,NaN,0.2949295,-4.554022E-07,NaN,-1.043063,2.233925E-05,-0.8849,3.403686E-08,NaN,NaN,0.4822702,-6.100168E-10,2.869656E-06,-1.096137E-07,2.448309E-08,-2.622604E-08
806.5338,-1.243538,5.495493E-10,NaN,-1.15104,-1.320355E-07,NaN,0.2946195,-4.547086E-07,NaN,-1.048973,2.233965E-05,-0.8947752,3.334459E-08,NaN,NaN,0.485945,-6.053602E-10,2.896031E-06,-1.096168E-07,2.567519E-08,-2.861022E-08
806.5493,-1.253258,5.501771E-10,NaN,-1.15904,-1.320372E-07,NaN,0.2941979,-4.540314E-07,NaN,-1.054845,2.234005E-05,-0.9044858,3.266867E-08,NaN,NaN,0.4895478,-6.007035E-10,2.92479E-06,-1.096199E-07,2.925147E-08,-2.622604E-08
806.5637,-1.262902,5.508051E-10,NaN,-1.166986,-1.32039E-07,NaN,0.2936626,-4.53373E-07,NaN,-1.060665,2.234046E-05,-0.9139763,3.201157E-08,NaN,NaN,0.49308,-6.007035E-10,2.952357E-06,-1.096231E-07,2.925147E-08,-2.861022E-08
806.5786,-1.262902,5.508051E-10,NaN,-1.166986,-1.32039E-07,NaN,0.2936626,-4.53373E-07,NaN,-1.060665,2.234046E-05,-0.9139763,3.201157E-08,NaN,NaN,0.49308,-6.007035E-10,2.952357E-06,-1.096231E-07,2.925147E-08,-2.861022E-08
806.5925,-1.262316,5.514333E-10,NaN,-1.167427,-1.320408E-07,NaN,0.2862185,-4.527303E-07,NaN,-1.05662,2.234087E-05,-0.9057712,3.137019E-08,NaN,NaN,0.4861428,-5.960469E-10,3.302087E-06,-1.096261E-07,3.878821E-08,-2.622604E-08
806.608,-1.25619,5.520617E-10,NaN,-1.163799,-1.320426E-07,NaN,0.2748471,-4.52103E-07,NaN,-1.050691,2.234127E-05,-0.8878911,3.074414E-08,NaN,NaN,0.4793334,-5.867337E-10,3.287484E-06,-1.096292E-07,3.401984E-08,-2.861022E-08
806.6227,-1.247168,5.526902E-10,NaN,-1.157838,-1.320444E-07,NaN,0.264126,-4.514935E-07,NaN,-1.043823,2.234167E-05,-0.8671511,3.013595E-08,NaN,NaN,0.472654,-5.820771E-10,3.159036E-06,-1.096323E-07,4.355658E-08,-2.622604E-08
806.6375,-1.247168,5.526902E-10,NaN,-1.157838,-1.320444E-07,NaN,0.264126,-4.514935E-07,NaN,-1.043823,2.234167E-05,-0.8671511,3.013595E-08,NaN,NaN,0.472654,-5.820771E-10,3.159036E-06,-1.096323E-07,4.355658E-08,-2.622604E-08
806.6517,-1.237177,5.533188E-10,NaN,-1.150854,-1.320461E-07,NaN,0.2557603,-4.508987E-07,NaN,-1.036413,2.234207E-05,-0.846778,2.954243E-08,NaN,NaN,0.4659244,-5.727639E-10,3.01375E-06,-1.096354E-07,4.11724E-08,-2.861022E-08
806.6669,-1.226852,5.539476E-10,NaN,-1.143378,-1.320479E-07,NaN,0.2490564,-4.503211E-07,NaN,-1.028734,2.234248E-05,-0.8273216,2.896614E-08,NaN,NaN,0.4593267,-5.681073E-10,2.89618E-06,-1.096384E-07,3.878821E-08,-2.622604E-08
806.6826,-1.21647,5.545765E-10,NaN,-1.135679,-1.320496E-07,NaN,0.2433871,-4.497576E-07,NaN,-1.020917,2.234288E-05,-0.8087315,2.84039E-08,NaN,NaN,0.4528584,-5.587941E-10,2.804091E-06,-1.096415E-07,4.11724E-08,-2.861022E-08
806.6973,-1.21647,5.545765E-10,NaN,-1.135679,-1.320496E-07,NaN,0.2433871,-4.497576E-07,NaN,-1.020917,2.234288E-05,-0.8087315,2.84039E-08,NaN,NaN,0.4528584,-5.587941E-10,2.804091E-06,-1.096415E-07,4.11724E-08,-2.861022E-08
806.7101,-1.206143,5.552055E-10,NaN,-1.127893,-1.320514E-07,NaN,0.2383052,-4.492107E-07,NaN,-1.01307,2.234328E-05,-0.790818,2.785826E-08,NaN,NaN,0.4465169,-5.541375E-10,2.729063E-06,-1.096445E-07,4.355658E-08,-2.622604E-08
806.7258,-1.19621,5.558347E-10,NaN,-1.12026,-1.320531E-07,NaN,0.2341298,-4.486772E-07,NaN,-1.005296,2.23437E-05,-0.7738642,2.732608E-08,NaN,NaN,0.4401198,-5.587941E-10,2.658703E-06,-1.096475E-07,3.640402E-08,-2.861022E-08
806.74,-1.186516,5.56464E-10,NaN,-1.112722,-1.320549E-07,NaN,0.2302492,-4.481598E-07,NaN,-0.9977093,2.23441E-05,-0.7574731,2.680991E-08,NaN,NaN,0.4338484,-5.541375E-10,2.594441E-06,-1.096505E-07,3.640402E-08,-2.622604E-08
806.7546,-1.186516,5.56464E-10,NaN,-1.112722,-1.320549E-07,NaN,0.2302492,-4.481598E-07,NaN,-0.9977093,2.23441E-05,-0.7574731,2.680991E-08,NaN,NaN,0.4338484,-5.541375E-10,2.594441E-06,-1.096505E-07,3.640402E-08,-2.622604E-08
806.7687,-1.176991,5.570936E-10,NaN,-1.105254,-1.320566E-07,NaN,0.2264728,-4.476552E-07,NaN,-0.9902871,2.23445E-05,-0.7414616,2.630661E-08,NaN,NaN,0.4276999,-5.448242E-10,2.533049E-06,-1.096535E-07,3.878821E-08,-2.861022E-08
806.7842,-1.1676,5.577233E-10,NaN,-1.097848,-1.320584E-07,NaN,0.2227393,-4.471661E-07,NaN,-0.983018,2.234491E-05,-0.7257455,2.581877E-08,NaN,NaN,0.421672,-5.401676E-10,2.478361E-06,-1.096565E-07,3.640402E-08,-2.622604E-08
806.7987,-1.1676,5.577233E-10,NaN,-1.097848,-1.320584E-07,NaN,0.2227393,-4.471661E-07,NaN,-0.983018,2.234491E-05,-0.7257455,2.581877E-08,NaN,NaN,0.421672,-5.401676E-10,2.478361E-06,-1.096565E-07,3.640402E-08,-2.622604E-08
806.8127,-1.15862,5.58353E-10,NaN,-1.090672,-1.320601E-07,NaN,0.2196239,-4.466893E-07,NaN,-0.9759092,2.234532E-05,-0.7107495,2.534324E-08,NaN,NaN,0.4155821,-5.448242E-10,2.412796E-06,-1.096595E-07,3.640402E-08,-2.861022E-08
806.8281,-1.149882,5.58983E-10,NaN,-1.083635,-1.320618E-07,NaN,0.2166646,-4.462273E-07,NaN,-0.9690361,2.234573E-05,-0.6961681,2.488262E-08,NaN,NaN,0.4096118,-5.401676E-10,2.355203E-06,-1.096625E-07,3.640402E-08,-2.622604E-08
806.8428,-1.141308,5.596132E-10,NaN,-1.076694,-1.320635E-07,NaN,0.2137426,-4.457772E-07,NaN,-0.9623473,2.234613E-05,-0.6818763,2.443378E-08,NaN,NaN,0.4037586,-5.308544E-10,2.300218E-06,-1.096655E-07,3.401984E-08,-2.861022E-08
806.8575,-1.141308,5.596132E-10,NaN,-1.076694,-1.320635E-07,NaN,0.2137426,-4.457772E-07,NaN,-0.9623473,2.234613E-05,-0.6818763,2.443378E-08,NaN,NaN,0.4037586,-5.308544E-10,2.300218E-06,-1.096655E-07,3.401984E-08,-2.861022E-08
806.8713,-1.13315,5.602436E-10,NaN,-1.070001,-1.320652E-07,NaN,0.2114196,-4.453415E-07,NaN,-0.9558208,2.234654E-05,-0.6682907,2.399933E-08,NaN,NaN,0.3978399,-5.261978E-10,2.237782E-06,-1.096684E-07,2.925147E-08,-2.622604E-08
806.8868,-1.125237,5.608741E-10,NaN,-1.063458,-1.320669E-07,NaN,0.2092376,-4.44917E-07,NaN,-0.9495304,2.234695E-05,-0.6550977,2.357615E-08,NaN,NaN,0.3920376,-5.308544E-10,2.180115E-06,-1.096714E-07,2.686728E-08,-2.861022E-08
806.9017,-1.117485,5.615047E-10,NaN,-1.057017,-1.320686E-07,NaN,0.2070781,-4.445064E-07,NaN,-0.9434199,2.234736E-05,-0.6421707,2.316684E-08,NaN,NaN,0.386349,-5.261978E-10,2.126322E-06,-1.096743E-07,2.686728E-08,-2.622604E-08
806.9166,-1.117485,5.615047E-10,NaN,-1.057017,-1.320686E-07,NaN,0.2070781,-4.445064E-07,NaN,-0.9434199,2.234736E-05,-0.6421707,2.316684E-08,NaN,NaN,0.386349,-5.261978E-10,2.126322E-06,-1.096743E-07,2.686728E-08,-2.622604E-08
806.9303,-1.109856,5.621356E-10,NaN,-1.050655,-1.320703E-07,NaN,0.2049162,-4.441066E-07,NaN,-0.937458,2.234777E-05,-0.6294599,2.276831E-08,NaN,NaN,0.3807719,-5.308544E-10,2.068952E-06,-1.096772E-07,2.567519E-08,-2.861022E-08
806.9478,-1.102618,5.627666E-10,NaN,-1.044532,-1.32072E-07,NaN,0.2033464,-4.437202E-07,NaN,-0.9316225,2.234817E-05,-0.617425,2.238318E-08,NaN,NaN,0.375124,-5.215412E-10,2.009198E-06,-1.096801E-07,3.044356E-08,-2.622604E-08
806.9626,-1.09561,5.633977E-10,NaN,-1.038557,-1.320737E-07,NaN,0.201922,-4.433441E-07,NaN,-0.9260024,2.234857E-05,-0.6057614,2.200835E-08,NaN,NaN,0.3695871,-5.12228E-10,1.957789E-06,-1.09683E-07,2.686728E-08,-2.861022E-08
806.9752,-1.09561,5.633977E-10,NaN,-1.038557,-1.320737E-07,NaN,0.201922,-4.433441E-07,NaN,-0.9260024,2.234857E-05,-0.6057614,2.200835E-08,NaN,NaN,0.3695871,-5.12228E-10,1.957789E-06,-1.09683E-07,2.686728E-08,-2.861022E-08
806.9893,-1.088757,5.64029E-10,NaN,-1.032685,-1.320754E-07,NaN,0.2005206,-4.429781E-07,NaN,-0.9205458,2.234898E-05,-0.594344,2.164363E-08,NaN,NaN,0.3641587,-5.075714E-10,1.907275E-06,-1.096859E-07,2.090682E-08,-2.622604E-08
807.0042,-1.082018,5.646604E-10,NaN,-1.02689,-1.320771E-07,NaN,0.1991134,-4.426248E-07,NaN,-0.9152235,2.234939E-05,-0.583123,2.129164E-08,NaN,NaN,0.3588368,-5.12228E-10,1.854524E-06,-1.096888E-07,1.375426E-08,-2.861022E-08
807.0192,-1.082018,5.646604E-10,NaN,-1.02689,-1.320771E-07,NaN,0.1991134,-4.426248E-07,NaN,-0.9152235,2.234939E-05,-0.583123,2.129164E-08,NaN,NaN,0.3588368,-5.12228E-10,1.854524E-06,-1.096888E-07,1.375426E-08,-2.861022E-08
807.0329,-1.075659,5.652919E-10,NaN,-1.021333,-1.320788E-07,NaN,0.1982934,-4.422812E-07,NaN,-0.9100065,2.23498E-05,-0.5725655,2.094931E-08,NaN,NaN,0.353439,-5.075714E-10,1.798198E-06,-1.096917E-07,1.613844E-08,-2.622604E-08
807.0483,-1.069526,5.659236E-10,NaN,-1.015926,-1.320804E-07,NaN,0.1976162,-4.419499E-07,NaN,-0.9049925,2.23502E-05,-0.5623617,2.061926E-08,NaN,NaN,0.3481473,-4.982582E-10,1.74813E-06,-1.096945E-07,1.733054E-08,-2.861022E-08
807.0628,-1.063541,5.665555E-10,NaN,-1.010621,-1.320821E-07,NaN,0.1969553,-4.416278E-07,NaN,-0.9001312,2.23506E-05,-0.5523835,2.029845E-08,NaN,NaN,0.3429595,-4.936015E-10,1.700148E-06,-1.096974E-07,1.733054E-08,-2.622604E-08
807.0778,-1.063541,5.665555E-10,NaN,-1.010621,-1.320821E-07,NaN,0.1969553,-4.416278E-07,NaN,-0.9001312,2.23506E-05,-0.5523835,2.029845E-08,NaN,NaN,0.3429595,-4.936015E-10,1.700148E-06,-1.096974E-07,1.733054E-08,-2.622604E-08
807.0917,-1.057948,5.671874E-10,NaN,-1.005567,-1.320837E-07,NaN,0.1968714,-4.413176E-07,NaN,-0.8953771,2.235102E-05,-0.5430688,1.998951E-08,NaN,NaN,0.3376932,-4.982582E-10,1.645908E-06,-1.097002E-07,1.733054E-08,-2.861022E-08
807.1071,-1.052586,5.678196E-10,NaN,-1.000669,-1.320854E-07,NaN,0.196915,-4.410161E-07,NaN,-0.8908271,2.235142E-05,-0.5340917,1.968937E-08,NaN,NaN,0.3325304,-4.936015E-10,1.596138E-06,-1.097031E-07,1.733054E-08,-2.622604E-08
807.1219,-1.047373,5.684518E-10,NaN,-0.9958773,-1.32087E-07,NaN,0.196958,-4.407234E-07,NaN,-0.8864275,2.235184E-05,-0.5253184,1.939788E-08,NaN,NaN,0.327469,-4.982582E-10,1.551733E-06,-1.097059E-07,1.733054E-08,-2.861022E-08
807.1367,-1.047373,5.684518E-10,NaN,-0.9958773,-1.32087E-07,NaN,0.196958,-4.407234E-07,NaN,-0.8864275,2.235184E-05,-0.5253184,1.939788E-08,NaN,NaN,0.327469,-4.982582E-10,1.551733E-06,-1.097059E-07,1.733054E-08,-2.861022E-08
807.1506,-1.042265,5.690843E-10,NaN,-0.9911643,-1.320887E-07,NaN,0.196971,-4.404419E-07,NaN,-0.8821478,2.235224E-05,-0.5166978,1.911768E-08,NaN,NaN,0.3225068,-4.936015E-10,1.506731E-06,-1.097087E-07,1.613844E-08,-2.622604E-08
807.1662,-1.037521,5.697169E-10,NaN,-0.9866883,-1.320903E-07,NaN,0.1975506,-4.401686E-07,NaN,-0.8779471,2.235264E-05,-0.50871,1.884573E-08,NaN,NaN,0.3174617,-4.842883E-10,1.455173E-06,-1.097115E-07,1.733054E-08,-2.861022E-08
807.1808,-1.032994,5.703496E-10,NaN,-0.9823618,-1.32092E-07,NaN,0.1982589,-4.399063E-07,NaN,-0.8739331,2.235305E-05,-0.501039,1.858469E-08,NaN,NaN,0.3125159,-4.796317E-10,1.412556E-06,-1.097143E-07,1.733054E-08,-2.622604E-08
807.1953,-1.032994,5.703496E-10,NaN,-0.9823618,-1.32092E-07,NaN,0.1982589,-4.399063E-07,NaN,-0.8739331,2.235305E-05,-0.501039,1.858469E-08,NaN,NaN,0.3125159,-4.796317E-10,1.412556E-06,-1.097143E-07,1.733054E-08,-2.622604E-08
807.2115,-1.028604,5.709824E-10,NaN,-0.9781373,-1.320936E-07,NaN,0.1989654,-4.396519E-07,NaN,-0.8700562,2.235346E-05,-0.4935533,1.833152E-08,NaN,NaN,0.3076671,-4.842883E-10,1.372323E-06,-1.097171E-07,1.256217E-08,-2.861022E-08
807.2258,-1.024312,5.716155E-10,NaN,-0.9739882,-1.320952E-07,NaN,0.1996378,-4.394052E-07,NaN,-0.8662879,2.235387E-05,-0.4862019,1.808608E-08,NaN,NaN,0.3029133,-4.796317E-10,1.328215E-06,-1.097199E-07,1.137007E-08,-2.622604E-08
807.2396,-1.024312,5.716155E-10,NaN,-0.9739882,-1.320952E-07,NaN,0.1996378,-4.394052E-07,NaN,-0.8662879,2.235387E-05,-0.4862019,1.808608E-08,NaN,NaN,0.3029133,-4.796317E-10,1.328215E-06,-1.097199E-07,1.137007E-08,-2.622604E-08
807.2536,-1.020374,5.722486E-10,NaN,-0.9700728,-1.320968E-07,NaN,0.2008718,-4.391688E-07,NaN,-0.862585,2.235428E-05,-0.4794713,1.785102E-08,NaN,NaN,0.2980727,-4.842883E-10,1.284406E-06,-1.097226E-07,1.256217E-08,-2.861022E-08
807.2687,-1.016645,5.72882E-10,NaN,-0.9663054,-1.320984E-07,NaN,0.2022298,-4.389399E-07,NaN,-0.8590598,2.235469E-05,-0.4730405,1.762333E-08,NaN,NaN,0.2933273,-4.796317E-10,1.244173E-06,-1.097254E-07,1.256217E-08,-2.622604E-08
807.2833,-1.013048,5.735155E-10,NaN,-0.9626382,-1.321001E-07,NaN,0.2035784,-4.387209E-07,NaN,-0.8556637,2.235511E-05,-0.4667757,1.740568E-08,NaN,NaN,0.288675,-4.842883E-10,1.206026E-06,-1.097281E-07,8.985887E-09,-2.861022E-08
807.2978,-1.013048,5.735155E-10,NaN,-0.9626382,-1.321001E-07,NaN,0.2035784,-4.387209E-07,NaN,-0.8556637,2.235511E-05,-0.4667757,1.740568E-08,NaN,NaN,0.288675,-4.842883E-10,1.206026E-06,-1.097281E-07,8.985887E-09,-2.861022E-08
807.3119,-1.009819,5.741493E-10,NaN,-0.9592172,-1.321017E-07,NaN,0.2054794,-4.38509E-07,NaN,-0.8523405,2.235551E-05,-0.4611318,1.719505E-08,NaN,NaN,0.2839338,-4.796317E-10,1.164005E-06,-1.097309E-07,8.985887E-09,-2.622604E-08
807.3271,-1.006806,5.747832E-10,NaN,-0.9559513,-1.321033E-07,NaN,0.2074875,-4.38304E-07,NaN,-0.8491986,2.235593E-05,-0.4557718,1.699131E-08,NaN,NaN,0.279286,-4.842883E-10,1.129136E-06,-1.097336E-07,6.601701E-09,-2.861022E-08
807.3418,-1.003928,5.754173E-10,NaN,-0.9527889,-1.321049E-07,NaN,0.2094681,-4.381085E-07,NaN,-0.8461862,2.235633E-05,-0.4505564,1.679714E-08,NaN,NaN,0.2747294,-4.796317E-10,1.094863E-06,-1.097363E-07,5.409608E-09,-2.622604E-08
807.3565,-1.003928,5.754173E-10,NaN,-0.9527889,-1.321049E-07,NaN,0.2094681,-4.381085E-07,NaN,-0.8461862,2.235633E-05,-0.4505564,1.679714E-08,NaN,NaN,0.2747294,-4.796317E-10,1.094863E-06,-1.097363E-07,5.409608E-09,-2.622604E-08
807.3704,-1.001138,5.760515E-10,NaN,-0.9497004,-1.321065E-07,NaN,0.2113892,-4.379197E-07,NaN,-0.8432732,2.235675E-05,-0.445434,1.660954E-08,NaN,NaN,0.2702621,-4.842883E-10,1.061485E-06,-1.09739E-07,5.409608E-09,-2.861022E-08
807.386,-0.998686,5.766859E-10,NaN,-0.9468414,-1.32108E-07,NaN,0.2138515,-4.377372E-07,NaN,-0.8404107,2.235715E-05,-0.4409031,1.642836E-08,NaN,NaN,0.2657023,-4.796317E-10,1.019761E-06,-1.097417E-07,6.601701E-09,-2.622604E-08
807.4006,-0.9964335,5.773205E-10,NaN,-0.9441277,-1.321096E-07,NaN,0.2164207,-4.375498E-07,NaN,-0.8377149,2.235757E-05,-0.4366365,1.624221E-08,NaN,NaN,0.2612323,-4.842883E-10,9.896612E-07,-1.097444E-07,5.409608E-09,-2.861022E-08
807.4153,-0.9964335,5.773205E-10,NaN,-0.9441277,-1.321096E-07,NaN,0.2164207,-4.375498E-07,NaN,-0.8377149,2.235757E-05,-0.4366365,1.624221E-08,NaN,NaN,0.2612323,-4.842883E-10,9.896612E-07,-1.097444E-07,5.409608E-09,-2.861022E-08
807.4293,-0.9943033,5.779552E-10,NaN,-0.9415109,-1.321112E-07,NaN,0.2189607,-4.373659E-07,NaN,-0.8351372,2.235797E-05,-0.4324979,1.605964E-08,NaN,NaN,0.25685,-4.796317E-10,9.61349E-07,-1.097472E-07,4.217515E-09,-2.622604E-08
807.4447,-0.9922525,5.785901E-10,NaN,-0.9389625,-1.321128E-07,NaN,0.2214373,-4.371884E-07,NaN,-0.8326498,2.235839E-05,-0.4284363,1.588341E-08,NaN,NaN,0.2525536,-4.842883E-10,9.333348E-07,-1.097499E-07,4.217515E-09,-2.861022E-08
807.4612,-0.9905298,5.792251E-10,NaN,-0.9366386,-1.321143E-07,NaN,0.2244517,-4.370171E-07,NaN,-0.8302042,2.235879E-05,-0.4249563,1.571339E-08,NaN,NaN,0.2481615,-4.796317E-10,8.96976E-07,-1.097526E-07,4.217515E-09,-2.622604E-08
807.474,-0.9905298,5.792251E-10,NaN,-0.9366386,-1.321143E-07,NaN,0.2244517,-4.370171E-07,NaN,-0.8302042,2.235879E-05,-0.4249563,1.571339E-08,NaN,NaN,0.2481615,-4.796317E-10,8.96976E-07,-1.097526E-07,4.217515E-09,-2.622604E-08
807.4902,-0.9889997,5.798603E-10,NaN,-0.9344568,-1.321159E-07,NaN,0.2275674,-4.368519E-07,NaN,-0.8279186,2.235921E-05,-0.4217253,1.554946E-08,NaN,NaN,0.2438558,-4.842883E-10,8.713459E-07,-1.097553E-07,4.217515E-09,-2.861022E-08
807.5043,-0.9875856,5.804956E-10,NaN,-0.9323688,-1.321175E-07,NaN,0.2306462,-4.366955E-07,NaN,-0.825745,2.235961E-05,-0.4186049,1.539432E-08,NaN,NaN,0.2396346,-4.796317E-10,8.478021E-07,-1.09758E-07,1.833329E-09,-2.622604E-08
807.5181,-0.9875856,5.804956E-10,NaN,-0.9323688,-1.321175E-07,NaN,0.2306462,-4.366955E-07,NaN,-0.825745,2.235961E-05,-0.4186049,1.539432E-08,NaN,NaN,0.2396346,-4.796317E-10,8.478021E-07,-1.09758E-07,1.833329E-09,-2.622604E-08
807.532,-0.9865167,5.811311E-10,NaN,-0.9305184,-1.32119E-07,NaN,0.2342552,-4.365449E-07,NaN,-0.8236242,2.236003E-05,-0.4160677,1.524498E-08,NaN,NaN,0.2353161,-4.842883E-10,8.159136E-07,-1.097606E-07,3.025422E-09,-2.861022E-08
807.5472,-0.9856483,5.817667E-10,NaN,-0.9288176,-1.321206E-07,NaN,0.237948,-4.364E-07,NaN,-0.8216687,2.236043E-05,-0.4137641,1.510132E-08,NaN,NaN,0.2310827,-4.796317E-10,7.929658E-07,-1.097633E-07,1.833329E-09,-2.622604E-08
807.5616,-0.9848984,5.824025E-10,NaN,-0.9272136,-1.321221E-07,NaN,0.2415853,-4.362634E-07,NaN,-0.8198268,2.236085E-05,-0.4115507,1.496606E-08,NaN,NaN,0.2269324,-4.842883E-10,7.682299E-07,-1.09766E-07,-5.508562E-10,-2.861022E-08
807.5764,-0.9848984,5.824025E-10,NaN,-0.9272136,-1.321221E-07,NaN,0.2415853,-4.362634E-07,NaN,-0.8198268,2.236085E-05,-0.4115507,1.496606E-08,NaN,NaN,0.2269324,-4.842883E-10,7.682299E-07,-1.09766E-07,-5.508562E-10,-2.861022E-08
807.5902,-0.9842199,5.830384E-10,NaN,-0.925675,-1.321237E-07,NaN,0.2451336,-4.361323E-07,NaN,-0.8180689,2.236125E-05,-0.4093762,1.483621E-08,NaN,NaN,0.2228635,-4.796317E-10,7.470703E-07,-1.097686E-07,6.412366E-10,-2.622604E-08
807.6058,-0.983857,5.836745E-10,NaN,-0.9243555,-1.321248E-07,NaN,0.2492019,-4.362352E-07,NaN,-0.8163459,2.236166E-05,-0.407758,1.49404E-08,NaN,NaN,0.2186943,-4.889449E-10,7.202482E-07,-1.097687E-07,1.833329E-09,-2.861022E-08
807.6204,-0.9836767,5.843108E-10,NaN,-0.9231737,-1.321252E-07,NaN,0.2533527,-4.366549E-07,NaN,-0.8147753,2.236205E-05,-0.4063559,1.536135E-08,NaN,NaN,0.2146073,-4.842883E-10,6.999826E-07,-1.097681E-07,4.813562E-09,-2.622604E-08
807.6349,-0.9836767,5.843108E-10,NaN,-0.9231737,-1.321252E-07,NaN,0.2533527,-4.366549E-07,NaN,-0.8147753,2.236205E-05,-0.4063559,1.536135E-08,NaN,NaN,0.2146073,-4.842883E-10,6.999826E-07,-1.097681E-07,4.813562E-09,-2.622604E-08
807.6491,-0.9836023,5.84947E-10,NaN,-0.9220803,-1.321251E-07,NaN,0.2574464,-4.372383E-07,NaN,-0.8133085,2.236244E-05,-0.4050295,1.594611E-08,NaN,NaN,0.2106004,-4.889449E-10,6.844854E-07,-1.097671E-07,5.409608E-09,-2.861022E-08
807.6642,-0.9835892,5.855833E-10,NaN,-0.9210457,-1.321246E-07,NaN,0.2614477,-4.37909E-07,NaN,-0.8119177,2.236283E-05,-0.4037284,1.661811E-08,NaN,NaN,0.2066722,-4.889449E-10,6.654119E-07,-1.097659E-07,4.813562E-09,-2.622604E-08
807.6788,-0.9835892,5.855833E-10,NaN,-0.9210457,-1.321246E-07,NaN,0.2614477,-4.37909E-07,NaN,-0.8119177,2.236283E-05,-0.4037284,1.661811E-08,NaN,NaN,0.2066722,-4.889449E-10,6.654119E-07,-1.097659E-07,4.813562E-09,-2.622604E-08
807.6929,-0.9838812,5.862196E-10,NaN,-0.9202241,-1.32124E-07,NaN,0.2659666,-4.386229E-07,NaN,-0.8105572,2.23632E-05,-0.4029761,1.733333E-08,NaN,NaN,0.2026409,-4.889449E-10,6.415701E-07,-1.097647E-07,4.813562E-09,-2.861022E-08
807.7084,-0.9843485,5.868557E-10,NaN,-0.9195383,-1.321233E-07,NaN,0.270563,-4.393566E-07,NaN,-0.8093442,2.236358E-05,-0.4024279,1.806834E-08,NaN,NaN,0.1986891,-4.889449E-10,6.242847E-07,-1.097634E-07,3.621469E-09,-2.622604E-08
807.7229,-0.9849153,5.874918E-10,NaN,-0.9189394,-1.321225E-07,NaN,0.2750948,-4.400956E-07,NaN,-0.8082299,2.236396E-05,-0.4019409,1.880865E-08,NaN,NaN,0.1948148,-4.982582E-10,6.081915E-07,-1.09762E-07,1.833329E-09,-2.861022E-08
807.7375,-0.9849153,5.874918E-10,NaN,-0.9189394,-1.321225E-07,NaN,0.2750948,-4.400956E-07,NaN,-0.8082299,2.236396E-05,-0.4019409,1.880865E-08,NaN,NaN,0.1948148,-4.982582E-10,6.081915E-07,-1.09762E-07,1.833329E-09,-2.861022E-08
807.752,-0.9858075,5.881278E-10,NaN,-0.9185695,-1.321217E-07,NaN,0.2801389,-4.408284E-07,NaN,-0.8071588,2.236433E-05,-0.402006,1.954286E-08,NaN,NaN,0.1908366,-4.982582E-10,5.855417E-07,-1.097606E-07,6.412365E-10,-2.622604E-08
807.7695,-0.9868853,5.887638E-10,NaN,-0.9183419,-1.321208E-07,NaN,0.2852415,-4.415525E-07,NaN,-0.806241,2.236472E-05,-0.4022582,2.026828E-08,NaN,NaN,0.1869367,-5.12228E-10,5.670643E-07,-1.097592E-07,1.237283E-09,-2.861022E-08
807.7827,-0.9880664,5.893997E-10,NaN,-0.9182022,-1.3212E-07,NaN,0.2902603,-4.422652E-07,NaN,-0.8054238,2.236509E-05,-0.4025506,2.098226E-08,NaN,NaN,0.1831133,-5.12228E-10,5.551433E-07,-1.097578E-07,4.519007E-11,-2.622604E-08
807.7963,-0.9880664,5.893997E-10,NaN,-0.9182022,-1.3212E-07,NaN,0.2902603,-4.422652E-07,NaN,-0.8054238,2.236509E-05,-0.4025506,2.098226E-08,NaN,NaN,0.1831133,-5.12228E-10,5.551433E-07,-1.097578E-07,4.519007E-11,-2.622604E-08
807.8102,-0.9893022,5.900356E-10,NaN,-0.9181168,-1.321191E-07,NaN,0.2951617,-4.429637E-07,NaN,-0.8046778,2.236547E-05,-0.4028327,2.16822E-08,NaN,NaN,0.179365,-5.215412E-10,5.432224E-07,-1.097564E-07,3.621469E-09,-2.861022E-08
807.8256,-0.9908342,5.906713E-10,NaN,-0.9182354,-1.321183E-07,NaN,0.3005658,-4.436486E-07,NaN,-0.8039597,2.236584E-05,-0.4036409,2.236837E-08,NaN,NaN,0.1755101,-5.168846E-10,5.229568E-07,-1.09755E-07,3.621469E-09,-2.622604E-08
807.8399,-0.9908342,5.906713E-10,NaN,-0.9182354,-1.321183E-07,NaN,0.3005658,-4.436486E-07,NaN,-0.8039597,2.236584E-05,-0.4036409,2.236837E-08,NaN,NaN,0.1755101,-5.168846E-10,5.229568E-07,-1.09755E-07,3.621469E-09,-2.622604E-08
807.8541,-0.9925314,5.913069E-10,NaN,-0.9184787,-1.321174E-07,NaN,0.3060256,-4.443171E-07,NaN,-0.8033835,2.236622E-05,-0.4046192,2.303822E-08,NaN,NaN,0.1717312,-5.215412E-10,5.12228E-07,-1.097536E-07,1.833329E-09,-2.861022E-08
807.8692,-0.994315,5.919425E-10,NaN,-0.9187961,-1.321166E-07,NaN,0.3113981,-4.449724E-07,NaN,-0.8029001,2.236658E-05,-0.4056236,2.36949E-08,NaN,NaN,0.1680265,-5.168846E-10,5.014991E-07,-1.097523E-07,3.025422E-09,-2.622604E-08
807.8839,-0.9961389,5.925779E-10,NaN,-0.9191568,-1.321157E-07,NaN,0.3166487,-4.45612E-07,NaN,-0.8024817,2.236696E-05,-0.4066055,2.433583E-08,NaN,NaN,0.1643945,-5.215412E-10,4.913663E-07,-1.097509E-07,4.813562E-09,-2.861022E-08
807.8984,-0.9961389,5.925779E-10,NaN,-0.9191568,-1.321157E-07,NaN,0.3166487,-4.45612E-07,NaN,-0.8024817,2.236696E-05,-0.4066055,2.433583E-08,NaN,NaN,0.1643945,-5.215412E-10,4.913663E-07,-1.097509E-07,4.813562E-09,-2.861022E-08
807.9125,-0.998247,5.932133E-10,NaN,-0.9197147,-1.321148E-07,NaN,0.3224026,-4.462389E-07,NaN,-0.8020894,2.236733E-05,-0.40811,2.496417E-08,NaN,NaN,0.1606536,-5.168846E-10,4.776573E-07,-1.097495E-07,5.409608E-09,-2.622604E-08
807.9278,-1.000507,5.938485E-10,NaN,-0.9203884,-1.32114E-07,NaN,0.3282022,-4.468507E-07,NaN,-0.8018359,2.23677E-05,-0.4097693,2.557732E-08,NaN,NaN,0.1569865,-5.215412E-10,4.669285E-07,-1.097481E-07,7.197747E-09,-2.861022E-08
807.9437,-1.002843,5.944837E-10,NaN,-0.9211283,-1.321131E-07,NaN,0.3339051,-4.474477E-07,NaN,-0.8016709,2.236807E-05,-0.4114392,2.617558E-08,NaN,NaN,0.1533914,-5.168846E-10,4.579878E-07,-1.097468E-07,7.197747E-09,-2.622604E-08
807.9572,-1.002843,5.944837E-10,NaN,-0.9211283,-1.321131E-07,NaN,0.3339051,-4.474477E-07,NaN,-0.8016709,2.236807E-05,-0.4114392,2.617558E-08,NaN,NaN,0.1533914,-5.168846E-10,4.579878E-07,-1.097468E-07,7.197747E-09,-2.622604E-08
807.9714,-1.00548,5.951188E-10,NaN,-0.9220772,-1.321123E-07,NaN,0.3401051,-4.480328E-07,NaN,-0.8015471,2.236845E-05,-0.4136341,2.676207E-08,NaN,NaN,0.1496867,-5.215412E-10,4.47855E-07,-1.097454E-07,6.601701E-09,-2.861022E-08
807.9868,-1.008275,5.957539E-10,NaN,-0.923146,-1.321115E-07,NaN,0.34633,-4.486036E-07,NaN,-0.8015691,2.236881E-05,-0.4159667,2.73342E-08,NaN,NaN,0.1460551,-5.168846E-10,4.389143E-07,-1.09744E-07,6.601701E-09,-2.622604E-08
808.0014,-1.011146,5.963888E-10,NaN,-0.9242809,-1.321106E-07,NaN,0.3524384,-4.491603E-07,NaN,-0.8016824,2.236919E-05,-0.4182899,2.789224E-08,NaN,NaN,0.1424949,-5.215412E-10,4.305696E-07,-1.097427E-07,6.005655E-09,-2.861022E-08
808.0164,-1.011146,5.963888E-10,NaN,-0.9242809,-1.321106E-07,NaN,0.3524384,-4.491603E-07,NaN,-0.8016824,2.236919E-05,-0.4182899,2.789224E-08,NaN,NaN,0.1424949,-5.215412E-10,4.305696E-07,-1.097427E-07,6.005655E-09,-2.861022E-08
808.03,-1.014044,5.970237E-10,NaN,-0.9254498,-1.321098E-07,NaN,0.3584011,-4.49706E-07,NaN,-0.8018566,2.236957E-05,-0.4205584,2.843931E-08,NaN,NaN,0.1390045,-5.261978E-10,4.252052E-07,-1.097413E-07,4.813562E-09,-2.622604E-08
808.0475,-1.017213,5.976585E-10,NaN,-0.9268064,-1.32109E-07,NaN,0.3648567,-4.502381E-07,NaN,-0.8020589,2.236994E-05,-0.4233336,2.897278E-08,NaN,NaN,0.1354024,-5.308544E-10,4.114961E-07,-1.0974E-07,6.601701E-09,-2.861022E-08
808.0609,-1.02052,5.982933E-10,NaN,-0.928267,-1.321081E-07,NaN,0.3713351,-4.507569E-07,NaN,-0.8023961,2.237032E-05,-0.4262324,2.949293E-08,NaN,NaN,0.1318714,-5.35511E-10,4.049396E-07,-1.097387E-07,7.793794E-09,-2.622604E-08
808.0748,-1.02052,5.982933E-10,NaN,-0.928267,-1.321081E-07,NaN,0.3713351,-4.507569E-07,NaN,-0.8023961,2.237032E-05,-0.4262324,2.949293E-08,NaN,NaN,0.1318714,-5.35511E-10,4.049396E-07,-1.097387E-07,7.793794E-09,-2.622604E-08
808.0887,-1.023887,5.989281E-10,NaN,-0.929782,-1.321073E-07,NaN,0.3776958,-4.512654E-07,NaN,-0.8028159,2.237069E-05,-0.4291112,3.000284E-08,NaN,NaN,0.1284097,-5.308544E-10,4.001712E-07,-1.097373E-07,4.813562E-09,-2.861022E-08
808.1038,-1.02727,5.995627E-10,NaN,-0.9313221,-1.321065E-07,NaN,0.3839092,-4.517611E-07,NaN,-0.8032898,2.237106E-05,-0.431926,3.049989E-08,NaN,NaN,0.1250159,-5.35511E-10,3.942108E-07,-1.09736E-07,6.601701E-09,-2.622604E-08
808.1188,-1.02727,5.995627E-10,NaN,-0.9313221,-1.321065E-07,NaN,0.3839092,-4.517611E-07,NaN,-0.8032898,2.237106E-05,-0.431926,3.049989E-08,NaN,NaN,0.1250159,-5.35511E-10,3.942108E-07,-1.09736E-07,6.601701E-09,-2.622604E-08
808.1325,-1.030916,6.001967E-10,NaN,-0.9330426,-1.32106E-07,NaN,0.3906184,-4.519842E-07,NaN,-0.8037909,2.237143E-05,-0.4352457,3.072437E-08,NaN,NaN,0.1215087,-5.308544E-10,3.816938E-07,-1.097372E-07,6.005655E-09,-2.861022E-08
808.1477,-1.034691,6.008304E-10,NaN,-0.9348604,-1.321064E-07,NaN,0.397343,-4.518897E-07,NaN,-0.804423,2.237181E-05,-0.438677,3.063122E-08,NaN,NaN,0.1180706,-5.308544E-10,3.745413E-07,-1.097391E-07,7.793794E-09,-2.622604E-08
808.1622,-1.038518,6.014639E-10,NaN,-0.9367263,-1.321072E-07,NaN,0.4039426,-4.516277E-07,NaN,-0.8051334,2.237218E-05,-0.4420754,3.037056E-08,NaN,NaN,0.1147,-5.308544E-10,3.703689E-07,-1.097413E-07,8.985887E-09,-2.861022E-08
808.1779,-1.038518,6.014639E-10,NaN,-0.9367263,-1.321072E-07,NaN,0.4039426,-4.516277E-07,NaN,-0.8051334,2.237218E-05,-0.4420754,3.037056E-08,NaN,NaN,0.1147,-5.308544E-10,3.703689E-07,-1.097413E-07,8.985887E-09,-2.861022E-08
808.191,-1.042627,6.020974E-10,NaN,-0.9387844,-1.321084E-07,NaN,0.4110303,-4.512721E-07,NaN,-0.8058872,2.237256E-05,-0.4459796,3.001621E-08,NaN,NaN,0.1112155,-5.448242E-10,3.632164E-07,-1.097438E-07,8.985887E-09,-2.622604E-08
808.2064,-1.046871,6.027308E-10,NaN,-0.940944,-1.321097E-07,NaN,0.4181118,-4.508556E-07,NaN,-0.806779,2.237294E-05,-0.4499777,2.960105E-08,NaN,NaN,0.1077998,-5.448242E-10,3.632164E-07,-1.097463E-07,6.601701E-09,-2.861022E-08
808.2211,-1.051169,6.033642E-10,NaN,-0.943152,-1.321112E-07,NaN,0.4250489,-4.504134E-07,NaN,-0.8077515,2.237332E-05,-0.4539239,2.916014E-08,NaN,NaN,0.1044511,-5.587941E-10,3.620243E-07,-1.097489E-07,7.793794E-09,-2.622604E-08
808.2358,-1.051169,6.033642E-10,NaN,-0.943152,-1.321112E-07,NaN,0.4250489,-4.504134E-07,NaN,-0.8077515,2.237332E-05,-0.4539239,2.916014E-08,NaN,NaN,0.1044511,-5.587941E-10,3.620243E-07,-1.097489E-07,7.793794E-09,-2.622604E-08
808.2497,-1.055473,6.039976E-10,NaN,-0.9453779,-1.321127E-07,NaN,0.4318168,-4.499628E-07,NaN,-0.8087739,2.23737E-05,-0.4577776,2.871089E-08,NaN,NaN,0.1011682,-5.587941E-10,3.578519E-07,-1.097516E-07,1.017798E-08,-2.861022E-08
808.2653,-1.060032,6.046308E-10,NaN,-0.9477767,-1.321142E-07,NaN,0.439073,-4.495098E-07,NaN,-0.809828,2.237408E-05,-0.4621241,2.825913E-08,NaN,NaN,0.09776948,-5.727639E-10,3.501033E-07,-1.097542E-07,1.137007E-08,-2.622604E-08
808.28,-1.064708,6.052642E-10,NaN,-0.9502633,-1.321157E-07,NaN,0.4463223,-4.490627E-07,NaN,-0.8110093,2.237445E-05,-0.4665534,2.781335E-08,NaN,NaN,0.09443789,-5.727639E-10,3.471231E-07,-1.097569E-07,8.985886E-09,-2.861022E-08
808.2945,-1.064708,6.052642E-10,NaN,-0.9502633,-1.321157E-07,NaN,0.4463223,-4.490627E-07,NaN,-0.8110093,2.237445E-05,-0.4665534,2.781335E-08,NaN,NaN,0.09443789,-5.727639E-10,3.471231E-07,-1.097569E-07,8.985886E-09,-2.861022E-08
808.3085,-1.069424,6.058974E-10,NaN,-0.9527883,-1.321173E-07,NaN,0.4534272,-4.486243E-07,NaN,-0.8122628,2.237484E-05,-0.4709223,2.737628E-08,NaN,NaN,0.09117175,-5.820771E-10,3.45931E-07,-1.097596E-07,9.581933E-09,-2.622604E-08
808.3257,-1.074136,6.065307E-10,NaN,-0.9553238,-1.321188E-07,NaN,0.4603625,-4.481945E-07,NaN,-0.8135595,2.237522E-05,-0.4751916,2.694773E-08,NaN,NaN,0.08796967,-5.820771E-10,3.438448E-07,-1.097622E-07,1.077403E-08,-2.861022E-08
808.3395,-1.074136,6.065307E-10,NaN,-0.9553238,-1.321188E-07,NaN,0.4603625,-4.481945E-07,NaN,-0.8135595,2.237522E-05,-0.4751916,2.694773E-08,NaN,NaN,0.08796967,-5.820771E-10,3.438448E-07,-1.097622E-07,1.077403E-08,-2.861022E-08
808.3535,-1.079098,6.071639E-10,NaN,-0.9580265,-1.321204E-07,NaN,0.4677898,-4.477758E-07,NaN,-0.8148885,2.23756E-05,-0.4799537,2.653036E-08,NaN,NaN,0.08465029,-5.913903E-10,3.3252E-07,-1.097649E-07,1.196612E-08,-2.622604E-08
808.3678,-1.08417,6.077971E-10,NaN,-0.9608112,-1.321219E-07,NaN,0.4752034,-4.473681E-07,NaN,-0.8163409,2.237597E-05,-0.4847876,2.612395E-08,NaN,NaN,0.08139645,-5.867337E-10,3.316259E-07,-1.097675E-07,1.077403E-08,-2.861022E-08
808.3825,-1.089275,6.084303E-10,NaN,-0.9636294,-1.321235E-07,NaN,0.482466,-4.469712E-07,NaN,-0.8178611,2.237636E-05,-0.4895498,2.572829E-08,NaN,NaN,0.07820655,-5.960469E-10,3.32818E-07,-1.097702E-07,1.017798E-08,-2.622604E-08
808.3968,-1.089275,6.084303E-10,NaN,-0.9636294,-1.321235E-07,NaN,0.482466,-4.469712E-07,NaN,-0.8178611,2.237636E-05,-0.4895498,2.572829E-08,NaN,NaN,0.07820655,-5.960469E-10,3.32818E-07,-1.097702E-07,1.017798E-08,-2.622604E-08
808.4108,-1.094647,6.090635E-10,NaN,-0.9666263,-1.32125E-07,NaN,0.4902113,-4.465848E-07,NaN,-0.8194305,2.237673E-05,-0.4948037,2.534318E-08,NaN,NaN,0.07489911,-5.913903E-10,3.241753E-07,-1.097728E-07,1.077403E-08,-2.861022E-08
808.4272,-1.100137,6.096966E-10,NaN,-0.9697095,-1.321266E-07,NaN,0.4979209,-4.462116E-07,NaN,-0.8211297,2.237712E-05,-0.5001112,2.497123E-08,NaN,NaN,0.07165702,-6.007035E-10,3.232813E-07,-1.097755E-07,1.017798E-08,-2.622604E-08
808.4406,-1.10566,6.103298E-10,NaN,-0.9728265,-1.321281E-07,NaN,0.5054607,-4.458484E-07,NaN,-0.8228985,2.23775E-05,-0.5053287,2.460934E-08,NaN,NaN,0.06847861,-6.007035E-10,3.217911E-07,-1.097781E-07,1.256216E-08,-2.861022E-08
808.4552,-1.10566,6.103298E-10,NaN,-0.9728265,-1.321281E-07,NaN,0.5054607,-4.458484E-07,NaN,-0.8228985,2.23775E-05,-0.5053287,2.460934E-08,NaN,NaN,0.06847861,-6.007035E-10,3.217911E-07,-1.097781E-07,1.256216E-08,-2.861022E-08
808.4692,-1.111173,6.10963E-10,NaN,-0.9759482,-1.321296E-07,NaN,0.5128115,-4.454951E-07,NaN,-0.8247058,2.237788E-05,-0.5104213,2.425733E-08,NaN,NaN,0.06536252,-6.100168E-10,3.211951E-07,-1.097807E-07,1.256216E-08,-2.622604E-08
808.4847,-1.116929,6.115962E-10,NaN,-0.979231,-1.321312E-07,NaN,0.5206487,-4.451543E-07,NaN,-0.826552,2.237825E-05,-0.5159976,2.391782E-08,NaN,NaN,0.06212743,-6.053602E-10,3.149366E-07,-1.097833E-07,1.137007E-08,-2.861022E-08
808.4994,-1.116929,6.115962E-10,NaN,-0.979231,-1.321312E-07,NaN,0.5206487,-4.451543E-07,NaN,-0.826552,2.237825E-05,-0.5159976,2.391782E-08,NaN,NaN,0.06212743,-6.053602E-10,3.149366E-07,-1.097833E-07,1.137007E-08,-2.861022E-08
808.5134,-1.122785,6.122293E-10,NaN,-0.9825878,-1.321327E-07,NaN,0.528451,-4.44823E-07,NaN,-0.8285173,2.237864E-05,-0.5216189,2.358775E-08,NaN,NaN,0.05895627,-6.146734E-10,3.119563E-07,-1.097859E-07,1.137007E-08,-2.622604E-08
808.5284,-1.128664,6.128624E-10,NaN,-0.9859698,-1.321342E-07,NaN,0.5360848,-4.445009E-07,NaN,-0.8305436,2.237901E-05,-0.5271437,2.326693E-08,NaN,NaN,0.0558474,-6.100168E-10,3.107642E-07,-1.097885E-07,1.256216E-08,-2.861022E-08
808.5432,-1.134523,6.134954E-10,NaN,-0.9893503,-1.321357E-07,NaN,0.5435303,-4.441879E-07,NaN,-0.8326018,2.23794E-05,-0.5325384,2.295517E-08,NaN,NaN,0.05279949,-6.1933E-10,3.095722E-07,-1.09791E-07,1.256216E-08,-2.622604E-08
808.5581,-1.134523,6.134954E-10,NaN,-0.9893503,-1.321357E-07,NaN,0.5435303,-4.441879E-07,NaN,-0.8326018,2.23794E-05,-0.5325384,2.295517E-08,NaN,NaN,0.05279949,-6.1933E-10,3.095722E-07,-1.09791E-07,1.256216E-08,-2.622604E-08
808.572,-1.140621,6.141285E-10,NaN,-0.9928874,-1.321372E-07,NaN,0.5514669,-4.438866E-07,NaN,-0.8347008,2.237977E-05,-0.5384183,2.265513E-08,NaN,NaN,0.04963125,-6.1933E-10,2.994394E-07,-1.097936E-07,1.196612E-08,-2.861022E-08
808.5873,-1.146813,6.147615E-10,NaN,-0.9964936,-1.321387E-07,NaN,0.5593619,-4.435939E-07,NaN,-0.8369148,2.238016E-05,-0.5443328,2.236376E-08,NaN,NaN,0.04652563,-6.286432E-10,2.967572E-07,-1.097961E-07,1.613844E-08,-2.622604E-08
808.6019,-1.153022,6.153945E-10,NaN,-1.000121,-1.321402E-07,NaN,0.5670829,-4.433097E-07,NaN,-0.8391854,2.238053E-05,-0.550141,2.208087E-08,NaN,NaN,0.04348101,-6.239866E-10,2.958631E-07,-1.097987E-07,1.55424E-08,-2.861022E-08
808.6177,-1.153022,6.153945E-10,NaN,-1.000121,-1.321402E-07,NaN,0.5670829,-4.433097E-07,NaN,-0.8391854,2.238053E-05,-0.550141,2.208087E-08,NaN,NaN,0.04348101,-6.239866E-10,2.958631E-07,-1.097987E-07,1.55424E-08,-2.861022E-08
808.6316,-1.159488,6.160274E-10,NaN,-1.003916,-1.321417E-07,NaN,0.5752841,-4.430367E-07,NaN,-0.8415139,2.238092E-05,-0.5564313,2.180913E-08,NaN,NaN,0.04031602,-6.332998E-10,2.890086E-07,-1.098012E-07,1.196612E-08,-2.622604E-08
808.646,-1.166055,6.166603E-10,NaN,-1.007784,-1.321432E-07,NaN,0.5834215,-4.427718E-07,NaN,-0.8439631,2.238129E-05,-0.5627375,2.15455E-08,NaN,NaN,0.03721358,-6.332998E-10,2.845382E-07,-1.098038E-07,1.196612E-08,-2.861022E-08
808.6606,-1.17264,6.172932E-10,NaN,-1.011674,-1.321447E-07,NaN,0.5913672,-4.425148E-07,NaN,-0.8464699,2.238168E-05,-0.56892,2.128981E-08,NaN,NaN,0.03417207,-6.42613E-10,2.845382E-07,-1.098063E-07,1.196612E-08,-2.622604E-08
808.6751,-1.17264,6.172932E-10,NaN,-1.011674,-1.321447E-07,NaN,0.5913672,-4.425148E-07,NaN,-0.8464699,2.238168E-05,-0.56892,2.128981E-08,NaN,NaN,0.03417207,-6.42613E-10,2.845382E-07,-1.098063E-07,1.196612E-08,-2.622604E-08
808.6891,-1.179198,6.179262E-10,NaN,-1.015557,-1.321462E-07,NaN,0.5991078,-4.422657E-07,NaN,-0.8490032,2.238205E-05,-0.5749507,2.104192E-08,NaN,NaN,0.03119021,-6.379564E-10,2.824521E-07,-1.098088E-07,1.196612E-08,-2.861022E-08
808.7045,-1.185991,6.185586E-10,NaN,-1.019592,-1.321471E-07,NaN,0.6073355,-4.42381E-07,NaN,-0.851585,2.238242E-05,-0.5814602,2.115856E-08,NaN,NaN,0.02808669,-6.332998E-10,2.726173E-07,-1.098092E-07,1.196612E-08,-2.622604E-08
808.7192,-1.185991,6.185586E-10,NaN,-1.019592,-1.321471E-07,NaN,0.6073355,-4.42381E-07,NaN,-0.851585,2.238242E-05,-0.5814602,2.115856E-08,NaN,NaN,0.02808669,-6.332998E-10,2.726173E-07,-1.098092E-07,1.196612E-08,-2.622604E-08
808.733,-1.19287,6.191908E-10,NaN,-1.023689,-1.321472E-07,NaN,0.6155015,-4.42796E-07,NaN,-0.854277,2.238278E-05,-0.5879791,2.157477E-08,NaN,NaN,0.02504454,-6.286432E-10,2.696371E-07,-1.098089E-07,1.196612E-08,-2.861022E-08
808.7484,-1.199755,6.198227E-10,NaN,-1.0278,-1.321468E-07,NaN,0.6234785,-4.433691E-07,NaN,-0.8570182,2.238314E-05,-0.5943698,2.214926E-08,NaN,NaN,0.02206215,-6.1933E-10,2.681469E-07,-1.098084E-07,1.077403E-08,-2.622604E-08
808.763,-1.206608,6.204546E-10,NaN,-1.0319,-1.321462E-07,NaN,0.6312521,-4.441144E-07,NaN,-0.8597791,2.238351E-05,-0.6006051,2.289584E-08,NaN,NaN,0.01913824,-6.1933E-10,2.669549E-07,-1.098075E-07,9.581933E-09,-2.861022E-08
808.7778,-1.206608,6.204546E-10,NaN,-1.0319,-1.321462E-07,NaN,0.6312521,-4.441144E-07,NaN,-0.8597791,2.238351E-05,-0.6006051,2.289584E-08,NaN,NaN,0.01913824,-6.1933E-10,2.669549E-07,-1.098075E-07,9.581933E-09,-2.861022E-08
808.7916,-1.213691,6.210863E-10,NaN,-1.036147,-1.321456E-07,NaN,0.6395179,-4.447011E-07,NaN,-0.8625916,2.238387E-05,-0.6073222,2.348384E-08,NaN,NaN,0.01609155,-6.146734E-10,2.595043E-07,-1.098061E-07,4.813562E-09,-2.622604E-08
808.8074,-1.220854,6.217179E-10,NaN,-1.040452,-1.321448E-07,NaN,0.6477159,-4.453213E-07,NaN,-0.86551,2.238424E-05,-0.6140389,2.410542E-08,NaN,NaN,0.01310512,-6.146734E-10,2.56524E-07,-1.098047E-07,6.005655E-09,-2.861022E-08
808.8221,-1.22802,6.223494E-10,NaN,-1.044768,-1.32144E-07,NaN,0.6557205,-4.459519E-07,NaN,-0.8684726,2.238461E-05,-0.620619,2.473734E-08,NaN,NaN,0.01017735,-6.100168E-10,2.55928E-07,-1.098032E-07,8.38984E-09,-2.622604E-08
808.8367,-1.22802,6.223494E-10,NaN,-1.044768,-1.32144E-07,NaN,0.6557205,-4.459519E-07,NaN,-0.8684726,2.238461E-05,-0.620619,2.473734E-08,NaN,NaN,0.01017735,-6.100168E-10,2.55928E-07,-1.098032E-07,8.38984E-09,-2.622604E-08
808.851,-1.235435,6.229808E-10,NaN,-1.049243,-1.321431E-07,NaN,0.6642047,-4.465814E-07,NaN,-0.8715038,2.238497E-05,-0.6276761,2.536812E-08,NaN,NaN,0.007126886,-6.100168E-10,2.493715E-07,-1.098017E-07,9.581933E-09,-2.861022E-08
808.8661,-1.242937,6.236121E-10,NaN,-1.053779,-1.321422E-07,NaN,0.672599,-4.472069E-07,NaN,-0.8746455,2.238534E-05,-0.6347136,2.599495E-08,NaN,NaN,0.004136749,-6.053602E-10,2.484774E-07,-1.098001E-07,1.077403E-08,-2.622604E-08
808.8804,-1.250441,6.242432E-10,NaN,-1.058327,-1.321413E-07,NaN,0.6807837,-4.478229E-07,NaN,-0.8778316,2.23857E-05,-0.6415988,2.661227E-08,NaN,NaN,0.001205331,-6.053602E-10,2.472853E-07,-1.097986E-07,8.38984E-09,-2.861022E-08
808.8962,-1.250441,6.242432E-10,NaN,-1.058327,-1.321413E-07,NaN,0.6807837,-4.478229E-07,NaN,-0.8778316,2.23857E-05,-0.6415988,2.661227E-08,NaN,NaN,0.001205331,-6.053602E-10,2.472853E-07,-1.097986E-07,8.38984E-09,-2.861022E-08
808.9134,-1.257906,6.248743E-10,NaN,-1.062858,-1.321404E-07,NaN,0.6887513,-4.484267E-07,NaN,-0.8810312,2.238607E-05,-0.6483105,2.721745E-08,NaN,NaN,-0.00166861,-6.007035E-10,2.460932E-07,-1.097971E-07,7.197747E-09,-2.622604E-08
808.9265,-1.265598,6.255053E-10,NaN,-1.067533,-1.321395E-07,NaN,0.6972081,-4.490186E-07,NaN,-0.8842911,2.238644E-05,-0.6555008,2.781071E-08,NaN,NaN,-0.004666302,-6.007035E-10,2.365565E-07,-1.097955E-07,8.38984E-09,-2.861022E-08
808.9391,-1.265598,6.255053E-10,NaN,-1.067533,-1.321395E-07,NaN,0.6972081,-4.490186E-07,NaN,-0.8842911,2.238644E-05,-0.6555008,2.781071E-08,NaN,NaN,-0.004666302,-6.007035E-10,2.365565E-07,-1.097955E-07,8.38984E-09,-2.861022E-08
808.9531,-1.273363,6.261361E-10,NaN,-1.072261,-1.321386E-07,NaN,0.7055781,-4.495988E-07,NaN,-0.8876511,2.23868E-05,-0.6626666,2.839231E-08,NaN,NaN,-0.007604711,-5.960469E-10,2.353644E-07,-1.09794E-07,7.197747E-09,-2.622604E-08
808.9684,-1.281121,6.267669E-10,NaN,-1.076993,-1.321377E-07,NaN,0.7137424,-4.501648E-07,NaN,-0.8910472,2.238717E-05,-0.6696771,2.895964E-08,NaN,NaN,-0.01048542,-5.960469E-10,2.338742E-07,-1.097925E-07,8.38984E-09,-2.861022E-08
808.9832,-1.288834,6.273976E-10,NaN,-1.081705,-1.321368E-07,NaN,0.7216927,-4.507197E-07,NaN,-0.8944502,2.238753E-05,-0.6765126,2.95158E-08,NaN,NaN,-0.01330964,-5.913903E-10,2.30298E-07,-1.097909E-07,8.38984E-09,-2.622604E-08
808.9976,-1.288834,6.273976E-10,NaN,-1.081705,-1.321368E-07,NaN,0.7216927,-4.507197E-07,NaN,-0.8944502,2.238753E-05,-0.6765126,2.95158E-08,NaN,NaN,-0.01330964,-5.913903E-10,2.30298E-07,-1.097909E-07,8.38984E-09,-2.622604E-08
809.0115,-1.296771,6.280282E-10,NaN,-1.086557,-1.321359E-07,NaN,0.7301372,-4.512607E-07,NaN,-0.8979171,2.23879E-05,-0.6838309,3.00582E-08,NaN,NaN,-0.01625857,-5.913903E-10,2.207612E-07,-1.097894E-07,8.38984E-09,-2.861022E-08
809.027,-1.304777,6.286586E-10,NaN,-1.091459,-1.32135E-07,NaN,0.7384894,-4.517882E-07,NaN,-0.9014797,2.238826E-05,-0.6911153,3.058709E-08,NaN,NaN,-0.01914918,-5.867337E-10,2.171849E-07,-1.097879E-07,1.315821E-08,-2.622604E-08
809.0417,-1.312772,6.29289E-10,NaN,-1.096362,-1.32134E-07,NaN,0.7466331,-4.523025E-07,NaN,-0.9050731,2.238863E-05,-0.6982377,3.110275E-08,NaN,NaN,-0.02198302,-5.867337E-10,2.142047E-07,-1.097864E-07,1.315821E-08,-2.861022E-08
809.0562,-1.312772,6.29289E-10,NaN,-1.096362,-1.32134E-07,NaN,0.7466331,-4.523025E-07,NaN,-0.9050731,2.238863E-05,-0.6982377,3.110275E-08,NaN,NaN,-0.02198302,-5.867337E-10,2.142047E-07,-1.097864E-07,1.315821E-08,-2.861022E-08
809.0702,-1.32101,6.299192E-10,NaN,-1.101415,-1.321332E-07,NaN,0.7552571,-4.528067E-07,NaN,-0.9087468,2.238899E-05,-0.7058368,3.160826E-08,NaN,NaN,-0.02494137,-5.820771E-10,2.04668E-07,-1.097849E-07,1.196612E-08,-2.622604E-08
809.0856,-1.329321,6.305493E-10,NaN,-1.106521,-1.321323E-07,NaN,0.7637674,-4.532981E-07,NaN,-0.9125195,2.238936E-05,-0.713383,3.210099E-08,NaN,NaN,-0.02784123,-5.820771E-10,1.998996E-07,-1.097834E-07,1.315821E-08,-2.861022E-08
809.1002,-1.337621,6.311794E-10,NaN,-1.111628,-1.321314E-07,NaN,0.7720547,-4.537769E-07,NaN,-0.9163223,2.238973E-05,-0.7207532,3.258119E-08,NaN,NaN,-0.03068415,-5.820771E-10,1.990055E-07,-1.097819E-07,1.077403E-08,-2.622604E-08
809.115,-1.337621,6.311794E-10,NaN,-1.111628,-1.321314E-07,NaN,0.7720547,-4.537769E-07,NaN,-0.9163223,2.238973E-05,-0.7207532,3.258119E-08,NaN,NaN,-0.03068415,-5.820771E-10,1.990055E-07,-1.097819E-07,1.077403E-08,-2.622604E-08
809.1288,-1.345869,6.318093E-10,NaN,-1.116712,-1.321305E-07,NaN,0.7801172,-4.542435E-07,NaN,-0.9201249,2.23901E-05,-0.7279345,3.304912E-08,NaN,NaN,-0.03347133,-5.820771E-10,1.987075E-07,-1.097804E-07,1.55424E-08,-2.861022E-08
809.1443,-1.354341,6.324392E-10,NaN,-1.121934,-1.321296E-07,NaN,0.7886712,-4.547009E-07,NaN,-0.9240007,2.239046E-05,-0.7355986,3.350784E-08,NaN,NaN,-0.03638394,-5.820771E-10,1.906609E-07,-1.09779E-07,1.43503E-08,-2.622604E-08
809.1589,-1.354341,6.324392E-10,NaN,-1.121934,-1.321296E-07,NaN,0.7886712,-4.547009E-07,NaN,-0.9240007,2.239046E-05,-0.7355986,3.350784E-08,NaN,NaN,-0.03638394,-5.820771E-10,1.906609E-07,-1.09779E-07,1.43503E-08,-2.622604E-08
809.1749,-1.362873,6.330689E-10,NaN,-1.127199,-1.321287E-07,NaN,0.7971154,-4.551464E-07,NaN,-0.9279651,2.239083E-05,-0.7432054,3.39547E-08,NaN,NaN,-0.03923896,-5.820771E-10,1.888727E-07,-1.097775E-07,1.315821E-08,-2.861022E-08
809.1894,-1.371385,6.336986E-10,NaN,-1.13246,-1.321278E-07,NaN,0.8053417,-4.555802E-07,NaN,-0.9319516,2.239119E-05,-0.7506351,3.438993E-08,NaN,NaN,-0.04203792,-5.774205E-10,1.906609E-07,-1.09776E-07,1.55424E-08,-2.622604E-08
809.2028,-1.37984,6.343282E-10,NaN,-1.137694,-1.321269E-07,NaN,0.8133475,-4.560056E-07,NaN,-0.9359314,2.239156E-05,-0.757876,3.481659E-08,NaN,NaN,-0.04478201,-5.774205E-10,1.885747E-07,-1.097745E-07,1.673449E-08,-2.861022E-08
809.218,-1.37984,6.343282E-10,NaN,-1.137694,-1.321269E-07,NaN,0.8133475,-4.560056E-07,NaN,-0.9359314,2.239156E-05,-0.757876,3.481659E-08,NaN,NaN,-0.04478201,-5.774205E-10,1.885747E-07,-1.097745E-07,1.673449E-08,-2.861022E-08
809.2313,-1.388517,6.349577E-10,NaN,-1.143064,-1.32126E-07,NaN,0.8218493,-4.564196E-07,NaN,-0.9399886,2.239193E-05,-0.7656053,3.523202E-08,NaN,NaN,-0.04765234,-5.727639E-10,1.8023E-07,-1.097731E-07,1.911868E-08,-2.622604E-08
809.2465,-1.39725,6.355871E-10,NaN,-1.148474,-1.321252E-07,NaN,0.8302365,-4.568227E-07,NaN,-0.9441298,2.239229E-05,-0.773268,3.563644E-08,NaN,NaN,-0.05046593,-5.727639E-10,1.769518E-07,-1.097716E-07,1.43503E-08,-2.861022E-08
809.261,-1.40596,6.362164E-10,NaN,-1.153877,-1.321243E-07,NaN,0.8384047,-4.57215E-07,NaN,-0.9482875,2.239266E-05,-0.7807489,3.603007E-08,NaN,NaN,-0.05322428,-5.681073E-10,1.760577E-07,-1.097702E-07,1.196612E-08,-2.622604E-08
809.2758,-1.40596,6.362164E-10,NaN,-1.153877,-1.321243E-07,NaN,0.8384047,-4.57215E-07,NaN,-0.9482875,2.239266E-05,-0.7807489,3.603007E-08,NaN,NaN,-0.05322428,-5.681073E-10,1.760577E-07,-1.097702E-07,1.196612E-08,-2.622604E-08
809.2897,-1.414909,6.368456E-10,NaN,-1.159426,-1.321234E-07,NaN,0.8470542,-4.575995E-07,NaN,-0.9525381,2.239302E-05,-0.7887114,3.641594E-08,NaN,NaN,-0.05610856,-5.681073E-10,1.677131E-07,-1.097687E-07,1.673449E-08,-2.861022E-08
809.3051,-1.423919,6.374747E-10,NaN,-1.165018,-1.321225E-07,NaN,0.8555688,-4.579736E-07,NaN,-0.9568745,2.239339E-05,-0.7965887,3.679138E-08,NaN,NaN,-0.05893585,-5.634507E-10,1.677131E-07,-1.097673E-07,1.673449E-08,-2.622604E-08
809.3198,-1.423919,6.374747E-10,NaN,-1.165018,-1.321225E-07,NaN,0.8555688,-4.579736E-07,NaN,-0.9568745,2.239339E-05,-0.7965887,3.679138E-08,NaN,NaN,-0.05893585,-5.634507E-10,1.677131E-07,-1.097673E-07,1.673449E-08,-2.622604E-08
