JMolnar6/NonAnthroHands_User_Study/HandsLoggerWithURDF/tempdata/PID 0 (test)/files/Reachy_PID0_JointMotion_gesture_11_54.csv
Time,r_shoulder,r_shoulder_x,r_upper_arm,r_forearm,r_wrist,r_wrist2hand,
765.2499,-0.8393869,-8.388704E-10,NaN,-0.3572467,-1.325106E-07,NaN,1.154438,-5.074004E-07,NaN,-0.6667573,2.150615E-05,0.431512,8.327746E-08,NaN,NaN,-0.01013713,-3.119935E-10,-6.829659E-07,-1.102601E-07,-2.386886E-08,-2.622604E-08
765.2654,-0.8375556,-8.381786E-10,NaN,-0.3566195,-1.325092E-07,NaN,1.154679,-5.071638E-07,NaN,-0.6645641,2.150655E-05,0.4320828,8.304228E-08,NaN,NaN,-0.01005236,-3.119935E-10,-6.770055E-07,-1.102569E-07,-2.386886E-08,-2.861022E-08
765.28,-0.8375556,-8.381786E-10,NaN,-0.3566195,-1.325092E-07,NaN,1.154679,-5.071638E-07,NaN,-0.6645641,2.150655E-05,0.4320828,8.304228E-08,NaN,NaN,-0.01005236,-3.119935E-10,-6.770055E-07,-1.102569E-07,-2.386886E-08,-2.861022E-08
765.2938,-0.8357455,-8.374869E-10,NaN,-0.3559998,-1.325077E-07,NaN,1.154923,-5.073854E-07,NaN,-0.6624048,2.150696E-05,0.4326389,8.32653E-08,NaN,NaN,-0.009969272,-3.166501E-10,-6.698529E-07,-1.10255E-07,-2.386886E-08,-2.622604E-08
765.3102,-0.8337438,-8.367952E-10,NaN,-0.3553104,-1.325064E-07,NaN,1.154819,-5.071406E-07,NaN,-0.6597904,2.150737E-05,0.4336602,8.30218E-08,NaN,NaN,-0.009803749,-3.213067E-10,-6.71045E-07,-1.102519E-07,-2.506095E-08,-2.861022E-08
765.3242,-0.8316309,-8.361037E-10,NaN,-0.3545819,-1.325048E-07,NaN,1.154621,-5.07354E-07,NaN,-0.656886,2.150777E-05,0.4348688,8.323666E-08,NaN,NaN,-0.009641448,-3.213067E-10,-6.746213E-07,-1.1025E-07,-2.386886E-08,-2.622604E-08
765.3391,-0.8316309,-8.361037E-10,NaN,-0.3545819,-1.325048E-07,NaN,1.154621,-5.07354E-07,NaN,-0.656886,2.150777E-05,0.4348688,8.323666E-08,NaN,NaN,-0.009641448,-3.213067E-10,-6.746213E-07,-1.1025E-07,-2.386886E-08,-2.622604E-08
765.3531,-0.8294578,-8.354122E-10,NaN,-0.3538328,-1.325035E-07,NaN,1.154447,-5.071039E-07,NaN,-0.6538678,2.150817E-05,0.4361106,8.2988E-08,NaN,NaN,-0.009482429,-3.166501E-10,-6.770055E-07,-1.102469E-07,-2.506095E-08,-2.861022E-08
765.3687,-0.8272562,-8.34721E-10,NaN,-0.3530748,-1.32502E-07,NaN,1.154322,-5.073123E-07,NaN,-0.6508211,2.150857E-05,0.4373313,8.319778E-08,NaN,NaN,-0.009326641,-3.166501E-10,-6.793897E-07,-1.10245E-07,-1.910049E-08,-2.622604E-08
765.3835,-0.8252585,-8.340297E-10,NaN,-0.3523915,-1.325007E-07,NaN,1.154596,-5.070573E-07,NaN,-0.6482748,2.150897E-05,0.4380395,8.294414E-08,NaN,NaN,-0.00925814,-3.119935E-10,-6.686608E-07,-1.102419E-07,-2.267677E-08,-2.861022E-08
765.3984,-0.8252585,-8.340297E-10,NaN,-0.3523915,-1.325007E-07,NaN,1.154596,-5.070573E-07,NaN,-0.6482748,2.150897E-05,0.4380395,8.294414E-08,NaN,NaN,-0.00925814,-3.119935E-10,-6.686608E-07,-1.102419E-07,-2.267677E-08,-2.861022E-08
765.4125,-0.8233966,-8.333387E-10,NaN,-0.3517568,-1.324991E-07,NaN,1.155009,-5.072608E-07,NaN,-0.646082,2.150938E-05,0.4385067,8.314905E-08,NaN,NaN,-0.009191077,-3.119935E-10,-6.615083E-07,-1.102401E-07,-2.029258E-08,-2.622604E-08
765.428,-0.8216274,-8.326477E-10,NaN,-0.3511545,-1.324978E-07,NaN,1.155429,-5.069982E-07,NaN,-0.6440743,2.150978E-05,0.4388897,8.288782E-08,NaN,NaN,-0.009125289,-3.166501E-10,-6.495874E-07,-1.10237E-07,-2.267677E-08,-2.861022E-08
765.4428,-0.8199236,-8.319567E-10,NaN,-0.3505746,-1.324963E-07,NaN,1.155822,-5.071942E-07,NaN,-0.6421693,2.151019E-05,0.4392474,8.308526E-08,NaN,NaN,-0.009060728,-3.213067E-10,-6.412427E-07,-1.102336E-07,-2.744514E-08,-2.622604E-08
765.4586,-0.8199236,-8.319567E-10,NaN,-0.3505746,-1.324963E-07,NaN,1.155822,-5.071942E-07,NaN,-0.6421693,2.151019E-05,0.4392474,8.308526E-08,NaN,NaN,-0.009060728,-3.213067E-10,-6.412427E-07,-1.102336E-07,-2.744514E-08,-2.622604E-08
765.4726,-0.8184803,-8.312659E-10,NaN,-0.3500879,-1.324946E-07,NaN,1.156538,-5.07071E-07,NaN,-0.6408162,2.151059E-05,0.439125,8.296343E-08,NaN,NaN,-0.009081575,-3.213067E-10,-6.257455E-07,-1.102317E-07,-2.386886E-08,-2.861022E-08
765.4874,-0.8172058,-8.305752E-10,NaN,-0.3496601,-1.324933E-07,NaN,1.157334,-5.071921E-07,NaN,-0.6398301,2.151099E-05,0.4387967,8.308595E-08,NaN,NaN,-0.009101992,-3.259633E-10,-6.090562E-07,-1.102286E-07,-2.386886E-08,-2.622604E-08
765.5037,-0.8160424,-8.298852E-10,NaN,-0.3492703,-1.324917E-07,NaN,1.158095,-5.070274E-07,NaN,-0.6390247,2.15114E-05,0.4384157,8.292267E-08,NaN,NaN,-0.009121894,-3.306199E-10,-5.911748E-07,-1.102268E-07,-2.267677E-08,-2.861022E-08
765.5169,-0.8160424,-8.298852E-10,NaN,-0.3492703,-1.324917E-07,NaN,1.158095,-5.070274E-07,NaN,-0.6390247,2.15114E-05,0.4384157,8.292267E-08,NaN,NaN,-0.009121894,-3.306199E-10,-5.911748E-07,-1.102268E-07,-2.267677E-08,-2.861022E-08
765.5311,-0.8151656,-8.291953E-10,NaN,-0.3489822,-1.324908E-07,NaN,1.159153,-5.069563E-07,NaN,-0.6387989,2.151181E-05,0.4375626,8.2853E-08,NaN,NaN,-0.009225495,-3.399331E-10,-5.625646E-07,-1.102263E-07,-1.910049E-08,-2.622604E-08
765.5464,-0.8144721,-8.285055E-10,NaN,-0.3487577,-1.324904E-07,NaN,1.160261,-5.066778E-07,NaN,-0.6389436,2.151222E-05,0.4365217,8.257587E-08,NaN,NaN,-0.00932698,-3.399331E-10,-5.315702E-07,-1.102262E-07,-1.910049E-08,-2.861022E-08
765.5612,-0.8138963,-8.278159E-10,NaN,-0.3485732,-1.324905E-07,NaN,1.161309,-5.063439E-07,NaN,-0.6392611,2.151264E-05,0.435448,8.224339E-08,NaN,NaN,-0.009426318,-3.445897E-10,-5.089204E-07,-1.102264E-07,-1.910049E-08,-2.622604E-08
765.5761,-0.8138963,-8.278159E-10,NaN,-0.3485732,-1.324905E-07,NaN,1.161309,-5.063439E-07,NaN,-0.6392611,2.151264E-05,0.435448,8.224339E-08,NaN,NaN,-0.009426318,-3.445897E-10,-5.089204E-07,-1.102264E-07,-1.910049E-08,-2.622604E-08
765.5902,-0.8133968,-8.271262E-10,NaN,-0.3484139,-1.324907E-07,NaN,1.162278,-5.059488E-07,NaN,-0.6396561,2.151305E-05,0.4343944,8.184966E-08,NaN,NaN,-0.009523567,-3.492464E-10,-4.886548E-07,-1.102267E-07,-2.148467E-08,-2.861022E-08
765.6058,-0.8131593,-8.264366E-10,NaN,-0.3483478,-1.324911E-07,NaN,1.163534,-5.05519E-07,NaN,-0.6405724,2.151347E-05,0.4328994,8.142128E-08,NaN,NaN,-0.009702982,-3.53903E-10,-4.576604E-07,-1.10227E-07,-2.267677E-08,-2.622604E-08
765.6205,-0.8130873,-8.257472E-10,NaN,-0.3483392,-1.324915E-07,NaN,1.164837,-5.050751E-07,NaN,-0.6418226,2.151388E-05,0.4312338,8.097869E-08,NaN,NaN,-0.0098788,-3.53903E-10,-4.290502E-07,-1.102275E-07,-1.67163E-08,-2.861022E-08
765.6356,-0.8130873,-8.257472E-10,NaN,-0.3483392,-1.324915E-07,NaN,1.164837,-5.050751E-07,NaN,-0.6418226,2.151388E-05,0.4312338,8.097869E-08,NaN,NaN,-0.0098788,-3.53903E-10,-4.290502E-07,-1.102275E-07,-1.67163E-08,-2.861022E-08
765.6497,-0.8131183,-8.250581E-10,NaN,-0.3483649,-1.32492E-07,NaN,1.166077,-5.046285E-07,NaN,-0.6432192,2.15143E-05,0.4295486,8.053344E-08,NaN,NaN,-0.01005101,-3.632162E-10,-3.992479E-07,-1.102279E-07,-1.552421E-08,-2.622604E-08
765.665,-0.8132141,-8.243689E-10,NaN,-0.3484116,-1.324925E-07,NaN,1.167235,-5.041821E-07,NaN,-0.6446723,2.15147E-05,0.427894,8.008841E-08,NaN,NaN,-0.0102197,-3.585596E-10,-3.694456E-07,-1.102284E-07,-2.148467E-08,-2.861022E-08
765.6799,-0.8132141,-8.243689E-10,NaN,-0.3484116,-1.324925E-07,NaN,1.167235,-5.041821E-07,NaN,-0.6446723,2.15147E-05,0.427894,8.008841E-08,NaN,NaN,-0.0102197,-3.585596E-10,-3.694456E-07,-1.102284E-07,-2.148467E-08,-2.861022E-08
765.6948,-0.813562,-8.236798E-10,NaN,-0.3485478,-1.32493E-07,NaN,1.168675,-5.037415E-07,NaN,-0.6466285,2.151512E-05,0.4258059,7.964925E-08,NaN,NaN,-0.01046909,-3.678728E-10,-3.372591E-07,-1.102289E-07,-2.386886E-08,-2.622604E-08
765.7095,-0.8140669,-8.229908E-10,NaN,-0.3487385,-1.324936E-07,NaN,1.170152,-5.033068E-07,NaN,-0.6489015,2.151553E-05,0.4235586,7.921582E-08,NaN,NaN,-0.01071351,-3.678728E-10,-3.038805E-07,-1.102294E-07,-2.506095E-08,-2.861022E-08
765.7241,-0.8146682,-8.223018E-10,NaN,-0.3489617,-1.324941E-07,NaN,1.171558,-5.028776E-07,NaN,-0.651305,2.151595E-05,0.4213027,7.878802E-08,NaN,NaN,-0.01095297,-3.77186E-10,-2.669256E-07,-1.102299E-07,-2.386886E-08,-2.622604E-08
765.7388,-0.8146682,-8.223018E-10,NaN,-0.3489617,-1.324941E-07,NaN,1.171558,-5.028776E-07,NaN,-0.651305,2.151595E-05,0.4213027,7.878802E-08,NaN,NaN,-0.01095297,-3.77186E-10,-2.669256E-07,-1.102299E-07,-2.386886E-08,-2.622604E-08
765.753,-0.8155394,-8.216128E-10,NaN,-0.3492807,-1.324946E-07,NaN,1.173226,-5.024568E-07,NaN,-0.6542383,2.151635E-05,0.4186093,7.836856E-08,NaN,NaN,-0.01127163,-3.725294E-10,-2.287786E-07,-1.102304E-07,-2.625304E-08,-2.861022E-08
765.7682,-0.8165764,-8.209239E-10,NaN,-0.3496568,-1.324952E-07,NaN,1.174904,-5.020441E-07,NaN,-0.6574928,2.151677E-05,0.4157705,7.795728E-08,NaN,NaN,-0.01158392,-3.818426E-10,-1.906317E-07,-1.102309E-07,-3.221351E-08,-2.622604E-08
765.7834,-0.8177128,-8.20235E-10,NaN,-0.3500661,-1.324957E-07,NaN,1.176486,-5.016424E-07,NaN,-0.6608711,2.151718E-05,0.4129404,7.755684E-08,NaN,NaN,-0.01188987,-3.77186E-10,-1.548689E-07,-1.102314E-07,-3.698188E-08,-2.861022E-08
765.7979,-0.8177128,-8.20235E-10,NaN,-0.3500661,-1.324957E-07,NaN,1.176486,-5.016424E-07,NaN,-0.6608711,2.151718E-05,0.4129404,7.755684E-08,NaN,NaN,-0.01188987,-3.77186E-10,-1.548689E-07,-1.102314E-07,-3.698188E-08,-2.861022E-08
765.812,-0.8189068,-8.195462E-10,NaN,-0.3504937,-1.324963E-07,NaN,1.177957,-5.012484E-07,NaN,-0.6642788,2.15176E-05,0.4101693,7.716421E-08,NaN,NaN,-0.01218962,-3.864992E-10,-1.226824E-07,-1.102318E-07,-3.698188E-08,-2.622604E-08
765.8276,-0.820344,-8.188573E-10,NaN,-0.3510075,-1.324968E-07,NaN,1.179682,-5.008621E-07,NaN,-0.6681605,2.1518E-05,0.4069833,7.677922E-08,NaN,NaN,-0.01256731,-3.864992E-10,-8.572749E-08,-1.102323E-07,-2.863723E-08,-2.861022E-08
765.8426,-0.8219275,-8.181685E-10,NaN,-0.3515713,-1.324973E-07,NaN,1.181413,-5.004833E-07,NaN,-0.6723292,2.151842E-05,0.4036677,7.640174E-08,NaN,NaN,-0.01293748,-3.958124E-10,-4.99647E-08,-1.102328E-07,-2.863723E-08,-2.622604E-08
765.8571,-0.8219275,-8.181685E-10,NaN,-0.3515713,-1.324973E-07,NaN,1.181413,-5.004833E-07,NaN,-0.6723292,2.151842E-05,0.4036677,7.640174E-08,NaN,NaN,-0.01293748,-3.958124E-10,-4.99647E-08,-1.102328E-07,-2.863723E-08,-2.622604E-08
765.8715,-0.8235961,-8.174798E-10,NaN,-0.352163,-1.324979E-07,NaN,1.183044,-5.001118E-07,NaN,-0.6765985,2.151883E-05,0.4003722,7.60316E-08,NaN,NaN,-0.01330018,-3.911558E-10,-1.420192E-08,-1.102333E-07,-2.506095E-08,-2.861022E-08
765.8871,-0.8253108,-8.16791E-10,NaN,-0.352769,-1.324984E-07,NaN,1.184561,-4.997503E-07,NaN,-0.6808791,2.151925E-05,0.3971454,7.567151E-08,NaN,NaN,-0.01365557,-4.00469E-10,1.917669E-08,-1.102338E-07,-2.267676E-08,-2.622604E-08
765.9017,-0.8272595,-8.161023E-10,NaN,-0.3534577,-1.324989E-07,NaN,1.186328,-4.993959E-07,NaN,-0.6856179,2.151965E-05,0.3935058,7.531843E-08,NaN,NaN,-0.0140877,-3.958124E-10,5.732366E-08,-1.102343E-07,-1.67163E-08,-2.861022E-08
765.9164,-0.8272595,-8.161023E-10,NaN,-0.3534577,-1.324989E-07,NaN,1.186328,-4.993959E-07,NaN,-0.6856179,2.151965E-05,0.3935058,7.531843E-08,NaN,NaN,-0.0140877,-3.958124E-10,5.732366E-08,-1.102343E-07,-1.67163E-08,-2.861022E-08
765.9316,-0.8293464,-8.154136E-10,NaN,-0.3541935,-1.324994E-07,NaN,1.188087,-4.990484E-07,NaN,-0.6906292,2.152007E-05,0.3897487,7.497222E-08,NaN,NaN,-0.01451124,-4.051257E-10,9.904691E-08,-1.102348E-07,-1.433211E-08,-2.622604E-08
765.9462,-0.831511,-8.14725E-10,NaN,-0.3549544,-1.325E-07,NaN,1.189736,-4.987075E-07,NaN,-0.6957273,2.152048E-05,0.3860246,7.463275E-08,NaN,NaN,-0.01492626,-4.00469E-10,1.38386E-07,-1.102352E-07,-1.552421E-08,-2.861022E-08
765.9606,-0.8337151,-8.140363E-10,NaN,-0.355727,-1.325005E-07,NaN,1.191264,-4.983762E-07,NaN,-0.7008233,2.152089E-05,0.3823806,7.430272E-08,NaN,NaN,-0.01533293,-4.00469E-10,1.753409E-07,-1.102357E-07,-1.433212E-08,-2.622604E-08
765.9769,-0.8337151,-8.140363E-10,NaN,-0.355727,-1.325005E-07,NaN,1.191264,-4.983762E-07,NaN,-0.7008233,2.152089E-05,0.3823806,7.430272E-08,NaN,NaN,-0.01533293,-4.00469E-10,1.753409E-07,-1.102357E-07,-1.433212E-08,-2.622604E-08
765.9897,-0.8361472,-8.133478E-10,NaN,-0.35658,-1.32501E-07,NaN,1.193032,-4.980512E-07,NaN,-0.7063642,2.152129E-05,0.378326,7.397911E-08,NaN,NaN,-0.01581522,-4.00469E-10,2.182562E-07,-1.102362E-07,-1.075584E-08,-2.861022E-08
766.0048,-0.8387115,-8.126593E-10,NaN,-0.3574778,-1.325015E-07,NaN,1.194778,-4.977325E-07,NaN,-0.7121646,2.152171E-05,0.3741679,7.366179E-08,NaN,NaN,-0.01628794,-4.097823E-10,2.635557E-07,-1.102367E-07,-1.790839E-08,-2.622604E-08
766.0198,-0.8387115,-8.126593E-10,NaN,-0.3574778,-1.325015E-07,NaN,1.194778,-4.977325E-07,NaN,-0.7121646,2.152171E-05,0.3741679,7.366179E-08,NaN,NaN,-0.01628794,-4.097823E-10,2.635557E-07,-1.102367E-07,-1.790839E-08,-2.622604E-08
766.0339,-0.8413476,-8.119708E-10,NaN,-0.3583983,-1.325021E-07,NaN,1.196404,-4.9742E-07,NaN,-0.7180392,2.152212E-05,0.370057,7.335066E-08,NaN,NaN,-0.01675117,-4.051257E-10,3.064711E-07,-1.102371E-07,-1.790839E-08,-2.861022E-08
766.0495,-0.8442302,-8.112824E-10,NaN,-0.3594054,-1.325026E-07,NaN,1.198245,-4.971164E-07,NaN,-0.7243875,2.152254E-05,0.3655308,7.304839E-08,NaN,NaN,-0.01728878,-4.144389E-10,3.541548E-07,-1.102376E-07,-1.790839E-08,-2.622604E-08
766.0641,-0.8472546,-8.105939E-10,NaN,-0.3604598,-1.325031E-07,NaN,1.200033,-4.968187E-07,NaN,-0.7310017,2.152294E-05,0.3609183,7.275201E-08,NaN,NaN,-0.01781572,-4.097823E-10,4.018385E-07,-1.102381E-07,-8.37165E-09,-2.861022E-08
766.0787,-0.8472546,-8.105939E-10,NaN,-0.3604598,-1.325031E-07,NaN,1.200033,-4.968187E-07,NaN,-0.7310017,2.152294E-05,0.3609183,7.275201E-08,NaN,NaN,-0.01781572,-4.097823E-10,4.018385E-07,-1.102381E-07,-8.37165E-09,-2.861022E-08
766.093,-0.8503547,-8.099056E-10,NaN,-0.3615378,-1.325036E-07,NaN,1.201678,-4.965239E-07,NaN,-0.7376858,2.152335E-05,0.3563721,7.245857E-08,NaN,NaN,-0.01833207,-4.097823E-10,4.471381E-07,-1.102386E-07,-1.194793E-08,-2.622604E-08
766.1086,-0.8534892,-8.092173E-10,NaN,-0.3626251,-1.325041E-07,NaN,1.203178,-4.962348E-07,NaN,-0.7443466,2.152376E-05,0.351934,7.217083E-08,NaN,NaN,-0.01883806,-4.097823E-10,4.864771E-07,-1.10239E-07,-1.075584E-08,-2.861022E-08
766.1234,-0.8568449,-8.08529E-10,NaN,-0.3637899,-1.325047E-07,NaN,1.204896,-4.959542E-07,NaN,-0.7514282,2.152418E-05,0.3470907,7.189152E-08,NaN,NaN,-0.01941749,-4.190955E-10,5.293925E-07,-1.102395E-07,-1.314002E-08,-2.622604E-08
766.1382,-0.8568449,-8.08529E-10,NaN,-0.3637899,-1.325047E-07,NaN,1.204896,-4.959542E-07,NaN,-0.7514282,2.152418E-05,0.3470907,7.189152E-08,NaN,NaN,-0.01941749,-4.190955E-10,5.293925E-07,-1.102395E-07,-1.314002E-08,-2.622604E-08
766.1523,-0.8603244,-8.078407E-10,NaN,-0.3649957,-1.325052E-07,NaN,1.206559,-4.956818E-07,NaN,-0.7587454,2.152459E-05,0.3421761,7.162046E-08,NaN,NaN,-0.01998547,-4.190955E-10,5.74692E-07,-1.1024E-07,-1.075584E-08,-2.861022E-08
766.1689,-0.8638665,-8.071525E-10,NaN,-0.3662206,-1.325057E-07,NaN,1.208081,-4.954146E-07,NaN,-0.7661124,2.152501E-05,0.3373392,7.135466E-08,NaN,NaN,-0.02054207,-4.284087E-10,6.176074E-07,-1.102404E-07,-1.314002E-08,-2.622604E-08
766.1827,-0.8674329,-8.064643E-10,NaN,-0.3674513,-1.325062E-07,NaN,1.209461,-4.951526E-07,NaN,-0.7734414,2.152542E-05,0.3326187,7.109403E-08,NaN,NaN,-0.02108753,-4.284087E-10,6.605227E-07,-1.102409E-07,-1.552421E-08,-2.861022E-08
766.1973,-0.8674329,-8.064643E-10,NaN,-0.3674513,-1.325062E-07,NaN,1.209461,-4.951526E-07,NaN,-0.7734414,2.152542E-05,0.3326187,7.109403E-08,NaN,NaN,-0.02108753,-4.284087E-10,6.605227E-07,-1.102409E-07,-1.552421E-08,-2.861022E-08
766.2117,-0.8712126,-8.057761E-10,NaN,-0.3687568,-1.325067E-07,NaN,1.211059,-4.948985E-07,NaN,-0.7811784,2.152584E-05,0.3274866,7.084128E-08,NaN,NaN,-0.02170558,-4.330653E-10,7.058223E-07,-1.102414E-07,-1.433212E-08,-2.622604E-08
766.2266,-0.8751093,-8.050879E-10,NaN,-0.3701009,-1.325072E-07,NaN,1.212591,-4.946493E-07,NaN,-0.7891393,2.152624E-05,0.3222984,7.059344E-08,NaN,NaN,-0.02231143,-4.284087E-10,7.499297E-07,-1.102418E-07,-1.075584E-08,-2.861022E-08
766.2413,-0.8790626,-8.043998E-10,NaN,-0.3714618,-1.325077E-07,NaN,1.213976,-4.94405E-07,NaN,-0.7971394,2.152666E-05,0.3172018,7.03504E-08,NaN,NaN,-0.02290516,-4.330653E-10,7.940371E-07,-1.102423E-07,-9.563744E-09,-2.622604E-08
766.2572,-0.8790626,-8.043998E-10,NaN,-0.3714618,-1.325077E-07,NaN,1.213976,-4.94405E-07,NaN,-0.7971394,2.152666E-05,0.3172018,7.03504E-08,NaN,NaN,-0.02290516,-4.330653E-10,7.940371E-07,-1.102423E-07,-9.563744E-09,-2.622604E-08
766.2701,-0.8832479,-8.037118E-10,NaN,-0.3729035,-1.325082E-07,NaN,1.215553,-4.941653E-07,NaN,-0.8055775,2.152707E-05,0.3116896,7.011209E-08,NaN,NaN,-0.02357047,-4.284087E-10,8.464892E-07,-1.102427E-07,-1.194793E-08,-2.861022E-08
766.2856,-0.8875599,-8.030238E-10,NaN,-0.3743866,-1.325087E-07,NaN,1.217035,-4.939331E-07,NaN,-0.8142473,2.152749E-05,0.306143,6.988123E-08,NaN,NaN,-0.02422261,-4.330653E-10,8.95365E-07,-1.102432E-07,-8.37165E-09,-2.622604E-08
766.3005,-0.8919328,-8.023358E-10,NaN,-0.3758874,-1.325092E-07,NaN,1.218354,-4.937054E-07,NaN,-0.8229536,2.15279E-05,0.3007078,6.965485E-08,NaN,NaN,-0.02486172,-4.237521E-10,9.394724E-07,-1.102436E-07,-8.37165E-09,-2.861022E-08
766.3153,-0.8919328,-8.023358E-10,NaN,-0.3758874,-1.325092E-07,NaN,1.218354,-4.937054E-07,NaN,-0.8229536,2.15279E-05,0.3007078,6.965485E-08,NaN,NaN,-0.02486172,-4.237521E-10,9.394724E-07,-1.102436E-07,-8.37165E-09,-2.861022E-08
766.3293,-0.8963253,-8.016478E-10,NaN,-0.3773919,-1.325097E-07,NaN,1.219525,-4.93482E-07,NaN,-0.8316046,2.152831E-05,0.2954138,6.943286E-08,NaN,NaN,-0.02548807,-4.284087E-10,9.811957E-07,-1.102441E-07,-7.179557E-09,-2.622604E-08
766.3449,-0.9009253,-8.009599E-10,NaN,-0.3789686,-1.325102E-07,NaN,1.220899,-4.93263E-07,NaN,-0.8406434,2.152872E-05,0.2897003,6.921517E-08,NaN,NaN,-0.02618529,-4.237521E-10,1.024111E-06,-1.102445E-07,-5.987465E-09,-2.861022E-08
766.3597,-0.9009253,-8.009599E-10,NaN,-0.3789686,-1.325102E-07,NaN,1.220899,-4.93263E-07,NaN,-0.8406434,2.152872E-05,0.2897003,6.921517E-08,NaN,NaN,-0.02618529,-4.237521E-10,1.024111E-06,-1.102445E-07,-5.987465E-09,-2.861022E-08
766.3738,-0.9056351,-8.00272E-10,NaN,-0.3805808,-1.325107E-07,NaN,1.222181,-4.930511E-07,NaN,-0.8498856,2.152914E-05,0.2839684,6.900453E-08,NaN,NaN,-0.02686875,-4.284087E-10,1.067026E-06,-1.10245E-07,-1.219093E-09,-2.622604E-08
766.3892,-0.9103932,-7.995841E-10,NaN,-0.3822067,-1.325111E-07,NaN,1.223308,-4.928432E-07,NaN,-0.859147,2.152955E-05,0.2783586,6.879797E-08,NaN,NaN,-0.0275386,-4.237521E-10,1.109942E-06,-1.102454E-07,-2.411186E-09,-2.861022E-08
766.4061,-0.9151617,-7.988962E-10,NaN,-0.3838331,-1.325116E-07,NaN,1.224296,-4.926393E-07,NaN,-0.8683405,2.152997E-05,0.2728953,6.85954E-08,NaN,NaN,-0.0281951,-4.284087E-10,1.148089E-06,-1.102459E-07,-2.411186E-09,-2.622604E-08
766.4198,-0.9151617,-7.988962E-10,NaN,-0.3838331,-1.325116E-07,NaN,1.224296,-4.926393E-07,NaN,-0.8683405,2.152997E-05,0.2728953,6.85954E-08,NaN,NaN,-0.0281951,-4.284087E-10,1.148089E-06,-1.102459E-07,-2.411186E-09,-2.622604E-08
766.4338,-0.9201306,-7.982083E-10,NaN,-0.3855295,-1.325121E-07,NaN,1.22549,-4.924393E-07,NaN,-0.877911,2.153038E-05,0.2669993,6.839677E-08,NaN,NaN,-0.02892185,-4.190955E-10,1.186236E-06,-1.102463E-07,-1.219093E-09,-2.861022E-08
766.4483,-0.9252031,-7.975205E-10,NaN,-0.3872592,-1.325126E-07,NaN,1.226583,-4.922432E-07,NaN,-0.8876756,2.153078E-05,0.2611049,6.820198E-08,NaN,NaN,-0.02963426,-4.144389E-10,1.227959E-06,-1.102468E-07,-2.70004E-11,-2.622604E-08
766.464,-0.9303188,-7.968328E-10,NaN,-0.3890007,-1.325131E-07,NaN,1.227524,-4.920537E-07,NaN,-0.8974507,2.153119E-05,0.2553457,6.80138E-08,NaN,NaN,-0.0303325,-4.097823E-10,1.26849E-06,-1.102472E-07,-1.219093E-09,-2.861022E-08
766.4775,-0.9303188,-7.968328E-10,NaN,-0.3890007,-1.325131E-07,NaN,1.227524,-4.920537E-07,NaN,-0.8974507,2.153119E-05,0.2553457,6.80138E-08,NaN,NaN,-0.0303325,-4.097823E-10,1.26849E-06,-1.102472E-07,-1.219093E-09,-2.861022E-08
766.4916,-0.9356542,-7.961451E-10,NaN,-0.3908181,-1.325136E-07,NaN,1.228645,-4.918678E-07,NaN,-0.9076338,2.153161E-05,0.2491511,6.782925E-08,NaN,NaN,-0.03110012,-4.144389E-10,1.310213E-06,-1.102477E-07,-1.219093E-09,-2.622604E-08
766.5073,-0.9411033,-7.954575E-10,NaN,-0.3926718,-1.32514E-07,NaN,1.229642,-4.916855E-07,NaN,-0.9180199,2.153203E-05,0.2429851,6.764828E-08,NaN,NaN,-0.03185258,-4.144389E-10,1.355513E-06,-1.102481E-07,2.953232E-09,-2.861022E-08
766.5218,-0.9466003,-7.947699E-10,NaN,-0.3945382,-1.325145E-07,NaN,1.230478,-4.915067E-07,NaN,-0.9284156,2.153244E-05,0.2369721,6.747081E-08,NaN,NaN,-0.03259008,-4.144389E-10,1.391276E-06,-1.102485E-07,3.549278E-09,-2.622604E-08
766.5366,-0.9466003,-7.947699E-10,NaN,-0.3945382,-1.325145E-07,NaN,1.230478,-4.915067E-07,NaN,-0.9284156,2.153244E-05,0.2369721,6.747081E-08,NaN,NaN,-0.03259008,-4.144389E-10,1.391276E-06,-1.102485E-07,3.549278E-09,-2.622604E-08
766.5507,-0.9521039,-7.940823E-10,NaN,-0.3964035,-1.32515E-07,NaN,1.231183,-4.913341E-07,NaN,-0.9387304,2.153286E-05,0.2311226,6.72996E-08,NaN,NaN,-0.03331294,-4.144389E-10,1.427038E-06,-1.10249E-07,1.761139E-09,-2.861022E-08
766.5665,-0.9578035,-7.933947E-10,NaN,-0.3983366,-1.325155E-07,NaN,1.232084,-4.911649E-07,NaN,-0.9494057,2.153327E-05,0.2248199,6.71317E-08,NaN,NaN,-0.03410468,-4.144389E-10,1.465185E-06,-1.102494E-07,2.357185E-09,-2.622604E-08
766.5815,-0.9636005,-7.927071E-10,NaN,-0.4003004,-1.32516E-07,NaN,1.232866,-4.909989E-07,NaN,-0.960258,2.153369E-05,0.2185661,6.696705E-08,NaN,NaN,-0.0348808,-4.144389E-10,1.506909E-06,-1.102498E-07,1.761139E-09,-2.861022E-08
766.5962,-0.9636005,-7.927071E-10,NaN,-0.4003004,-1.32516E-07,NaN,1.232866,-4.909989E-07,NaN,-0.960258,2.153369E-05,0.2185661,6.696705E-08,NaN,NaN,-0.0348808,-4.144389E-10,1.506909E-06,-1.102498E-07,1.761139E-09,-2.861022E-08
766.61,-0.9694336,-7.920195E-10,NaN,-0.4022733,-1.325164E-07,NaN,1.233503,-4.908361E-07,NaN,-0.9711046,2.15341E-05,0.2124723,6.680557E-08,NaN,NaN,-0.03564153,-4.144389E-10,1.542671E-06,-1.102503E-07,1.165092E-09,-2.622604E-08
766.6257,-0.9752647,-7.913319E-10,NaN,-0.4042423,-1.325169E-07,NaN,1.234023,-4.906764E-07,NaN,-0.98186,2.153452E-05,0.2065428,6.664721E-08,NaN,NaN,-0.03638718,-4.144389E-10,1.574858E-06,-1.102507E-07,-6.230468E-10,-2.861022E-08
766.6404,-0.9812855,-7.906444E-10,NaN,-0.4062771,-1.325174E-07,NaN,1.234738,-4.905226E-07,NaN,-0.9929671,2.153493E-05,0.2001427,6.649473E-08,NaN,NaN,-0.03720126,-4.144389E-10,1.609429E-06,-1.102511E-07,2.953232E-09,-2.622604E-08
766.6561,-0.9812855,-7.906444E-10,NaN,-0.4062771,-1.325174E-07,NaN,1.234738,-4.905226E-07,NaN,-0.9929671,2.153493E-05,0.2001427,6.649473E-08,NaN,NaN,-0.03720126,-4.144389E-10,1.609429E-06,-1.102511E-07,2.953232E-09,-2.622604E-08
766.6703,-0.9873982,-7.899569E-10,NaN,-0.4083408,-1.325178E-07,NaN,1.235329,-4.903717E-07,NaN,-1.004243,2.153534E-05,0.1938174,6.634519E-08,NaN,NaN,-0.03799928,-4.144389E-10,1.645192E-06,-1.102516E-07,2.953232E-09,-2.861022E-08
766.6847,-0.9935423,-7.892694E-10,NaN,-0.4104119,-1.325183E-07,NaN,1.235786,-4.902238E-07,NaN,-1.015508,2.153576E-05,0.1876594,6.619855E-08,NaN,NaN,-0.0387815,-4.144389E-10,1.67857E-06,-1.10252E-07,1.165093E-09,-2.622604E-08
766.6995,-0.9935423,-7.892694E-10,NaN,-0.4104119,-1.325183E-07,NaN,1.235786,-4.902238E-07,NaN,-1.015508,2.153576E-05,0.1876594,6.619855E-08,NaN,NaN,-0.0387815,-4.144389E-10,1.67857E-06,-1.10252E-07,1.165093E-09,-2.622604E-08
766.7134,-0.9998956,-7.885819E-10,NaN,-0.4125548,-1.325188E-07,NaN,1.236413,-4.900786E-07,NaN,-1.027155,2.153617E-05,0.1810292,6.605472E-08,NaN,NaN,-0.0396314,-4.144389E-10,1.711949E-06,-1.102524E-07,-2.411186E-09,-2.861022E-08
766.7289,-1.006352,-7.878944E-10,NaN,-0.4147296,-1.325192E-07,NaN,1.236902,-4.899391E-07,NaN,-1.038983,2.153659E-05,0.1745028,6.59165E-08,NaN,NaN,-0.04046452,-4.144389E-10,1.744135E-06,-1.102528E-07,-2.700018E-11,-2.622604E-08
766.7434,-1.012844,-7.872069E-10,NaN,-0.4169128,-1.325197E-07,NaN,1.237257,-4.898022E-07,NaN,-1.050799,2.1537E-05,0.1681537,6.578093E-08,NaN,NaN,-0.04128117,-4.144389E-10,1.772745E-06,-1.102533E-07,1.761139E-09,-2.861022E-08
766.7581,-1.012844,-7.872069E-10,NaN,-0.4169128,-1.325197E-07,NaN,1.237257,-4.898022E-07,NaN,-1.050799,2.1537E-05,0.1681537,6.578093E-08,NaN,NaN,-0.04128117,-4.144389E-10,1.772745E-06,-1.102533E-07,1.761139E-09,-2.861022E-08
766.7722,-1.019331,-7.865195E-10,NaN,-0.4190907,-1.325202E-07,NaN,1.237512,-4.896679E-07,NaN,-1.062515,2.153742E-05,0.1619747,6.564797E-08,NaN,NaN,-0.04208168,-4.144389E-10,1.794203E-06,-1.102537E-07,6.529511E-09,-2.622604E-08
766.7879,-1.026005,-7.85832E-10,NaN,-0.4213327,-1.325206E-07,NaN,1.237945,-4.895361E-07,NaN,-1.074569,2.153783E-05,0.155304,6.551758E-08,NaN,NaN,-0.04294951,-4.144389E-10,1.822813E-06,-1.102541E-07,3.549279E-09,-2.861022E-08
766.8026,-1.032766,-7.851446E-10,NaN,-0.4236015,-1.325211E-07,NaN,1.23825,-4.894097E-07,NaN,-1.086779,2.153825E-05,0.1487589,6.539251E-08,NaN,NaN,-0.04380023,-4.144389E-10,1.849039E-06,-1.102545E-07,5.337418E-09,-2.622604E-08
766.8173,-1.032766,-7.851446E-10,NaN,-0.4236015,-1.325211E-07,NaN,1.23825,-4.894097E-07,NaN,-1.086779,2.153825E-05,0.1487589,6.539251E-08,NaN,NaN,-0.04380023,-4.144389E-10,1.849039E-06,-1.102545E-07,5.337418E-09,-2.622604E-08
766.8313,-1.039551,-7.844571E-10,NaN,-0.4258752,-1.325215E-07,NaN,1.23844,-4.892857E-07,NaN,-1.098963,2.153866E-05,0.1423897,6.526986E-08,NaN,NaN,-0.04463415,-4.144389E-10,1.870497E-06,-1.10255E-07,5.933464E-09,-2.861022E-08
766.8469,-1.046324,-7.837697E-10,NaN,-0.4281412,-1.32522E-07,NaN,1.238543,-4.891641E-07,NaN,-1.111039,2.153908E-05,0.1361873,6.514956E-08,NaN,NaN,-0.04545162,-4.144389E-10,1.889571E-06,-1.102554E-07,4.443348E-09,-2.622604E-08
766.8616,-1.053278,-7.830823E-10,NaN,-0.4304695,-1.325225E-07,NaN,1.238816,-4.890447E-07,NaN,-1.123446,2.153949E-05,0.1294825,6.503156E-08,NaN,NaN,-0.04633607,-4.144389E-10,1.909836E-06,-1.102558E-07,4.145325E-09,-2.861022E-08
766.8763,-1.053278,-7.830823E-10,NaN,-0.4304695,-1.325225E-07,NaN,1.238816,-4.890447E-07,NaN,-1.123446,2.153949E-05,0.1294825,6.503156E-08,NaN,NaN,-0.04633607,-4.144389E-10,1.909836E-06,-1.102558E-07,4.145325E-09,-2.861022E-08
766.8902,-1.060313,-7.823948E-10,NaN,-0.4328229,-1.325229E-07,NaN,1.238967,-4.889277E-07,NaN,-1.136002,2.153991E-05,0.1229239,6.491584E-08,NaN,NaN,-0.04720309,-4.144389E-10,1.92891E-06,-1.102562E-07,4.443348E-09,-2.622604E-08
766.9067,-1.067369,-7.817074E-10,NaN,-0.4351799,-1.325234E-07,NaN,1.239017,-4.888157E-07,NaN,-1.148529,2.154033E-05,0.116539,6.480516E-08,NaN,NaN,-0.04805302,-4.190955E-10,1.946791E-06,-1.102566E-07,5.933464E-09,-2.861022E-08
766.9205,-1.074409,-7.810199E-10,NaN,-0.4375282,-1.325238E-07,NaN,1.238993,-4.887058E-07,NaN,-1.160942,2.154074E-05,0.1103177,6.46966E-08,NaN,NaN,-0.0488862,-4.190955E-10,1.95752E-06,-1.10257E-07,2.953232E-09,-2.622604E-08
766.9366,-1.074409,-7.810199E-10,NaN,-0.4375282,-1.325238E-07,NaN,1.238993,-4.887058E-07,NaN,-1.160942,2.154074E-05,0.1103177,6.46966E-08,NaN,NaN,-0.0488862,-4.190955E-10,1.95752E-06,-1.10257E-07,2.953232E-09,-2.622604E-08
766.9495,-1.081626,-7.803325E-10,NaN,-0.4399376,-1.325243E-07,NaN,1.239123,-4.885979E-07,NaN,-1.173682,2.154115E-05,0.1035895,6.459012E-08,NaN,NaN,-0.04978605,-4.190955E-10,1.975401E-06,-1.102574E-07,3.549279E-09,-2.861022E-08
766.9642,-1.088922,-7.79645E-10,NaN,-0.442371,-1.325247E-07,NaN,1.239141,-4.884922E-07,NaN,-1.186566,2.154157E-05,0.09702148,6.448568E-08,NaN,NaN,-0.05066817,-4.190955E-10,1.988514E-06,-1.102579E-07,4.741372E-09,-2.622604E-08
766.9791,-1.088922,-7.79645E-10,NaN,-0.442371,-1.325247E-07,NaN,1.239141,-4.884922E-07,NaN,-1.186566,2.154157E-05,0.09702148,6.448568E-08,NaN,NaN,-0.05066817,-4.190955E-10,1.988514E-06,-1.102579E-07,4.741372E-09,-2.622604E-08
766.993,-1.096236,-7.789576E-10,NaN,-0.444807,-1.325252E-07,NaN,1.239072,-4.883884E-07,NaN,-1.199417,2.154198E-05,0.09062295,6.438324E-08,NaN,NaN,-0.05153292,-4.190955E-10,1.999243E-06,-1.102583E-07,3.549279E-09,-2.861022E-08
767.0087,-1.103748,-7.782702E-10,NaN,-0.4473102,-1.325256E-07,NaN,1.239133,-4.882894E-07,NaN,-1.212627,2.15424E-05,0.08372463,6.428559E-08,NaN,NaN,-0.0524637,-4.190955E-10,2.012356E-06,-1.102587E-07,4.294337E-09,-2.622604E-08
767.0233,-1.11135,-7.775828E-10,NaN,-0.4498404,-1.325261E-07,NaN,1.239084,-4.881923E-07,NaN,-1.225994,2.154282E-05,0.07699734,6.41898E-08,NaN,NaN,-0.05337616,-4.237521E-10,2.019509E-06,-1.102591E-07,8.6707E-10,-2.861022E-08
767.0381,-1.11135,-7.775828E-10,NaN,-0.4498404,-1.325261E-07,NaN,1.239084,-4.881923E-07,NaN,-1.225994,2.154282E-05,0.07699734,6.41898E-08,NaN,NaN,-0.05337616,-4.237521E-10,2.019509E-06,-1.102591E-07,8.6707E-10,-2.861022E-08
767.0521,-1.118975,-7.768954E-10,NaN,-0.4523742,-1.325265E-07,NaN,1.238952,-4.880969E-07,NaN,-1.23933,2.154323E-05,0.07044068,6.409584E-08,NaN,NaN,-0.05427067,-4.237521E-10,2.026661E-06,-1.102595E-07,3.455293E-10,-2.622604E-08
767.0679,-1.126583,-7.76208E-10,NaN,-0.4548984,-1.325269E-07,NaN,1.238758,-4.880034E-07,NaN,-1.252548,2.154365E-05,0.06404593,6.400367E-08,NaN,NaN,-0.05514759,-4.237521E-10,2.035006E-06,-1.102599E-07,-1.44261E-09,-2.861022E-08
767.0825,-1.12912,-7.755206E-10,NaN,-0.4556313,-1.325274E-07,NaN,1.234602,-4.879145E-07,NaN,-1.254683,2.154406E-05,0.07281651,6.391609E-08,NaN,NaN,-0.05409819,-4.237521E-10,1.961096E-06,-1.102603E-07,2.245427E-09,-2.622604E-08
767.0971,-1.12912,-7.755206E-10,NaN,-0.4556313,-1.325274E-07,NaN,1.234602,-4.879145E-07,NaN,-1.254683,2.154406E-05,0.07281651,6.391609E-08,NaN,NaN,-0.05409819,-4.237521E-10,1.961096E-06,-1.102603E-07,2.245427E-09,-2.622604E-08
767.1113,-1.128539,-7.748332E-10,NaN,-0.4553221,-1.325278E-07,NaN,1.23143,-4.878273E-07,NaN,-1.249475,2.154448E-05,0.08131325,6.383018E-08,NaN,NaN,-0.05306916,-4.237521E-10,1.869305E-06,-1.102607E-07,2.368827E-09,-2.861022E-08
767.1268,-1.126014,-7.741459E-10,NaN,-0.4543699,-1.325283E-07,NaN,1.228847,-4.877417E-07,NaN,-1.240788,2.154489E-05,0.08955622,6.37459E-08,NaN,NaN,-0.05206021,-4.237521E-10,1.802547E-06,-1.102611E-07,4.13834E-09,-2.622604E-08
767.1415,-1.122295,-7.734585E-10,NaN,-0.4530319,-1.325287E-07,NaN,1.226622,-4.876576E-07,NaN,-1.230503,2.154531E-05,0.0975851,6.366323E-08,NaN,NaN,-0.051071,-4.237521E-10,1.740559E-06,-1.102615E-07,3.169765E-09,-2.861022E-08
767.1572,-1.122295,-7.734585E-10,NaN,-0.4530319,-1.325287E-07,NaN,1.226622,-4.876576E-07,NaN,-1.230503,2.154531E-05,0.0975851,6.366323E-08,NaN,NaN,-0.051071,-4.237521E-10,1.740559E-06,-1.102615E-07,3.169765E-09,-2.861022E-08
767.1711,-1.118074,-7.727712E-10,NaN,-0.4515457,-1.325291E-07,NaN,1.224807,-4.875752E-07,NaN,-1.220006,2.154572E-05,0.1047695,6.358213E-08,NaN,NaN,-0.05018423,-4.237521E-10,1.688107E-06,-1.102619E-07,4.063835E-09,-2.622604E-08
767.1857,-1.113564,-7.720838E-10,NaN,-0.4499781,-1.325296E-07,NaN,1.223112,-4.874972E-07,NaN,-1.209581,2.154614E-05,0.1117888,6.35054E-08,NaN,NaN,-0.04931484,-4.237521E-10,1.639231E-06,-1.102623E-07,6.149997E-09,-2.861022E-08
767.2004,-1.108895,-7.713965E-10,NaN,-0.4483692,-1.3253E-07,NaN,1.221502,-4.874206E-07,NaN,-1.199268,2.154655E-05,0.1186582,6.343012E-08,NaN,NaN,-0.04846249,-4.237521E-10,1.592739E-06,-1.102627E-07,5.255927E-09,-2.622604E-08
767.215,-1.108895,-7.713965E-10,NaN,-0.4483692,-1.3253E-07,NaN,1.221502,-4.874206E-07,NaN,-1.199268,2.154655E-05,0.1186582,6.343012E-08,NaN,NaN,-0.04846249,-4.237521E-10,1.592739E-06,-1.102627E-07,5.255927E-09,-2.622604E-08
767.2289,-1.104367,-7.707092E-10,NaN,-0.4468203,-1.325304E-07,NaN,1.220149,-4.873453E-07,NaN,-1.189562,2.154696E-05,0.1247287,6.335627E-08,NaN,NaN,-0.04770995,-4.237521E-10,1.549824E-06,-1.102631E-07,4.808892E-09,-2.861022E-08
767.2443,-1.099946,-7.700219E-10,NaN,-0.4453143,-1.325308E-07,NaN,1.218809,-4.872716E-07,NaN,-1.180313,2.154738E-05,0.1306696,6.328383E-08,NaN,NaN,-0.04697214,-4.237521E-10,1.508101E-06,-1.102634E-07,5.404939E-09,-2.622604E-08
767.259,-1.099946,-7.700219E-10,NaN,-0.4453143,-1.325308E-07,NaN,1.218809,-4.872716E-07,NaN,-1.180313,2.154738E-05,0.1306696,6.328383E-08,NaN,NaN,-0.04697214,-4.237521E-10,1.508101E-06,-1.102634E-07,5.404939E-09,-2.622604E-08
767.2731,-1.09561,-7.693347E-10,NaN,-0.4438407,-1.325313E-07,NaN,1.217484,-4.871992E-07,NaN,-1.171352,2.154779E-05,0.1364946,6.321282E-08,NaN,NaN,-0.04624877,-4.237521E-10,1.469954E-06,-1.102638E-07,6.597031E-09,-2.861022E-08
767.2885,-1.091346,-7.686474E-10,NaN,-0.4423929,-1.325317E-07,NaN,1.216179,-4.87131E-07,NaN,-1.162597,2.15482E-05,0.1422062,6.314599E-08,NaN,NaN,-0.04553958,-4.190955E-10,1.429422E-06,-1.102642E-07,5.55395E-09,-2.622604E-08
767.3034,-1.087361,-7.679603E-10,NaN,-0.4410444,-1.325321E-07,NaN,1.215107,-4.870641E-07,NaN,-1.154482,2.154862E-05,0.147149,6.308042E-08,NaN,NaN,-0.04492741,-4.190955E-10,1.396044E-06,-1.102646E-07,6.895055E-09,-2.861022E-08
767.3182,-1.087361,-7.679603E-10,NaN,-0.4410444,-1.325321E-07,NaN,1.215107,-4.870641E-07,NaN,-1.154482,2.154862E-05,0.147149,6.308042E-08,NaN,NaN,-0.04492741,-4.190955E-10,1.396044E-06,-1.102646E-07,6.895055E-09,-2.861022E-08
767.332,-1.083567,-7.672731E-10,NaN,-0.4397611,-1.325325E-07,NaN,1.214015,-4.869985E-07,NaN,-1.146828,2.154903E-05,0.1519823,6.301609E-08,NaN,NaN,-0.04432722,-4.144389E-10,1.359089E-06,-1.10265E-07,9.875286E-09,-2.622604E-08
767.3477,-1.079907,-7.66586E-10,NaN,-0.4385227,-1.32533E-07,NaN,1.212918,-4.86934E-07,NaN,-1.139453,2.154944E-05,0.1567263,6.295297E-08,NaN,NaN,-0.04373878,-4.144389E-10,1.329287E-06,-1.102654E-07,1.13654E-08,-2.861022E-08
767.3622,-1.076345,-7.658995E-10,NaN,-0.4373168,-1.325334E-07,NaN,1.211827,-4.868338E-07,NaN,-1.132267,2.154985E-05,0.1613812,6.285403E-08,NaN,NaN,-0.04316186,-4.097823E-10,1.295908E-06,-1.102658E-07,1.13654E-08,-2.622604E-08
767.3773,-1.076345,-7.658995E-10,NaN,-0.4373168,-1.325334E-07,NaN,1.211827,-4.868338E-07,NaN,-1.132267,2.154985E-05,0.1613812,6.285403E-08,NaN,NaN,-0.04316186,-4.097823E-10,1.295908E-06,-1.102658E-07,1.13654E-08,-2.622604E-08
767.3911,-1.073077,-7.652134E-10,NaN,-0.4362128,-1.325338E-07,NaN,1.210972,-4.867354E-07,NaN,-1.125702,2.155027E-05,0.1652912,6.275699E-08,NaN,NaN,-0.04267939,-4.097823E-10,1.26849E-06,-1.102661E-07,1.345157E-08,-2.861022E-08
767.4075,-1.070005,-7.645273E-10,NaN,-0.435175,-1.325343E-07,NaN,1.21009,-4.866388E-07,NaN,-1.119578,2.155068E-05,0.1691039,6.26618E-08,NaN,NaN,-0.04220637,-4.051257E-10,1.244648E-06,-1.102665E-07,1.613377E-08,-2.622604E-08
767.4225,-1.067068,-7.638413E-10,NaN,-0.4341817,-1.325347E-07,NaN,1.209193,-4.86547E-07,NaN,-1.11371,2.155109E-05,0.1728493,6.257125E-08,NaN,NaN,-0.0417426,-4.051257E-10,1.218422E-06,-1.102669E-07,1.672982E-08,-2.861022E-08
767.436,-1.067068,-7.638413E-10,NaN,-0.4341817,-1.325347E-07,NaN,1.209193,-4.86547E-07,NaN,-1.11371,2.155109E-05,0.1728493,6.257125E-08,NaN,NaN,-0.0417426,-4.051257E-10,1.218422E-06,-1.102669E-07,1.672982E-08,-2.861022E-08
767.4503,-1.064443,-7.631553E-10,NaN,-0.4332968,-1.325351E-07,NaN,1.208527,-4.864568E-07,NaN,-1.108486,2.15515E-05,0.1758727,6.248244E-08,NaN,NaN,-0.04137108,-4.00469E-10,1.200541E-06,-1.102673E-07,1.702784E-08,-2.622604E-08
767.4654,-1.062024,-7.624694E-10,NaN,-0.4324811,-1.325355E-07,NaN,1.207824,-4.863684E-07,NaN,-1.103702,2.155191E-05,0.1788114,6.239531E-08,NaN,NaN,-0.04100684,-4.00469E-10,1.179083E-06,-1.102676E-07,1.52397E-08,-2.861022E-08
767.4799,-1.062024,-7.624694E-10,NaN,-0.4324811,-1.325355E-07,NaN,1.207824,-4.863684E-07,NaN,-1.103702,2.155191E-05,0.1788114,6.239531E-08,NaN,NaN,-0.04100684,-4.00469E-10,1.179083E-06,-1.102676E-07,1.52397E-08,-2.861022E-08
767.4937,-1.059742,-7.617834E-10,NaN,-0.4317111,-1.32536E-07,NaN,1.207096,-4.862816E-07,NaN,-1.099164,2.155232E-05,0.1817019,6.230984E-08,NaN,NaN,-0.04064971,-3.958124E-10,1.157625E-06,-1.10268E-07,1.64318E-08,-2.622604E-08
767.5093,-1.057555,-7.610975E-10,NaN,-0.4309721,-1.325364E-07,NaN,1.206361,-4.861964E-07,NaN,-1.094779,2.155274E-05,0.1845425,6.222599E-08,NaN,NaN,-0.04029957,-3.958124E-10,1.139744E-06,-1.102684E-07,1.64318E-08,-2.861022E-08
767.524,-1.055654,-7.604116E-10,NaN,-0.4303322,-1.325368E-07,NaN,1.205869,-4.861157E-07,NaN,-1.090976,2.155315E-05,0.1866809,6.214657E-08,NaN,NaN,-0.04003946,-3.911558E-10,1.125439E-06,-1.102687E-07,1.64318E-08,-2.622604E-08
767.5388,-1.055654,-7.604116E-10,NaN,-0.4303322,-1.325368E-07,NaN,1.205869,-4.861157E-07,NaN,-1.090976,2.155315E-05,0.1866809,6.214657E-08,NaN,NaN,-0.04003946,-3.911558E-10,1.125439E-06,-1.102687E-07,1.64318E-08,-2.622604E-08
767.5529,-1.053939,-7.597258E-10,NaN,-0.4297554,-1.325372E-07,NaN,1.20534,-4.860364E-07,NaN,-1.087574,2.155356E-05,0.1887434,6.206866E-08,NaN,NaN,-0.03978446,-3.911558E-10,1.112326E-06,-1.102691E-07,1.64318E-08,-2.861022E-08
767.5685,-1.052345,-7.590399E-10,NaN,-0.4292195,-1.325376E-07,NaN,1.204782,-4.859587E-07,NaN,-1.084388,2.155397E-05,0.1907754,6.199222E-08,NaN,NaN,-0.03953443,-3.864992E-10,1.101597E-06,-1.102695E-07,1.464366E-08,-2.622604E-08
767.5833,-1.050835,-7.583542E-10,NaN,-0.4287109,-1.32538E-07,NaN,1.204213,-4.858823E-07,NaN,-1.081329,2.155439E-05,0.1927749,6.191724E-08,NaN,NaN,-0.03928928,-3.864992E-10,1.087292E-06,-1.102698E-07,1.374959E-08,-2.861022E-08
767.5981,-1.050835,-7.583542E-10,NaN,-0.4287109,-1.32538E-07,NaN,1.204213,-4.858823E-07,NaN,-1.081329,2.155439E-05,0.1927749,6.191724E-08,NaN,NaN,-0.03928928,-3.864992E-10,1.087292E-06,-1.102698E-07,1.374959E-08,-2.861022E-08
767.6121,-1.0496,-7.576684E-10,NaN,-0.4282982,-1.325385E-07,NaN,1.20389,-4.858074E-07,NaN,-1.078831,2.15548E-05,0.1940921,6.184368E-08,NaN,NaN,-0.03913213,-3.864992E-10,1.078947E-06,-1.102702E-07,1.345156E-08,-2.622604E-08
767.6283,-1.048541,-7.569826E-10,NaN,-0.4279458,-1.325389E-07,NaN,1.203525,-4.857367E-07,NaN,-1.076713,2.155523E-05,0.1953443,6.177433E-08,NaN,NaN,-0.03897806,-3.958124E-10,1.070603E-06,-1.102705E-07,1.583575E-08,-2.861022E-08
767.6423,-1.047597,-7.562967E-10,NaN,-0.4276318,-1.325393E-07,NaN,1.203126,-4.856674E-07,NaN,-1.074791,2.155565E-05,0.1965828,6.170629E-08,NaN,NaN,-0.03882698,-3.911558E-10,1.059874E-06,-1.102709E-07,1.464366E-08,-2.622604E-08
767.6581,-1.047597,-7.562967E-10,NaN,-0.4276318,-1.325393E-07,NaN,1.203126,-4.856674E-07,NaN,-1.074791,2.155565E-05,0.1965828,6.170629E-08,NaN,NaN,-0.03882698,-3.911558E-10,1.059874E-06,-1.102709E-07,1.464366E-08,-2.622604E-08
767.6723,-1.046944,-7.556108E-10,NaN,-0.4274197,-1.325397E-07,NaN,1.202958,-4.855993E-07,NaN,-1.073454,2.155607E-05,0.1971596,6.163954E-08,NaN,NaN,-0.03876205,-3.911558E-10,1.05749E-06,-1.102713E-07,1.166343E-08,-2.861022E-08
767.6867,-1.046476,-7.549249E-10,NaN,-0.4272709,-1.325401E-07,NaN,1.202739,-4.855324E-07,NaN,-1.0725,2.155648E-05,0.1976863,6.157405E-08,NaN,NaN,-0.03869838,-3.864992E-10,1.05749E-06,-1.102716E-07,1.076936E-08,-2.622604E-08
767.7013,-1.046126,-7.54239E-10,NaN,-0.4271616,-1.325405E-07,NaN,1.202474,-4.854668E-07,NaN,-1.071734,2.15569E-05,0.198216,6.150979E-08,NaN,NaN,-0.03863593,-3.864992E-10,1.050337E-06,-1.10272E-07,1.047133E-08,-2.861022E-08
767.716,-1.046126,-7.54239E-10,NaN,-0.4271616,-1.325405E-07,NaN,1.202474,-4.854668E-07,NaN,-1.071734,2.15569E-05,0.198216,6.150979E-08,NaN,NaN,-0.03863593,-3.864992E-10,1.050337E-06,-1.10272E-07,1.047133E-08,-2.861022E-08
767.7299,-1.045849,-7.535531E-10,NaN,-0.4270769,-1.325409E-07,NaN,1.202186,-4.854053E-07,NaN,-1.071063,2.155731E-05,0.1987461,6.144957E-08,NaN,NaN,-0.03857468,-3.818426E-10,1.0408E-06,-1.102723E-07,1.196145E-08,-2.622604E-08
767.7451,-1.045838,-7.528671E-10,NaN,-0.4270841,-1.325413E-07,NaN,1.202137,-4.853449E-07,NaN,-1.070917,2.155773E-05,0.1986277,6.139047E-08,NaN,NaN,-0.03859782,-3.818426E-10,1.043185E-06,-1.102727E-07,9.875286E-09,-2.861022E-08
767.7599,-1.045838,-7.528671E-10,NaN,-0.4270841,-1.325413E-07,NaN,1.202137,-4.853449E-07,NaN,-1.070917,2.155773E-05,0.1986277,6.139047E-08,NaN,NaN,-0.03859782,-3.818426E-10,1.043185E-06,-1.102727E-07,9.875286E-09,-2.861022E-08
767.7739,-1.04599,-7.521811E-10,NaN,-0.4271477,-1.325417E-07,NaN,1.202037,-4.852855E-07,NaN,-1.071118,2.155815E-05,0.1984705,6.133249E-08,NaN,NaN,-0.03862051,-3.818426E-10,1.043185E-06,-1.10273E-07,1.25575E-08,-2.622604E-08
767.7895,-1.046245,-7.514951E-10,NaN,-0.4272457,-1.325421E-07,NaN,1.201889,-4.852273E-07,NaN,-1.07148,2.155857E-05,0.1983298,6.12756E-08,NaN,NaN,-0.03864271,-3.818426E-10,1.039608E-06,-1.102734E-07,1.196145E-08,-2.861022E-08
767.8041,-1.046562,-7.50809E-10,NaN,-0.4273645,-1.325425E-07,NaN,1.201714,-4.851701E-07,NaN,-1.071916,2.155898E-05,0.1982032,6.121977E-08,NaN,NaN,-0.03866445,-3.77186E-10,1.041993E-06,-1.102738E-07,8.38517E-09,-2.622604E-08
767.819,-1.046562,-7.50809E-10,NaN,-0.4273645,-1.325425E-07,NaN,1.201714,-4.851701E-07,NaN,-1.071916,2.155898E-05,0.1982032,6.121977E-08,NaN,NaN,-0.03866445,-3.77186E-10,1.041993E-06,-1.102738E-07,8.38517E-09,-2.622604E-08
767.8329,-1.047133,-7.50123E-10,NaN,-0.4275724,-1.325429E-07,NaN,1.201775,-4.851168E-07,NaN,-1.07286,2.15594E-05,0.1974413,6.116781E-08,NaN,NaN,-0.03876896,-3.77186E-10,1.045569E-06,-1.102741E-07,8.981217E-09,-2.861022E-08
767.8485,-1.047861,-7.494369E-10,NaN,-0.4278339,-1.325433E-07,NaN,1.201779,-4.850644E-07,NaN,-1.074131,2.155982E-05,0.1966548,6.111682E-08,NaN,NaN,-0.03887141,-3.725294E-10,1.050337E-06,-1.102744E-07,1.076936E-08,-2.622604E-08
767.8631,-1.048683,-7.487508E-10,NaN,-0.4281271,-1.325439E-07,NaN,1.201732,-4.848974E-07,NaN,-1.075548,2.156025E-05,0.1958984,6.095111E-08,NaN,NaN,-0.03897181,-3.818426E-10,1.056298E-06,-1.102743E-07,7.491101E-09,-2.861022E-08
767.8779,-1.048683,-7.487508E-10,NaN,-0.4281271,-1.325439E-07,NaN,1.201732,-4.848974E-07,NaN,-1.075548,2.156025E-05,0.1958984,6.095111E-08,NaN,NaN,-0.03897181,-3.818426E-10,1.056298E-06,-1.102743E-07,7.491101E-09,-2.861022E-08
767.8919,-1.049777,-7.480647E-10,NaN,-0.4285153,-1.325445E-07,NaN,1.201902,-4.847504E-07,NaN,-1.077497,2.156067E-05,0.1945231,6.080552E-08,NaN,NaN,-0.03915341,-3.818426E-10,1.065834E-06,-1.102742E-07,5.106915E-09,-2.622604E-08
767.9087,-1.051036,-7.473785E-10,NaN,-0.4289597,-1.325451E-07,NaN,1.202003,-4.846063E-07,NaN,-1.079779,2.156109E-05,0.1931412,6.066274E-08,NaN,NaN,-0.03933143,-3.911558E-10,1.076563E-06,-1.10274E-07,7.193078E-09,-2.861022E-08
767.9229,-1.052392,-7.466923E-10,NaN,-0.4294362,-1.325454E-07,NaN,1.202043,-4.845891E-07,NaN,-1.082199,2.156151E-05,0.1918042,6.064683E-08,NaN,NaN,-0.03950592,-3.911558E-10,1.082524E-06,-1.102743E-07,7.491101E-09,-2.622604E-08
767.937,-1.052392,-7.466923E-10,NaN,-0.4294362,-1.325454E-07,NaN,1.202043,-4.845891E-07,NaN,-1.082199,2.156151E-05,0.1918042,6.064683E-08,NaN,NaN,-0.03950592,-3.911558E-10,1.082524E-06,-1.102743E-07,7.491101E-09,-2.622604E-08
767.9508,-1.053802,-7.460061E-10,NaN,-0.42993,-1.325458E-07,NaN,1.202045,-4.845609E-07,NaN,-1.084666,2.156193E-05,0.1905079,6.061992E-08,NaN,NaN,-0.03967695,-3.911558E-10,1.09206E-06,-1.102746E-07,4.808892E-09,-2.861022E-08
767.9661,-1.055458,-7.453198E-10,NaN,-0.4305092,-1.325461E-07,NaN,1.202268,-4.845274E-07,NaN,-1.087611,2.156235E-05,0.1885991,6.058784E-08,NaN,NaN,-0.0399278,-3.911558E-10,1.103981E-06,-1.10275E-07,2.424706E-09,-2.622604E-08
767.9806,-1.057258,-7.446335E-10,NaN,-0.4311374,-1.325465E-07,NaN,1.202423,-4.844918E-07,NaN,-1.090854,2.156277E-05,0.1866981,6.055352E-08,NaN,NaN,-0.0401737,-3.911558E-10,1.113518E-06,-1.102753E-07,3.914822E-09,-2.861022E-08
767.9951,-1.057258,-7.446335E-10,NaN,-0.4311374,-1.325465E-07,NaN,1.202423,-4.844918E-07,NaN,-1.090854,2.156277E-05,0.1866981,6.055352E-08,NaN,NaN,-0.0401737,-3.911558E-10,1.113518E-06,-1.102753E-07,3.914822E-09,-2.861022E-08
768.0092,-1.059142,-7.439472E-10,NaN,-0.4317924,-1.325469E-07,NaN,1.202517,-4.844568E-07,NaN,-1.094211,2.156318E-05,0.1848522,6.051982E-08,NaN,NaN,-0.04041474,-3.864992E-10,1.120671E-06,-1.102756E-07,5.106915E-09,-2.622604E-08
768.0244,-1.061068,-7.43261E-10,NaN,-0.4324607,-1.325473E-07,NaN,1.202572,-4.844196E-07,NaN,-1.097597,2.15636E-05,0.1830573,6.048391E-08,NaN,NaN,-0.04065102,-3.864992E-10,1.125439E-06,-1.10276E-07,5.106915E-09,-2.861022E-08
768.0393,-1.061068,-7.43261E-10,NaN,-0.4324607,-1.325473E-07,NaN,1.202572,-4.844196E-07,NaN,-1.097597,2.15636E-05,0.1830573,6.048391E-08,NaN,NaN,-0.04065102,-3.864992E-10,1.125439E-06,-1.10276E-07,5.106915E-09,-2.861022E-08
768.0532,-1.06323,-7.425747E-10,NaN,-0.433211,-1.325477E-07,NaN,1.202841,-4.84383E-07,NaN,-1.101445,2.156402E-05,0.1806575,6.044866E-08,NaN,NaN,-0.04096582,-3.818426E-10,1.138552E-06,-1.102763E-07,3.020752E-09,-2.622604E-08
768.0687,-1.06553,-7.418884E-10,NaN,-0.4340074,-1.325481E-07,NaN,1.203037,-4.84347E-07,NaN,-1.105575,2.156443E-05,0.1782822,6.041405E-08,NaN,NaN,-0.04127443,-3.818426E-10,1.152857E-06,-1.102767E-07,4.052025E-11,-2.861022E-08
768.0834,-1.067905,-7.41202E-10,NaN,-0.4348278,-1.325484E-07,NaN,1.203171,-4.843117E-07,NaN,-1.109807,2.156485E-05,0.1759725,6.038006E-08,NaN,NaN,-0.04157693,-3.77186E-10,1.163586E-06,-1.10277E-07,2.126683E-09,-2.622604E-08
768.0983,-1.067905,-7.41202E-10,NaN,-0.4348278,-1.325484E-07,NaN,1.203171,-4.843117E-07,NaN,-1.109807,2.156485E-05,0.1759725,6.038006E-08,NaN,NaN,-0.04157693,-3.77186E-10,1.163586E-06,-1.10277E-07,2.126683E-09,-2.622604E-08
768.1122,-1.070533,-7.405158E-10,NaN,-0.4357361,-1.325488E-07,NaN,1.203498,-4.842798E-07,NaN,-1.114528,2.156527E-05,0.1730706,6.034952E-08,NaN,NaN,-0.04195664,-3.77186E-10,1.180275E-06,-1.102773E-07,9.3459E-10,-2.861022E-08
768.1277,-1.073308,-7.398294E-10,NaN,-0.4366929,-1.325492E-07,NaN,1.20374,-4.842485E-07,NaN,-1.119538,2.156568E-05,0.1702121,6.031953E-08,NaN,NaN,-0.04232887,-3.725294E-10,1.195773E-06,-1.102777E-07,1.530636E-09,-2.622604E-08
768.1426,-1.076162,-7.391431E-10,NaN,-0.4376745,-1.325496E-07,NaN,1.203915,-4.842177E-07,NaN,-1.124644,2.15661E-05,0.1674311,6.029008E-08,NaN,NaN,-0.04269374,-3.725294E-10,1.206501E-06,-1.10278E-07,1.977671E-09,-2.861022E-08
768.1572,-1.076162,-7.391431E-10,NaN,-0.4376745,-1.325496E-07,NaN,1.203915,-4.842177E-07,NaN,-1.124644,2.15661E-05,0.1674311,6.029008E-08,NaN,NaN,-0.04269374,-3.725294E-10,1.206501E-06,-1.10278E-07,1.977671E-09,-2.861022E-08
768.1712,-1.079052,-7.384569E-10,NaN,-0.4386664,-1.3255E-07,NaN,1.204044,-4.841875E-07,NaN,-1.129757,2.156651E-05,0.1647219,6.026115E-08,NaN,NaN,-0.04305142,-3.678728E-10,1.218422E-06,-1.102784E-07,-1.747619E-09,-2.622604E-08
768.1878,-1.082171,-7.377706E-10,NaN,-0.4397371,-1.325504E-07,NaN,1.204365,-4.841577E-07,NaN,-1.135307,2.156693E-05,0.1614237,6.023274E-08,NaN,NaN,-0.04348521,-3.678728E-10,1.23392E-06,-1.102787E-07,-3.68477E-09,-2.861022E-08
768.2016,-1.085417,-7.370843E-10,NaN,-0.4408498,-1.325507E-07,NaN,1.204605,-4.841285E-07,NaN,-1.141114,2.156735E-05,0.1581838,6.020485E-08,NaN,NaN,-0.04391045,-3.678728E-10,1.251801E-06,-1.10279E-07,-7.857095E-09,-2.622604E-08
768.2162,-1.085417,-7.370843E-10,NaN,-0.4408498,-1.325507E-07,NaN,1.204605,-4.841285E-07,NaN,-1.141114,2.156735E-05,0.1581838,6.020485E-08,NaN,NaN,-0.04391045,-3.678728E-10,1.251801E-06,-1.10279E-07,-7.857095E-09,-2.622604E-08
768.23,-1.088729,-7.36398E-10,NaN,-0.4419827,-1.325511E-07,NaN,1.204781,-4.841026E-07,NaN,-1.146996,2.156777E-05,0.1550284,6.018027E-08,NaN,NaN,-0.04432731,-3.678728E-10,1.264914E-06,-1.102794E-07,-5.770933E-09,-2.861022E-08
768.2453,-1.092067,-7.357117E-10,NaN,-0.4431223,-1.325515E-07,NaN,1.204912,-4.840771E-07,NaN,-1.152869,2.156818E-05,0.1519517,6.015613E-08,NaN,NaN,-0.04473595,-3.632162E-10,1.276835E-06,-1.102797E-07,-4.727852E-09,-2.622604E-08
768.26,-1.095624,-7.350254E-10,NaN,-0.4443378,-1.325518E-07,NaN,1.205225,-4.840522E-07,NaN,-1.159166,2.15686E-05,0.1482922,6.013249E-08,NaN,NaN,-0.0452197,-3.632162E-10,1.293524E-06,-1.1028E-07,-3.833782E-09,-2.861022E-08
768.2747,-1.095624,-7.350254E-10,NaN,-0.4443378,-1.325518E-07,NaN,1.205225,-4.840522E-07,NaN,-1.159166,2.15686E-05,0.1482922,6.013249E-08,NaN,NaN,-0.0452197,-3.632162E-10,1.293524E-06,-1.1028E-07,-3.833782E-09,-2.861022E-08
768.2888,-1.099303,-7.343392E-10,NaN,-0.4455929,-1.325522E-07,NaN,1.205456,-4.840276E-07,NaN,-1.165707,2.156902E-05,0.1447062,6.010926E-08,NaN,NaN,-0.04569392,-3.632162E-10,1.305445E-06,-1.102804E-07,-3.088724E-09,-2.622604E-08
768.3042,-1.103041,-7.33653E-10,NaN,-0.4468659,-1.325526E-07,NaN,1.205624,-4.840035E-07,NaN,-1.172312,2.156945E-05,0.1412113,6.008644E-08,NaN,NaN,-0.04615878,-3.725294E-10,1.317366E-06,-1.102807E-07,-3.16323E-09,-2.861022E-08
768.3189,-1.103041,-7.33653E-10,NaN,-0.4468659,-1.325526E-07,NaN,1.205624,-4.840035E-07,NaN,-1.172312,2.156945E-05,0.1412113,6.008644E-08,NaN,NaN,-0.04615878,-3.725294E-10,1.317366E-06,-1.102807E-07,-3.16323E-09,-2.861022E-08
768.3329,-1.107017,-7.329666E-10,NaN,-0.4482206,-1.325529E-07,NaN,1.205954,-4.839797E-07,NaN,-1.179371,2.156987E-05,0.1371451,6.006401E-08,NaN,NaN,-0.04669763,-3.725294E-10,1.335248E-06,-1.10281E-07,-6.068956E-09,-2.622604E-08
768.3483,-1.111124,-7.322803E-10,NaN,-0.4496176,-1.325533E-07,NaN,1.206195,-4.839592E-07,NaN,-1.186681,2.15703E-05,0.1331681,6.00448E-08,NaN,NaN,-0.04722586,-3.818426E-10,1.349553E-06,-1.102814E-07,-4.355322E-09,-2.861022E-08
768.3629,-1.115294,-7.315939E-10,NaN,-0.4510331,-1.325537E-07,NaN,1.20637,-4.839389E-07,NaN,-1.194054,2.157071E-05,0.1292913,6.002591E-08,NaN,NaN,-0.04774369,-3.77186E-10,1.362666E-06,-1.102817E-07,-6.925773E-09,-2.622604E-08
768.3783,-1.115294,-7.315939E-10,NaN,-0.4510331,-1.325537E-07,NaN,1.20637,-4.839389E-07,NaN,-1.194054,2.157071E-05,0.1292913,6.002591E-08,NaN,NaN,-0.04774369,-3.77186E-10,1.362666E-06,-1.102817E-07,-6.925773E-09,-2.622604E-08
768.3973,-1.119485,-7.309074E-10,NaN,-0.4524531,-1.32554E-07,NaN,1.206496,-4.839191E-07,NaN,-1.201399,2.157113E-05,0.1255087,6.000735E-08,NaN,NaN,-0.04825132,-3.77186E-10,1.37101E-06,-1.10282E-07,-5.137633E-09,-2.861022E-08
768.4075,-1.123889,-7.302209E-10,NaN,-0.4539464,-1.325544E-07,NaN,1.20678,-4.838995E-07,NaN,-1.209147,2.157155E-05,0.12116,5.998911E-08,NaN,NaN,-0.04883208,-3.725294E-10,1.382931E-06,-1.102823E-07,-6.83264E-09,-2.622604E-08
768.4219,-1.128407,-7.295344E-10,NaN,-0.455476,-1.325548E-07,NaN,1.206982,-4.838802E-07,NaN,-1.217118,2.157196E-05,0.1169107,5.997116E-08,NaN,NaN,-0.04940141,-3.725294E-10,1.392468E-06,-1.102827E-07,-6.678972E-09,-2.861022E-08
768.4384,-1.128407,-7.295344E-10,NaN,-0.455476,-1.325548E-07,NaN,1.206982,-4.838802E-07,NaN,-1.217118,2.157196E-05,0.1169107,5.997116E-08,NaN,NaN,-0.04940141,-3.725294E-10,1.392468E-06,-1.102827E-07,-6.678972E-09,-2.861022E-08
768.4521,-1.132975,-7.288479E-10,NaN,-0.45702,-1.325552E-07,NaN,1.207124,-4.838641E-07,NaN,-1.225133,2.157238E-05,0.1127652,5.995635E-08,NaN,NaN,-0.04995953,-3.678728E-10,1.400813E-06,-1.10283E-07,-6.399575E-09,-2.622604E-08
