JMolnar6/NonAnthroHands_User_Study/HandsLoggerWithURDF/tempdata/PID 0 (test)/files/Reachy_PID0_JointMotion_gesture_12_61.csv
Time,r_shoulder,r_shoulder_x,r_upper_arm,r_forearm,r_wrist,r_wrist2hand,
859.8829,-0.2227869,2.249385E-09,NaN,-0.4607079,-1.321941E-07,NaN,-0.02086208,-4.706641E-07,NaN,-0.6649591,2.33748E-05,0.00694083,8.280313E-08,NaN,NaN,0.182369,5.215391E-10,-6.307815E-07,-1.101093E-07,-8.776723E-09,-2.861022E-08
859.8981,-0.2227869,2.249385E-09,NaN,-0.4607079,-1.321941E-07,NaN,-0.02086208,-4.706641E-07,NaN,-0.6649591,2.33748E-05,0.00694083,8.280313E-08,NaN,NaN,0.182369,5.215391E-10,-6.307815E-07,-1.101093E-07,-8.776723E-09,-2.861022E-08
859.9114,-0.2232986,2.250025E-09,NaN,-0.4590759,-1.321951E-07,NaN,-0.01951609,-4.716788E-07,NaN,-0.6623827,2.337522E-05,0.009304872,8.397959E-08,NaN,NaN,0.1815094,5.215391E-10,-6.206487E-07,-1.101123E-07,-1.624166E-09,-2.622604E-08
859.9272,-0.223825,2.250665E-09,NaN,-0.4573981,-1.321968E-07,NaN,-0.01816843,-4.669351E-07,NaN,-0.6597258,2.337563E-05,0.0119149,7.96262E-08,NaN,NaN,0.1806668,5.122259E-10,-6.200526E-07,-1.101144E-07,-4.320733E-10,-2.861022E-08
859.942,-0.2243583,2.251305E-09,NaN,-0.4556997,-1.321979E-07,NaN,-0.01672375,-4.677933E-07,NaN,-0.6570554,2.337604E-05,0.01455318,8.079714E-08,NaN,NaN,0.1798407,5.168825E-10,-6.182645E-07,-1.101175E-07,-1.624166E-09,-2.622604E-08
859.9589,-0.2243583,2.251305E-09,NaN,-0.4556997,-1.321979E-07,NaN,-0.01672375,-4.677933E-07,NaN,-0.6570554,2.337604E-05,0.01455318,8.079714E-08,NaN,NaN,0.1798407,5.168825E-10,-6.182645E-07,-1.101175E-07,-1.624166E-09,-2.622604E-08
859.9709,-0.2248602,2.251945E-09,NaN,-0.4541008,-1.32199E-07,NaN,-0.01488216,-4.687417E-07,NaN,-0.6549261,2.337645E-05,0.01644548,8.199585E-08,NaN,NaN,0.179345,5.168825E-10,-6.188606E-07,-1.101204E-07,7.600196E-10,-2.861022E-08
859.9864,-0.2253407,2.252585E-09,NaN,-0.4525703,-1.322E-07,NaN,-0.01299074,-4.697389E-07,NaN,-0.6529447,2.337686E-05,0.01798526,8.319359E-08,NaN,NaN,0.1788589,5.261957E-10,-6.140922E-07,-1.101233E-07,3.144205E-09,-2.622604E-08
860.0012,-0.2258058,2.253226E-09,NaN,-0.4510886,-1.322017E-07,NaN,-0.01117416,-4.649777E-07,NaN,-0.6510498,2.337728E-05,0.01938898,7.885406E-08,NaN,NaN,0.1783824,5.168825E-10,-6.057475E-07,-1.101255E-07,-4.320733E-10,-2.861022E-08
860.016,-0.2258058,2.253226E-09,NaN,-0.4510886,-1.322017E-07,NaN,-0.01117416,-4.649777E-07,NaN,-0.6510498,2.337728E-05,0.01938898,7.885406E-08,NaN,NaN,0.1783824,5.168825E-10,-6.057475E-07,-1.101255E-07,-4.320733E-10,-2.861022E-08
860.0299,-0.2262594,2.253866E-09,NaN,-0.4496436,-1.322028E-07,NaN,-0.009449452,-4.658401E-07,NaN,-0.6492117,2.337768E-05,0.02073883,8.005405E-08,NaN,NaN,0.1779152,5.215391E-10,-5.956147E-07,-1.101285E-07,7.600196E-10,-2.622604E-08
860.0475,-0.2266708,2.254507E-09,NaN,-0.4483322,-1.322038E-07,NaN,-0.007490773,-4.66797E-07,NaN,-0.64794,2.33781E-05,0.02136632,8.128134E-08,NaN,NaN,0.1777713,5.215391E-10,-5.926345E-07,-1.101314E-07,-5.200445E-09,-2.861022E-08
860.061,-0.2270543,2.255148E-09,NaN,-0.4471089,-1.322048E-07,NaN,-0.005602662,-4.678062E-07,NaN,-0.6468196,2.337851E-05,0.02169204,8.250708E-08,NaN,NaN,0.1776302,5.215391E-10,-5.836938E-07,-1.101343E-07,-5.200445E-09,-2.622604E-08
860.0748,-0.2270543,2.255148E-09,NaN,-0.4471089,-1.322048E-07,NaN,-0.005602662,-4.678062E-07,NaN,-0.6468196,2.337851E-05,0.02169204,8.250708E-08,NaN,NaN,0.1776302,5.215391E-10,-5.836938E-07,-1.101343E-07,-5.200445E-09,-2.622604E-08
860.0889,-0.2274189,2.255789E-09,NaN,-0.4459453,-1.322058E-07,NaN,-0.003867744,-4.688486E-07,NaN,-0.6457787,2.337892E-05,0.02193071,8.372285E-08,NaN,NaN,0.1774919,5.261957E-10,-5.72965E-07,-1.101371E-07,-2.816259E-09,-2.861022E-08
860.1043,-0.2277703,2.25643E-09,NaN,-0.4448236,-1.32207E-07,NaN,-0.00227282,-4.692934E-07,NaN,-0.6447829,2.337933E-05,0.02215715,8.430666E-08,NaN,NaN,0.1773562,5.215391E-10,-5.616401E-07,-1.10138E-07,1.952113E-09,-2.622604E-08
860.1193,-0.2277703,2.25643E-09,NaN,-0.4448236,-1.32207E-07,NaN,-0.00227282,-4.692934E-07,NaN,-0.6447829,2.337933E-05,0.02215715,8.430666E-08,NaN,NaN,0.1773562,5.215391E-10,-5.616401E-07,-1.10138E-07,1.952113E-09,-2.622604E-08
860.1332,-0.2280788,2.257071E-09,NaN,-0.4438373,-1.322077E-07,NaN,-0.0004694401,-4.699349E-07,NaN,-0.6443407,2.337973E-05,0.02169757,8.505956E-08,NaN,NaN,0.1775374,5.168825E-10,-5.515073E-07,-1.101384E-07,4.336298E-09,-2.861022E-08
860.1487,-0.2283593,2.257712E-09,NaN,-0.4429389,-1.322082E-07,NaN,0.001247097,-4.706824E-07,NaN,-0.6440358,2.338013E-05,0.02096647,8.589642E-08,NaN,NaN,0.177715,5.122259E-10,-5.389903E-07,-1.101387E-07,1.952113E-09,-2.622604E-08
860.1633,-0.2286214,2.258354E-09,NaN,-0.4420985,-1.322088E-07,NaN,0.002800314,-4.713605E-07,NaN,-0.6437961,2.338053E-05,0.02017356,8.664629E-08,NaN,NaN,0.1778891,5.029127E-10,-5.258773E-07,-1.101385E-07,7.600198E-10,-2.861022E-08
860.1783,-0.2286214,2.258354E-09,NaN,-0.4420985,-1.322088E-07,NaN,0.002800314,-4.713605E-07,NaN,-0.6437961,2.338053E-05,0.02017356,8.664629E-08,NaN,NaN,0.1778891,5.029127E-10,-5.258773E-07,-1.101385E-07,7.600198E-10,-2.861022E-08
860.1924,-0.2288377,2.258995E-09,NaN,-0.4414023,-1.32208E-07,NaN,0.004520264,-4.699823E-07,NaN,-0.6441121,2.338092E-05,0.01869848,8.529222E-08,NaN,NaN,0.1783739,5.029127E-10,-5.151484E-07,-1.101392E-07,1.952113E-09,-2.861022E-08
860.208,-0.2290247,2.259636E-09,NaN,-0.4407981,-1.322082E-07,NaN,0.006115694,-4.70806E-07,NaN,-0.6445588,2.338133E-05,0.01697261,8.613569E-08,NaN,NaN,0.1788492,4.842862E-10,-4.984591E-07,-1.101388E-07,6.720484E-09,-2.622604E-08
860.2225,-0.2291925,2.260277E-09,NaN,-0.4402532,-1.322072E-07,NaN,0.007519534,-4.69575E-07,NaN,-0.6450604,2.338173E-05,0.01520924,8.487886E-08,NaN,NaN,0.1793152,4.796296E-10,-4.805777E-07,-1.101395E-07,7.912577E-09,-2.622604E-08
860.2375,-0.2291925,2.260277E-09,NaN,-0.4402532,-1.322072E-07,NaN,0.007519534,-4.69575E-07,NaN,-0.6450604,2.338173E-05,0.01520924,8.487886E-08,NaN,NaN,0.1793152,4.796296E-10,-4.805777E-07,-1.101395E-07,7.912577E-09,-2.622604E-08
860.2516,-0.2293478,2.260919E-09,NaN,-0.4397474,-1.32207E-07,NaN,0.008756864,-4.706217E-07,NaN,-0.6455809,2.338212E-05,0.01347978,8.590528E-08,NaN,NaN,0.179772,4.74973E-10,-4.644845E-07,-1.101395E-07,-2.816258E-09,-2.861022E-08
860.267,-0.2294615,2.26156E-09,NaN,-0.4393725,-1.322069E-07,NaN,0.01018022,-4.716383E-07,NaN,-0.6466287,2.338253E-05,0.01111052,8.690589E-08,NaN,NaN,0.180534,4.563465E-10,-4.549478E-07,-1.101394E-07,-4.008351E-09,-2.622604E-08
860.2817,-0.2295488,2.262202E-09,NaN,-0.4390801,-1.322062E-07,NaN,0.01150042,-4.697816E-07,NaN,-0.6477871,2.338293E-05,0.008510794,8.5051E-08,NaN,NaN,0.1812811,4.516899E-10,-4.394506E-07,-1.101403E-07,-4.320724E-10,-2.622604E-08
860.2974,-0.2295488,2.262202E-09,NaN,-0.4390801,-1.322062E-07,NaN,0.01150042,-4.697816E-07,NaN,-0.6477871,2.338293E-05,0.008510794,8.5051E-08,NaN,NaN,0.1812811,4.516899E-10,-4.394506E-07,-1.101403E-07,-4.320724E-10,-2.622604E-08
860.3115,-0.2296192,2.262843E-09,NaN,-0.4388398,-1.322061E-07,NaN,0.01264396,-4.707378E-07,NaN,-0.6489842,2.338333E-05,0.005887748,8.6009E-08,NaN,NaN,0.1820134,4.470333E-10,-4.227612E-07,-1.101404E-07,7.600205E-10,-2.861022E-08
860.326,-0.2296787,2.263485E-09,NaN,-0.4386327,-1.322054E-07,NaN,0.01362949,-4.688285E-07,NaN,-0.6501863,2.338372E-05,0.003311679,8.412071E-08,NaN,NaN,0.1827315,4.423767E-10,-4.054759E-07,-1.101414E-07,-1.624165E-09,-2.861022E-08
860.3406,-0.2296982,2.264126E-09,NaN,-0.4385518,-1.322054E-07,NaN,0.01479817,-4.697763E-07,NaN,-0.6519026,2.338412E-05,0.0001112174,8.508557E-08,NaN,NaN,0.1837496,4.377201E-10,-3.905747E-07,-1.101415E-07,-4.320724E-10,-2.622604E-08
860.3553,-0.2296982,2.264126E-09,NaN,-0.4385518,-1.322054E-07,NaN,0.01479817,-4.697763E-07,NaN,-0.6519026,2.338412E-05,0.0001112174,8.508557E-08,NaN,NaN,0.1837496,4.377201E-10,-3.905747E-07,-1.101415E-07,-4.320724E-10,-2.622604E-08
860.3695,-0.2296937,2.264768E-09,NaN,-0.438549,-1.322055E-07,NaN,0.01586204,-4.707364E-07,NaN,-0.6537161,2.338451E-05,-0.003306,8.605969E-08,NaN,NaN,0.1847477,4.330635E-10,-3.697131E-07,-1.101415E-07,4.336299E-09,-2.861022E-08
860.3851,-0.2296743,2.26541E-09,NaN,-0.4385932,-1.322049E-07,NaN,0.01674512,-4.688247E-07,NaN,-0.6555559,2.338491E-05,-0.006730518,8.417795E-08,NaN,NaN,0.1857262,4.284069E-10,-3.494475E-07,-1.101425E-07,-4.320722E-10,-2.861022E-08
860.3997,-0.2296743,2.26541E-09,NaN,-0.4385932,-1.322049E-07,NaN,0.01674512,-4.688247E-07,NaN,-0.6555559,2.338491E-05,-0.006730518,8.417795E-08,NaN,NaN,0.1857262,4.284069E-10,-3.494475E-07,-1.101425E-07,-4.320722E-10,-2.861022E-08
860.414,-0.2296125,2.266052E-09,NaN,-0.438771,-1.322049E-07,NaN,0.01776265,-4.697612E-07,NaN,-0.6579132,2.338531E-05,-0.01077994,8.513873E-08,NaN,NaN,0.1869998,4.190937E-10,-3.339503E-07,-1.101426E-07,7.600207E-10,-2.622604E-08
860.4293,-0.2295245,2.266694E-09,NaN,-0.4390303,-1.32205E-07,NaN,0.01863424,-4.707116E-07,NaN,-0.6603633,2.338571E-05,-0.01503021,8.610884E-08,NaN,NaN,0.1882483,4.144371E-10,-3.148768E-07,-1.101427E-07,-4.320722E-10,-2.861022E-08
860.4454,-0.2294204,2.267335E-09,NaN,-0.4393389,-1.322043E-07,NaN,0.01929509,-4.687911E-07,NaN,-0.6628311,2.33861E-05,-0.01926789,8.422322E-08,NaN,NaN,0.1894723,4.097805E-10,-2.969954E-07,-1.101436E-07,-4.320722E-10,-2.861022E-08
860.4588,-0.2294204,2.267335E-09,NaN,-0.4393389,-1.322043E-07,NaN,0.01929509,-4.687911E-07,NaN,-0.6628311,2.33861E-05,-0.01926789,8.422322E-08,NaN,NaN,0.1894723,4.097805E-10,-2.969954E-07,-1.101436E-07,-4.320722E-10,-2.861022E-08
860.473,-0.2293068,2.267977E-09,NaN,-0.4396764,-1.322043E-07,NaN,0.01977268,-4.697226E-07,NaN,-0.6652817,2.33865E-05,-0.02342248,8.518298E-08,NaN,NaN,0.1906724,4.051239E-10,-2.79114E-07,-1.101438E-07,7.600207E-10,-2.622604E-08
860.4886,-0.2291545,2.26862E-09,NaN,-0.4401349,-1.322044E-07,NaN,0.02039584,-4.706718E-07,NaN,-0.6682231,2.33869E-05,-0.02816373,8.615491E-08,NaN,NaN,0.1921631,4.004672E-10,-2.654049E-07,-1.101438E-07,5.528392E-09,-2.861022E-08
860.5034,-0.2289789,2.269261E-09,NaN,-0.4406659,-1.322038E-07,NaN,0.0208918,-4.687474E-07,NaN,-0.6712391,2.338729E-05,-0.03309019,8.426797E-08,NaN,NaN,0.1936245,3.958106E-10,-2.445433E-07,-1.101448E-07,6.720485E-09,-2.861022E-08
860.518,-0.2289789,2.269261E-09,NaN,-0.4406659,-1.322038E-07,NaN,0.0208918,-4.687474E-07,NaN,-0.6712391,2.338729E-05,-0.03309019,8.426797E-08,NaN,NaN,0.1936245,3.958106E-10,-2.445433E-07,-1.101448E-07,6.720485E-09,-2.861022E-08
860.5341,-0.2287893,2.269904E-09,NaN,-0.4412393,-1.322038E-07,NaN,0.02119075,-4.696759E-07,NaN,-0.6742588,2.338769E-05,-0.03799298,8.52267E-08,NaN,NaN,0.1950573,3.91154E-10,-2.230856E-07,-1.101449E-07,7.912577E-09,-2.622604E-08
860.5484,-0.2285919,2.270546E-09,NaN,-0.4418362,-1.322039E-07,NaN,0.02131493,-4.706224E-07,NaN,-0.6772498,2.338809E-05,-0.04280236,8.619763E-08,NaN,NaN,0.196462,3.864974E-10,-2.010319E-07,-1.101449E-07,1.268095E-08,-2.861022E-08
860.5623,-0.2283573,2.271188E-09,NaN,-0.4425496,-1.322033E-07,NaN,0.0215751,-4.686961E-07,NaN,-0.6807201,2.338848E-05,-0.04818622,8.430997E-08,NaN,NaN,0.1981533,3.818408E-10,-1.837466E-07,-1.101459E-07,1.864141E-08,-2.861022E-08
860.5769,-0.2283573,2.271188E-09,NaN,-0.4425496,-1.322033E-07,NaN,0.0215751,-4.686961E-07,NaN,-0.6807201,2.338848E-05,-0.04818622,8.430997E-08,NaN,NaN,0.1981533,3.818408E-10,-1.837466E-07,-1.101459E-07,1.864141E-08,-2.861022E-08
860.5908,-0.2281006,2.27183E-09,NaN,-0.4433316,-1.322033E-07,NaN,0.02170481,-4.696225E-07,NaN,-0.6842541,2.338888E-05,-0.05374544,8.526774E-08,NaN,NaN,0.1998115,3.725276E-10,-1.610968E-07,-1.10146E-07,2.10256E-08,-2.622604E-08
860.6064,-0.2278312,2.272472E-09,NaN,-0.4441523,-1.322034E-07,NaN,0.02163456,-4.705701E-07,NaN,-0.6877818,2.338928E-05,-0.05926884,8.624055E-08,NaN,NaN,0.2014371,3.67871E-10,-1.396391E-07,-1.10146E-07,2.340978E-08,-2.861022E-08
860.6212,-0.227555,2.273115E-09,NaN,-0.4449932,-1.322027E-07,NaN,0.02138734,-4.686434E-07,NaN,-0.6912712,2.338968E-05,-0.06468619,8.435312E-08,NaN,NaN,0.203031,3.632144E-10,-1.163933E-07,-1.10147E-07,1.98335E-08,-2.861022E-08
860.6362,-0.227555,2.273115E-09,NaN,-0.4449932,-1.322027E-07,NaN,0.02138734,-4.686434E-07,NaN,-0.6912712,2.338968E-05,-0.06468619,8.435312E-08,NaN,NaN,0.203031,3.632144E-10,-1.163933E-07,-1.10147E-07,1.98335E-08,-2.861022E-08
860.65,-0.2272427,2.273757E-09,NaN,-0.4459474,-1.322028E-07,NaN,0.02125843,-4.695713E-07,NaN,-0.6952294,2.339008E-05,-0.07066426,8.531273E-08,NaN,NaN,0.2049076,3.539012E-10,-9.970403E-08,-1.101471E-07,1.864141E-08,-2.622604E-08
860.6654,-0.2269091,2.2744E-09,NaN,-0.4469672,-1.322029E-07,NaN,0.02099216,-4.705174E-07,NaN,-0.6992413,2.339047E-05,-0.07680693,8.628452E-08,NaN,NaN,0.2067475,3.492445E-10,-7.88424E-08,-1.101471E-07,1.98335E-08,-2.861022E-08
860.6804,-0.2265639,2.275042E-09,NaN,-0.4480226,-1.322022E-07,NaN,0.0205217,-4.685905E-07,NaN,-0.7032376,2.339087E-05,-0.08290108,8.439699E-08,NaN,NaN,0.2085514,3.445879E-10,-5.529857E-08,-1.101481E-07,2.10256E-08,-2.861022E-08
860.6953,-0.2265639,2.275042E-09,NaN,-0.4480226,-1.322022E-07,NaN,0.0205217,-4.685905E-07,NaN,-0.7032376,2.339087E-05,-0.08290108,8.439699E-08,NaN,NaN,0.2085514,3.445879E-10,-5.529857E-08,-1.101481E-07,2.10256E-08,-2.861022E-08
860.7093,-0.2261796,2.275685E-09,NaN,-0.4492,-1.322022E-07,NaN,0.02011318,-4.695171E-07,NaN,-0.7077067,2.339127E-05,-0.08955843,8.53556E-08,NaN,NaN,0.210634,3.399313E-10,-3.831125E-08,-1.101482E-07,1.98335E-08,-2.622604E-08
860.7246,-0.2257728,2.276327E-09,NaN,-0.4504472,-1.322024E-07,NaN,0.01952623,-4.70465E-07,NaN,-0.7122259,2.339166E-05,-0.09636655,8.632923E-08,NaN,NaN,0.2126758,3.399313E-10,-1.71516E-08,-1.101482E-07,2.221769E-08,-2.861022E-08
860.74,-0.2253537,2.27697E-09,NaN,-0.4517317,-1.322017E-07,NaN,0.01870706,-4.685378E-07,NaN,-0.7167225,2.339205E-05,-0.1031066,8.444145E-08,NaN,NaN,0.2146776,3.399313E-10,7.286303E-09,-1.101491E-07,1.864141E-08,-2.861022E-08
860.7545,-0.2253537,2.27697E-09,NaN,-0.4517317,-1.322017E-07,NaN,0.01870706,-4.685378E-07,NaN,-0.7167225,2.339205E-05,-0.1031066,8.444145E-08,NaN,NaN,0.2146776,3.399313E-10,7.286303E-09,-1.101491E-07,1.864141E-08,-2.861022E-08
860.7685,-0.2249286,2.277613E-09,NaN,-0.4530334,-1.322017E-07,NaN,0.01769154,-4.694662E-07,NaN,-0.7211639,2.339245E-05,-0.1097088,8.540187E-08,NaN,NaN,0.2166402,3.306181E-10,3.29163E-08,-1.101493E-07,2.340978E-08,-2.622604E-08
860.785,-0.2244686,2.278256E-09,NaN,-0.4544446,-1.322019E-07,NaN,0.01675025,-4.70413E-07,NaN,-0.7260537,2.339285E-05,-0.1168411,8.637446E-08,NaN,NaN,0.2188784,3.306181E-10,5.258583E-08,-1.101493E-07,2.579397E-08,-2.861022E-08
860.799,-0.2244686,2.278256E-09,NaN,-0.4544446,-1.322019E-07,NaN,0.01675025,-4.70413E-07,NaN,-0.7260537,2.339285E-05,-0.1168411,8.637446E-08,NaN,NaN,0.2188784,3.306181E-10,5.258583E-08,-1.101493E-07,2.579397E-08,-2.861022E-08
860.8127,-0.2239888,2.278898E-09,NaN,-0.4559166,-1.322012E-07,NaN,0.01565411,-4.684858E-07,NaN,-0.7309784,2.339324E-05,-0.1241135,8.448664E-08,NaN,NaN,0.2210727,3.306181E-10,7.553362E-08,-1.101502E-07,2.460187E-08,-2.861022E-08
860.8281,-0.2234988,2.279541E-09,NaN,-0.4574196,-1.322013E-07,NaN,0.01434491,-4.694161E-07,NaN,-0.7358696,2.339364E-05,-0.1313105,8.544886E-08,NaN,NaN,0.2232241,3.259615E-10,1.002695E-07,-1.101503E-07,1.98335E-08,-2.622604E-08
860.843,-0.2230045,2.280184E-09,NaN,-0.4589348,-1.322014E-07,NaN,0.0128537,-4.703647E-07,NaN,-0.7406971,2.339403E-05,-0.1383625,8.642321E-08,NaN,NaN,0.2253334,3.259615E-10,1.264956E-07,-1.101503E-07,1.864141E-08,-2.861022E-08
860.858,-0.2230045,2.280184E-09,NaN,-0.4589348,-1.322014E-07,NaN,0.0128537,-4.703647E-07,NaN,-0.7406971,2.339403E-05,-0.1383625,8.642321E-08,NaN,NaN,0.2253334,3.259615E-10,1.264956E-07,-1.101503E-07,1.864141E-08,-2.861022E-08
860.8719,-0.2224764,2.280827E-09,NaN,-0.4605555,-1.322007E-07,NaN,0.01142609,-4.684375E-07,NaN,-0.7459632,2.339443E-05,-0.1459372,8.453534E-08,NaN,NaN,0.2277152,3.259615E-10,1.44079E-07,-1.101513E-07,1.625722E-08,-2.861022E-08
860.8877,-0.2219296,2.28147E-09,NaN,-0.4622336,-1.322008E-07,NaN,0.009844427,-4.693668E-07,NaN,-0.751256,2.339482E-05,-0.1536455,8.549647E-08,NaN,NaN,0.2300505,3.213049E-10,1.667287E-07,-1.101514E-07,1.268095E-08,-2.622604E-08
860.9026,-0.2213736,2.282113E-09,NaN,-0.4639395,-1.322009E-07,NaN,0.008052792,-4.703144E-07,NaN,-0.7565083,2.339521E-05,-0.1612686,8.646973E-08,NaN,NaN,0.2323401,3.213049E-10,1.935508E-07,-1.101514E-07,1.268095E-08,-2.861022E-08
860.9177,-0.2213736,2.282113E-09,NaN,-0.4639395,-1.322009E-07,NaN,0.008052792,-4.703144E-07,NaN,-0.7565083,2.339521E-05,-0.1612686,8.646973E-08,NaN,NaN,0.2323401,3.213049E-10,1.935508E-07,-1.101514E-07,1.268095E-08,-2.861022E-08
860.9327,-0.220781,2.282756E-09,NaN,-0.4657595,-1.322002E-07,NaN,0.006267495,-4.683872E-07,NaN,-0.7622036,2.339561E-05,-0.1694182,8.458176E-08,NaN,NaN,0.2348987,3.213049E-10,2.147105E-07,-1.101523E-07,1.744932E-08,-2.861022E-08
860.947,-0.2201681,2.283399E-09,NaN,-0.4676415,-1.322003E-07,NaN,0.004290748,-4.693185E-07,NaN,-0.7679234,2.339601E-05,-0.177688,8.554466E-08,NaN,NaN,0.2374074,3.073351E-10,2.409365E-07,-1.101524E-07,1.506513E-08,-2.622604E-08
860.9617,-0.2195455,2.284042E-09,NaN,-0.4695531,-1.322004E-07,NaN,0.002081616,-4.702679E-07,NaN,-0.7735976,2.33964E-05,-0.1858534,8.651975E-08,NaN,NaN,0.2398669,3.073351E-10,2.710369E-07,-1.101524E-07,1.506513E-08,-2.861022E-08
860.9767,-0.2195455,2.284042E-09,NaN,-0.4695531,-1.322004E-07,NaN,0.002081616,-4.702679E-07,NaN,-0.7735976,2.33964E-05,-0.1858534,8.651975E-08,NaN,NaN,0.2398669,3.073351E-10,2.710369E-07,-1.101524E-07,1.506513E-08,-2.861022E-08
860.9906,-0.2189194,2.284685E-09,NaN,-0.4714742,-1.321997E-07,NaN,-0.0003159933,-4.683406E-07,NaN,-0.7791951,2.339679E-05,-0.1938459,8.463145E-08,NaN,NaN,0.2422782,3.073351E-10,2.960708E-07,-1.101533E-07,1.744932E-08,-2.861022E-08
861.0072,-0.2182604,2.285328E-09,NaN,-0.4734973,-1.321998E-07,NaN,-0.002689362,-4.692709E-07,NaN,-0.7852129,2.339719E-05,-0.2023367,8.559331E-08,NaN,NaN,0.2449561,3.026785E-10,3.151443E-07,-1.101535E-07,9.104666E-09,-2.622604E-08
861.022,-0.2175839,2.285971E-09,NaN,-0.4755739,-1.321999E-07,NaN,-0.005224766,-4.702194E-07,NaN,-0.7912425,2.339758E-05,-0.21094,8.656731E-08,NaN,NaN,0.2475817,3.026785E-10,3.413704E-07,-1.101535E-07,5.528388E-09,-2.861022E-08
861.0358,-0.2175839,2.285971E-09,NaN,-0.4755739,-1.321999E-07,NaN,-0.005224766,-4.702194E-07,NaN,-0.7912425,2.339758E-05,-0.21094,8.656731E-08,NaN,NaN,0.2475817,3.026785E-10,3.413704E-07,-1.101535E-07,5.528388E-09,-2.861022E-08
861.0499,-0.2168995,2.286614E-09,NaN,-0.477674,-1.321994E-07,NaN,-0.00796772,-4.68292E-07,NaN,-0.7972178,2.339797E-05,-0.2194337,8.467888E-08,NaN,NaN,0.2501559,3.026785E-10,3.678944E-07,-1.101539E-07,1.029676E-08,-2.861022E-08
861.0651,-0.2162132,2.287257E-09,NaN,-0.4797792,-1.321994E-07,NaN,-0.01087948,-4.692411E-07,NaN,-0.80311,2.339838E-05,-0.2277495,8.565943E-08,NaN,NaN,0.2526796,2.887086E-10,3.962066E-07,-1.10154E-07,6.72048E-09,-2.622604E-08
861.08,-0.215495,2.2879E-09,NaN,-0.4819826,-1.321995E-07,NaN,-0.01377608,-4.701967E-07,NaN,-0.8094138,2.339877E-05,-0.2365596,8.664045E-08,NaN,NaN,0.2554677,2.887086E-10,4.170683E-07,-1.101539E-07,1.268094E-08,-2.861022E-08
861.0947,-0.215495,2.2879E-09,NaN,-0.4819826,-1.321995E-07,NaN,-0.01377608,-4.701967E-07,NaN,-0.8094138,2.339877E-05,-0.2365596,8.664045E-08,NaN,NaN,0.2554677,2.887086E-10,4.170683E-07,-1.101539E-07,1.268094E-08,-2.861022E-08
861.1088,-0.2147603,2.288543E-09,NaN,-0.4842365,-1.321989E-07,NaN,-0.01682971,-4.68277E-07,NaN,-0.8157232,2.339916E-05,-0.2454767,8.475879E-08,NaN,NaN,0.2582014,2.887086E-10,4.421022E-07,-1.101548E-07,1.268094E-08,-2.861022E-08
861.1243,-0.2140186,2.289186E-09,NaN,-0.4865112,-1.321989E-07,NaN,-0.02008231,-4.692109E-07,NaN,-0.8219735,2.339957E-05,-0.2542755,8.572352E-08,NaN,NaN,0.2608816,2.747388E-10,4.668381E-07,-1.101549E-07,9.104665E-09,-2.622604E-08
861.1394,-0.2140186,2.289186E-09,NaN,-0.4865112,-1.321989E-07,NaN,-0.02008231,-4.692109E-07,NaN,-0.8219735,2.339957E-05,-0.2542755,8.572352E-08,NaN,NaN,0.2608816,2.747388E-10,4.668381E-07,-1.101549E-07,9.104665E-09,-2.622604E-08
861.1536,-0.2132421,2.289829E-09,NaN,-0.488893,-1.32199E-07,NaN,-0.02337671,-4.7016E-07,NaN,-0.8286402,2.339996E-05,-0.2635728,8.66975E-08,NaN,NaN,0.263823,2.747388E-10,4.844215E-07,-1.101549E-07,6.72048E-09,-2.861022E-08
861.169,-0.2124477,2.290472E-09,NaN,-0.4913299,-1.321984E-07,NaN,-0.02686075,-4.68234E-07,NaN,-0.8353122,2.340035E-05,-0.2729622,8.480956E-08,NaN,NaN,0.266707,2.747388E-10,5.124357E-07,-1.101558E-07,1.029676E-08,-2.861022E-08
861.1837,-0.2116455,2.291116E-09,NaN,-0.4937897,-1.321984E-07,NaN,-0.03055962,-4.691668E-07,NaN,-0.8419217,2.340075E-05,-0.2822142,8.577316E-08,NaN,NaN,0.2695345,2.60769E-10,5.41642E-07,-1.101559E-07,9.104665E-09,-2.622604E-08
861.1985,-0.2116455,2.291116E-09,NaN,-0.4937897,-1.321984E-07,NaN,-0.03055962,-4.691668E-07,NaN,-0.8419217,2.340075E-05,-0.2822142,8.577316E-08,NaN,NaN,0.2695345,2.60769E-10,5.41642E-07,-1.101559E-07,9.104665E-09,-2.622604E-08
861.2124,-0.2108419,2.291759E-09,NaN,-0.4962524,-1.321985E-07,NaN,-0.03442163,-4.701148E-07,NaN,-0.8484393,2.340114E-05,-0.2912624,8.674603E-08,NaN,NaN,0.2723066,2.60769E-10,5.68315E-07,-1.101559E-07,5.528387E-09,-2.861022E-08
861.2282,-0.2100072,2.292402E-09,NaN,-0.4988105,-1.321979E-07,NaN,-0.03830173,-4.681869E-07,NaN,-0.8553523,2.340154E-05,-0.3007867,8.485636E-08,NaN,NaN,0.2753381,2.60769E-10,5.905178E-07,-1.101568E-07,-4.008356E-09,-2.861022E-08
861.2448,-0.2091571,2.293046E-09,NaN,-0.5014156,-1.32198E-07,NaN,-0.04233738,-4.691186E-07,NaN,-0.8622599,2.340194E-05,-0.3103974,8.58189E-08,NaN,NaN,0.2783104,2.467992E-10,6.18383E-07,-1.101569E-07,-7.584635E-09,-2.622604E-08
861.2585,-0.2091571,2.293046E-09,NaN,-0.5014156,-1.32198E-07,NaN,-0.04233738,-4.691186E-07,NaN,-0.8622599,2.340194E-05,-0.3103974,8.58189E-08,NaN,NaN,0.2783104,2.467992E-10,6.18383E-07,-1.101569E-07,-7.584635E-09,-2.622604E-08
861.2717,-0.208301,2.293689E-09,NaN,-0.5040378,-1.321981E-07,NaN,-0.04655872,-4.700682E-07,NaN,-0.8690986,2.340233E-05,-0.3198672,8.679356E-08,NaN,NaN,0.2812245,2.467992E-10,6.434169E-07,-1.101569E-07,-5.200449E-09,-2.861022E-08
861.2872,-0.207445,2.294333E-09,NaN,-0.5066587,-1.321975E-07,NaN,-0.05091979,-4.681398E-07,NaN,-0.8758409,2.340272E-05,-0.3291301,8.490335E-08,NaN,NaN,0.2840815,2.467992E-10,6.712821E-07,-1.101578E-07,-7.584635E-09,-2.861022E-08
861.3018,-0.2065588,2.294976E-09,NaN,-0.5093717,-1.321975E-07,NaN,-0.05530697,-4.690704E-07,NaN,-0.8829706,2.340313E-05,-0.3388683,8.586483E-08,NaN,NaN,0.2871962,2.328293E-10,6.899085E-07,-1.101579E-07,-8.776728E-09,-2.622604E-08
861.3165,-0.2065588,2.294976E-09,NaN,-0.5093717,-1.321975E-07,NaN,-0.05530697,-4.690704E-07,NaN,-0.8829706,2.340313E-05,-0.3388683,8.586483E-08,NaN,NaN,0.2871962,2.328293E-10,6.899085E-07,-1.101579E-07,-8.776728E-09,-2.622604E-08
861.3306,-0.2056579,2.29562E-09,NaN,-0.5121289,-1.321976E-07,NaN,-0.05984147,-4.70019E-07,NaN,-0.8900911,2.340352E-05,-0.3486873,8.683845E-08,NaN,NaN,0.2902501,2.328293E-10,7.183697E-07,-1.101579E-07,-4.008356E-09,-2.861022E-08
861.3461,-0.2047519,2.296263E-09,NaN,-0.5149008,-1.32197E-07,NaN,-0.06454875,-4.680904E-07,NaN,-0.8971397,2.340391E-05,-0.3583571,8.494795E-08,NaN,NaN,0.2932442,2.328293E-10,7.438507E-07,-1.101588E-07,-6.392542E-09,-2.861022E-08
861.3608,-0.2038466,2.296907E-09,NaN,-0.5176693,-1.32197E-07,NaN,-0.06938121,-4.690228E-07,NaN,-0.9040894,2.34043E-05,-0.3678128,8.591124E-08,NaN,NaN,0.2961795,2.328293E-10,7.706728E-07,-1.101589E-07,-1.624171E-09,-2.622604E-08
861.3761,-0.2038466,2.296907E-09,NaN,-0.5176693,-1.32197E-07,NaN,-0.06938121,-4.690228E-07,NaN,-0.9040894,2.34043E-05,-0.3678128,8.591124E-08,NaN,NaN,0.2961795,2.328293E-10,7.706728E-07,-1.101589E-07,-1.624171E-09,-2.622604E-08
861.39,-0.2029116,2.297551E-09,NaN,-0.5205279,-1.321972E-07,NaN,-0.07425258,-4.699704E-07,NaN,-0.9114194,2.340469E-05,-0.3777409,8.688381E-08,NaN,NaN,0.2993711,2.328293E-10,7.896718E-07,-1.101588E-07,7.600152E-10,-2.861022E-08
861.4054,-0.2019626,2.298194E-09,NaN,-0.5234288,-1.321965E-07,NaN,-0.07926466,-4.680416E-07,NaN,-0.9187375,2.340508E-05,-0.3877417,8.499303E-08,NaN,NaN,0.3025003,2.328293E-10,8.188035E-07,-1.101597E-07,5.528387E-09,-2.861022E-08
861.4215,-0.2010089,2.298838E-09,NaN,-0.5263426,-1.321966E-07,NaN,-0.08443664,-4.68973E-07,NaN,-0.9259815,2.340549E-05,-0.3975842,8.59553E-08,NaN,NaN,0.3055683,2.188595E-10,8.470412E-07,-1.101598E-07,4.336294E-09,-2.622604E-08
861.435,-0.2010089,2.298838E-09,NaN,-0.5263426,-1.321966E-07,NaN,-0.08443664,-4.68973E-07,NaN,-0.9259815,2.340549E-05,-0.3975842,8.59553E-08,NaN,NaN,0.3055683,2.188595E-10,8.470412E-07,-1.101598E-07,4.336294E-09,-2.622604E-08
861.4493,-0.2000226,2.299482E-09,NaN,-0.5293558,-1.321967E-07,NaN,-0.08970262,-4.699226E-07,NaN,-0.9336115,2.340588E-05,-0.4079012,8.69297E-08,NaN,NaN,0.3088898,2.188595E-10,8.69691E-07,-1.101598E-07,3.144201E-09,-2.861022E-08
861.4642,-0.1990206,2.300125E-09,NaN,-0.5324163,-1.321961E-07,NaN,-0.09513483,-4.679937E-07,NaN,-0.9412318,2.340627E-05,-0.4182726,8.503874E-08,NaN,NaN,0.3121465,2.188595E-10,8.975562E-07,-1.101607E-07,-3.41231E-09,-2.861022E-08
861.4793,-0.1990206,2.300125E-09,NaN,-0.5324163,-1.321961E-07,NaN,-0.09513483,-4.679937E-07,NaN,-0.9412318,2.340627E-05,-0.4182726,8.503874E-08,NaN,NaN,0.3121465,2.188595E-10,8.975562E-07,-1.101607E-07,-3.41231E-09,-2.861022E-08
861.4942,-0.1980133,2.300769E-09,NaN,-0.535492,-1.321961E-07,NaN,-0.1007344,-4.68927E-07,NaN,-0.9487773,2.340667E-05,-0.4284661,8.60028E-08,NaN,NaN,0.3153394,2.142029E-10,9.230371E-07,-1.101608E-07,1.356062E-09,-2.622604E-08
861.5088,-0.1970071,2.301412E-09,NaN,-0.5385632,-1.321955E-07,NaN,-0.106442,-4.669856E-07,NaN,-0.9562197,2.340706E-05,-0.4384222,8.41063E-08,NaN,NaN,0.3184696,2.142029E-10,9.490769E-07,-1.101617E-07,2.548155E-09,-2.622604E-08
861.5234,-0.1959716,2.302056E-09,NaN,-0.5417224,-1.321956E-07,NaN,-0.112216,-4.679287E-07,NaN,-0.9640284,2.340745E-05,-0.4488394,8.508572E-08,NaN,NaN,0.3218521,2.142029E-10,9.67573E-07,-1.101618E-07,4.93234E-09,-2.861022E-08
861.5383,-0.1959716,2.302056E-09,NaN,-0.5417224,-1.321956E-07,NaN,-0.112216,-4.679287E-07,NaN,-0.9640284,2.340745E-05,-0.4488394,8.508572E-08,NaN,NaN,0.3218521,2.142029E-10,9.67573E-07,-1.101618E-07,4.93234E-09,-2.861022E-08
861.5522,-0.1949228,2.3027E-09,NaN,-0.5449213,-1.321957E-07,NaN,-0.1181203,-4.688906E-07,NaN,-0.9718192,2.340785E-05,-0.4593069,8.607694E-08,NaN,NaN,0.3251687,2.048896E-10,9.954382E-07,-1.101617E-07,9.104665E-09,-2.622604E-08
861.5676,-0.1938704,2.303344E-09,NaN,-0.54813,-1.321951E-07,NaN,-0.1241614,-4.66975E-07,NaN,-0.9795306,2.340824E-05,-0.4695947,8.420276E-08,NaN,NaN,0.3284202,2.048896E-10,1.023266E-06,-1.101626E-07,4.93234E-09,-2.622604E-08
861.5822,-0.1928203,2.303988E-09,NaN,-0.5513304,-1.321951E-07,NaN,-0.130286,-4.679217E-07,NaN,-0.9871363,2.340863E-05,-0.4796442,8.518298E-08,NaN,NaN,0.331608,2.048896E-10,1.048114E-06,-1.101627E-07,4.336294E-09,-2.861022E-08
861.597,-0.1928203,2.303988E-09,NaN,-0.5513304,-1.321951E-07,NaN,-0.130286,-4.679217E-07,NaN,-0.9871363,2.340863E-05,-0.4796442,8.518298E-08,NaN,NaN,0.331608,2.048896E-10,1.048114E-06,-1.101627E-07,4.336294E-09,-2.861022E-08
861.611,-0.1917417,2.304632E-09,NaN,-0.5546159,-1.321952E-07,NaN,-0.136486,-4.688866E-07,NaN,-0.9951009,2.340903E-05,-0.4901572,8.617496E-08,NaN,NaN,0.3350469,2.00233E-10,1.062493E-06,-1.101627E-07,3.144201E-09,-2.622604E-08
861.6265,-0.1906506,2.305276E-09,NaN,-0.5579386,-1.321946E-07,NaN,-0.1428062,-4.669727E-07,NaN,-1.003046,2.340942E-05,-0.5007128,8.430052E-08,NaN,NaN,0.3384187,2.00233E-10,1.086522E-06,-1.101635E-07,7.600154E-10,-2.622604E-08
861.6415,-0.1895565,2.305919E-09,NaN,-0.5612692,-1.321946E-07,NaN,-0.1492472,-4.679217E-07,NaN,-1.010912,2.340981E-05,-0.511081,8.528151E-08,NaN,NaN,0.3417244,2.00233E-10,1.110699E-06,-1.101636E-07,-6.988588E-09,-2.861022E-08
861.6561,-0.1895565,2.305919E-09,NaN,-0.5612692,-1.321946E-07,NaN,-0.1492472,-4.679217E-07,NaN,-1.010912,2.340981E-05,-0.511081,8.528151E-08,NaN,NaN,0.3417244,2.00233E-10,1.110699E-06,-1.101636E-07,-6.988588E-09,-2.861022E-08
861.6703,-0.1884309,2.306563E-09,NaN,-0.5646942,-1.321948E-07,NaN,-0.1558161,-4.688886E-07,NaN,-1.019142,2.341021E-05,-0.521912,8.627425E-08,NaN,NaN,0.3452789,1.955764E-10,1.126792E-06,-1.101636E-07,-8.180681E-09,-2.622604E-08
861.686,-0.1872912,2.307207E-09,NaN,-0.5681614,-1.321941E-07,NaN,-0.1625251,-4.669752E-07,NaN,-1.027358,2.34106E-05,-0.532765,8.439921E-08,NaN,NaN,0.3487641,1.955764E-10,1.151304E-06,-1.101645E-07,-6.392542E-09,-2.622604E-08
861.7007,-0.1861477,2.307851E-09,NaN,-0.5716389,-1.321942E-07,NaN,-0.169357,-4.67923E-07,NaN,-1.035495,2.341099E-05,-0.5434116,8.537812E-08,NaN,NaN,0.352181,1.955764E-10,1.177158E-06,-1.101645E-07,-6.392542E-09,-2.861022E-08
861.7151,-0.1861477,2.307851E-09,NaN,-0.5716389,-1.321942E-07,NaN,-0.169357,-4.67923E-07,NaN,-1.035495,2.341099E-05,-0.5434116,8.537812E-08,NaN,NaN,0.352181,1.955764E-10,1.177158E-06,-1.101645E-07,-6.392542E-09,-2.861022E-08
861.7313,-0.1850069,2.308495E-09,NaN,-0.575107,-1.321943E-07,NaN,-0.1762498,-4.688886E-07,NaN,-1.043524,2.341139E-05,-0.5538011,8.636883E-08,NaN,NaN,0.3555308,1.909198E-10,1.200478E-06,-1.101645E-07,-1.62417E-09,-2.622604E-08
861.7455,-0.183838,2.309139E-09,NaN,-0.5786583,-1.321937E-07,NaN,-0.1832441,-4.669744E-07,NaN,-1.051898,2.341178E-05,-0.5646467,8.449241E-08,NaN,NaN,0.3591286,1.909198E-10,1.215305E-06,-1.101654E-07,1.639692E-10,-2.622604E-08
861.7592,-0.183838,2.309139E-09,NaN,-0.5786583,-1.321937E-07,NaN,-0.1832441,-4.669744E-07,NaN,-1.051898,2.341178E-05,-0.5646467,8.449241E-08,NaN,NaN,0.3591286,1.909198E-10,1.215305E-06,-1.101654E-07,1.639692E-10,-2.622604E-08
861.7733,-0.1826572,2.309783E-09,NaN,-0.5822446,-1.321937E-07,NaN,-0.1903444,-4.679235E-07,NaN,-1.060251,2.341217E-05,-0.5755104,8.547217E-08,NaN,NaN,0.3626561,1.909198E-10,1.236316E-06,-1.101654E-07,-4.320773E-10,-2.861022E-08
861.7888,-0.1814743,2.310428E-09,NaN,-0.5858359,-1.321939E-07,NaN,-0.1975381,-4.688904E-07,NaN,-1.068521,2.341257E-05,-0.5861672,8.646372E-08,NaN,NaN,0.3661146,1.862632E-10,1.257177E-06,-1.101654E-07,3.740248E-09,-2.622604E-08
861.8034,-0.1802953,2.311072E-09,NaN,-0.5894143,-1.321933E-07,NaN,-0.2047694,-4.669754E-07,NaN,-1.076682,2.341296E-05,-0.5965677,8.458615E-08,NaN,NaN,0.3695052,1.862632E-10,1.277592E-06,-1.101662E-07,6.422457E-09,-2.622604E-08
861.8185,-0.1802953,2.311072E-09,NaN,-0.5894143,-1.321933E-07,NaN,-0.2047694,-4.669754E-07,NaN,-1.076682,2.341296E-05,-0.5965677,8.458615E-08,NaN,NaN,0.3695052,1.862632E-10,1.277592E-06,-1.101662E-07,6.422457E-09,-2.622604E-08
861.8323,-0.1790888,2.311716E-09,NaN,-0.5930732,-1.321933E-07,NaN,-0.2121135,-4.679229E-07,NaN,-1.085181,2.341335E-05,-0.6074276,8.556394E-08,NaN,NaN,0.3731429,1.862632E-10,1.29145E-06,-1.101663E-07,7.316527E-09,-2.861022E-08
861.8477,-0.1778711,2.31236E-09,NaN,-0.5967649,-1.321934E-07,NaN,-0.2195527,-4.688881E-07,NaN,-1.093659,2.341375E-05,-0.6182961,8.655356E-08,NaN,NaN,0.3767096,1.722934E-10,1.314696E-06,-1.101663E-07,1.268094E-08,-2.622604E-08
861.8622,-0.1766519,2.313004E-09,NaN,-0.6004598,-1.321928E-07,NaN,-0.2270683,-4.669724E-07,NaN,-1.102055,2.341414E-05,-0.6289513,8.467504E-08,NaN,NaN,0.3802064,1.7695E-10,1.337197E-06,-1.101671E-07,1.268094E-08,-2.622604E-08
861.8774,-0.1766519,2.313004E-09,NaN,-0.6004598,-1.321928E-07,NaN,-0.2270683,-4.669724E-07,NaN,-1.102055,2.341414E-05,-0.6289513,8.467504E-08,NaN,NaN,0.3802064,1.7695E-10,1.337197E-06,-1.101671E-07,1.268094E-08,-2.622604E-08
861.8915,-0.1754023,2.313649E-09,NaN,-0.6042447,-1.321929E-07,NaN,-0.2347455,-4.68131E-07,NaN,-1.110797,2.341454E-05,-0.6400616,8.586375E-08,NaN,NaN,0.3839483,1.7695E-10,1.348968E-06,-1.101672E-07,1.476711E-08,-2.861022E-08
861.9081,-0.1741398,2.314293E-09,NaN,-0.6080675,-1.32193E-07,NaN,-0.2425319,-4.693032E-07,NaN,-1.119523,2.341496E-05,-0.6511586,8.706017E-08,NaN,NaN,0.3876171,1.676368E-10,1.367297E-06,-1.101671E-07,1.387304E-08,-2.622604E-08
861.9216,-0.172875,2.314938E-09,NaN,-0.611896,-1.321924E-07,NaN,-0.2503924,-4.67387E-07,NaN,-1.128169,2.341536E-05,-0.6620256,8.518015E-08,NaN,NaN,0.391214,1.722934E-10,1.38488E-06,-1.10168E-07,1.059478E-08,-2.622604E-08
861.9366,-0.172875,2.314938E-09,NaN,-0.611896,-1.321924E-07,NaN,-0.2503924,-4.67387E-07,NaN,-1.128169,2.341536E-05,-0.6620256,8.518015E-08,NaN,NaN,0.391214,1.722934E-10,1.38488E-06,-1.10168E-07,1.059478E-08,-2.622604E-08
861.9506,-0.1716143,2.315582E-09,NaN,-0.615711,-1.321925E-07,NaN,-0.2582659,-4.685392E-07,NaN,-1.136704,2.341577E-05,-0.6726233,8.63617E-08,NaN,NaN,0.3947404,1.7695E-10,1.403656E-06,-1.10168E-07,9.700712E-09,-2.861022E-08
861.966,-0.1703265,2.316227E-09,NaN,-0.619605,-1.321919E-07,NaN,-0.2662795,-4.666077E-07,NaN,-1.145566,2.341617E-05,-0.683674,8.447255E-08,NaN,NaN,0.3985112,1.816066E-10,1.410808E-06,-1.101689E-07,7.316526E-09,-2.861022E-08
861.9827,-0.1690281,2.316872E-09,NaN,-0.6235297,-1.321919E-07,NaN,-0.2743711,-4.677688E-07,NaN,-1.154407,2.341658E-05,-0.6947073,8.566793E-08,NaN,NaN,0.4022084,1.816066E-10,1.424816E-06,-1.10169E-07,8.359608E-09,-2.622604E-08
861.9962,-0.1690281,2.316872E-09,NaN,-0.6235297,-1.321919E-07,NaN,-0.2743711,-4.677688E-07,NaN,-1.154407,2.341658E-05,-0.6947073,8.566793E-08,NaN,NaN,0.4022084,1.816066E-10,1.424816E-06,-1.10169E-07,8.359608E-09,-2.622604E-08
862.0104,-0.167729,2.317517E-09,NaN,-0.6274554,-1.321921E-07,NaN,-0.2825098,-4.689441E-07,NaN,-1.163163,2.341699E-05,-0.7055122,8.68709E-08,NaN,NaN,0.4058332,1.816066E-10,1.440313E-06,-1.101689E-07,1.238292E-08,-2.861022E-08
862.0248,-0.1664351,2.318162E-09,NaN,-0.631364,-1.321914E-07,NaN,-0.2906407,-4.670295E-07,NaN,-1.171808,2.341739E-05,-0.7160509,8.499509E-08,NaN,NaN,0.4093869,1.909198E-10,1.455214E-06,-1.101698E-07,9.700712E-09,-2.861022E-08
862.0393,-0.1664351,2.318162E-09,NaN,-0.631364,-1.321914E-07,NaN,-0.2906407,-4.670295E-07,NaN,-1.171808,2.341739E-05,-0.7160509,8.499509E-08,NaN,NaN,0.4093869,1.909198E-10,1.455214E-06,-1.101698E-07,9.700712E-09,-2.861022E-08
862.0534,-0.1651146,2.318807E-09,NaN,-0.6353492,-1.321915E-07,NaN,-0.2989254,-4.68186E-07,NaN,-1.180773,2.341781E-05,-0.7270442,8.618298E-08,NaN,NaN,0.4131846,1.816066E-10,1.460876E-06,-1.101698E-07,1.253193E-08,-2.622604E-08
862.0688,-0.1637841,2.319452E-09,NaN,-0.639363,-1.321909E-07,NaN,-0.3072768,-4.662574E-07,NaN,-1.189718,2.341821E-05,-0.73801,8.429835E-08,NaN,NaN,0.4169082,1.909198E-10,1.473095E-06,-1.101707E-07,1.566118E-08,-2.622604E-08
862.0841,-0.1624534,2.320098E-09,NaN,-0.6433762,-1.321909E-07,NaN,-0.3156582,-4.674234E-07,NaN,-1.198579,2.341862E-05,-0.7487442,8.549986E-08,NaN,NaN,0.4205588,1.909198E-10,1.486804E-06,-1.101707E-07,1.391029E-08,-2.861022E-08
862.0984,-0.1624534,2.320098E-09,NaN,-0.6433762,-1.321909E-07,NaN,-0.3156582,-4.674234E-07,NaN,-1.198579,2.341862E-05,-0.7487442,8.549986E-08,NaN,NaN,0.4205588,1.909198E-10,1.486804E-06,-1.101707E-07,1.391029E-08,-2.861022E-08
862.1125,-0.1610931,2.320743E-09,NaN,-0.6474755,-1.321911E-07,NaN,-0.3242376,-4.686008E-07,NaN,-1.207769,2.341903E-05,-0.7599249,8.6706E-08,NaN,NaN,0.4244514,1.862632E-10,1.4874E-06,-1.101707E-07,1.408433E-08,-2.622604E-08
862.1281,-0.1597211,2.321389E-09,NaN,-0.6516088,-1.321905E-07,NaN,-0.3328917,-4.666899E-07,NaN,-1.216947,2.341943E-05,-0.7710574,8.483459E-08,NaN,NaN,0.428268,1.955764E-10,1.498129E-06,-1.101715E-07,1.518329E-08,-2.622604E-08
862.1428,-0.1583482,2.322035E-09,NaN,-0.655744,-1.321905E-07,NaN,-0.3415705,-4.678517E-07,NaN,-1.226044,2.341985E-05,-0.7819462,8.602834E-08,NaN,NaN,0.4320098,1.862632E-10,1.50707E-06,-1.101716E-07,1.604011E-08,-2.861022E-08
862.1577,-0.1583482,2.322035E-09,NaN,-0.655744,-1.321905E-07,NaN,-0.3415705,-4.678517E-07,NaN,-1.226044,2.341985E-05,-0.7819462,8.602834E-08,NaN,NaN,0.4320098,1.862632E-10,1.50707E-06,-1.101716E-07,1.604011E-08,-2.861022E-08
862.1716,-0.1569808,2.32268E-09,NaN,-0.6598618,-1.321899E-07,NaN,-0.3502172,-4.659269E-07,NaN,-1.235028,2.342025E-05,-0.7925632,8.414786E-08,NaN,NaN,0.4356782,1.955764E-10,1.516011E-06,-1.101724E-07,1.350691E-08,-2.861022E-08
862.1873,-0.1555869,2.323326E-09,NaN,-0.664055,-1.3219E-07,NaN,-0.3590476,-4.670955E-07,NaN,-1.24432,2.342067E-05,-0.8036247,8.535221E-08,NaN,NaN,0.4395882,1.862632E-10,1.515713E-06,-1.101725E-07,1.291087E-08,-2.622604E-08
862.2019,-0.1541836,2.323972E-09,NaN,-0.6682752,-1.321901E-07,NaN,-0.367925,-4.682783E-07,NaN,-1.253594,2.342108E-05,-0.8146345,8.656396E-08,NaN,NaN,0.4434219,1.862632E-10,1.521971E-06,-1.101724E-07,1.276185E-08,-2.861022E-08
862.2167,-0.1541836,2.323972E-09,NaN,-0.6682752,-1.321901E-07,NaN,-0.367925,-4.682783E-07,NaN,-1.253594,2.342108E-05,-0.8146345,8.656396E-08,NaN,NaN,0.4434219,1.862632E-10,1.521971E-06,-1.101724E-07,1.276185E-08,-2.861022E-08
862.2325,-0.1527809,2.324618E-09,NaN,-0.6724927,-1.321895E-07,NaN,-0.3768031,-4.663712E-07,NaN,-1.262785,2.342148E-05,-0.8254051,8.469646E-08,NaN,NaN,0.4471805,1.955764E-10,1.528528E-06,-1.101732E-07,1.648714E-08,-2.861022E-08
862.2468,-0.1513847,2.325265E-09,NaN,-0.6766896,-1.321896E-07,NaN,-0.3856315,-4.675356E-07,NaN,-1.271861,2.34219E-05,-0.8359098,8.58928E-08,NaN,NaN,0.4508654,1.862632E-10,1.53121E-06,-1.101733E-07,1.618912E-08,-2.622604E-08
862.2606,-0.1499625,2.325911E-09,NaN,-0.6809595,-1.321898E-07,NaN,-0.3946596,-4.687136E-07,NaN,-1.281238,2.342231E-05,-0.846856,8.70967E-08,NaN,NaN,0.4547917,1.862632E-10,1.527335E-06,-1.101732E-07,1.97654E-08,-2.861022E-08
862.2753,-0.1499625,2.325911E-09,NaN,-0.6809595,-1.321898E-07,NaN,-0.3946596,-4.687136E-07,NaN,-1.281238,2.342231E-05,-0.846856,8.70967E-08,NaN,NaN,0.4547917,1.862632E-10,1.527335E-06,-1.101732E-07,1.97654E-08,-2.861022E-08
862.2893,-0.1485314,2.326557E-09,NaN,-0.6852546,-1.321891E-07,NaN,-0.4037226,-4.668004E-07,NaN,-1.2906,2.342271E-05,-0.8577424,8.522046E-08,NaN,NaN,0.4586413,1.955764E-10,1.527633E-06,-1.10174E-07,2.185156E-08,-2.861022E-08
862.3046,-0.1471014,2.327204E-09,NaN,-0.6895456,-1.321892E-07,NaN,-0.4127702,-4.679592E-07,NaN,-1.299879,2.342312E-05,-0.8683915,8.640928E-08,NaN,NaN,0.4624155,1.862632E-10,1.527335E-06,-1.101741E-07,1.97654E-08,-2.622604E-08
862.3195,-0.1471014,2.327204E-09,NaN,-0.6895456,-1.321892E-07,NaN,-0.4127702,-4.679592E-07,NaN,-1.299879,2.342312E-05,-0.8683915,8.640928E-08,NaN,NaN,0.4624155,1.862632E-10,1.527335E-06,-1.101741E-07,1.97654E-08,-2.622604E-08
862.3336,-0.1456423,2.32785E-09,NaN,-0.6939194,-1.321886E-07,NaN,-0.4220556,-4.660313E-07,NaN,-1.309469,2.342352E-05,-0.8794706,8.452383E-08,NaN,NaN,0.4664293,1.955764E-10,1.520779E-06,-1.101749E-07,2.006342E-08,-2.622604E-08
862.349,-0.1441727,2.328497E-09,NaN,-0.6983235,-1.321887E-07,NaN,-0.4313789,-4.671995E-07,NaN,-1.319051,2.342393E-05,-0.8904747,8.572628E-08,NaN,NaN,0.4703647,1.955764E-10,1.519289E-06,-1.10175E-07,1.916935E-08,-2.861022E-08
862.3635,-0.1427035,2.329144E-09,NaN,-0.7027263,-1.321888E-07,NaN,-0.4406798,-4.683816E-07,NaN,-1.328552,2.342435E-05,-0.9012359,8.693618E-08,NaN,NaN,0.4742231,1.909198E-10,1.518991E-06,-1.101749E-07,1.946738E-08,-2.622604E-08
862.3784,-0.1427035,2.329144E-09,NaN,-0.7027263,-1.321888E-07,NaN,-0.4406798,-4.683816E-07,NaN,-1.328552,2.342435E-05,-0.9012359,8.693618E-08,NaN,NaN,0.4742231,1.909198E-10,1.518991E-06,-1.101749E-07,1.946738E-08,-2.622604E-08
862.3925,-0.141241,2.329791E-09,NaN,-0.7071084,-1.321882E-07,NaN,-0.4499097,-4.664705E-07,NaN,-1.337938,2.342475E-05,-0.9117337,8.506348E-08,NaN,NaN,0.4780058,2.002331E-10,1.512434E-06,-1.101757E-07,2.095749E-08,-2.622604E-08
862.4095,-0.1397526,2.330438E-09,NaN,-0.7115626,-1.321883E-07,NaN,-0.4593706,-4.67634E-07,NaN,-1.347615,2.342516E-05,-0.9226533,8.62581E-08,NaN,NaN,0.482028,2.002331E-10,1.495447E-06,-1.101757E-07,1.916935E-08,-2.861022E-08
862.4228,-0.1382558,2.331085E-09,NaN,-0.7160406,-1.321877E-07,NaN,-0.4688449,-4.657092E-07,NaN,-1.357278,2.342556E-05,-0.9334968,8.437657E-08,NaN,NaN,0.4859717,2.095463E-10,1.48889E-06,-1.101766E-07,1.97654E-08,-2.861022E-08
862.4375,-0.1382558,2.331085E-09,NaN,-0.7160406,-1.321877E-07,NaN,-0.4688449,-4.657092E-07,NaN,-1.357278,2.342556E-05,-0.9334968,8.437657E-08,NaN,NaN,0.4859717,2.095463E-10,1.48889E-06,-1.101766E-07,1.97654E-08,-2.861022E-08
862.4516,-0.1367608,2.331732E-09,NaN,-0.7205127,-1.321878E-07,NaN,-0.4782765,-4.668794E-07,NaN,-1.366857,2.342598E-05,-0.9441057,8.558178E-08,NaN,NaN,0.489838,2.002331E-10,1.482632E-06,-1.101766E-07,1.797726E-08,-2.622604E-08
862.4668,-0.1352734,2.332379E-09,NaN,-0.7249611,-1.321879E-07,NaN,-0.4876229,-4.680638E-07,NaN,-1.37632,2.342639E-05,-0.9544599,8.679438E-08,NaN,NaN,0.4936287,2.002331E-10,1.474287E-06,-1.101765E-07,1.916935E-08,-2.861022E-08
862.4816,-0.1337607,2.333027E-09,NaN,-0.7294796,-1.321873E-07,NaN,-0.4972169,-4.661562E-07,NaN,-1.386066,2.342679E-05,-0.9652248,8.492552E-08,NaN,NaN,0.4976587,2.095463E-10,1.454022E-06,-1.101774E-07,1.738121E-08,-2.861022E-08
862.4972,-0.1337607,2.333027E-09,NaN,-0.7294796,-1.321873E-07,NaN,-0.4972169,-4.661562E-07,NaN,-1.386066,2.342679E-05,-0.9652248,8.492552E-08,NaN,NaN,0.4976587,2.095463E-10,1.454022E-06,-1.101774E-07,1.738121E-08,-2.861022E-08
862.5111,-0.13224,2.333674E-09,NaN,-0.73402,-1.321874E-07,NaN,-0.5068121,-4.67322E-07,NaN,-1.395802,2.34272E-05,-0.9759116,8.612272E-08,NaN,NaN,0.50161,2.002331E-10,1.443889E-06,-1.101774E-07,1.738121E-08,-2.622604E-08
862.5256,-0.1307215,2.334322E-09,NaN,-0.7385533,-1.321868E-07,NaN,-0.5163507,-4.654007E-07,NaN,-1.405454,2.34276E-05,-0.9863715,8.424477E-08,NaN,NaN,0.5054839,2.095463E-10,1.43018E-06,-1.101782E-07,1.320889E-08,-2.622604E-08
862.5403,-0.1292111,2.33497E-09,NaN,-0.7430618,-1.321868E-07,NaN,-0.5257934,-4.665761E-07,NaN,-1.414989,2.342801E-05,-0.9965848,8.545528E-08,NaN,NaN,0.5092818,2.095463E-10,1.415875E-06,-1.101782E-07,1.142075E-08,-2.861022E-08
862.5551,-0.1292111,2.33497E-09,NaN,-0.7430618,-1.321868E-07,NaN,-0.5257934,-4.665761E-07,NaN,-1.414989,2.342801E-05,-0.9965848,8.545528E-08,NaN,NaN,0.5092818,2.095463E-10,1.415875E-06,-1.101782E-07,1.142075E-08,-2.861022E-08
862.5692,-0.1276754,2.335617E-09,NaN,-0.7476395,-1.32187E-07,NaN,-0.5355011,-4.677655E-07,NaN,-1.424803,2.342843E-05,-1.007194,8.667306E-08,NaN,NaN,0.5133191,2.048897E-10,1.395609E-06,-1.101781E-07,1.20168E-08,-2.622604E-08
862.5847,-0.1261321,2.336265E-09,NaN,-0.7522383,-1.321864E-07,NaN,-0.5451984,-4.658616E-07,NaN,-1.434609,2.342883E-05,-1.017726,8.480784E-08,NaN,NaN,0.5172774,2.142029E-10,1.378324E-06,-1.10179E-07,1.261284E-08,-2.622604E-08
862.5994,-0.1261321,2.336265E-09,NaN,-0.7522383,-1.321864E-07,NaN,-0.5451984,-4.658616E-07,NaN,-1.434609,2.342883E-05,-1.017726,8.480784E-08,NaN,NaN,0.5172774,2.142029E-10,1.378324E-06,-1.10179E-07,1.261284E-08,-2.622604E-08
862.6133,-0.1245913,2.336913E-09,NaN,-0.7568291,-1.321865E-07,NaN,-0.5548267,-4.670325E-07,NaN,-1.444332,2.342924E-05,-1.02804,8.601006E-08,NaN,NaN,0.5211582,2.142029E-10,1.358654E-06,-1.10179E-07,9.632612E-09,-2.861022E-08
862.6289,-0.1230219,2.337561E-09,NaN,-0.7614989,-1.321859E-07,NaN,-0.5647493,-4.651148E-07,NaN,-1.454345,2.342964E-05,-1.038737,8.413559E-08,NaN,NaN,0.5252768,2.235161E-10,1.335409E-06,-1.101798E-07,9.632612E-09,-2.861022E-08
862.6437,-0.1214434,2.33821E-09,NaN,-0.7661954,-1.321859E-07,NaN,-0.5746606,-4.662952E-07,NaN,-1.464358,2.343004E-05,-1.049353,8.535095E-08,NaN,NaN,0.5293148,2.281727E-10,1.312759E-06,-1.101798E-07,7.248426E-09,-2.622604E-08
862.6584,-0.1214434,2.33821E-09,NaN,-0.7661954,-1.321859E-07,NaN,-0.5746606,-4.662952E-07,NaN,-1.464358,2.343004E-05,-1.049353,8.535095E-08,NaN,NaN,0.5293148,2.281727E-10,1.312759E-06,-1.101798E-07,7.248426E-09,-2.622604E-08
862.6723,-0.1198668,2.338858E-09,NaN,-0.7708867,-1.321861E-07,NaN,-0.5844969,-4.674895E-07,NaN,-1.474289,2.343045E-05,-1.059753,8.657349E-08,NaN,NaN,0.5332738,2.281727E-10,1.286533E-06,-1.101797E-07,6.056333E-09,-2.861022E-08
862.6879,-0.1182984,2.339506E-09,NaN,-0.7755538,-1.321855E-07,NaN,-0.5942212,-4.65589E-07,NaN,-1.484102,2.343085E-05,-1.069918,8.471143E-08,NaN,NaN,0.5371552,2.37486E-10,1.261499E-06,-1.101805E-07,3.672147E-09,-2.861022E-08
862.7026,-0.1181221,2.340154E-09,NaN,-0.7763194,-1.321856E-07,NaN,-0.5881882,-4.667647E-07,NaN,-1.478849,2.343127E-05,-1.057917,8.591824E-08,NaN,NaN,0.5293499,2.281727E-10,1.468923E-06,-1.101806E-07,-1.096224E-09,-2.622604E-08
862.7174,-0.1181221,2.340154E-09,NaN,-0.7763194,-1.321856E-07,NaN,-0.5881882,-4.667647E-07,NaN,-1.478849,2.343127E-05,-1.057917,8.591824E-08,NaN,NaN,0.5293499,2.281727E-10,1.468923E-06,-1.101806E-07,-1.096224E-09,-2.622604E-08
862.7312,-0.118755,2.340803E-09,NaN,-0.7747033,-1.321857E-07,NaN,-0.5784864,-4.679509E-07,NaN,-1.468131,2.343169E-05,-1.039386,8.712959E-08,NaN,NaN,0.5216923,2.235161E-10,1.492765E-06,-1.101805E-07,2.480055E-09,-2.861022E-08
862.7479,-0.1198687,2.341451E-09,NaN,-0.7716268,-1.321851E-07,NaN,-0.5672043,-4.660434E-07,NaN,-1.454882,2.343209E-05,-1.019301,8.525804E-08,NaN,NaN,0.514183,2.328294E-10,1.480844E-06,-1.101813E-07,9.632612E-09,-2.861022E-08
862.7623,-0.1212555,2.3421E-09,NaN,-0.7676715,-1.321852E-07,NaN,-0.555389,-4.672103E-07,NaN,-1.440525,2.343251E-05,-0.9988794,8.645406E-08,NaN,NaN,0.5068201,2.235161E-10,1.467731E-06,-1.101813E-07,9.632612E-09,-2.622604E-08
862.7761,-0.1212555,2.3421E-09,NaN,-0.7676715,-1.321852E-07,NaN,-0.555389,-4.672103E-07,NaN,-1.440525,2.343251E-05,-0.9988794,8.645406E-08,NaN,NaN,0.5068201,2.235161E-10,1.467731E-06,-1.101813E-07,9.632612E-09,-2.622604E-08
862.7902,-0.1227532,2.342749E-09,NaN,-0.7633035,-1.321846E-07,NaN,-0.5439121,-4.652884E-07,NaN,-1.426159,2.343291E-05,-0.9791305,8.457334E-08,NaN,NaN,0.4999151,2.328294E-10,1.445081E-06,-1.101821E-07,4.864241E-09,-2.622604E-08
862.8052,-0.1243055,2.343397E-09,NaN,-0.7587042,-1.321847E-07,NaN,-0.5326632,-4.664644E-07,NaN,-1.411859,2.343331E-05,-0.9597194,8.578274E-08,NaN,NaN,0.4931454,2.328294E-10,1.424816E-06,-1.101821E-07,6.056333E-09,-2.861022E-08
862.8203,-0.1258805,2.344046E-09,NaN,-0.7539846,-1.321849E-07,NaN,-0.5216755,-4.676542E-07,NaN,-1.397705,2.343373E-05,-0.9405645,8.699945E-08,NaN,NaN,0.4865085,2.281728E-10,1.40455E-06,-1.10182E-07,6.056333E-09,-2.622604E-08
862.8349,-0.1258805,2.344046E-09,NaN,-0.7539846,-1.321849E-07,NaN,-0.5216755,-4.676542E-07,NaN,-1.397705,2.343373E-05,-0.9405645,8.699945E-08,NaN,NaN,0.4865085,2.281728E-10,1.40455E-06,-1.10182E-07,6.056333E-09,-2.622604E-08
862.8495,-0.1274229,2.344696E-09,NaN,-0.7493173,-1.321843E-07,NaN,-0.5113172,-4.657484E-07,NaN,-1.38415,2.343413E-05,-0.9223394,8.513091E-08,NaN,NaN,0.4803153,2.37486E-10,1.374748E-06,-1.101828E-07,7.248426E-09,-2.622604E-08
862.8643,-0.128939,2.345345E-09,NaN,-0.744702,-1.321844E-07,NaN,-0.5013026,-4.669194E-07,NaN,-1.370943,2.343454E-05,-0.9045492,8.633213E-08,NaN,NaN,0.4742438,2.37486E-10,1.352098E-06,-1.101828E-07,1.320889E-08,-2.861022E-08
862.879,-0.128939,2.345345E-09,NaN,-0.744702,-1.321844E-07,NaN,-0.5013026,-4.669194E-07,NaN,-1.370943,2.343454E-05,-0.9045492,8.633213E-08,NaN,NaN,0.4742438,2.37486E-10,1.352098E-06,-1.101828E-07,1.320889E-08,-2.861022E-08
862.8945,-0.1304327,2.345993E-09,NaN,-0.7401385,-1.321845E-07,NaN,-0.4915768,-4.681149E-07,NaN,-1.358013,2.343494E-05,-0.8870507,8.755202E-08,NaN,NaN,0.4682913,2.421426E-10,1.32766E-06,-1.101827E-07,1.440098E-08,-2.622604E-08
862.9087,-0.1319062,2.346642E-09,NaN,-0.7356265,-1.321847E-07,NaN,-0.4821036,-4.69294E-07,NaN,-1.345323,2.343536E-05,-0.8698169,8.87508E-08,NaN,NaN,0.4624555,2.37486E-10,1.300838E-06,-1.101826E-07,1.440098E-08,-2.861022E-08
862.9235,-0.1333241,2.34729E-09,NaN,-0.7312701,-1.321849E-07,NaN,-0.4731883,-4.704532E-07,NaN,-1.333275,2.343577E-05,-0.8535515,8.992604E-08,NaN,NaN,0.4570478,2.328294E-10,1.266267E-06,-1.101825E-07,1.678517E-08,-2.622604E-08
862.9381,-0.1333241,2.34729E-09,NaN,-0.7312701,-1.321849E-07,NaN,-0.4731883,-4.704532E-07,NaN,-1.333275,2.343577E-05,-0.8535515,8.992604E-08,NaN,NaN,0.4570478,2.328294E-10,1.266267E-06,-1.101825E-07,1.678517E-08,-2.622604E-08
862.9523,-0.1347035,2.347939E-09,NaN,-0.7270275,-1.321851E-07,NaN,-0.4645848,-4.715923E-07,NaN,-1.321575,2.343619E-05,-0.8377272,9.107822E-08,NaN,NaN,0.4517463,2.281728E-10,1.239445E-06,-1.101823E-07,1.678517E-08,-2.861022E-08
862.9677,-0.1360541,2.348587E-09,NaN,-0.7228726,-1.321853E-07,NaN,-0.4562388,-4.727112E-07,NaN,-1.310143,2.343659E-05,-0.8221818,9.220778E-08,NaN,NaN,0.4465488,2.328294E-10,1.211729E-06,-1.101822E-07,1.916935E-08,-2.622604E-08
862.9822,-0.1373816,2.349236E-09,NaN,-0.7187895,-1.321855E-07,NaN,-0.4481111,-4.738098E-07,NaN,-1.298935,2.343701E-05,-0.8068852,9.331517E-08,NaN,NaN,0.4414531,2.281728E-10,1.184311E-06,-1.101821E-07,2.036145E-08,-2.861022E-08
862.998,-0.1373816,2.349236E-09,NaN,-0.7187895,-1.321855E-07,NaN,-0.4481111,-4.738098E-07,NaN,-1.298935,2.343701E-05,-0.8068852,9.331517E-08,NaN,NaN,0.4414531,2.281728E-10,1.184311E-06,-1.101821E-07,2.036145E-08,-2.861022E-08
863.0175,-0.1386529,2.349885E-09,NaN,-0.7148727,-1.321856E-07,NaN,-0.4404688,-4.748853E-07,NaN,-1.288356,2.343742E-05,-0.7925612,9.4398E-08,NaN,NaN,0.4367711,2.235162E-10,1.150336E-06,-1.10182E-07,1.499703E-08,-2.622604E-08
863.0264,-0.1398857,2.350534E-09,NaN,-0.7110742,-1.321858E-07,NaN,-0.4331097,-4.759409E-07,NaN,-1.2781,2.343784E-05,-0.7786699,9.545957E-08,NaN,NaN,0.4321811,2.188595E-10,1.12411E-06,-1.101819E-07,1.380494E-08,-2.861022E-08
863.0411,-0.1410903,2.351183E-09,NaN,-0.7073647,-1.32186E-07,NaN,-0.4259831,-4.769765E-07,NaN,-1.268088,2.343824E-05,-0.7650349,9.65003E-08,NaN,NaN,0.4276811,2.235162E-10,1.095798E-06,-1.101818E-07,1.440098E-08,-2.622604E-08
863.0557,-0.1410903,2.351183E-09,NaN,-0.7073647,-1.32186E-07,NaN,-0.4259831,-4.769765E-07,NaN,-1.268088,2.343824E-05,-0.7650349,9.65003E-08,NaN,NaN,0.4276811,2.235162E-10,1.095798E-06,-1.101818E-07,1.440098E-08,-2.622604E-08
863.0698,-0.1422365,2.351832E-09,NaN,-0.7038304,-1.321862E-07,NaN,-0.4193117,-4.779925E-07,NaN,-1.25871,2.343866E-05,-0.7523623,9.75206E-08,NaN,NaN,0.423583,2.188595E-10,1.062121E-06,-1.101817E-07,1.499703E-08,-2.861022E-08
863.0853,-0.1433434,2.352481E-09,NaN,-0.7004184,-1.321864E-07,NaN,-0.4129119,-4.789891E-07,NaN,-1.249641,2.343906E-05,-0.7401064,9.852088E-08,NaN,NaN,0.4195655,2.235162E-10,1.040664E-06,-1.101815E-07,1.380494E-08,-2.622604E-08
863.1,-0.1433434,2.352481E-09,NaN,-0.7004184,-1.321864E-07,NaN,-0.4129119,-4.789891E-07,NaN,-1.249641,2.343906E-05,-0.7401064,9.852088E-08,NaN,NaN,0.4195655,2.235162E-10,1.040664E-06,-1.101815E-07,1.380494E-08,-2.622604E-08
863.1141,-0.144422,2.353131E-09,NaN,-0.6970961,-1.321866E-07,NaN,-0.4067303,-4.799666E-07,NaN,-1.2408,2.343948E-05,-0.7280822,9.950159E-08,NaN,NaN,0.4156269,2.095463E-10,1.01861E-06,-1.101814E-07,1.320889E-08,-2.861022E-08
863.1293,-0.1454789,2.35378E-09,NaN,-0.6938434,-1.321868E-07,NaN,-0.4007199,-4.809253E-07,NaN,-1.232145,2.343989E-05,-0.7162573,1.004631E-07,NaN,NaN,0.4117654,2.002331E-10,9.947679E-07,-1.101813E-07,1.380494E-08,-2.622604E-08
863.1443,-0.1464821,2.35443E-09,NaN,-0.690752,-1.321869E-07,NaN,-0.3950878,-4.818654E-07,NaN,-1.22409,2.344031E-05,-0.705376,1.014056E-07,NaN,NaN,0.4082933,1.816066E-10,9.648165E-07,-1.101812E-07,1.678517E-08,-2.861022E-08
863.159,-0.1464821,2.35443E-09,NaN,-0.690752,-1.321869E-07,NaN,-0.3950878,-4.818654E-07,NaN,-1.22409,2.344031E-05,-0.705376,1.014056E-07,NaN,NaN,0.4082933,1.816066E-10,9.648165E-07,-1.101812E-07,1.678517E-08,-2.861022E-08
863.1731,-0.147449,2.355079E-09,NaN,-0.6877729,-1.321871E-07,NaN,-0.3896956,-4.827873E-07,NaN,-1.216309,2.344071E-05,-0.694898,1.023297E-07,NaN,NaN,0.4048896,1.7695E-10,9.424648E-07,-1.101811E-07,1.618912E-08,-2.622604E-08
863.1885,-0.14839,2.355729E-09,NaN,-0.6848757,-1.321873E-07,NaN,-0.3844992,-4.836912E-07,NaN,-1.208729,2.344112E-05,-0.6846271,1.032357E-07,NaN,NaN,0.4015526,1.583236E-10,9.208581E-07,-1.10181E-07,2.155354E-08,-2.861022E-08
863.2032,-0.1493114,2.356378E-09,NaN,-0.6820413,-1.321875E-07,NaN,-0.3794523,-4.845775E-07,NaN,-1.201312,2.344152E-05,-0.6745276,1.041238E-07,NaN,NaN,0.3982811,1.53667E-10,8.998475E-07,-1.101809E-07,1.618912E-08,-2.622604E-08
863.2182,-0.1493114,2.356378E-09,NaN,-0.6820413,-1.321875E-07,NaN,-0.3794523,-4.845775E-07,NaN,-1.201312,2.344152E-05,-0.6745276,1.041238E-07,NaN,NaN,0.3982811,1.53667E-10,8.998475E-07,-1.101809E-07,1.618912E-08,-2.622604E-08
863.2321,-0.1501808,2.357028E-09,NaN,-0.6793625,-1.321877E-07,NaN,-0.3747346,-4.854465E-07,NaN,-1.194477,2.344193E-05,-0.665349,1.049945E-07,NaN,NaN,0.3953874,1.396971E-10,8.721313E-07,-1.101808E-07,1.261284E-08,-2.861022E-08
863.2473,-0.1510155,2.357678E-09,NaN,-0.6767907,-1.321879E-07,NaN,-0.3702372,-4.862986E-07,NaN,-1.187893,2.344233E-05,-0.6565554,1.058481E-07,NaN,NaN,0.3925507,1.350405E-10,8.536538E-07,-1.101807E-07,1.291087E-08,-2.622604E-08
863.2628,-0.1518257,2.358328E-09,NaN,-0.6742958,-1.32188E-07,NaN,-0.3659206,-4.871339E-07,NaN,-1.181488,2.344274E-05,-0.6479423,1.06685E-07,NaN,NaN,0.3897697,1.210707E-10,8.356234E-07,-1.101806E-07,1.320889E-08,-2.861022E-08
863.2767,-0.1518257,2.358328E-09,NaN,-0.6742958,-1.32188E-07,NaN,-0.3659206,-4.871339E-07,NaN,-1.181488,2.344274E-05,-0.6479423,1.06685E-07,NaN,NaN,0.3897697,1.210707E-10,8.356234E-07,-1.101806E-07,1.320889E-08,-2.861022E-08
863.2906,-0.1525818,2.358978E-09,NaN,-0.6719637,-1.321882E-07,NaN,-0.361928,-4.879529E-07,NaN,-1.175671,2.344314E-05,-0.6402244,1.075054E-07,NaN,NaN,0.3873569,1.164141E-10,8.099934E-07,-1.101805E-07,1.022866E-08,-2.622604E-08
863.3061,-0.1533022,2.359628E-09,NaN,-0.6697416,-1.321884E-07,NaN,-0.358155,-4.887558E-07,NaN,-1.170095,2.344355E-05,-0.6328661,1.083097E-07,NaN,NaN,0.3849917,1.024442E-10,7.959864E-07,-1.101804E-07,9.632611E-09,-2.861022E-08
863.3206,-0.153998,2.360278E-09,NaN,-0.6675967,-1.321886E-07,NaN,-0.3545571,-4.89543E-07,NaN,-1.164687,2.344395E-05,-0.62566,1.090982E-07,NaN,NaN,0.382673,1.024442E-10,7.816067E-07,-1.101803E-07,8.142495E-09,-2.622604E-08
863.3354,-0.153998,2.360278E-09,NaN,-0.6675967,-1.321886E-07,NaN,-0.3545571,-4.89543E-07,NaN,-1.164687,2.344395E-05,-0.62566,1.090982E-07,NaN,NaN,0.382673,1.024442E-10,7.816067E-07,-1.101803E-07,8.142495E-09,-2.622604E-08
863.3495,-0.1546759,2.360928E-09,NaN,-0.6655087,-1.321888E-07,NaN,-0.3510812,-4.903147E-07,NaN,-1.159407,2.344435E-05,-0.6185688,1.098713E-07,NaN,NaN,0.3803996,9.3131E-11,7.652899E-07,-1.101801E-07,6.950402E-09,-2.861022E-08
863.365,-0.1553042,2.361578E-09,NaN,-0.6635696,-1.32189E-07,NaN,-0.3478661,-4.910713E-07,NaN,-1.154683,2.344475E-05,-0.612347,1.106291E-07,NaN,NaN,0.3784846,9.3131E-11,7.455459E-07,-1.1018E-07,9.036564E-09,-2.622604E-08
863.3819,-0.1559,2.362229E-09,NaN,-0.6617302,-1.321892E-07,NaN,-0.344842,-4.91813E-07,NaN,-1.15017,2.344515E-05,-0.60647,1.113721E-07,NaN,NaN,0.3766075,8.381778E-11,7.322093E-07,-1.101799E-07,6.652379E-09,-2.861022E-08
863.3945,-0.1559,2.362229E-09,NaN,-0.6617302,-1.321892E-07,NaN,-0.344842,-4.91813E-07,NaN,-1.15017,2.344515E-05,-0.60647,1.113721E-07,NaN,NaN,0.3766075,8.381778E-11,7.322093E-07,-1.101799E-07,6.652379E-09,-2.861022E-08
863.4084,-0.1564736,2.362879E-09,NaN,-0.6599603,-1.321893E-07,NaN,-0.3419754,-4.925401E-07,NaN,-1.145802,2.344555E-05,-0.6007237,1.121005E-07,NaN,NaN,0.3747672,8.381778E-11,7.20959E-07,-1.101798E-07,6.056332E-09,-2.622604E-08
863.424,-0.1570311,2.36353E-09,NaN,-0.6582409,-1.321895E-07,NaN,-0.3392161,-4.932529E-07,NaN,-1.141543,2.344596E-05,-0.5950672,1.128146E-07,NaN,NaN,0.372963,7.450456E-11,7.065793E-07,-1.101797E-07,6.652379E-09,-2.861022E-08
863.4387,-0.1570311,2.36353E-09,NaN,-0.6582409,-1.321895E-07,NaN,-0.3392161,-4.932529E-07,NaN,-1.141543,2.344596E-05,-0.5950672,1.128146E-07,NaN,NaN,0.372963,7.450456E-11,7.065793E-07,-1.101797E-07,6.652379E-09,-2.861022E-08
863.4528,-0.1575409,2.36418E-09,NaN,-0.6566647,-1.321897E-07,NaN,-0.3366877,-4.939517E-07,NaN,-1.137824,2.344635E-05,-0.5902543,1.135146E-07,NaN,NaN,0.3715078,7.450456E-11,6.850472E-07,-1.101796E-07,4.268193E-09,-2.622604E-08
863.4682,-0.1580195,2.364831E-09,NaN,-0.6551834,-1.321898E-07,NaN,-0.3343374,-4.946368E-07,NaN,-1.134298,2.344676E-05,-0.5857655,1.142009E-07,NaN,NaN,0.3700815,6.053472E-11,6.756222E-07,-1.101795E-07,3.225112E-09,-2.861022E-08
863.4828,-0.1584773,2.365481E-09,NaN,-0.6537671,-1.3219E-07,NaN,-0.3321352,-4.953084E-07,NaN,-1.130899,2.344716E-05,-0.5813831,1.148737E-07,NaN,NaN,0.3686833,6.053472E-11,6.670168E-07,-1.101794E-07,7.099414E-09,-2.622604E-08
863.4974,-0.1584773,2.365481E-09,NaN,-0.6537671,-1.3219E-07,NaN,-0.3321352,-4.953084E-07,NaN,-1.130899,2.344716E-05,-0.5813831,1.148737E-07,NaN,NaN,0.3686833,6.053472E-11,6.670168E-07,-1.101794E-07,7.099414E-09,-2.622604E-08
863.5135,-0.1588848,2.366132E-09,NaN,-0.6525015,-1.321902E-07,NaN,-0.3301774,-4.959668E-07,NaN,-1.128045,2.344756E-05,-0.5778178,1.155333E-07,NaN,NaN,0.3676262,5.122149E-11,6.517431E-07,-1.101793E-07,6.950402E-09,-2.861022E-08
863.5276,-0.1592602,2.366782E-09,NaN,-0.6513342,-1.321904E-07,NaN,-0.3284056,-4.966123E-07,NaN,-1.125377,2.344796E-05,-0.5745482,1.1618E-07,NaN,NaN,0.3665901,5.122149E-11,6.470119E-07,-1.101792E-07,9.899379E-10,-2.622604E-08
863.5412,-0.1596143,2.367433E-09,NaN,-0.6502326,-1.321905E-07,NaN,-0.3267818,-4.97245E-07,NaN,-1.122827,2.344837E-05,-0.5713571,1.168139E-07,NaN,NaN,0.3655744,4.190827E-11,6.411632E-07,-1.101791E-07,1.362467E-09,-2.861022E-08
863.5563,-0.1596143,2.367433E-09,NaN,-0.6502326,-1.321905E-07,NaN,-0.3267818,-4.97245E-07,NaN,-1.122827,2.344837E-05,-0.5713571,1.168139E-07,NaN,NaN,0.3655744,4.190827E-11,6.411632E-07,-1.101791E-07,1.362467E-09,-2.861022E-08
863.5701,-0.159954,2.368084E-09,NaN,-0.6491763,-1.321907E-07,NaN,-0.3252501,-4.978653E-07,NaN,-1.120357,2.344876E-05,-0.5682038,1.174354E-07,NaN,NaN,0.3645787,4.190827E-11,6.319617E-07,-1.10179E-07,5.311275E-09,-2.622604E-08
863.5858,-0.1602479,2.368735E-09,NaN,-0.6482571,-1.321909E-07,NaN,-0.3239115,-4.984734E-07,NaN,-1.118403,2.344917E-05,-0.5658433,1.180447E-07,NaN,NaN,0.3639162,3.259504E-11,6.202271E-07,-1.101789E-07,7.248425E-09,-2.861022E-08
863.6002,-0.1605126,2.369385E-09,NaN,-0.6474264,-1.32191E-07,NaN,-0.3227329,-4.990695E-07,NaN,-1.11661,2.344957E-05,-0.563765,1.18642E-07,NaN,NaN,0.3632669,3.259504E-11,6.16241E-07,-1.101788E-07,7.322931E-09,-2.622604E-08
863.6149,-0.1605126,2.369385E-09,NaN,-0.6474264,-1.32191E-07,NaN,-0.3227329,-4.990695E-07,NaN,-1.11661,2.344957E-05,-0.563765,1.18642E-07,NaN,NaN,0.3632669,3.259504E-11,6.16241E-07,-1.101788E-07,7.322931E-09,-2.622604E-08
863.6289,-0.1607585,2.370036E-09,NaN,-0.6466538,-1.321912E-07,NaN,-0.3216873,-4.996539E-07,NaN,-1.114915,2.344997E-05,-0.561748,1.192276E-07,NaN,NaN,0.3626305,2.328182E-11,6.146205E-07,-1.101787E-07,8.738541E-09,-2.861022E-08
863.6444,-0.1609918,2.370687E-09,NaN,-0.6459206,-1.321914E-07,NaN,-0.3207229,-5.002268E-07,NaN,-1.113284,2.345037E-05,-0.5597486,1.198017E-07,NaN,NaN,0.3620066,2.328182E-11,6.093678E-07,-1.101786E-07,8.217E-09,-2.622604E-08
863.6591,-0.1609918,2.370687E-09,NaN,-0.6459206,-1.321914E-07,NaN,-0.3207229,-5.002268E-07,NaN,-1.113284,2.345037E-05,-0.5597486,1.198017E-07,NaN,NaN,0.3620066,2.328182E-11,6.093678E-07,-1.101786E-07,8.217E-09,-2.622604E-08
863.6733,-0.1611809,2.371338E-09,NaN,-0.6453193,-1.321915E-07,NaN,-0.3199362,-5.007884E-07,NaN,-1.112154,2.345077E-05,-0.55852,1.203645E-07,NaN,NaN,0.3617086,1.396859E-11,5.974469E-07,-1.101785E-07,9.576731E-09,-2.861022E-08
863.6888,-0.1613423,2.371989E-09,NaN,-0.6448021,-1.321917E-07,NaN,-0.3193015,-5.013389E-07,NaN,-1.11117,2.345117E-05,-0.5575536,1.209162E-07,NaN,NaN,0.3614168,1.396859E-11,5.956588E-07,-1.101784E-07,1.199817E-08,-2.622604E-08
863.7033,-0.161486,2.37264E-09,NaN,-0.644339,-1.321919E-07,NaN,-0.3187936,-5.018787E-07,NaN,-1.11027,2.345158E-05,-0.5566274,1.214571E-07,NaN,NaN,0.3611307,4.655368E-12,5.978195E-07,-1.101783E-07,1.461519E-08,-2.861022E-08
863.7181,-0.161486,2.37264E-09,NaN,-0.644339,-1.321919E-07,NaN,-0.3187936,-5.018787E-07,NaN,-1.11027,2.345158E-05,-0.5566274,1.214571E-07,NaN,NaN,0.3611307,4.655368E-12,5.978195E-07,-1.101783E-07,1.461519E-08,-2.861022E-08
863.7321,-0.1615829,2.373291E-09,NaN,-0.6440158,-1.321921E-07,NaN,-0.3184899,-5.024078E-07,NaN,-1.109876,2.345197E-05,-0.5564483,1.219874E-07,NaN,NaN,0.3611641,4.655368E-12,5.927158E-07,-1.101782E-07,1.572346E-08,-2.622604E-08
863.7476,-0.1616507,2.373942E-09,NaN,-0.6437804,-1.321922E-07,NaN,-0.3183513,-5.029264E-07,NaN,-1.109624,2.345238E-05,-0.5565033,1.225072E-07,NaN,NaN,0.3611971,-4.657857E-12,5.956588E-07,-1.101781E-07,1.214252E-08,-2.861022E-08
863.762,-0.1617004,2.374593E-09,NaN,-0.6436,-1.321924E-07,NaN,-0.3183426,-5.034349E-07,NaN,-1.109448,2.345277E-05,-0.5565722,1.230168E-07,NaN,NaN,0.3612295,-4.657857E-12,5.972979E-07,-1.10178E-07,1.231016E-08,-2.622604E-08
863.7777,-0.1617004,2.374593E-09,NaN,-0.6436,-1.321924E-07,NaN,-0.3183426,-5.034349E-07,NaN,-1.109448,2.345277E-05,-0.5565722,1.230168E-07,NaN,NaN,0.3612295,-4.657857E-12,5.972979E-07,-1.10178E-07,1.231016E-08,-2.622604E-08
863.7921,-0.1617389,2.375244E-09,NaN,-0.6434546,-1.321926E-07,NaN,-0.3184061,-5.039333E-07,NaN,-1.109312,2.345318E-05,-0.556614,1.235164E-07,NaN,NaN,0.3612612,-1.397108E-11,5.98937E-07,-1.101779E-07,1.270132E-08,-2.861022E-08
863.8063,-0.1617355,2.375895E-09,NaN,-0.6434359,-1.321927E-07,NaN,-0.3186322,-5.044219E-07,NaN,-1.109654,2.345358E-05,-0.5573825,1.240062E-07,NaN,NaN,0.3616062,-1.397108E-11,5.92455E-07,-1.101778E-07,1.093181E-08,-2.622604E-08
863.8215,-0.1617066,2.376547E-09,NaN,-0.6434948,-1.321929E-07,NaN,-0.3189993,-5.049009E-07,NaN,-1.110118,2.345398E-05,-0.558373,1.244864E-07,NaN,NaN,0.3619446,-2.328431E-11,5.970744E-07,-1.101777E-07,1.054065E-08,-2.861022E-08
863.8358,-0.1617066,2.376547E-09,NaN,-0.6434948,-1.321929E-07,NaN,-0.3189993,-5.049009E-07,NaN,-1.110118,2.345398E-05,-0.558373,1.244864E-07,NaN,NaN,0.3619446,-2.328431E-11,5.970744E-07,-1.101777E-07,1.054065E-08,-2.861022E-08
863.8499,-0.1616621,2.377198E-09,NaN,-0.6436015,-1.321931E-07,NaN,-0.3194821,-5.053676E-07,NaN,-1.11064,2.345438E-05,-0.5593644,1.249543E-07,NaN,NaN,0.3622765,-2.328431E-11,6.008369E-07,-1.101777E-07,1.041026E-08,-2.622604E-08
863.8651,-0.1616082,2.377849E-09,NaN,-0.6437371,-1.321932E-07,NaN,-0.3200278,-5.058251E-07,NaN,-1.111188,2.345478E-05,-0.5603132,1.25413E-07,NaN,NaN,0.3626018,-3.259754E-11,6.047112E-07,-1.101776E-07,1.191901E-08,-2.861022E-08
863.8813,-0.1615134,2.3785E-09,NaN,-0.6439945,-1.321934E-07,NaN,-0.3207311,-5.062765E-07,NaN,-1.112201,2.345518E-05,-0.5619714,1.258655E-07,NaN,NaN,0.3632345,-3.259754E-11,5.972234E-07,-1.101775E-07,1.8252E-08,-2.622604E-08
863.8948,-0.1615134,2.3785E-09,NaN,-0.6439945,-1.321934E-07,NaN,-0.3207311,-5.062765E-07,NaN,-1.112201,2.345518E-05,-0.5619714,1.258655E-07,NaN,NaN,0.3632345,-3.259754E-11,5.972234E-07,-1.101775E-07,1.8252E-08,-2.622604E-08
863.9091,-0.161394,2.379151E-09,NaN,-0.6443259,-1.321936E-07,NaN,-0.3215703,-5.06609E-07,NaN,-1.113325,2.345558E-05,-0.5638338,1.261992E-07,NaN,NaN,0.3638552,-3.259754E-11,6.009859E-07,-1.101774E-07,1.540215E-08,-2.861022E-08
863.9242,-0.16126,2.379802E-09,NaN,-0.6447014,-1.321937E-07,NaN,-0.3225199,-5.06935E-07,NaN,-1.114494,2.345597E-05,-0.5656792,1.265264E-07,NaN,NaN,0.3644637,-2.794092E-11,6.072444E-07,-1.101773E-07,1.903431E-08,-2.622604E-08
863.9391,-0.16126,2.379802E-09,NaN,-0.6447014,-1.321937E-07,NaN,-0.3225199,-5.06935E-07,NaN,-1.114494,2.345597E-05,-0.5656792,1.265264E-07,NaN,NaN,0.3644637,-2.794092E-11,6.072444E-07,-1.101773E-07,1.903431E-08,-2.622604E-08
863.9533,-0.1610824,2.380453E-09,NaN,-0.645207,-1.321939E-07,NaN,-0.3236612,-5.072545E-07,NaN,-1.116134,2.345636E-05,-0.5682134,1.268471E-07,NaN,NaN,0.3653741,-2.328431E-11,6.05866E-07,-1.101772E-07,1.766527E-08,-2.861022E-08
863.9686,-0.160879,2.381104E-09,NaN,-0.6457906,-1.321941E-07,NaN,-0.3249536,-5.075677E-07,NaN,-1.117882,2.345675E-05,-0.5709245,1.271614E-07,NaN,NaN,0.3662669,-1.86277E-11,6.139871E-07,-1.101771E-07,1.78981E-08,-2.622604E-08
863.9833,-0.1606606,2.381755E-09,NaN,-0.6464195,-1.321942E-07,NaN,-0.3263601,-5.078746E-07,NaN,-1.119671,2.345714E-05,-0.5735943,1.274696E-07,NaN,NaN,0.3671422,-1.397109E-11,6.216612E-07,-1.10177E-07,2.006808E-08,-2.861022E-08
863.998,-0.1606606,2.381755E-09,NaN,-0.6464195,-1.321942E-07,NaN,-0.3263601,-5.078746E-07,NaN,-1.119671,2.345714E-05,-0.5735943,1.274696E-07,NaN,NaN,0.3671422,-1.397109E-11,6.216612E-07,-1.10177E-07,2.006808E-08,-2.861022E-08
864.0119,-0.1604341,2.382406E-09,NaN,-0.6470736,-1.321944E-07,NaN,-0.3278224,-5.081727E-07,NaN,-1.121466,2.345753E-05,-0.5761838,1.277688E-07,NaN,NaN,0.3680004,-9.314475E-12,6.272492E-07,-1.101769E-07,2.049882E-08,-2.622604E-08
864.0283,-0.1601683,2.383057E-09,NaN,-0.6478449,-1.321945E-07,NaN,-0.3294427,-5.084649E-07,NaN,-1.123706,2.345792E-05,-0.5794463,1.280622E-07,NaN,NaN,0.3691555,-4.657862E-12,6.243434E-07,-1.101768E-07,1.778867E-08,-2.861022E-08
864.043,-0.1598798,2.383708E-09,NaN,-0.6486847,-1.321947E-07,NaN,-0.331191,-5.087541E-07,NaN,-1.126034,2.345831E-05,-0.5828758,1.283526E-07,NaN,NaN,0.3702883,-1.249001E-15,6.31645E-07,-1.101767E-07,1.944642E-08,-2.622604E-08
864.0567,-0.1598798,2.383708E-09,NaN,-0.6486847,-1.321947E-07,NaN,-0.331191,-5.087541E-07,NaN,-1.126034,2.345831E-05,-0.5828758,1.283526E-07,NaN,NaN,0.3702883,-1.249001E-15,6.31645E-07,-1.101767E-07,1.944642E-08,-2.622604E-08
864.0707,-0.1595787,2.384358E-09,NaN,-0.6495631,-1.321948E-07,NaN,-0.333039,-5.090347E-07,NaN,-1.12839,2.345871E-05,-0.5862541,1.286344E-07,NaN,NaN,0.3713989,4.655364E-12,6.417778E-07,-1.101766E-07,1.803081E-08,-2.861022E-08
864.0862,-0.1592713,2.385009E-09,NaN,-0.6504613,-1.32195E-07,NaN,-0.3349334,-5.093099E-07,NaN,-1.130741,2.34591E-05,-0.5895404,1.289107E-07,NaN,NaN,0.3724878,9.311977E-12,6.498245E-07,-1.101765E-07,2.0415E-08,-2.622604E-08
864.101,-0.158926,2.38566E-09,NaN,-0.6514722,-1.321952E-07,NaN,-0.3369874,-5.095795E-07,NaN,-1.133524,2.345949E-05,-0.5934864,1.291816E-07,NaN,NaN,0.373869,1.396859E-11,6.490794E-07,-1.101764E-07,1.95023E-08,-2.861022E-08
864.1206,-0.1585592,2.386311E-09,NaN,-0.6525478,-1.321953E-07,NaN,-0.339165,-5.098439E-07,NaN,-1.136387,2.345988E-05,-0.597583,1.29447E-07,NaN,NaN,0.3752234,1.86252E-11,6.577221E-07,-1.101763E-07,1.711812E-08,-2.622604E-08
864.1301,-0.1585592,2.386311E-09,NaN,-0.6525478,-1.321953E-07,NaN,-0.339165,-5.098439E-07,NaN,-1.136387,2.345988E-05,-0.597583,1.29447E-07,NaN,NaN,0.3752234,1.86252E-11,6.577221E-07,-1.101763E-07,1.711812E-08,-2.622604E-08
864.1441,-0.1581811,2.386962E-09,NaN,-0.6536585,-1.321955E-07,NaN,-0.3414362,-5.10103E-07,NaN,-1.139267,2.346027E-05,-0.6016134,1.297073E-07,NaN,NaN,0.3765514,2.328181E-11,6.672589E-07,-1.101762E-07,2.121594E-08,-2.861022E-08
864.1596,-0.1581811,2.386962E-09,NaN,-0.6536585,-1.321955E-07,NaN,-0.3414362,-5.10103E-07,NaN,-1.139267,2.346027E-05,-0.6016134,1.297073E-07,NaN,NaN,0.3765514,2.328181E-11,6.672589E-07,-1.101762E-07,2.121594E-08,-2.861022E-08
864.174,-0.1577622,2.387613E-09,NaN,-0.6548903,-1.321956E-07,NaN,-0.3439049,-5.103569E-07,NaN,-1.142585,2.346066E-05,-0.6062853,1.299624E-07,NaN,NaN,0.3781671,2.793843E-11,6.695685E-07,-1.101761E-07,2.065714E-08,-2.622604E-08
864.1893,-0.1573206,2.388263E-09,NaN,-0.6561911,-1.321958E-07,NaN,-0.3465116,-5.106058E-07,NaN,-1.145982,2.346105E-05,-0.6110816,1.302126E-07,NaN,NaN,0.3797514,3.259504E-11,6.801483E-07,-1.10176E-07,2.073165E-08,-2.861022E-08
864.204,-0.1568671,2.388914E-09,NaN,-0.6575283,-1.321959E-07,NaN,-0.3492146,-5.108499E-07,NaN,-1.149394,2.346144E-05,-0.6157901,1.304578E-07,NaN,NaN,0.3813046,3.725165E-11,6.900576E-07,-1.101759E-07,1.864549E-08,-2.622604E-08
864.2189,-0.1568671,2.388914E-09,NaN,-0.6575283,-1.321959E-07,NaN,-0.3492146,-5.108499E-07,NaN,-1.149394,2.346144E-05,-0.6157901,1.304578E-07,NaN,NaN,0.3813046,3.725165E-11,6.900576E-07,-1.101759E-07,1.864549E-08,-2.622604E-08
864.2328,-0.1564085,2.389565E-09,NaN,-0.6588821,-1.321961E-07,NaN,-0.3519555,-5.110891E-07,NaN,-1.152785,2.346183E-05,-0.6203755,1.306981E-07,NaN,NaN,0.3828274,4.190826E-11,6.985513E-07,-1.101759E-07,1.75279E-08,-2.861022E-08
864.2485,-0.1559134,2.390216E-09,NaN,-0.6603444,-1.321962E-07,NaN,-0.3548664,-5.113235E-07,NaN,-1.156589,2.346223E-05,-0.6255908,1.309338E-07,NaN,NaN,0.3846341,4.656487E-11,6.985513E-07,-1.101758E-07,1.991208E-08,-2.622604E-08
864.2628,-0.1553983,2.390867E-09,NaN,-0.6618669,-1.321964E-07,NaN,-0.3578929,-5.115533E-07,NaN,-1.160457,2.346262E-05,-0.630922,1.311647E-07,NaN,NaN,0.3864057,5.122149E-11,7.068959E-07,-1.101757E-07,1.350458E-08,-2.861022E-08
864.2797,-0.1553983,2.390867E-09,NaN,-0.6618669,-1.321964E-07,NaN,-0.3578929,-5.115533E-07,NaN,-1.160457,2.346262E-05,-0.630922,1.311647E-07,NaN,NaN,0.3864057,5.122149E-11,7.068959E-07,-1.101757E-07,1.350458E-08,-2.861022E-08
864.2937,-0.1548736,2.391517E-09,NaN,-0.6634195,-1.321966E-07,NaN,-0.3610003,-5.117785E-07,NaN,-1.164327,2.346301E-05,-0.6361579,1.313911E-07,NaN,NaN,0.3881426,5.58781E-11,7.158366E-07,-1.101756E-07,1.2387E-08,-2.622604E-08
864.3068,-0.1543453,2.392168E-09,NaN,-0.6649836,-1.321969E-07,NaN,-0.3641354,-5.118723E-07,NaN,-1.168168,2.34634E-05,-0.6412625,1.314861E-07,NaN,NaN,0.3898454,6.053471E-11,7.241813E-07,-1.10175E-07,1.670833E-08,-2.861022E-08
864.3218,-0.1537817,2.392819E-09,NaN,-0.6666524,-1.321973E-07,NaN,-0.3674467,-5.119839E-07,NaN,-1.17241,2.346379E-05,-0.6469864,1.315989E-07,NaN,NaN,0.3918286,6.519132E-11,7.277576E-07,-1.101744E-07,1.745339E-08,-2.622604E-08
864.3365,-0.1537817,2.392819E-09,NaN,-0.6666524,-1.321973E-07,NaN,-0.3674467,-5.119839E-07,NaN,-1.17241,2.346379E-05,-0.6469864,1.315989E-07,NaN,NaN,0.3918286,6.519132E-11,7.277576E-07,-1.101744E-07,1.745339E-08,-2.622604E-08
864.3506,-0.1531993,2.39347E-09,NaN,-0.6683778,-1.321976E-07,NaN,-0.3708684,-5.120905E-07,NaN,-1.176709,2.346418E-05,-0.6528111,1.317067E-07,NaN,NaN,0.3937732,6.984794E-11,7.398276E-07,-1.101738E-07,1.790043E-08,-2.861022E-08
864.366,-0.1526082,2.39412E-09,NaN,-0.6701303,-1.321977E-07,NaN,-0.3743633,-5.123331E-07,NaN,-1.181003,2.346457E-05,-0.6585283,1.319505E-07,NaN,NaN,0.3956797,7.450456E-11,7.499603E-07,-1.101737E-07,1.924153E-08,-2.622604E-08
864.3842,-0.1520145,2.394771E-09,NaN,-0.6718916,-1.321978E-07,NaN,-0.3778786,-5.125569E-07,NaN,-1.185262,2.346496E-05,-0.6641043,1.321755E-07,NaN,NaN,0.3975488,7.916117E-11,7.599441E-07,-1.101736E-07,2.028461E-08,-2.861022E-08
864.3968,-0.1520145,2.394771E-09,NaN,-0.6718916,-1.321978E-07,NaN,-0.3778786,-5.125569E-07,NaN,-1.185262,2.346496E-05,-0.6641043,1.321755E-07,NaN,NaN,0.3975488,7.916117E-11,7.599441E-07,-1.101736E-07,2.028461E-08,-2.861022E-08
864.4095,-0.1513862,2.395422E-09,NaN,-0.6737549,-1.321979E-07,NaN,-0.3815788,-5.127677E-07,NaN,-1.189912,2.346535E-05,-0.6702883,1.323875E-07,NaN,NaN,0.399695,8.381779E-11,7.600931E-07,-1.101735E-07,2.296682E-08,-2.622604E-08
864.4249,-0.1507399,2.396072E-09,NaN,-0.6756724,-1.32198E-07,NaN,-0.3853841,-5.129716E-07,NaN,-1.194614,2.346575E-05,-0.6765575,1.325925E-07,NaN,NaN,0.4017994,8.84744E-11,7.72312E-07,-1.101734E-07,2.102967E-08,-2.861022E-08
864.4398,-0.1507399,2.396072E-09,NaN,-0.6756724,-1.32198E-07,NaN,-0.3853841,-5.129716E-07,NaN,-1.194614,2.346575E-05,-0.6765575,1.325925E-07,NaN,NaN,0.4017994,8.84744E-11,7.72312E-07,-1.101734E-07,2.102967E-08,-2.861022E-08
864.4537,-0.1500857,2.396723E-09,NaN,-0.6776145,-1.321982E-07,NaN,-0.3892545,-5.131685E-07,NaN,-1.199305,2.346614E-05,-0.6827081,1.327906E-07,NaN,NaN,0.4038626,9.313102E-11,7.815507E-07,-1.101733E-07,2.177473E-08,-2.622604E-08
864.4692,-0.1493939,2.397373E-09,NaN,-0.6796675,-1.321983E-07,NaN,-0.3933476,-5.133616E-07,NaN,-1.204394,2.346653E-05,-0.6894498,1.329849E-07,NaN,NaN,0.4061991,9.778763E-11,7.825938E-07,-1.101732E-07,1.879449E-08,-2.861022E-08
864.4841,-0.1486827,2.398024E-09,NaN,-0.6817793,-1.321985E-07,NaN,-0.3975565,-5.135507E-07,NaN,-1.209538,2.346692E-05,-0.6962527,1.331752E-07,NaN,NaN,0.40849,9.778763E-11,7.931736E-07,-1.101731E-07,1.432415E-08,-2.622604E-08
864.4985,-0.1486827,2.398024E-09,NaN,-0.6817793,-1.321985E-07,NaN,-0.3975565,-5.135507E-07,NaN,-1.209538,2.346692E-05,-0.6962527,1.331752E-07,NaN,NaN,0.40849,9.778763E-11,7.931736E-07,-1.101731E-07,1.432415E-08,-2.622604E-08
864.5124,-0.1479631,2.398674E-09,NaN,-0.6839176,-1.321986E-07,NaN,-0.40183,-5.137333E-07,NaN,-1.214669,2.346732E-05,-0.7029193,1.33359E-07,NaN,NaN,0.4107361,1.024442E-10,8.044985E-07,-1.101731E-07,1.462217E-08,-2.861022E-08
864.5278,-0.1472417,2.399325E-09,NaN,-0.6860626,-1.321987E-07,NaN,-0.4061122,-5.139123E-07,NaN,-1.219753,2.346771E-05,-0.709422,1.335392E-07,NaN,NaN,0.4129381,1.071009E-10,8.119491E-07,-1.10173E-07,1.611229E-08,-2.622604E-08
864.5438,-0.1464865,2.399975E-09,NaN,-0.6883066,-1.321989E-07,NaN,-0.4105969,-5.140877E-07,NaN,-1.225211,2.34681E-05,-0.7165077,1.337158E-07,NaN,NaN,0.4154107,1.071009E-10,8.101609E-07,-1.101729E-07,1.670833E-08,-2.861022E-08
864.5583,-0.1464865,2.399975E-09,NaN,-0.6883066,-1.321989E-07,NaN,-0.4105969,-5.140877E-07,NaN,-1.225211,2.34681E-05,-0.7165077,1.337158E-07,NaN,NaN,0.4154107,1.071009E-10,8.101609E-07,-1.101729E-07,1.670833E-08,-2.861022E-08
864.5714,-0.1457145,2.400625E-09,NaN,-0.6906011,-1.32199E-07,NaN,-0.4151758,-5.142596E-07,NaN,-1.230712,2.346849E-05,-0.7236468,1.338889E-07,NaN,NaN,0.4178351,1.117575E-10,8.176115E-07,-1.101728E-07,1.730438E-08,-2.622604E-08
864.5867,-0.144936,2.401276E-09,NaN,-0.6929162,-1.321992E-07,NaN,-0.4198027,-5.144281E-07,NaN,-1.236189,2.346889E-05,-0.7306452,1.340585E-07,NaN,NaN,0.420212,1.164141E-10,8.277443E-07,-1.101727E-07,1.611228E-08,-2.861022E-08
864.6012,-0.1441572,2.401926E-09,NaN,-0.6952335,-1.321993E-07,NaN,-0.424427,-5.145932E-07,NaN,-1.241614,2.346928E-05,-0.7374754,1.342248E-07,NaN,NaN,0.4225423,1.210707E-10,8.337048E-07,-1.101727E-07,1.283403E-08,-2.622604E-08
864.6161,-0.1441572,2.401926E-09,NaN,-0.6952335,-1.321993E-07,NaN,-0.424427,-5.145932E-07,NaN,-1.241614,2.346928E-05,-0.7374754,1.342248E-07,NaN,NaN,0.4225423,1.210707E-10,8.337048E-07,-1.101727E-07,1.283403E-08,-2.622604E-08
864.6299,-0.1433455,2.402576E-09,NaN,-0.6976464,-1.321995E-07,NaN,-0.4292641,-5.14755E-07,NaN,-1.247403,2.346967E-05,-0.7448792,1.343878E-07,NaN,NaN,0.4251407,1.257273E-10,8.322147E-07,-1.101726E-07,1.521821E-08,-2.861022E-08
864.6453,-0.142518,2.403227E-09,NaN,-0.7001069,-1.321996E-07,NaN,-0.4341879,-5.149136E-07,NaN,-1.253229,2.347006E-05,-0.7523228,1.345476E-07,NaN,NaN,0.4276883,1.303839E-10,8.390692E-07,-1.101725E-07,1.462217E-08,-2.622604E-08
864.66,-0.1416847,2.403877E-09,NaN,-0.7025854,-1.321997E-07,NaN,-0.4391499,-5.15069E-07,NaN,-1.259029,2.347045E-05,-0.759618,1.347042E-07,NaN,NaN,0.4301861,1.303839E-10,8.468178E-07,-1.101724E-07,1.343007E-08,-2.861022E-08
864.6747,-0.1416847,2.403877E-09,NaN,-0.7025854,-1.321997E-07,NaN,-0.4391499,-5.15069E-07,NaN,-1.259029,2.347045E-05,-0.759618,1.347042E-07,NaN,NaN,0.4301861,1.303839E-10,8.468178E-07,-1.101724E-07,1.343007E-08,-2.861022E-08
864.6892,-0.1408157,2.404527E-09,NaN,-0.7051684,-1.321999E-07,NaN,-0.4443605,-5.152214E-07,NaN,-1.265202,2.347085E-05,-0.7674702,1.348577E-07,NaN,NaN,0.4329486,1.350405E-10,8.462218E-07,-1.101724E-07,1.492019E-08,-2.622604E-08
864.7045,-0.1399294,2.405178E-09,NaN,-0.7078036,-1.322E-07,NaN,-0.4496648,-5.153706E-07,NaN,-1.271416,2.347124E-05,-0.7753409,1.350081E-07,NaN,NaN,0.4356572,1.396971E-10,8.521823E-07,-1.101723E-07,1.253601E-08,-2.861022E-08
864.7192,-0.1399294,2.405178E-09,NaN,-0.7078036,-1.322E-07,NaN,-0.4496648,-5.153706E-07,NaN,-1.271416,2.347124E-05,-0.7753409,1.350081E-07,NaN,NaN,0.4356572,1.396971E-10,8.521823E-07,-1.101723E-07,1.253601E-08,-2.861022E-08
864.7331,-0.1390368,2.405828E-09,NaN,-0.7104589,-1.322002E-07,NaN,-0.4550043,-5.155169E-07,NaN,-1.277602,2.347163E-05,-0.7830494,1.351556E-07,NaN,NaN,0.4383128,1.396971E-10,8.590368E-07,-1.101722E-07,8.959727E-09,-2.622604E-08
864.7484,-0.1381446,2.406479E-09,NaN,-0.7131146,-1.322003E-07,NaN,-0.4603271,-5.156602E-07,NaN,-1.283726,2.347203E-05,-0.7905738,1.353001E-07,NaN,NaN,0.4409163,1.396971E-10,8.61421E-07,-1.101721E-07,1.074787E-08,-2.861022E-08
864.7632,-0.1372202,2.407129E-09,NaN,-0.7158631,-1.322005E-07,NaN,-0.4658841,-5.158008E-07,NaN,-1.2902,2.347243E-05,-0.7986467,1.354418E-07,NaN,NaN,0.4437825,1.396971E-10,8.596328E-07,-1.10172E-07,1.074787E-08,-2.622604E-08
864.7778,-0.1372202,2.407129E-09,NaN,-0.7158631,-1.322005E-07,NaN,-0.4658841,-5.158008E-07,NaN,-1.2902,2.347243E-05,-0.7986467,1.354418E-07,NaN,NaN,0.4437825,1.396971E-10,8.596328E-07,-1.10172E-07,1.074787E-08,-2.622604E-08
864.7917,-0.136281,2.407779E-09,NaN,-0.7186559,-1.322006E-07,NaN,-0.4715135,-5.159384E-07,NaN,-1.296704,2.347282E-05,-0.8067309,1.355806E-07,NaN,NaN,0.4465927,1.396971E-10,8.644012E-07,-1.10172E-07,8.363681E-09,-2.861022E-08
864.8081,-0.1353374,2.40843E-09,NaN,-0.7214633,-1.322007E-07,NaN,-0.4771616,-5.160734E-07,NaN,-1.303173,2.347322E-05,-0.8146512,1.357167E-07,NaN,NaN,0.449348,1.396971E-10,8.673815E-07,-1.101719E-07,7.171589E-09,-2.622604E-08
864.8219,-0.1343954,2.40908E-09,NaN,-0.724267,-1.322009E-07,NaN,-0.4827815,-5.162056E-07,NaN,-1.309574,2.347362E-05,-0.8223858,1.358501E-07,NaN,NaN,0.4520492,1.396971E-10,8.700637E-07,-1.101718E-07,7.767635E-09,-2.861022E-08
864.8366,-0.1343954,2.40908E-09,NaN,-0.724267,-1.322009E-07,NaN,-0.4827815,-5.162056E-07,NaN,-1.309574,2.347362E-05,-0.8223858,1.358501E-07,NaN,NaN,0.4520492,1.396971E-10,8.700637E-07,-1.101718E-07,7.767635E-09,-2.861022E-08
864.8506,-0.1334222,2.409731E-09,NaN,-0.7271603,-1.32201E-07,NaN,-0.4886476,-5.163351E-07,NaN,-1.316315,2.347401E-05,-0.8306577,1.359809E-07,NaN,NaN,0.4550111,1.396971E-10,8.655933E-07,-1.101718E-07,7.171589E-09,-2.622604E-08
864.8672,-0.1324349,2.410381E-09,NaN,-0.7300953,-1.322012E-07,NaN,-0.494577,-5.164621E-07,NaN,-1.323085,2.347441E-05,-0.8389298,1.36109E-07,NaN,NaN,0.4579153,1.396971E-10,8.661894E-07,-1.101717E-07,7.767635E-09,-2.861022E-08
864.8804,-0.1314439,2.411032E-09,NaN,-0.7330426,-1.322013E-07,NaN,-0.5005141,-5.165866E-07,NaN,-1.329816,2.347481E-05,-0.8470343,1.362346E-07,NaN,NaN,0.4607626,1.396971E-10,8.679775E-07,-1.101716E-07,9.555775E-09,-2.622604E-08
864.8953,-0.1314439,2.411032E-09,NaN,-0.7330426,-1.322013E-07,NaN,-0.5005141,-5.165866E-07,NaN,-1.329816,2.347481E-05,-0.8470343,1.362346E-07,NaN,NaN,0.4607626,1.396971E-10,8.679775E-07,-1.101716E-07,9.555775E-09,-2.622604E-08
864.9095,-0.1304186,2.411682E-09,NaN,-0.7360886,-1.322014E-07,NaN,-0.5067298,-5.167085E-07,NaN,-1.336896,2.34752E-05,-0.8556595,1.363577E-07,NaN,NaN,0.4638678,1.396971E-10,8.626131E-07,-1.101715E-07,6.575543E-09,-2.861022E-08
864.9245,-0.1293778,2.412333E-09,NaN,-0.7391811,-1.322016E-07,NaN,-0.513012,-5.16828E-07,NaN,-1.344011,2.34756E-05,-0.8642682,1.364784E-07,NaN,NaN,0.4669123,1.396971E-10,8.644012E-07,-1.101715E-07,4.191357E-09,-2.622604E-08
864.9393,-0.1293778,2.412333E-09,NaN,-0.7391811,-1.322016E-07,NaN,-0.513012,-5.16828E-07,NaN,-1.344011,2.34756E-05,-0.8642682,1.364784E-07,NaN,NaN,0.4669123,1.396971E-10,8.644012E-07,-1.101715E-07,4.191357E-09,-2.622604E-08
864.9536,-0.1283327,2.412984E-09,NaN,-0.7422881,-1.322017E-07,NaN,-0.5192973,-5.169451E-07,NaN,-1.351086,2.3476E-05,-0.8727,1.365966E-07,NaN,NaN,0.4698972,1.396971E-10,8.649973E-07,-1.101714E-07,5.38345E-09,-2.861022E-08
