JMolnar6/NonAnthroHands_User_Study/HandsLoggerWithURDF/tempdata/PID 0 (test)/files/Reachy_PID0_JointMotion_gesture_11_1.csv
Time,r_shoulder,r_shoulder_x,r_upper_arm,r_forearm,r_wrist,r_wrist2hand,
972.3868,-0.7098112,-0.3135338,1.191511,-0.5423396,0.4423981,-0.006234279
972.4018,-0.7094737,-0.3134253,1.191704,-0.5420813,0.4423384,-0.006228101
972.4162,-0.7094737,-0.3134253,1.191704,-0.5420813,0.4423384,-0.006228101
972.4308,-0.70914,-0.3133181,1.191895,-0.541827,0.4422782,-0.006222053
972.4461,-0.7088102,-0.3132122,1.192085,-0.5415768,0.4422175,-0.006216129
972.4608,-0.7084842,-0.3131075,1.192273,-0.5413305,0.4421563,-0.00621033
972.4764,-0.7084842,-0.3131075,1.192273,-0.5413305,0.4421563,-0.00621033
972.4905,-0.7081619,-0.3130041,1.192461,-0.5410882,0.4420948,-0.006204653
972.5046,-0.7078433,-0.312902,1.192647,-0.5408496,0.4420328,-0.006199094
972.5193,-0.7078433,-0.312902,1.192647,-0.5408496,0.4420328,-0.006199094
972.5331,-0.7075284,-0.3128011,1.192832,-0.5406149,0.4419705,-0.00619365
972.5487,-0.7072172,-0.3127014,1.193016,-0.5403839,0.4419078,-0.00618832
972.5633,-0.7069095,-0.3126028,1.193198,-0.5401565,0.4418447,-0.006183104
972.5784,-0.7069095,-0.3126028,1.193198,-0.5401565,0.4418447,-0.006183104
972.592,-0.7066053,-0.3125055,1.193379,-0.5399328,0.4417814,-0.006177996
972.6077,-0.7063047,-0.3124093,1.193559,-0.5397126,0.4417178,-0.006172995
972.6223,-0.7060075,-0.3123143,1.193737,-0.5394959,0.4416538,-0.006168101
972.6371,-0.7060075,-0.3123143,1.193737,-0.5394959,0.4416538,-0.006168101
972.6514,-0.7057137,-0.3122204,1.193915,-0.5392826,0.4415897,-0.006163308
972.6667,-0.7054233,-0.3121276,1.194091,-0.5390728,0.4415253,-0.006158617
972.6814,-0.7051362,-0.3120359,1.194265,-0.5388662,0.4414606,-0.006154023
972.6964,-0.7051362,-0.3120359,1.194265,-0.5388662,0.4414606,-0.006154023
972.7103,-0.7048525,-0.3119454,1.194439,-0.538663,0.4413958,-0.006149525
972.7267,-0.704572,-0.3118559,1.194611,-0.5384629,0.4413308,-0.006145123
972.7403,-0.7042947,-0.3117675,1.194782,-0.5382661,0.4412656,-0.006140812
972.755,-0.7042947,-0.3117675,1.194782,-0.5382661,0.4412656,-0.006140812
972.7692,-0.7040206,-0.3116802,1.194952,-0.5380723,0.4412003,-0.006136594
972.7843,-0.7037497,-0.3115939,1.19512,-0.5378817,0.4411348,-0.006132466
972.7991,-0.7037497,-0.3115939,1.19512,-0.5378817,0.4411348,-0.006132466
972.8153,-0.7034819,-0.3115086,1.195287,-0.537694,0.4410692,-0.006128426
972.8286,-0.7032172,-0.3114243,1.195453,-0.5375094,0.4410035,-0.006124471
972.8433,-0.7029555,-0.3113411,1.195618,-0.5373276,0.4409377,-0.0061206
972.8579,-0.7029555,-0.3113411,1.195618,-0.5373276,0.4409377,-0.0061206
972.8719,-0.7026969,-0.3112589,1.195781,-0.5371488,0.4408718,-0.006116809
972.8877,-0.7024412,-0.3111776,1.195943,-0.5369729,0.4408059,-0.006113098
972.9023,-0.7021884,-0.3110973,1.196104,-0.5367997,0.4407399,-0.006109468
972.9171,-0.7021884,-0.3110973,1.196104,-0.5367997,0.4407399,-0.006109468
972.9312,-0.7019385,-0.311018,1.196264,-0.5366293,0.4406739,-0.006105915
972.947,-0.7016915,-0.3109396,1.196422,-0.5364616,0.4406079,-0.006102438
972.9614,-0.7014474,-0.3108622,1.196579,-0.5362965,0.4405419,-0.006099036
972.9778,-0.7014474,-0.3108622,1.196579,-0.5362965,0.4405419,-0.006099036
972.9912,-0.701206,-0.3107857,1.196735,-0.5361341,0.4404758,-0.006095705
973.0055,-0.7009675,-0.3107101,1.19689,-0.5359743,0.4404098,-0.006092445
973.0201,-0.7007317,-0.3106354,1.197043,-0.535817,0.4403438,-0.006089253
973.0348,-0.7007317,-0.3106354,1.197043,-0.535817,0.4403438,-0.006089253
973.0488,-0.7004986,-0.3105616,1.197196,-0.5356622,0.4402779,-0.006086128
973.0641,-0.7002681,-0.3104887,1.197347,-0.5355099,0.440212,-0.006083072
973.079,-0.7002681,-0.3104887,1.197347,-0.5355099,0.440212,-0.006083072
973.093,-0.7000404,-0.3104167,1.197496,-0.53536,0.4401461,-0.00608008
973.1085,-0.6998153,-0.3103455,1.197645,-0.5352125,0.4400804,-0.006077153
973.1232,-0.6995927,-0.3102752,1.197792,-0.5350674,0.4400147,-0.006074288
973.1378,-0.6995927,-0.3102752,1.197792,-0.5350674,0.4400147,-0.006074288
973.1519,-0.6993727,-0.3102057,1.197938,-0.5349246,0.4399491,-0.006071484
973.1674,-0.6991552,-0.3101371,1.198083,-0.534784,0.4398836,-0.006068741
973.1823,-0.6989402,-0.3100692,1.198227,-0.5346457,0.4398183,-0.006066058
973.1971,-0.6989402,-0.3100692,1.198227,-0.5346457,0.4398183,-0.006066058
973.2112,-0.6987277,-0.3100022,1.19837,-0.5345095,0.439753,-0.00606343
973.2277,-0.6985177,-0.309936,1.198511,-0.5343756,0.4396879,-0.00606086
973.2415,-0.69831,-0.3098706,1.198651,-0.5342438,0.4396229,-0.006058346
973.256,-0.69831,-0.3098706,1.198651,-0.5342438,0.4396229,-0.006058346
973.2701,-0.6981047,-0.3098059,1.19879,-0.5341141,0.4395581,-0.006055884
973.2853,-0.6979018,-0.3097421,1.198928,-0.5339865,0.4394934,-0.006053476
973.3,-0.6977013,-0.309679,1.199065,-0.5338609,0.4394289,-0.006051119
973.3148,-0.6977013,-0.309679,1.199065,-0.5338609,0.4394289,-0.006051119
973.3288,-0.697503,-0.3096166,1.199201,-0.5337373,0.4393646,-0.006048816
973.3442,-0.6973071,-0.309555,1.199335,-0.5336156,0.4393004,-0.00604656
973.359,-0.6973071,-0.309555,1.199335,-0.5336156,0.4393004,-0.00604656
973.3732,-0.6971133,-0.3094942,1.199468,-0.533496,0.4392364,-0.006044355
973.3885,-0.6969218,-0.3094341,1.1996,-0.5333782,0.4391726,-0.006042198
973.4038,-0.6965225,-0.3092979,1.19935,-0.5327685,0.4395695,-0.005955277
973.4178,-0.6965225,-0.3092979,1.19935,-0.5327685,0.4395695,-0.005955277
973.432,-0.695994,-0.3091155,1.198959,-0.5318366,0.440183,-0.005870187
973.4479,-0.6953864,-0.3089057,1.198565,-0.5307606,0.4408598,-0.005786929
973.4623,-0.6947317,-0.3086799,1.198209,-0.5296264,0.4415386,-0.005705453
973.4784,-0.6947317,-0.3086799,1.198209,-0.5296264,0.4415386,-0.005705453
973.4923,-0.6942601,-0.3085222,1.19828,-0.5289685,0.4417385,-0.005710545
973.5067,-0.6939057,-0.308407,1.198533,-0.5286366,0.4416972,-0.005715495
973.5211,-0.6936265,-0.3083183,1.198821,-0.5284615,0.441569,-0.005720245
973.5359,-0.6936265,-0.3083183,1.198821,-0.5284615,0.441569,-0.005720245
973.5502,-0.6936057,-0.3083219,1.199476,-0.528854,0.4409585,-0.005809666
973.5654,-0.6937466,-0.3083822,1.200243,-0.5296062,0.4401339,-0.005897107
973.5801,-0.6939886,-0.3084771,1.200986,-0.5305212,0.4392544,-0.005982594
973.5948,-0.6939886,-0.3084771,1.200986,-0.5305212,0.4392544,-0.005982594
973.6093,-0.6942933,-0.3085929,1.201667,-0.5315042,0.4383816,-0.006066207
973.6248,-0.6948462,-0.3087978,1.202666,-0.5330039,0.4370749,-0.006232853
973.6393,-0.6948462,-0.3087978,1.202666,-0.5330039,0.4370749,-0.006232853
973.6535,-0.6955529,-0.3090565,1.203748,-0.5348293,0.4355834,-0.006395968
973.6689,-0.6963536,-0.3093469,1.204786,-0.5367925,0.4340583,-0.00655562
973.6838,-0.69721,-0.3096554,1.205747,-0.5388033,0.4325569,-0.006711913
973.6985,-0.69721,-0.3096554,1.205747,-0.5388033,0.4325569,-0.006711913
973.7126,-0.6983078,-0.3100503,1.207012,-0.541313,0.4306343,-0.00694968
973.729,-0.699553,-0.3104963,1.208344,-0.5441315,0.4285417,-0.007182506
973.7429,-0.7008854,-0.3109714,1.209617,-0.5470718,0.42643,-0.007410471
973.7576,-0.7008854,-0.3109714,1.209617,-0.5470718,0.42643,-0.007410471
973.7715,-0.7024773,-0.3115389,1.211178,-0.5505379,0.4238907,-0.00771833
973.7867,-0.7042255,-0.31216,1.212777,-0.5543175,0.4211934,-0.008019815
973.8015,-0.7060646,-0.3128109,1.21429,-0.5582127,0.4184936,-0.008315036
973.8164,-0.7060646,-0.3128109,1.21429,-0.5582127,0.4184936,-0.008315036
973.8302,-0.707953,-0.3134769,1.215689,-0.5621288,0.4158475,-0.008604158
973.8456,-0.7100748,-0.3142258,1.217355,-0.5665154,0.4128024,-0.008971808
973.8603,-0.7123341,-0.3150215,1.219046,-0.5711818,0.4096181,-0.009331945
973.8752,-0.7123341,-0.3150215,1.219046,-0.5711818,0.4096181,-0.009331945
973.8892,-0.7146703,-0.315842,1.220644,-0.5759407,0.4064442,-0.009684674
973.9046,-0.7170449,-0.3166737,1.22212,-0.5807027,0.4033344,-0.01003018
973.9196,-0.7170449,-0.3166737,1.22212,-0.5807027,0.4033344,-0.01003018
973.9337,-0.7196444,-0.3175852,1.223855,-0.5859198,0.3998302,-0.01045291
973.949,-0.7223737,-0.3185408,1.2256,-0.5914025,0.3961985,-0.01086707
973.9637,-0.7251731,-0.3195184,1.227238,-0.5969644,0.3925895,-0.01127276
973.9796,-0.7251731,-0.3195184,1.227238,-0.5969644,0.3925895,-0.01127276
973.9937,-0.7282154,-0.3205819,1.229115,-0.6030098,0.388578,-0.01175431
974.0082,-0.731397,-0.321692,1.230972,-0.6093271,0.3844516,-0.0122261
974.0229,-0.7346525,-0.3228251,1.232694,-0.615719,0.380365,-0.01268826
974.0374,-0.7346525,-0.3228251,1.232694,-0.615719,0.380365,-0.01268826
974.0512,-0.7379409,-0.3239668,1.234262,-0.6220917,0.3763704,-0.01314101
974.0665,-0.741447,-0.3251854,1.236057,-0.6288947,0.3719943,-0.01366852
974.0814,-0.7450746,-0.3264443,1.237822,-0.6359383,0.3675203,-0.01418544
974.0961,-0.7450746,-0.3264443,1.237822,-0.6359383,0.3675203,-0.01418544
974.1103,-0.7487631,-0.3277217,1.239449,-0.6430359,0.3630982,-0.01469186
974.1257,-0.7524744,-0.3290043,1.240921,-0.6500989,0.3587775,-0.01518802
974.1404,-0.7563957,-0.3303611,1.242615,-0.6575788,0.3540741,-0.01575794
974.155,-0.7563957,-0.3303611,1.242615,-0.6575788,0.3540741,-0.01575794
974.1692,-0.7604318,-0.3317558,1.244268,-0.6652874,0.3492848,-0.01631647
974.1848,-0.7645229,-0.3331669,1.245773,-0.6730388,0.3445603,-0.01686371
974.1996,-0.7645229,-0.3331669,1.245773,-0.6730388,0.3445603,-0.01686371
974.2137,-0.7688426,-0.3346581,1.247478,-0.6812369,0.3394451,-0.01748358
974.2302,-0.773287,-0.3361902,1.24911,-0.689671,0.3342596,-0.01809106
974.244,-0.7777907,-0.3377394,1.250572,-0.6981449,0.3291578,-0.01868628
974.2586,-0.7777907,-0.3377394,1.250572,-0.6981449,0.3291578,-0.01868628
974.2726,-0.7823129,-0.3392919,1.25186,-0.7065656,0.3241846,-0.0192695
974.2879,-0.7870393,-0.3409159,1.253349,-0.7153819,0.3188309,-0.01992453
974.3026,-0.7918735,-0.342575,1.254764,-0.7244053,0.3134226,-0.02056653
974.3177,-0.7918735,-0.342575,1.254764,-0.7244053,0.3134226,-0.02056653
974.3318,-0.7967548,-0.3442473,1.256013,-0.7334502,0.3081096,-0.02119564
974.3475,-0.8016452,-0.3459196,1.257096,-0.7424288,0.3029331,-0.02181211
974.3622,-0.8067331,-0.3476613,1.258382,-0.7517917,0.2973678,-0.02249966
974.377,-0.8067331,-0.3476613,1.258382,-0.7517917,0.2973678,-0.02249966
974.3909,-0.8119227,-0.349436,1.259586,-0.7613519,0.2917619,-0.02317358
974.4064,-0.8171542,-0.3512219,1.260622,-0.7709244,0.2862652,-0.023834
974.4212,-0.82239,-0.3530064,1.261497,-0.7804222,0.2809145,-0.0244812
974.436,-0.82239,-0.3530064,1.261497,-0.7804222,0.2809145,-0.0244812
974.4504,-0.8278193,-0.3548588,1.262574,-0.7902951,0.2751657,-0.02519881
974.4666,-0.8333462,-0.3567426,1.263559,-0.8003568,0.2693935,-0.02590222
974.4805,-0.8389109,-0.3586362,1.264378,-0.8104227,0.2637451,-0.02659158
974.4954,-0.8389109,-0.3586362,1.264378,-0.8104227,0.2637451,-0.02659158
974.5095,-0.8446888,-0.3606039,1.265375,-0.820895,0.2576927,-0.02735047
974.5246,-0.8505749,-0.3626059,1.266253,-0.8315651,0.2516408,-0.02809434
974.5392,-0.8505749,-0.3626059,1.266253,-0.8315651,0.2516408,-0.02809434
974.5533,-0.8565038,-0.3646189,1.266951,-0.8422384,0.2457326,-0.02882337
974.5688,-0.8624349,-0.3666291,1.267491,-0.8528238,0.2399925,-0.02953785
974.5835,-0.8685558,-0.3687053,1.268228,-0.8637677,0.2338373,-0.03032135
974.5983,-0.8685558,-0.3687053,1.268228,-0.8637677,0.2338373,-0.03032135
974.6124,-0.874769,-0.3708106,1.268853,-0.8748837,0.2276994,-0.03108937
974.6281,-0.8810137,-0.3729232,1.269313,-0.8859875,0.2217145,-0.03184212
974.6428,-0.887252,-0.3750303,1.269633,-0.8969933,0.2159004,-0.0325799
974.6583,-0.887252,-0.3750303,1.269633,-0.8969933,0.2159004,-0.0325799
974.6714,-0.8936743,-0.3772016,1.270153,-0.908349,0.2096521,-0.03338621
974.6871,-0.9001836,-0.3794002,1.270557,-0.9198693,0.2034435,-0.03417662
974.7017,-0.9067199,-0.3816046,1.270805,-0.9313712,0.197399,-0.03495134
974.7175,-0.9067199,-0.3816046,1.270805,-0.9313712,0.197399,-0.03495134
974.7318,-0.9134598,-0.3838792,1.27123,-0.9432549,0.1909159,-0.03579384
974.746,-0.9202974,-0.3861841,1.271518,-0.9553136,0.1845019,-0.03661972
974.7607,-0.9271672,-0.388496,1.271649,-0.9673545,0.178267,-0.03742921
974.7756,-0.9271672,-0.388496,1.271649,-0.9673545,0.178267,-0.03742921
974.7894,-0.9340285,-0.3908011,1.271656,-0.979288,0.172213,-0.03822267
974.807,-0.9410706,-0.3931688,1.271859,-0.9915583,0.1656964,-0.03908356
974.8195,-0.9410706,-0.3931688,1.271859,-0.9915583,0.1656964,-0.03908356
974.8335,-0.9481949,-0.3955617,1.271933,-1.003979,0.1592708,-0.03992747
974.8489,-0.9553406,-0.3979582,1.27187,-1.016369,0.1530268,-0.04075468
974.8637,-0.9624698,-0.4003457,1.271702,-1.028644,0.1469605,-0.04156554
974.8788,-0.9624698,-0.4003457,1.271702,-1.028644,0.1469605,-0.04156554
974.8928,-0.9697743,-0.402794,1.271727,-1.041248,0.1404122,-0.04244349
974.9084,-0.9771565,-0.4052661,1.271623,-1.053997,0.1339814,-0.04330413
974.9231,-0.9845559,-0.4077405,1.271399,-1.066711,0.1277336,-0.04414777
974.9379,-0.9845559,-0.4077405,1.271399,-1.066711,0.1277336,-0.04414777
974.952,-0.9921507,-0.4102818,1.271342,-1.079787,0.1210025,-0.04505785
974.9687,-0.9998341,-0.4128497,1.271149,-1.09302,0.1144152,-0.04594999
974.9822,-1.00754,-0.4154211,1.270841,-1.106219,0.1080158,-0.04682452
974.9969,-1.00754,-0.4154211,1.270841,-1.106219,0.1080158,-0.04682452
975.0109,-1.015228,-0.4179825,1.270448,-1.119297,0.1017925,-0.04768182
975.0264,-1.023089,-0.4206033,1.270226,-1.132694,0.09506928,-0.04860529
975.0411,-1.031024,-0.4232462,1.269883,-1.146226,0.08850597,-0.04951056
975.0556,-1.031024,-0.4232462,1.269883,-1.146226,0.08850597,-0.04951056
975.0698,-1.038971,-0.4258893,1.269446,-1.159712,0.08212364,-0.05039801
975.0852,-1.046892,-0.4285203,1.26894,-1.17307,0.0759111,-0.05126799
975.1002,-1.054982,-0.4312093,1.26859,-1.186741,0.06919344,-0.05220389
975.1148,-1.054982,-0.4312093,1.26859,-1.186741,0.06919344,-0.05220389
975.1288,-1.063141,-0.433919,1.268133,-1.200541,0.06264608,-0.05312137
975.1444,-1.071308,-0.4366279,1.267596,-1.214294,0.0562728,-0.0540208
975.1595,-1.071308,-0.4366279,1.267596,-1.214294,0.0562728,-0.0540208
975.1734,-1.079447,-0.4393237,1.267003,-1.227915,0.05006379,-0.05490255
975.189,-1.087534,-0.4419996,1.266366,-1.241368,0.04401122,-0.05576696
975.2054,-1.095556,-0.4446518,1.265694,-1.254636,0.03810876,-0.0566144
975.2184,-1.095556,-0.4446518,1.265694,-1.254636,0.03810876,-0.0566144
975.2322,-1.103504,-0.4472784,1.264995,-1.267713,0.03235099,-0.05744518
975.2479,-1.111157,-0.4498011,1.264108,-1.280121,0.02738566,-0.05817664
975.2623,-1.118596,-0.4522531,1.263251,-1.292027,0.02253426,-0.05889373
975.2771,-1.118596,-0.4522531,1.263251,-1.292027,0.02253426,-0.05889373
975.2913,-1.125873,-0.4546535,1.262409,-1.303604,0.01779413,-0.05959674
975.3067,-1.133021,-0.4570135,1.261575,-1.314935,0.01316391,-0.06028594
975.3212,-1.13984,-0.4592625,1.2606,-1.325588,0.009285036,-0.06087862
975.3358,-1.13984,-0.4592625,1.2606,-1.325588,0.009285036,-0.06087862
975.35,-1.146429,-0.4614376,1.259663,-1.335746,0.005492982,-0.06145966
975.3655,-1.15285,-0.4635603,1.258751,-1.345593,0.001786653,-0.06202929
975.3806,-1.15914,-0.4656433,1.257856,-1.355216,-0.001834809,-0.06258775
975.3953,-1.15914,-0.4656433,1.257856,-1.355216,-0.001834809,-0.06258775
975.4095,-1.165104,-0.4676167,1.256844,-1.364184,-0.004736829,-0.06305224
975.4251,-1.170843,-0.4695179,1.255869,-1.372682,-0.007573546,-0.06350763
975.4396,-1.170843,-0.4695179,1.255869,-1.372682,-0.007573546,-0.06350763
975.4558,-1.17642,-0.4713686,1.254923,-1.380892,-0.01034606,-0.06395408
975.4692,-1.181653,-0.4731045,1.253879,-1.388427,-0.01242372,-0.06430877
975.4838,-1.186653,-0.4747656,1.252876,-1.395495,-0.01445444,-0.0646565
975.4987,-1.186653,-0.4747656,1.252876,-1.395495,-0.01445444,-0.0646565
975.5127,-1.191489,-0.4763757,1.251906,-1.402286,-0.01643909,-0.06499741
975.528,-1.196203,-0.4779486,1.25096,-1.408894,-0.0183782,-0.06533162
975.543,-1.200602,-0.4794155,1.249924,-1.414889,-0.01964525,-0.06557629
975.5578,-1.200602,-0.4794155,1.249924,-1.414889,-0.01964525,-0.06557629
975.5717,-1.204788,-0.4808135,1.248923,-1.420458,-0.02088242,-0.06581616
975.587,-1.208826,-0.4821647,1.247953,-1.425781,-0.02209065,-0.06605132
975.602,-1.212755,-0.4834822,1.247008,-1.430946,-0.02327039,-0.06628186
975.6169,-1.212755,-0.4834822,1.247008,-1.430946,-0.02327039,-0.06628186
975.6309,-1.216379,-0.4846966,1.245981,-1.435523,-0.02379823,-0.0664249
975.6466,-1.219801,-0.4858446,1.244986,-1.439694,-0.02431203,-0.06656513
975.6613,-1.223083,-0.486948,1.244021,-1.44364,-0.02481253,-0.0667026
975.676,-1.223083,-0.486948,1.244021,-1.44364,-0.02481253,-0.0667026
975.6924,-1.226043,-0.4879428,1.242984,-1.446976,-0.02467804,-0.06675439
975.7067,-1.228794,-0.4888684,1.241981,-1.449904,-0.02454378,-0.06680516
975.7204,-1.231402,-0.4897486,1.24101,-1.452616,-0.02441022,-0.06685494
975.7351,-1.231402,-0.4897486,1.24101,-1.452616,-0.02441022,-0.06685494
975.7491,-1.233911,-0.4905975,1.240067,-1.455205,-0.02427742,-0.06690374
975.7645,-1.236128,-0.4913468,1.239053,-1.457242,-0.02352497,-0.0668686
975.7792,-1.236128,-0.4913468,1.239053,-1.457242,-0.02352497,-0.0668686
975.7931,-1.238154,-0.4920329,1.238068,-1.458909,-0.02278572,-0.06683414
975.8087,-1.240054,-0.4926778,1.237113,-1.460387,-0.02205997,-0.06680036
975.8233,-1.241868,-0.4932951,1.236185,-1.461763,-0.02134758,-0.06676725
975.8381,-1.241868,-0.4932951,1.236185,-1.461763,-0.02134758,-0.06676725
975.8521,-1.243399,-0.4938157,1.235188,-1.462609,-0.02002905,-0.06665179
975.8674,-1.244748,-0.4942755,1.234218,-1.463102,-0.01873555,-0.0665386
975.8823,-1.24598,-0.4946964,1.233278,-1.463425,-0.01746719,-0.06642763
975.8972,-1.24598,-0.4946964,1.233278,-1.463425,-0.01746719,-0.06642763
975.9116,-1.246912,-0.4950147,1.232273,-1.46319,-0.01560479,-0.06623586
975.9266,-1.247655,-0.495269,1.231298,-1.4626,-0.01377865,-0.06604784
975.9434,-1.248276,-0.4954833,1.230354,-1.461845,-0.01198876,-0.06586351
975.9572,-1.248276,-0.4954833,1.230354,-1.461845,-0.01198876,-0.06586351
975.9702,-1.248821,-0.4956722,1.229439,-1.461017,-0.01023461,-0.0656828
975.9855,-1.249093,-0.4957674,1.228455,-1.459688,-0.00789678,-0.06542264
976,-1.249196,-0.495805,1.227499,-1.458039,-0.005604855,-0.06516759
976.015,-1.249196,-0.495805,1.227499,-1.458039,-0.005604855,-0.06516759
976.0287,-1.249194,-0.495807,1.226573,-1.456248,-0.003358711,-0.06491754
976.0443,-1.249126,-0.4957878,1.225674,-1.454404,-0.00115769,-0.0646724
976.059,-1.249126,-0.4957878,1.225674,-1.454404,-0.00115769,-0.0646724
976.0729,-1.248797,-0.4956784,1.224705,-1.452077,0.001618081,-0.06434908
976.0889,-1.248307,-0.4955142,1.223762,-1.449445,0.004339232,-0.06403209
976.1029,-1.24772,-0.4953172,1.22285,-1.446686,0.007005946,-0.06372133
976.1179,-1.24772,-0.4953172,1.22285,-1.446686,0.007005946,-0.06372133
976.1321,-1.246853,-0.4950237,1.221868,-1.443417,0.01023854,-0.06333367
976.1478,-1.245818,-0.4946727,1.220917,-1.439836,0.01340751,-0.06295361
976.1624,-1.244682,-0.494288,1.219997,-1.436134,0.01651307,-0.06258101
976.1772,-1.244682,-0.494288,1.219997,-1.436134,0.01651307,-0.06258101
976.1932,-1.24349,-0.4938847,1.219107,-1.432402,0.01955615,-0.06221572
976.2076,-1.242046,-0.4933946,1.218141,-1.428212,0.02315864,-0.06177459
976.2212,-1.240454,-0.4928539,1.217205,-1.423744,0.0266904,-0.06134211
976.2359,-1.240454,-0.4928539,1.217205,-1.423744,0.0266904,-0.06134211
976.2499,-1.238777,-0.492285,1.216299,-1.419175,0.03015167,-0.06091811
976.2653,-1.237054,-0.4917015,1.215422,-1.414594,0.03354347,-0.06050243
976.2802,-1.235091,-0.4910345,1.214463,-1.409571,0.03748955,-0.0600119
976.2947,-1.235091,-0.4910345,1.214463,-1.409571,0.03748955,-0.0600119
976.3088,-1.232987,-0.4903201,1.213536,-1.404281,0.04135842,-0.05953098
976.324,-1.230807,-0.4895802,1.21264,-1.398905,0.0451503,-0.0590595
976.3386,-1.230807,-0.4895802,1.21264,-1.398905,0.0451503,-0.0590595
976.3529,-1.228367,-0.488751,1.211662,-1.393057,0.04949044,-0.05851426
976.3683,-1.225779,-0.4878717,1.210719,-1.386934,0.05374586,-0.05797971
976.3828,-1.223111,-0.4869661,1.20981,-1.380726,0.05791681,-0.05745564
976.3978,-1.223111,-0.4869661,1.20981,-1.380726,0.05791681,-0.05745564
976.412,-1.220405,-0.4860489,1.208932,-1.374526,0.06200453,-0.05694185
976.4275,-1.217467,-0.4850516,1.20796,-1.367905,0.06663772,-0.05635512
976.442,-1.2144,-0.4840107,1.207025,-1.361039,0.07118078,-0.05577989
976.4579,-1.2144,-0.4840107,1.207025,-1.361039,0.07118078,-0.05577989
976.4717,-1.211267,-0.4829482,1.206124,-1.354109,0.07563403,-0.05521593
976.4862,-1.208107,-0.4818778,1.205253,-1.3472,0.07999879,-0.05466303
976.501,-1.204725,-0.4807301,1.204278,-1.339883,0.08490765,-0.05403795
976.5156,-1.204725,-0.4807301,1.204278,-1.339883,0.08490765,-0.05403795
976.5297,-1.20122,-0.4795414,1.203344,-1.332333,0.08972129,-0.05342511
976.545,-1.197656,-0.4783335,1.202444,-1.324729,0.09444005,-0.05282429
976.5596,-1.197656,-0.4783335,1.202444,-1.324729,0.09444005,-0.05282429
976.5737,-1.193852,-0.4770425,1.201437,-1.316685,0.09969961,-0.05215221
976.5892,-1.189916,-0.4757075,1.200476,-1.308398,0.1048573,-0.05149331
976.6038,-1.185918,-0.4743524,1.199553,-1.300059,0.1099135,-0.05084732
976.6187,-1.185918,-0.4743524,1.199553,-1.300059,0.1099135,-0.05084732
976.6326,-1.181898,-0.4729915,1.198663,-1.291757,0.11487,-0.050214
976.6483,-1.177664,-0.4715561,1.197649,-1.283064,0.1203682,-0.04951002
976.663,-1.173318,-0.4700828,1.196683,-1.274157,0.1257605,-0.04881985
976.6779,-1.173318,-0.4700828,1.196683,-1.274157,0.1257605,-0.04881985
976.6918,-1.168921,-0.4685937,1.195757,-1.265214,0.1310471,-0.0481432
976.7082,-1.164513,-0.4671018,1.194862,-1.256323,0.1362298,-0.04747982
976.7229,-1.159898,-0.465538,1.193829,-1.247051,0.1419556,-0.04674635
976.7369,-1.159898,-0.465538,1.193829,-1.247051,0.1419556,-0.04674635
976.7506,-1.155178,-0.4639385,1.192848,-1.237574,0.1475727,-0.04602726
976.7658,-1.150413,-0.462325,1.191908,-1.228071,0.1530797,-0.04532227
976.7807,-1.145642,-0.4607106,1.191001,-1.218627,0.1584786,-0.04463109
976.7954,-1.145642,-0.4607106,1.191001,-1.218627,0.1584786,-0.04463109
976.8096,-1.14067,-0.4590258,1.189939,-1.208811,0.1644213,-0.04387033
976.8248,-1.135597,-0.4573069,1.188934,-1.198797,0.1702549,-0.04312449
976.8395,-1.135597,-0.4573069,1.188934,-1.198797,0.1702549,-0.04312449
976.8535,-1.130484,-0.4555755,1.187973,-1.188765,0.1759736,-0.04239327
976.8719,-1.12537,-0.4538446,1.187046,-1.1788,0.1815803,-0.04167638
976.8839,-1.120277,-0.4521219,1.186147,-1.168944,0.1870776,-0.04097353
976.8986,-1.120277,-0.4521219,1.186147,-1.168944,0.1870776,-0.04097353
976.9128,-1.11522,-0.4504118,1.185272,-1.159213,0.1924683,-0.04028444
976.9283,-1.110208,-0.4487169,1.184419,-1.149617,0.1977547,-0.03960884
976.9431,-1.105245,-0.4470388,1.183586,-1.140159,0.202939,-0.03894647
976.9587,-1.105245,-0.4470388,1.183586,-1.140159,0.202939,-0.03894647
976.9729,-1.100334,-0.4453781,1.182771,-1.130838,0.2080235,-0.03829708
976.9872,-1.095477,-0.4437353,1.181974,-1.121654,0.21301,-0.03766039
977.0018,-1.090675,-0.4421105,1.181195,-1.112605,0.2179006,-0.03703617
977.0166,-1.090675,-0.4421105,1.181195,-1.112605,0.2179006,-0.03703617
977.0306,-1.085928,-0.4405038,1.180432,-1.10369,0.2226971,-0.03642417
977.046,-1.081235,-0.4389151,1.179686,-1.094907,0.2274013,-0.03582416
977.0606,-1.076596,-0.4373443,1.178957,-1.086254,0.2320148,-0.03523589
977.0754,-1.076596,-0.4373443,1.178957,-1.086254,0.2320148,-0.03523589
977.0897,-1.072011,-0.4357912,1.178244,-1.077729,0.2365394,-0.03465914
977.1051,-1.06748,-0.4342557,1.177547,-1.069331,0.2409768,-0.03409369
977.1198,-1.06748,-0.4342557,1.177547,-1.069331,0.2409768,-0.03409369
977.1339,-1.063001,-0.4327376,1.176866,-1.061058,0.2453286,-0.0335393
977.1496,-1.058574,-0.4312367,1.1762,-1.052907,0.2495963,-0.03299576
977.1643,-1.054199,-0.4297529,1.17555,-1.044878,0.2537816,-0.03246287
977.1794,-1.054199,-0.4297529,1.17555,-1.044878,0.2537816,-0.03246287
977.1932,-1.049875,-0.428286,1.174916,-1.036968,0.257886,-0.0319404
977.2098,-1.045601,-0.4268358,1.174296,-1.029176,0.261911,-0.03142817
977.2236,-1.041377,-0.4254021,1.173692,-1.0215,0.265858,-0.03092597
977.2383,-1.041377,-0.4254021,1.173692,-1.0215,0.265858,-0.03092597
977.2523,-1.037202,-0.4239847,1.173103,-1.013939,0.2697285,-0.0304336
977.2677,-1.033076,-0.4225836,1.172528,-1.00649,0.273524,-0.02995086
977.2825,-1.028998,-0.4211984,1.171968,-0.9991521,0.2772458,-0.02947758
977.2973,-1.028998,-0.4211984,1.171968,-0.9991521,0.2772458,-0.02947758
977.3116,-1.024967,-0.419829,1.171422,-0.9919238,0.2808953,-0.02901356
977.3271,-1.020983,-0.4184754,1.170891,-0.9848034,0.2844738,-0.02855863
977.3419,-1.017046,-0.4171372,1.170373,-0.9777895,0.2879827,-0.02811261
977.3569,-1.017046,-0.4171372,1.170373,-0.9777895,0.2879827,-0.02811261
977.3709,-1.013155,-0.4158143,1.16987,-0.9708803,0.2914232,-0.02767532
977.3869,-1.009308,-0.4145066,1.16938,-0.9640746,0.2947967,-0.02724659
977.4016,-1.005507,-0.4132139,1.168904,-0.9573706,0.2981043,-0.02682626
977.4165,-1.005507,-0.4132139,1.168904,-0.9573706,0.2981043,-0.02682626
977.4328,-1.00175,-0.411936,1.168442,-0.950767,0.3013473,-0.02641415
977.4467,-0.9980361,-0.4106728,1.167993,-0.9442624,0.3045268,-0.02601012
977.4609,-0.9943659,-0.4094242,1.167556,-0.9378552,0.3076442,-0.025614
977.4757,-0.9943659,-0.4094242,1.167556,-0.9378552,0.3076442,-0.025614
977.4897,-0.9907383,-0.4081898,1.167133,-0.9315442,0.3107004,-0.02522564
977.5052,-0.9871528,-0.4069697,1.166723,-0.9253278,0.3136966,-0.02484488
977.52,-0.9836091,-0.4057636,1.166325,-0.9192047,0.316634,-0.02447158
977.535,-0.9836091,-0.4057636,1.166325,-0.9192047,0.316634,-0.02447158
977.5492,-0.9801065,-0.4045714,1.16594,-0.9131736,0.3195136,-0.02410558
977.5646,-0.9766447,-0.403393,1.165567,-0.9072331,0.3223366,-0.02374676
977.5796,-0.9766447,-0.403393,1.165567,-0.9072331,0.3223366,-0.02374676
977.5938,-0.9732231,-0.4022281,1.165207,-0.9013819,0.3251038,-0.02339497
977.6096,-0.9698412,-0.4010767,1.164858,-0.8956187,0.3278165,-0.02305007
977.6246,-0.9664987,-0.3999386,1.164522,-0.8899423,0.3304755,-0.02271192
977.6393,-0.9664987,-0.3999386,1.164522,-0.8899423,0.3304755,-0.02271192
977.6555,-0.9631949,-0.3988136,1.164197,-0.8843513,0.3330818,-0.0223804
977.6689,-0.9599295,-0.3977017,1.163883,-0.8788446,0.3356366,-0.02205537
977.6838,-0.9567021,-0.3966025,1.163582,-0.8734208,0.3381405,-0.02173671
977.6984,-0.9567021,-0.3966025,1.163582,-0.8734208,0.3381405,-0.02173671
977.7126,-0.9535121,-0.3955161,1.163291,-0.8680788,0.3405948,-0.02142429
977.728,-0.9503591,-0.3944423,1.163012,-0.8628173,0.3430001,-0.021118
977.7429,-0.9472427,-0.3933809,1.162743,-0.8576353,0.3453575,-0.0208177
977.7576,-0.9472427,-0.3933809,1.162743,-0.8576353,0.3453575,-0.0208177
977.7717,-0.9441625,-0.3923317,1.162486,-0.8525316,0.3476678,-0.02052329
977.7876,-0.9411181,-0.3912948,1.162239,-0.8475049,0.3499319,-0.02023465
977.8021,-0.9381089,-0.3902699,1.162003,-0.8425542,0.3521506,-0.01995167
977.817,-0.9381089,-0.3902699,1.162003,-0.8425542,0.3521506,-0.01995167
977.8314,-0.9351347,-0.3892568,1.161777,-0.8376784,0.3543247,-0.01967423
977.8474,-0.932195,-0.3882555,1.161562,-0.8328763,0.3564551,-0.01940223
977.8615,-0.9292894,-0.3872659,1.161357,-0.8281469,0.3585426,-0.01913556
977.8766,-0.9292894,-0.3872659,1.161357,-0.8281469,0.3585426,-0.01913556
977.8917,-0.9264175,-0.3862877,1.161161,-0.8234891,0.360588,-0.01887413
977.906,-0.9235789,-0.3853209,1.160976,-0.8189018,0.362592,-0.01861781
977.9207,-0.9207731,-0.3843654,1.1608,-0.8143841,0.3645554,-0.01836653
977.9355,-0.9207731,-0.3843654,1.1608,-0.8143841,0.3645554,-0.01836653
977.9496,-0.918,-0.3834209,1.160634,-0.8099349,0.3664789,-0.01812017
977.965,-0.9152589,-0.3824875,1.160478,-0.8055531,0.3683632,-0.01787864
977.9799,-0.9152589,-0.3824875,1.160478,-0.8055531,0.3683632,-0.01787864
977.9939,-0.9125497,-0.3815649,1.16033,-0.8012378,0.3702092,-0.01764185
978.0094,-0.9098718,-0.3806531,1.160192,-0.796988,0.3720174,-0.0174097
978.0245,-0.907225,-0.3797519,1.160063,-0.7928027,0.3737886,-0.01718211
978.0391,-0.907225,-0.3797519,1.160063,-0.7928027,0.3737886,-0.01718211
978.0534,-0.9046088,-0.3788612,1.159943,-0.788681,0.3755234,-0.01695899
978.0688,-0.9020229,-0.3779808,1.159832,-0.784622,0.3772225,-0.01674024
978.0839,-0.899467,-0.3771108,1.159729,-0.7806247,0.3788866,-0.01652578
978.0991,-0.899467,-0.3771108,1.159729,-0.7806247,0.3788866,-0.01652578
978.1149,-0.8969407,-0.3762509,1.159635,-0.7766882,0.3805163,-0.01631553
978.1283,-0.8944437,-0.375401,1.159549,-0.7728115,0.3821122,-0.01610941
978.1432,-0.8919756,-0.374561,1.159471,-0.7689939,0.383675,-0.01590734
978.158,-0.8919756,-0.374561,1.159471,-0.7689939,0.383675,-0.01590734
978.1719,-0.889536,-0.3737309,1.159402,-0.7652344,0.3852052,-0.01570924
978.1873,-0.8871247,-0.3729105,1.15934,-0.7615322,0.3867035,-0.01551502
978.2021,-0.8847413,-0.3720996,1.159287,-0.7578864,0.3881704,-0.01532462
978.217,-0.8847413,-0.3720996,1.159287,-0.7578864,0.3881704,-0.01532462
978.2311,-0.8823855,-0.3712983,1.159241,-0.7542961,0.3896065,-0.01513796
978.2469,-0.880057,-0.3705063,1.159203,-0.7507606,0.3910124,-0.01495496
978.2614,-0.8777554,-0.3697236,1.159172,-0.747279,0.3923886,-0.01477556
978.2766,-0.8777554,-0.3697236,1.159172,-0.747279,0.3923886,-0.01477556
978.2906,-0.8754805,-0.36895,1.159149,-0.7438506,0.3937356,-0.01459968
978.3064,-0.8732319,-0.3681855,1.159133,-0.7404746,0.3950541,-0.01442726
978.321,-0.8710093,-0.3674299,1.159124,-0.7371501,0.3963445,-0.01425823
978.3357,-0.8710093,-0.3674299,1.159124,-0.7371501,0.3963445,-0.01425823
978.351,-0.8688124,-0.3666832,1.159122,-0.7338763,0.3976073,-0.01409252
978.3655,-0.8666409,-0.3659453,1.159127,-0.7306526,0.3988431,-0.01393007
978.3804,-0.8644946,-0.365216,1.159139,-0.7274782,0.4000522,-0.01377081
978.3948,-0.8644946,-0.365216,1.159139,-0.7274782,0.4000522,-0.01377081
978.4091,-0.8623731,-0.3644953,1.159158,-0.7243523,0.4012353,-0.01361469
978.4244,-0.860276,-0.363783,1.159183,-0.7212743,0.4023928,-0.01346164
978.4391,-0.860276,-0.363783,1.159183,-0.7212743,0.4023928,-0.01346164
978.4532,-0.8582033,-0.363079,1.159214,-0.7182433,0.4035252,-0.0133116
978.4692,-0.8561545,-0.3623834,1.159252,-0.7152587,0.4046329,-0.01316451
978.4836,-0.8541294,-0.3616959,1.159296,-0.7123199,0.4057163,-0.01302032
978.4986,-0.8541294,-0.3616959,1.159296,-0.7123199,0.4057163,-0.01302032
978.5128,-0.8521278,-0.3610164,1.159346,-0.709426,0.406776,-0.01287896
978.5283,-0.8501493,-0.360345,1.159402,-0.7065765,0.4078124,-0.01274039
978.5433,-0.8481936,-0.3596814,1.159464,-0.7037706,0.4088259,-0.01260455
978.5579,-0.8481936,-0.3596814,1.159464,-0.7037706,0.4088259,-0.01260455
978.5743,-0.8462606,-0.3590257,1.159531,-0.7010078,0.4098169,-0.01247138
978.5884,-0.8443499,-0.3583776,1.159605,-0.6982874,0.4107858,-0.01234083
