JMolnar6/NonAnthroHands_User_Study/HandsLoggerWithURDF/tempdata/PID 0 (test)/files/Reachy_JointMotion_gesture_8_37.csv
Time,r_shoulder,r_shoulder_x,r_upper_arm,r_forearm,r_wrist,r_wrist2hand,
712.9517,0.04495051,0.000490981,NaN,-0.3279434,0.0004161448,NaN,-0.5345551,-14.46995,NaN,-1.31569,-1.466091,0.3452435,14.11116,NaN,NaN,0.3650696,0.8091846,0.8092421,1.041054,-0.0006014903,1.368211
712.9661,0.04495071,0.0004913402,NaN,-0.3279335,0.0004158517,NaN,-0.5333983,-14.47049,NaN,-1.315525,-1.477647,0.3443366,14.12334,NaN,NaN,0.3646828,0.8089541,0.8088456,1.057815,-0.0005896839,1.373417
712.9802,0.04495092,0.0004914899,NaN,-0.3279238,0.0004164342,NaN,-0.5322675,-14.47014,NaN,-1.315621,-1.46643,0.3433835,14.11154,NaN,NaN,0.3640851,0.8091431,0.8085883,1.041556,-0.0005781244,1.368523
712.9954,0.04495092,0.0004914899,NaN,-0.3279238,0.0004164342,NaN,-0.5322675,-14.47014,NaN,-1.315621,-1.46643,0.3433835,14.11154,NaN,NaN,0.3640851,0.8091431,0.8085883,1.041556,-0.0005781244,1.368523
713.0096,0.04495113,0.0004916712,NaN,-0.3279141,0.0004168937,NaN,-0.5312489,-14.47061,NaN,-1.315726,-1.467637,0.3424873,14.11286,NaN,NaN,0.3632752,0.8087189,0.8084964,1.043319,-0.0005667836,1.371522
713.0253,0.04495134,0.0004919622,NaN,-0.3279046,0.0004165938,NaN,-0.5302576,-14.47105,NaN,-1.315793,-1.477325,0.341599,14.12306,NaN,NaN,0.3623515,0.8085186,0.8084329,1.057361,-0.0005556813,1.375317
713.0401,0.04495154,0.0004921874,NaN,-0.3278952,0.00041644,NaN,-0.5307206,-14.47146,NaN,-1.315562,-1.473517,0.3418734,14.11911,NaN,NaN,0.3618535,0.808057,0.810091,1.051855,-0.0005447775,1.37509
713.0552,0.04495154,0.0004921874,NaN,-0.3278952,0.00041644,NaN,-0.5307206,-14.47146,NaN,-1.315562,-1.473517,0.3418734,14.11911,NaN,NaN,0.3618535,0.808057,0.810091,1.051855,-0.0005447775,1.37509
713.0695,0.04495174,0.0004929038,NaN,-0.3278859,0.0004162101,NaN,-0.5309713,-14.47082,NaN,-1.315364,-1.479082,0.34193,14.12485,NaN,NaN,0.3621318,0.8088,0.8111603,1.059891,-0.0005340974,1.374084
713.0851,0.04495194,0.0004932433,NaN,-0.3278767,0.0004163922,NaN,-0.5308467,-14.4699,NaN,-1.315355,-1.471733,0.3416877,14.11704,NaN,NaN,0.3630155,0.8096291,0.8114022,1.049225,-0.0005236187,1.367151
713.1001,0.04495214,0.0004934694,NaN,-0.3278677,0.0004170538,NaN,-0.5311134,-14.47031,NaN,-1.315405,-1.466354,0.3417039,14.11144,NaN,NaN,0.3638982,0.8091211,0.8116144,1.041436,-0.000513349,1.368877
713.1156,0.04495214,0.0004934694,NaN,-0.3278677,0.0004170538,NaN,-0.5311134,-14.47031,NaN,-1.315405,-1.466354,0.3417039,14.11144,NaN,NaN,0.3638982,0.8091211,0.8116144,1.041436,-0.000513349,1.368877
713.1295,0.04495231,0.0004937626,NaN,-0.3278587,0.0004171075,NaN,-0.5321259,-14.47145,NaN,-1.31587,-1.473361,0.3423824,14.11892,NaN,NaN,0.3658,0.8081669,0.8123298,1.051626,-0.0005032838,1.375127
713.1461,0.04495235,0.0004941628,NaN,-0.32785,0.0004175776,NaN,-0.5303417,-14.47132,NaN,-1.319048,-1.470226,0.3404486,14.11562,NaN,NaN,0.3691754,0.808249,0.8070061,1.047083,-0.0004934111,1.375733
713.1602,0.04495247,0.0004943088,NaN,-0.3278413,0.0004180339,NaN,-0.5336522,-14.4702,NaN,-1.316683,-1.467335,0.3429649,14.11245,NaN,NaN,0.367459,0.809301,0.8092493,1.042862,-0.0004837288,1.367699
713.1752,0.04495247,0.0004943088,NaN,-0.3278413,0.0004180339,NaN,-0.5336522,-14.4702,NaN,-1.316683,-1.467335,0.3429649,14.11245,NaN,NaN,0.367459,0.809301,0.8092493,1.042862,-0.0004837288,1.367699
713.1908,0.04495249,0.0004944458,NaN,-0.3278327,0.0004180934,NaN,-0.5331696,-14.4713,NaN,-1.318952,-1.4719,0.3425559,14.11737,NaN,NaN,0.3708698,0.8083217,0.8073117,1.049514,-0.0004742464,1.373066
713.205,0.04495259,0.0004948253,NaN,-0.3278243,0.0004187579,NaN,-0.5318496,-14.47101,NaN,-1.317946,-1.468257,0.3423793,14.11352,NaN,NaN,0.3736452,0.8085346,0.8074479,1.044233,-0.000464933,1.374501
713.2198,0.04495259,0.0004948253,NaN,-0.3278243,0.0004187579,NaN,-0.5318496,-14.47101,NaN,-1.317946,-1.468257,0.3423793,14.11352,NaN,NaN,0.3736452,0.8085346,0.8074479,1.044233,-0.000464933,1.374501
713.2344,0.0449527,0.0004946895,NaN,-0.3278159,0.0004180723,NaN,-0.5311302,-14.47014,NaN,-1.319127,-1.477667,0.3425143,14.12326,NaN,NaN,0.37864,0.8096308,0.8097157,1.057827,-0.0004558195,1.369486
713.25,0.0449527,0.0004944514,NaN,-0.3278077,0.0004181638,NaN,-0.5299697,-14.47013,NaN,-1.322159,-1.467754,0.3414409,14.11285,NaN,NaN,0.3834805,0.809487,0.8076789,1.043455,-0.0004468729,1.36664
713.2652,0.04495278,0.0004939758,NaN,-0.3277995,0.0004182489,NaN,-0.5289751,-14.47008,NaN,-1.321545,-1.465966,0.341871,14.11096,NaN,NaN,0.3877572,0.809495,0.8084992,1.040862,-0.0004381115,1.364287
713.28,0.04495285,0.0004932029,NaN,-0.3277915,0.0004178917,NaN,-0.5283775,-14.46977,NaN,-1.323167,-1.468342,0.3424934,14.1134,NaN,NaN,0.394555,0.8098593,0.8107635,1.044291,-0.0004295196,1.363706
713.2952,0.04495285,0.0004932029,NaN,-0.3277915,0.0004178917,NaN,-0.5283775,-14.46977,NaN,-1.323167,-1.468342,0.3424934,14.1134,NaN,NaN,0.394555,0.8098593,0.8107635,1.044291,-0.0004295196,1.363706
713.3095,0.04495287,0.000492923,NaN,-0.3277836,0.0004171933,NaN,-0.526951,-14.47119,NaN,-1.325772,-1.476409,0.3419966,14.12205,NaN,NaN,0.4015945,0.8086362,0.8097136,1.056035,-0.0004211141,1.373896
713.3252,0.04495284,0.0004928528,NaN,-0.3277757,0.0004176291,NaN,-0.5254613,-14.47024,NaN,-1.328014,-1.466425,0.3414254,14.11148,NaN,NaN,0.4072464,0.8094282,0.8068107,1.041553,-0.0004128365,1.366503
713.34,0.04495288,0.0004921978,NaN,-0.327768,0.0004174815,NaN,-0.5245633,-14.46962,NaN,-1.327816,-1.466029,0.34249,14.11098,NaN,NaN,0.4122915,0.8100339,0.8080891,1.040956,-0.0004047327,1.362876
713.355,0.04495288,0.0004921978,NaN,-0.327768,0.0004174815,NaN,-0.5245633,-14.46962,NaN,-1.327816,-1.466029,0.34249,14.11098,NaN,NaN,0.4122915,0.8100339,0.8080891,1.040956,-0.0004047327,1.362876
713.3693,0.04495293,0.000491297,NaN,-0.3277603,0.0004172467,NaN,-0.5239104,-14.47001,NaN,-1.329485,-1.465448,0.343583,14.11042,NaN,NaN,0.4190885,0.809622,0.8104591,1.040129,-0.0003967789,1.362543
713.3848,0.04495292,0.0004915232,NaN,-0.3277528,0.0004168209,NaN,-0.5221674,-14.47072,NaN,-1.332333,-1.47689,0.3432539,14.12251,NaN,NaN,0.4259819,0.8092254,0.8089698,1.056737,-0.0003890003,1.369829
713.4001,0.04495287,0.0004919448,NaN,-0.3277453,0.0004174076,NaN,-0.5205537,-14.46986,NaN,-1.334156,-1.469566,0.3431822,14.11473,NaN,NaN,0.4311483,0.8099674,0.8064727,1.046105,-0.0003813798,1.363599
713.4149,0.04495287,0.0004919448,NaN,-0.3277453,0.0004174076,NaN,-0.5205537,-14.46986,NaN,-1.334156,-1.469566,0.3431822,14.11473,NaN,NaN,0.4311483,0.8099674,0.8064727,1.046105,-0.0003813798,1.363599
713.4292,0.04495285,0.0004920351,NaN,-0.327738,0.00041782,NaN,-0.5210939,-14.47034,NaN,-1.334736,-1.466988,0.3453129,14.11208,NaN,NaN,0.4348813,0.8094382,0.8076397,1.042383,-0.0003739009,1.363708
713.4449,0.04495281,0.000491833,NaN,-0.3277307,0.0004172527,NaN,-0.5187454,-14.47039,NaN,-1.336657,-1.475245,0.3452069,14.12074,NaN,NaN,0.4402044,0.8096024,0.805858,1.054351,-0.0003665733,1.366256
713.4603,0.04495275,0.0004920203,NaN,-0.3277235,0.0004168219,NaN,-0.5172733,-14.47149,NaN,-1.338389,-1.475749,0.3457223,14.12139,NaN,NaN,0.444515,0.8085172,0.8050511,1.055107,-0.0003593846,1.372847
713.475,0.04495275,0.0004920203,NaN,-0.3277235,0.0004168219,NaN,-0.5172733,-14.47149,NaN,-1.338389,-1.475749,0.3457223,14.12139,NaN,NaN,0.444515,0.8085172,0.8050511,1.055107,-0.0003593846,1.372847
713.4895,0.04495279,0.0004923457,NaN,-0.3277164,0.0004160038,NaN,-0.5161429,-14.47022,NaN,-1.33804,-1.479087,0.3476071,14.12474,NaN,NaN,0.4489266,0.8098286,0.8080858,1.059912,-0.0003523362,1.366702
713.5049,0.04495274,0.00049273,NaN,-0.3277094,0.0004159558,NaN,-0.514371,-14.46959,NaN,-1.341272,-1.473416,0.3478684,14.11871,NaN,NaN,0.4550437,0.8103731,0.8078555,1.051675,-0.0003454346,1.361951
713.5198,0.04495274,0.00049273,NaN,-0.3277094,0.0004159558,NaN,-0.514371,-14.46959,NaN,-1.341272,-1.473416,0.3478684,14.11871,NaN,NaN,0.4550437,0.8103731,0.8078555,1.051675,-0.0003454346,1.361951
713.5342,0.04495279,0.0004928023,NaN,-0.3277024,0.0004163148,NaN,-0.5133566,-14.46984,NaN,-1.340957,-1.467255,0.349712,14.11226,NaN,NaN,0.459592,0.8100076,0.8099026,1.042743,-0.0003386578,1.361791
713.5499,0.04495282,0.0004935035,NaN,-0.3276955,0.0004162475,NaN,-0.5118425,-14.47064,NaN,-1.343044,-1.477285,0.3508829,14.12289,NaN,NaN,0.466203,0.8094632,0.8109303,1.057312,-0.0003320131,1.368995
713.5649,0.04495278,0.0004936421,NaN,-0.3276888,0.0004166722,NaN,-0.5099459,-14.46975,NaN,-1.345765,-1.466831,0.351094,14.11181,NaN,NaN,0.4719567,0.810194,0.8085785,1.04214,-0.0003255016,1.359689
713.5799,0.04495278,0.0004936421,NaN,-0.3276888,0.0004166722,NaN,-0.5099459,-14.46975,NaN,-1.345765,-1.466831,0.351094,14.11181,NaN,NaN,0.4719567,0.810194,0.8085785,1.04214,-0.0003255016,1.359689
713.5941,0.04495273,0.0004938221,NaN,-0.3276821,0.000417362,NaN,-0.5090371,-14.47024,NaN,-1.347279,-1.465292,0.352422,14.11025,NaN,NaN,0.4758216,0.8096726,0.8069416,1.039923,-0.0003191252,1.365463
713.6098,0.04495277,0.0004931582,NaN,-0.3276754,0.0004172322,NaN,-0.5071949,-14.46974,NaN,-1.347409,-1.464725,0.3544301,14.10958,NaN,NaN,0.4807267,0.8101582,0.8084556,1.039078,-0.0003128579,1.360977
713.6248,0.04495273,0.000493042,NaN,-0.3276688,0.0004165586,NaN,-0.5057098,-14.47029,NaN,-1.350125,-1.477024,0.3556708,14.12257,NaN,NaN,0.4862513,0.8099423,0.8086452,1.056932,-0.0003067113,1.369678
713.6398,0.04495273,0.000493042,NaN,-0.3276688,0.0004165586,NaN,-0.5057098,-14.47029,NaN,-1.350125,-1.477024,0.3556708,14.12257,NaN,NaN,0.4862513,0.8099423,0.8086452,1.056932,-0.0003067113,1.369678
713.6555,0.04495269,0.0004931558,NaN,-0.3276624,0.0004168378,NaN,-0.5045641,-14.46963,NaN,-1.351608,-1.469344,0.3571383,14.11442,NaN,NaN,0.4901654,0.8104731,0.8079942,1.045777,-0.0003006856,1.360593
713.6697,0.04495267,0.000493184,NaN,-0.327656,0.000417309,NaN,-0.5042996,-14.46979,NaN,-1.352261,-1.466133,0.3598287,14.11105,NaN,NaN,0.4934677,0.8102418,0.8089127,1.041121,-0.000294779,1.361658
713.6852,0.04495262,0.0004933148,NaN,-0.3276497,0.0004169201,NaN,-0.50191,-14.47094,NaN,-1.354187,-1.476406,0.3606375,14.12199,NaN,NaN,0.4979466,0.8093607,0.8070887,1.05606,-0.0002890049,1.373104
713.6998,0.04495262,0.0004933148,NaN,-0.3276497,0.0004169201,NaN,-0.50191,-14.47094,NaN,-1.354187,-1.476406,0.3606375,14.12199,NaN,NaN,0.4979466,0.8093607,0.8070887,1.05606,-0.0002890049,1.373104
713.7141,0.04495258,0.0004933882,NaN,-0.3276435,0.0004170601,NaN,-0.500591,-14.46973,NaN,-1.355477,-1.469829,0.3625396,14.11495,NaN,NaN,0.5015591,0.8104555,0.8071722,1.046497,-0.0002833295,1.361321
713.7296,0.04495254,0.0004931897,NaN,-0.3276373,0.0004171749,NaN,-0.4993916,-14.4703,NaN,-1.356719,-1.46751,0.3646065,14.11257,NaN,NaN,0.5050679,0.8098324,0.8077148,1.043148,-0.0002777662,1.364881
713.7457,0.0449525,0.0004934929,NaN,-0.3276312,0.0004167548,NaN,-0.4983439,-14.47012,NaN,-1.357899,-1.477522,0.3667749,14.12305,NaN,NaN,0.5084103,0.8102595,0.8082519,1.057654,-0.0002723295,1.368764
713.7596,0.0449525,0.0004934929,NaN,-0.3276312,0.0004167548,NaN,-0.4983439,-14.47012,NaN,-1.357899,-1.477522,0.3667749,14.12305,NaN,NaN,0.5084103,0.8102595,0.8082519,1.057654,-0.0002723295,1.368764
713.7737,0.04495247,0.0004932821,NaN,-0.3276252,0.0004168193,NaN,-0.497474,-14.46993,NaN,-1.359017,-1.465763,0.3690786,14.11067,NaN,NaN,0.5115556,0.810268,0.8086197,1.04059,-0.0002669784,1.363675
713.7898,0.04495243,0.0004926738,NaN,-0.3276193,0.0004165596,NaN,-0.4968053,-14.47022,NaN,-1.360072,-1.466833,0.3715561,14.11182,NaN,NaN,0.5144837,0.8099992,0.8088418,1.04215,-0.0002617656,1.36481
713.8043,0.04495238,0.0004920298,NaN,-0.3276134,0.0004165172,NaN,-0.4965976,-14.46978,NaN,-1.361003,-1.465879,0.3743889,14.11075,NaN,NaN,0.5169222,0.8104116,0.8090346,1.040747,-0.0002566367,1.361437
713.8194,0.04495238,0.0004920298,NaN,-0.3276134,0.0004165172,NaN,-0.4965976,-14.46978,NaN,-1.361003,-1.465879,0.3743889,14.11075,NaN,NaN,0.5169222,0.8104116,0.8090346,1.040747,-0.0002566367,1.361437
713.8339,0.04495242,0.0004913803,NaN,-0.3276075,0.0004166861,NaN,-0.4943234,-14.47011,NaN,-1.361449,-1.46467,0.3767439,14.10952,NaN,NaN,0.5216913,0.810043,0.8103016,1.039003,-0.0002516147,1.362602
713.8497,0.04495238,0.0004905687,NaN,-0.3276018,0.0004167442,NaN,-0.4929784,-14.47009,NaN,-1.363884,-1.464385,0.3785666,14.10921,NaN,NaN,0.5261134,0.8100436,0.8099931,1.038587,-0.0002466845,1.362182
713.8646,0.04495233,0.0004898809,NaN,-0.3275962,0.0004170456,NaN,-0.491472,-14.47035,NaN,-1.365306,-1.464097,0.3803385,14.10893,NaN,NaN,0.5294093,0.8097661,0.8087318,1.038177,-0.0002418288,1.363986
713.8793,0.04495233,0.0004898809,NaN,-0.3275962,0.0004170456,NaN,-0.491472,-14.47035,NaN,-1.365306,-1.464097,0.3803385,14.10893,NaN,NaN,0.5294093,0.8097661,0.8087318,1.038177,-0.0002418288,1.363986
713.8941,0.04495228,0.0004901698,NaN,-0.3275906,0.0004169557,NaN,-0.4898686,-14.47146,NaN,-1.366642,-1.475331,0.3823136,14.12087,NaN,NaN,0.5324705,0.8089799,0.8078191,1.054504,-0.0002370972,1.374547
713.9094,0.04495222,0.0004897964,NaN,-0.327585,0.000416771,NaN,-0.4880564,-14.47028,NaN,-1.368016,-1.467045,0.3842524,14.11204,NaN,NaN,0.5353999,0.8100172,0.8072221,1.042472,-0.0002324575,1.366288
713.9243,0.04495216,0.0004897459,NaN,-0.3275795,0.0004172074,NaN,-0.486109,-14.4708,NaN,-1.369382,-1.466007,0.3861097,14.11102,NaN,NaN,0.5381405,0.8094722,0.8068633,1.040986,-0.0002278983,1.368442
713.9402,0.04495209,0.0004898141,NaN,-0.3275741,0.000417558,NaN,-0.4841222,-14.47143,NaN,-1.370697,-1.467356,0.3879514,14.11251,NaN,NaN,0.5406604,0.808887,0.8066868,1.042962,-0.0002234223,1.371795
713.9542,0.04495209,0.0004898141,NaN,-0.3275741,0.000417558,NaN,-0.4841222,-14.47143,NaN,-1.370697,-1.467356,0.3879514,14.11251,NaN,NaN,0.5406604,0.808887,0.8066868,1.042962,-0.0002234223,1.371795
713.9683,0.04495202,0.000490019,NaN,-0.3275687,0.0004179149,NaN,-0.4821505,-14.47167,NaN,-1.371962,-1.468788,0.3898029,14.11403,NaN,NaN,0.542985,0.8086839,0.8066393,1.045044,-0.0002190324,1.374092
713.9841,0.04495195,0.0004901153,NaN,-0.3275634,0.0004184521,NaN,-0.4802344,-14.47121,NaN,-1.373168,-1.465565,0.3917092,14.11059,NaN,NaN,0.545128,0.8090664,0.8066769,1.04036,-0.0002147144,1.370641
713.999,0.04495195,0.0004901153,NaN,-0.3275634,0.0004184521,NaN,-0.4802344,-14.47121,NaN,-1.373168,-1.465565,0.3917092,14.11059,NaN,NaN,0.545128,0.8090664,0.8066769,1.04036,-0.0002147144,1.370641
714.0134,0.04495187,0.000490465,NaN,-0.3275582,0.000418172,NaN,-0.478391,-14.47136,NaN,-1.374326,-1.477087,0.3936701,14.12268,NaN,NaN,0.5471227,0.8092182,0.8067698,1.057055,-0.0002105055,1.375158
714.029,0.0449518,0.0004910436,NaN,-0.327553,0.0004177391,NaN,-0.4766405,-14.47138,NaN,-1.375427,-1.479008,0.3957164,14.12469,NaN,NaN,0.5489768,0.8092171,0.8069034,1.059836,-0.0002063773,1.376005
714.0443,0.04495173,0.0004911993,NaN,-0.3275479,0.0004172574,NaN,-0.4749671,-14.47095,NaN,-1.376489,-1.47426,0.3978354,14.11966,NaN,NaN,0.5507201,0.8095732,0.8070373,1.052943,-0.0002023261,1.370581
714.0591,0.04495173,0.0004911993,NaN,-0.3275479,0.0004172574,NaN,-0.4749671,-14.47095,NaN,-1.376489,-1.47426,0.3978354,14.11966,NaN,NaN,0.5507201,0.8095732,0.8070373,1.052943,-0.0002023261,1.370581
714.0735,0.04495165,0.0004910744,NaN,-0.3275429,0.0004173133,NaN,-0.4733883,-14.47079,NaN,-1.377506,-1.466674,0.4000239,14.11166,NaN,NaN,0.5523592,0.8095903,0.8071983,1.041938,-0.0001983493,1.367752
714.0892,0.04495158,0.0004904466,NaN,-0.3275379,0.0004171154,NaN,-0.4718843,-14.47072,NaN,-1.378487,-1.465198,0.4022744,14.1101,NaN,NaN,0.5539089,0.8096181,0.8073497,1.039792,-0.0001944428,1.366372
714.1041,0.0449515,0.0004897263,NaN,-0.327533,0.0004165517,NaN,-0.4704571,-14.47159,NaN,-1.379433,-1.470205,0.4045951,14.11546,NaN,NaN,0.5553731,0.8088801,0.8074989,1.047078,-0.0001906223,1.372299
714.1201,0.04495143,0.0004896283,NaN,-0.3275281,0.0004159082,NaN,-0.4690855,-14.47201,NaN,-1.380353,-1.47616,0.4069662,14.12174,NaN,NaN,0.5567638,0.8085859,0.8076256,1.055712,-0.0001868595,1.377833
714.1348,0.04495143,0.0004896283,NaN,-0.3275281,0.0004159082,NaN,-0.4690855,-14.47201,NaN,-1.380353,-1.47616,0.4069662,14.12174,NaN,NaN,0.5567638,0.8085859,0.8076256,1.055712,-0.0001868595,1.377833
714.149,0.04495135,0.0004892378,NaN,-0.3275234,0.0004156044,NaN,-0.4677791,-14.47062,NaN,-1.381243,-1.468264,0.4093792,14.11331,NaN,NaN,0.558084,0.8098424,0.8077645,1.044244,-0.0001831892,1.368966
714.1638,0.04495132,0.0004887831,NaN,-0.3275186,0.000415757,NaN,-0.4650251,-14.47115,NaN,-1.382178,-1.46494,0.4112343,14.10987,NaN,NaN,0.5610321,0.8092374,0.8081089,1.03944,-0.0001795886,1.369018
714.1785,0.04495132,0.0004887831,NaN,-0.3275186,0.000415757,NaN,-0.4650251,-14.47115,NaN,-1.382178,-1.46494,0.4112343,14.10987,NaN,NaN,0.5610321,0.8092374,0.8081089,1.03944,-0.0001795886,1.369018
714.193,0.04495126,0.0004881679,NaN,-0.3275139,0.0004158616,NaN,-0.4624885,-14.47133,NaN,-1.383872,-1.464594,0.4127325,14.10953,NaN,NaN,0.5640711,0.8090416,0.808246,1.038941,-0.000176057,1.368812
714.2086,0.04495119,0.000487578,NaN,-0.3275092,0.0004161161,NaN,-0.46099,-14.47149,NaN,-1.385048,-1.464348,0.4147929,14.10928,NaN,NaN,0.5657323,0.8088816,0.8083071,1.038587,-0.0001726089,1.370633
714.2234,0.04495112,0.0004866258,NaN,-0.3275046,0.0004159763,NaN,-0.4602199,-14.47083,NaN,-1.385744,-1.464471,0.4176314,14.10931,NaN,NaN,0.5666927,0.809531,0.8088103,1.038736,-0.0001692181,1.365894
714.2386,0.04495112,0.0004866258,NaN,-0.3275046,0.0004159763,NaN,-0.4602199,-14.47083,NaN,-1.385744,-1.464471,0.4176314,14.10931,NaN,NaN,0.5666927,0.809531,0.8088103,1.038736,-0.0001692181,1.365894
714.253,0.04495105,0.0004854575,NaN,-0.3275001,0.0004156604,NaN,-0.4591825,-14.47078,NaN,-1.386547,-1.464383,0.4202769,14.10921,NaN,NaN,0.5677854,0.8095787,0.808797,1.038604,-0.0001658865,1.365975
714.2687,0.04495098,0.0004841815,NaN,-0.3274956,0.0004144292,NaN,-0.4582399,-14.47105,NaN,-1.387292,-1.474939,0.4230419,14.12031,NaN,NaN,0.5687642,0.8096037,0.8088247,1.05391,-0.0001626278,1.371353
714.2836,0.04495091,0.0004834253,NaN,-0.3274912,0.0004144589,NaN,-0.4572114,-14.4708,NaN,-1.388067,-1.466516,0.4257403,14.11144,NaN,NaN,0.5697405,0.8096967,0.8087513,1.041693,-0.0001594392,1.366115
714.2987,0.04495091,0.0004834253,NaN,-0.3274912,0.0004144589,NaN,-0.4572114,-14.4708,NaN,-1.388067,-1.466516,0.4257403,14.11144,NaN,NaN,0.5697405,0.8096967,0.8087513,1.041693,-0.0001594392,1.366115
714.313,0.04495083,0.0004836263,NaN,-0.3274868,0.0004141118,NaN,-0.4562052,-14.47085,NaN,-1.388817,-1.476798,0.4284559,14.12223,NaN,NaN,0.5706174,0.8099052,0.8087178,1.056595,-0.0001563206,1.371245
714.3286,0.04495076,0.0004832539,NaN,-0.3274825,0.0004133753,NaN,-0.4552056,-14.47167,NaN,-1.389548,-1.472465,0.4311661,14.11776,NaN,NaN,0.5713999,0.8090037,0.8087015,1.050329,-0.0001532505,1.373716
714.3436,0.04495068,0.0004835115,NaN,-0.3274783,0.0004130444,NaN,-0.4542358,-14.4708,NaN,-1.390247,-1.474617,0.4338871,14.11991,NaN,NaN,0.5720792,0.8099087,0.8087257,1.05342,-0.0001502427,1.364433
714.3585,0.04495068,0.0004835115,NaN,-0.3274783,0.0004130444,NaN,-0.4542358,-14.4708,NaN,-1.390247,-1.474617,0.4338871,14.11991,NaN,NaN,0.5720792,0.8099087,0.8087257,1.05342,-0.0001502427,1.364433
714.3726,0.04495061,0.0004835955,NaN,-0.3274741,0.000413205,NaN,-0.4532833,-14.47145,NaN,-1.390924,-1.467803,0.4366041,14.11282,NaN,NaN,0.5726793,0.8091283,0.8087743,1.043555,-0.000147302,1.370602
714.3884,0.04495053,0.0004836543,NaN,-0.3274699,0.0004135049,NaN,-0.4523501,-14.47158,NaN,-1.391579,-1.467327,0.4393165,14.11233,NaN,NaN,0.573214,0.8089874,0.8088467,1.042867,-0.0001444329,1.370975
714.4033,0.04495046,0.000483631,NaN,-0.3274658,0.0004139324,NaN,-0.4514183,-14.47108,NaN,-1.392215,-1.465509,0.4420077,14.11035,NaN,NaN,0.5737007,0.809431,0.808916,1.040214,-0.0001415845,1.36755
714.4183,0.04495046,0.000483631,NaN,-0.3274658,0.0004139324,NaN,-0.4514183,-14.47108,NaN,-1.392215,-1.465509,0.4420077,14.11035,NaN,NaN,0.5737007,0.809431,0.808916,1.040214,-0.0001415845,1.36755
714.4329,0.04495038,0.0004838022,NaN,-0.3274617,0.0004142444,NaN,-0.4504867,-14.47181,NaN,-1.392832,-1.469067,0.4446793,14.11418,NaN,NaN,0.574147,0.8087949,0.8089823,1.045396,-0.000138808,1.37314
714.4485,0.04495031,0.0004838037,NaN,-0.3274577,0.0004139508,NaN,-0.4495644,-14.47227,NaN,-1.393435,-1.473437,0.4473377,14.11881,NaN,NaN,0.574555,0.8084301,0.8090543,1.051741,-0.0001360966,1.376958
714.4635,0.04495024,0.0004834041,NaN,-0.3274537,0.0004138114,NaN,-0.4486577,-14.47129,NaN,-1.394022,-1.466683,0.449987,14.11162,NaN,NaN,0.5749219,0.8092791,0.8091342,1.041936,-0.0001334397,1.369925
714.4783,0.04495024,0.0004834041,NaN,-0.3274537,0.0004138114,NaN,-0.4486577,-14.47129,NaN,-1.394022,-1.466683,0.449987,14.11162,NaN,NaN,0.5749219,0.8092791,0.8091342,1.041936,-0.0001334397,1.369925
714.4928,0.04495016,0.0004830229,NaN,-0.3274498,0.0004138628,NaN,-0.4477693,-14.47141,NaN,-1.394594,-1.466889,0.4526278,14.11185,NaN,NaN,0.5752472,0.8091584,0.8092186,1.04224,-0.0001308295,1.370092
714.5084,0.04495013,0.0004825623,NaN,-0.3274459,0.0004140426,NaN,-0.4454728,-14.47172,NaN,-1.395254,-1.465507,0.4547711,14.11043,NaN,NaN,0.5773489,0.8088051,0.8096864,1.040248,-0.0001282587,1.370836
714.5234,0.04495008,0.0004824683,NaN,-0.327442,0.0004145168,NaN,-0.4439617,-14.47179,NaN,-1.39638,-1.465913,0.4568326,14.11086,NaN,NaN,0.5791172,0.808741,0.8100153,1.040838,-0.0001257495,1.372827
714.5384,0.04495008,0.0004824683,NaN,-0.327442,0.0004145168,NaN,-0.4439617,-14.47179,NaN,-1.39638,-1.465913,0.4568326,14.11086,NaN,NaN,0.5791172,0.808741,0.8100153,1.040838,-0.0001257495,1.372827
714.5526,0.04495,0.0004825144,NaN,-0.3274382,0.0004142057,NaN,-0.4429488,-14.47288,NaN,-1.397149,-1.475431,0.4589536,14.12097,NaN,NaN,0.5799167,0.8078934,0.8094434,1.054662,-0.000123285,1.380215
714.5681,0.04494993,0.0004825027,NaN,-0.3274345,0.0004139595,NaN,-0.4419207,-14.47273,NaN,-1.397807,-1.472116,0.461392,14.11749,NaN,NaN,0.5806907,0.8079784,0.8091037,1.049862,-0.0001208812,1.376783
714.5833,0.04494985,0.0004828272,NaN,-0.3274308,0.0004137117,NaN,-0.4408305,-14.47317,NaN,-1.398531,-1.475548,0.4637683,14.12112,NaN,NaN,0.5813912,0.8075961,0.8087477,1.05484,-0.0001185168,1.382077
714.5994,0.04494985,0.0004828272,NaN,-0.3274308,0.0004137117,NaN,-0.4408305,-14.47317,NaN,-1.398531,-1.475548,0.4637683,14.12112,NaN,NaN,0.5813912,0.8075961,0.8087477,1.05484,-0.0001185168,1.382077
714.6126,0.04494977,0.0004829612,NaN,-0.3274271,0.0004141553,NaN,-0.4398113,-14.47222,NaN,-1.399183,-1.466668,0.4661929,14.11173,NaN,NaN,0.5818766,0.808392,0.8085246,1.04197,-0.0001162016,1.373921
714.6283,0.04494968,0.0004830706,NaN,-0.3274235,0.0004145009,NaN,-0.4388309,-14.47257,NaN,-1.399788,-1.467648,0.4686212,14.11279,NaN,NaN,0.5822008,0.808063,0.808377,1.043398,-0.0001139064,1.376093
714.6434,0.04494959,0.0004830879,NaN,-0.3274199,0.0004149647,NaN,-0.4378916,-14.47198,NaN,-1.400347,-1.465243,0.4710403,14.11019,NaN,NaN,0.5823933,0.8085794,0.808293,1.039895,-0.0001116717,1.372479
714.6583,0.04494959,0.0004830879,NaN,-0.3274199,0.0004149647,NaN,-0.4378916,-14.47198,NaN,-1.400347,-1.465243,0.4710403,14.11019,NaN,NaN,0.5823933,0.8085794,0.808293,1.039895,-0.0001116717,1.372479
714.6725,0.04494951,0.0004828525,NaN,-0.3274163,0.0004153104,NaN,-0.4369868,-14.47217,NaN,-1.400867,-1.464659,0.4734488,14.10959,NaN,NaN,0.5824851,0.8083772,0.80825,1.039053,-0.0001094876,1.37297
714.6882,0.04494942,0.0004831501,NaN,-0.3274128,0.0004156506,NaN,-0.4361096,-14.47331,NaN,-1.401359,-1.469865,0.4758424,14.11519,NaN,NaN,0.5825056,0.8073758,0.8082344,1.046631,-0.0001073336,1.382016
714.7031,0.04494933,0.0004832559,NaN,-0.3274094,0.0004161935,NaN,-0.4352552,-14.47237,NaN,-1.401829,-1.46516,0.4782157,14.11015,NaN,NaN,0.5824738,0.8082092,0.8082361,1.039795,-0.0001052066,1.374421
714.7179,0.04494933,0.0004832559,NaN,-0.3274094,0.0004161935,NaN,-0.4352552,-14.47237,NaN,-1.401829,-1.46516,0.4782157,14.11015,NaN,NaN,0.5824738,0.8082092,0.8082361,1.039795,-0.0001052066,1.374421
714.7334,0.04494924,0.0004836954,NaN,-0.327406,0.0004161298,NaN,-0.4344214,-14.47345,NaN,-1.402279,-1.475395,0.4805673,14.121,NaN,NaN,0.5824019,0.8074018,0.8082515,1.054648,-0.0001031342,1.383485
714.7479,0.04494915,0.0004838617,NaN,-0.3274026,0.0004165827,NaN,-0.4336067,-14.47229,NaN,-1.402712,-1.467476,0.4828954,14.11258,NaN,NaN,0.5822988,0.8084288,0.8082771,1.043166,-0.0001011209,1.37475
714.763,0.04494906,0.0004835199,NaN,-0.3273993,0.0004167752,NaN,-0.4328074,-14.47231,NaN,-1.403131,-1.465202,0.4851967,14.1102,NaN,NaN,0.5821736,0.8083644,0.8083082,1.039877,-9.911907E-05,1.373536
714.778,0.04494906,0.0004835199,NaN,-0.3273993,0.0004167752,NaN,-0.4328074,-14.47231,NaN,-1.403131,-1.465202,0.4851967,14.1102,NaN,NaN,0.5821736,0.8083644,0.8083082,1.039877,-9.911907E-05,1.373536
714.7923,0.04494897,0.0004828755,NaN,-0.327396,0.0004167282,NaN,-0.4320248,-14.47217,NaN,-1.403537,-1.465321,0.4874725,14.11031,NaN,NaN,0.5820297,0.8085191,0.8083467,1.040044,-9.71539E-05,1.372559
714.8079,0.04494888,0.0004822979,NaN,-0.3273928,0.0004166931,NaN,-0.4312572,-14.47215,NaN,-1.403931,-1.467102,0.4897214,14.11216,NaN,NaN,0.5818708,0.8085904,0.8083901,1.042621,-9.527159E-05,1.373748
714.8229,0.04494879,0.000481988,NaN,-0.3273895,0.0004171461,NaN,-0.4305066,-14.47251,NaN,-1.404313,-1.464891,0.4919394,14.10989,NaN,NaN,0.5816976,0.8081719,0.8084397,1.039433,-9.339419E-05,1.375315
714.8381,0.04494879,0.000481988,NaN,-0.3273895,0.0004171461,NaN,-0.4305066,-14.47251,NaN,-1.404313,-1.464891,0.4919394,14.10989,NaN,NaN,0.5816976,0.8081719,0.8084397,1.039433,-9.339419E-05,1.375315
714.8522,0.0449487,0.0004822822,NaN,-0.3273863,0.0004169382,NaN,-0.4298388,-14.47321,NaN,-1.404615,-1.476478,0.4941157,14.1221,NaN,NaN,0.581324,0.8077846,0.8085029,1.056227,-9.155688E-05,1.3825
714.8679,0.04494862,0.0004826913,NaN,-0.3273832,0.0004176219,NaN,-0.4292205,-14.47222,NaN,-1.404894,-1.468623,0.4963379,14.11377,NaN,NaN,0.5809323,0.8086466,0.8087111,1.04484,-8.974013E-05,1.373918
714.8829,0.04494858,0.0004827174,NaN,-0.3273801,0.0004180225,NaN,-0.4274443,-14.4725,NaN,-1.405413,-1.465845,0.4981826,14.1109,NaN,NaN,0.5819129,0.8082994,0.8093535,1.040828,-8.797971E-05,1.374346
714.898,0.04494858,0.0004827174,NaN,-0.3273801,0.0004180225,NaN,-0.4274443,-14.4725,NaN,-1.405413,-1.465845,0.4981826,14.1109,NaN,NaN,0.5819129,0.8082994,0.8093535,1.040828,-8.797971E-05,1.374346
714.9123,0.04494854,0.000482269,NaN,-0.327377,0.0004180797,NaN,-0.4268837,-14.47213,NaN,-1.405511,-1.464906,0.4997222,14.10986,NaN,NaN,0.5806797,0.8086469,0.8095592,1.039455,-8.62555E-05,1.372148
714.9288,0.04494852,0.0004822173,NaN,-0.3273739,0.0004175029,NaN,-0.4270704,-14.47309,NaN,-1.40526,-1.476372,0.5021054,14.12199,NaN,NaN,0.5787713,0.8080038,0.8106785,1.056091,-8.457137E-05,1.382394
714.943,0.04494852,0.0004824742,NaN,-0.3273709,0.0004166335,NaN,-0.4269596,-14.47295,NaN,-1.405185,-1.479177,0.5041871,14.12491,NaN,NaN,0.5771612,0.8081792,0.8112916,1.060149,-8.289707E-05,1.381705
714.9579,0.04494852,0.0004824742,NaN,-0.3273709,0.0004166335,NaN,-0.4269596,-14.47295,NaN,-1.405185,-1.479177,0.5041871,14.12491,NaN,NaN,0.5771612,0.8081792,0.8112916,1.060149,-8.289707E-05,1.381705
714.9719,0.04494853,0.0004826672,NaN,-0.3273679,0.0004159735,NaN,-0.4268816,-14.472,NaN,-1.405114,-1.475403,0.5062019,14.12084,NaN,NaN,0.5755746,0.8090808,0.8116416,1.054664,-8.126018E-05,1.379481
714.9877,0.04494856,0.0004827367,NaN,-0.327365,0.0004158813,NaN,-0.4272102,-14.47163,NaN,-1.404608,-1.468924,0.5077961,14.114,NaN,NaN,0.5724739,0.8093368,0.8115123,1.045266,-7.964266E-05,1.371691
715.0028,0.04494859,0.0004824041,NaN,-0.3273621,0.0004157824,NaN,-0.4272797,-14.47176,NaN,-1.404219,-1.466176,0.5090193,14.11113,NaN,NaN,0.56888,0.8091457,0.8105937,1.041285,-7.807804E-05,1.370442
715.0178,0.04494859,0.0004824041,NaN,-0.3273621,0.0004157824,NaN,-0.4272797,-14.47176,NaN,-1.404219,-1.466176,0.5090193,14.11113,NaN,NaN,0.56888,0.8091457,0.8105937,1.041285,-7.807804E-05,1.370442
715.0323,0.04494867,0.0004816816,NaN,-0.3273591,0.0004155022,NaN,-0.4268747,-14.47166,NaN,-1.403605,-1.465809,0.5106037,14.11072,NaN,NaN,0.5665851,0.8092273,0.8114617,1.040747,-7.65529E-05,1.369388
715.0479,0.04494881,0.0004820572,NaN,-0.3273562,0.0004151254,NaN,-0.4273842,-14.47212,NaN,-1.402864,-1.476313,0.5131825,14.12179,NaN,NaN,0.5649709,0.8090417,0.8148074,1.055978,-7.505131E-05,1.376591
715.0643,0.04494897,0.0004824314,NaN,-0.3273534,0.0004157483,NaN,-0.4277996,-14.47294,NaN,-1.402457,-1.467578,0.5143858,14.11271,NaN,NaN,0.5629504,0.80808,0.8161902,1.043338,-7.356269E-05,1.379037
715.0778,0.04494897,0.0004824314,NaN,-0.3273534,0.0004157483,NaN,-0.4277996,-14.47294,NaN,-1.402457,-1.467578,0.5143858,14.11271,NaN,NaN,0.5629504,0.80808,0.8161902,1.043338,-7.356269E-05,1.379037
715.0924,0.04494914,0.0004827732,NaN,-0.3273505,0.0004165477,NaN,-0.4277035,-14.47246,NaN,-1.402184,-1.465234,0.5149166,14.11019,NaN,NaN,0.5610824,0.8084906,0.8160021,1.039925,-7.213009E-05,1.376415
715.1075,0.04494933,0.0004824729,NaN,-0.3273477,0.0004166107,NaN,-0.4274128,-14.47212,NaN,-1.401917,-1.465837,0.5154554,14.11077,NaN,NaN,0.5594471,0.8088301,0.8158213,1.040781,-7.072565E-05,1.373315
715.1237,0.04494952,0.0004818926,NaN,-0.3273449,0.0004164531,NaN,-0.4272114,-14.47237,NaN,-1.401677,-1.466695,0.5160837,14.11169,NaN,NaN,0.557864,0.8085973,0.8158614,1.042031,-6.935206E-05,1.374854
715.1376,0.04494952,0.0004818926,NaN,-0.3273449,0.0004164531,NaN,-0.4272114,-14.47237,NaN,-1.401677,-1.466695,0.5160837,14.11169,NaN,NaN,0.557864,0.8085973,0.8158614,1.042031,-6.935206E-05,1.374854
715.152,0.04494974,0.0004821704,NaN,-0.3273421,0.0004160235,NaN,-0.4274516,-14.47285,NaN,-1.400903,-1.476829,0.5165865,14.12236,NaN,NaN,0.5548256,0.8083605,0.8161612,1.056718,-6.800649E-05,1.381769
715.1674,0.04494998,0.0004828045,NaN,-0.3273393,0.0004166685,NaN,-0.4282126,-14.47218,NaN,-1.400256,-1.470758,0.5174133,14.11592,NaN,NaN,0.5513183,0.8089297,0.8170373,1.047911,-6.667358E-05,1.372618
715.1825,0.04495024,0.0004830256,NaN,-0.3273366,0.0004170673,NaN,-0.4286491,-14.4724,NaN,-1.399668,-1.468739,0.5178729,14.11382,NaN,NaN,0.5480268,0.8086606,0.8174442,1.044991,-6.536347E-05,1.375681
715.1974,0.04495024,0.0004830256,NaN,-0.3273366,0.0004170673,NaN,-0.4286491,-14.4724,NaN,-1.399668,-1.468739,0.5178729,14.11382,NaN,NaN,0.5480268,0.8086606,0.8174442,1.044991,-6.536347E-05,1.375681
715.212,0.04495047,0.0004832047,NaN,-0.3273339,0.0004177545,NaN,-0.4287897,-14.47262,NaN,-1.399483,-1.465257,0.5188164,14.11019,NaN,NaN,0.5465742,0.8083465,0.8183149,1.039954,-6.407363E-05,1.376735
715.2277,0.04495071,0.0004834629,NaN,-0.3273312,0.0004185048,NaN,-0.4288233,-14.47284,NaN,-1.399348,-1.464972,0.5196419,14.10992,NaN,NaN,0.5459323,0.8081151,0.8191063,1.039548,-6.281135E-05,1.378612
715.2425,0.04495095,0.0004832546,NaN,-0.3273286,0.000418561,NaN,-0.4286588,-14.47322,NaN,-1.399293,-1.467843,0.5202248,14.11296,NaN,NaN,0.5458056,0.8078142,0.8195215,1.043715,-6.15823E-05,1.377944
715.2575,0.04495095,0.0004832546,NaN,-0.3273286,0.000418561,NaN,-0.4286588,-14.47322,NaN,-1.399293,-1.467843,0.5202248,14.11296,NaN,NaN,0.5458056,0.8078142,0.8195215,1.043715,-6.15823E-05,1.377944
715.2719,0.04495118,0.0004827378,NaN,-0.327326,0.0004185739,NaN,-0.4282224,-14.47249,NaN,-1.399368,-1.465205,0.5205149,14.11011,NaN,NaN,0.5459991,0.808469,0.8192862,1.039873,-6.034476E-05,1.373542
715.2876,0.04495141,0.0004826474,NaN,-0.3273234,0.0004189149,NaN,-0.4280929,-14.47314,NaN,-1.399466,-1.466986,0.5211076,14.11205,NaN,NaN,0.5460415,0.8078651,0.8193287,1.042474,-5.916652E-05,1.379912
715.3023,0.04495163,0.0004832486,NaN,-0.3273209,0.0004187903,NaN,-0.4277074,-14.47214,NaN,-1.399643,-1.476659,0.5214443,14.12203,NaN,NaN,0.5461938,0.8090976,0.8188683,1.056432,-5.800155E-05,1.378412
715.3186,0.04495163,0.0004832486,NaN,-0.3273209,0.0004187903,NaN,-0.4277074,-14.47214,NaN,-1.399643,-1.476659,0.5214443,14.12203,NaN,NaN,0.5461938,0.8090976,0.8188683,1.056432,-5.800155E-05,1.378412
715.3326,0.04495186,0.0004836053,NaN,-0.3273184,0.0004186907,NaN,-0.4277926,-14.47346,NaN,-1.399684,-1.473713,0.5222857,14.11908,NaN,NaN,0.5460629,0.807722,0.8192766,1.052192,-5.685029E-05,1.381112
715.3472,0.04495207,0.0004842531,NaN,-0.3273159,0.0004185118,NaN,-0.4272322,-14.47338,NaN,-1.399906,-1.478237,0.5223915,14.12379,NaN,NaN,0.5462218,0.8078753,0.8184133,1.058733,-5.57552E-05,1.385628
715.3621,0.04495218,0.0004845501,NaN,-0.3273135,0.0004190607,NaN,-0.4275392,-14.47208,NaN,-1.399876,-1.467483,0.5233991,14.1124,NaN,NaN,0.5458795,0.8090165,0.8191051,1.043142,-5.464894E-05,1.375566
715.3774,0.04495218,0.0004845501,NaN,-0.3273135,0.0004190607,NaN,-0.4275392,-14.47208,NaN,-1.399876,-1.467483,0.5233991,14.1124,NaN,NaN,0.5458795,0.8090165,0.8191051,1.043142,-5.464894E-05,1.375566
715.3914,0.04495226,0.0004843805,NaN,-0.3273111,0.0004193457,NaN,-0.4269864,-14.47228,NaN,-1.400043,-1.465314,0.5235642,14.11014,NaN,NaN,0.5460846,0.8087641,0.8186395,1.040002,-5.355534E-05,1.373794
715.4071,0.04495233,0.0004841249,NaN,-0.3273087,0.0004195766,NaN,-0.4272466,-14.47221,NaN,-1.400034,-1.4664,0.5244312,14.11125,NaN,NaN,0.5457192,0.8088526,0.8191565,1.041567,-5.249304E-05,1.375762
715.4221,0.04495239,0.0004837268,NaN,-0.3273063,0.0004198713,NaN,-0.426751,-14.47244,NaN,-1.400169,-1.464758,0.5246297,14.10956,NaN,NaN,0.5458852,0.8085675,0.8187857,1.039195,-5.14586E-05,1.375899
715.4371,0.04495239,0.0004837268,NaN,-0.3273063,0.0004198713,NaN,-0.426751,-14.47244,NaN,-1.400169,-1.464758,0.5246297,14.10956,NaN,NaN,0.5458852,0.8085675,0.8187857,1.039195,-5.14586E-05,1.375899
715.4514,0.04422452,0.0004833739,NaN,-0.3273061,0.0004201671,NaN,-0.4272751,-14.47281,NaN,-1.399137,-1.465107,0.5260383,14.10996,NaN,NaN,0.5452379,0.8082011,0.8204626,1.039713,-5.04556E-05,1.377357
715.4669,0.04304167,0.000483625,NaN,-0.3273064,0.0004197815,NaN,-0.4275645,-14.47274,NaN,-1.397995,-1.476936,0.5268856,14.12232,NaN,NaN,0.5448241,0.8085735,0.821342,1.056827,-4.948599E-05,1.382341
715.4821,0.04157753,0.0004837686,NaN,-0.3273066,0.0004203734,NaN,-0.4278165,-14.47243,NaN,-1.396292,-1.465869,0.5278665,14.11069,NaN,NaN,0.5445517,0.8087084,0.822586,1.040791,-4.850221E-05,1.377028
715.4968,0.04157753,0.0004837686,NaN,-0.3273066,0.0004203734,NaN,-0.4278165,-14.47243,NaN,-1.396292,-1.465869,0.5278665,14.11069,NaN,NaN,0.5445517,0.8087084,0.822586,1.040791,-4.850221E-05,1.377028
715.5112,0.03921426,0.0004838884,NaN,-0.3273089,0.0004203744,NaN,-0.4282568,-14.47348,NaN,-1.393579,-1.471708,0.5293328,14.11694,NaN,NaN,0.5443839,0.8078056,0.8249231,1.049284,-4.75308E-05,1.382096
715.5279,0.0362951,0.0004842978,NaN,-0.3273116,0.0004199167,NaN,-0.433834,-14.47284,NaN,-1.389372,-1.478192,0.533447,14.12363,NaN,NaN,0.539875,0.8085653,0.8282931,1.058643,-4.659978E-05,1.383326
715.543,0.03303851,0.0004849111,NaN,-0.3273138,0.0004204318,NaN,-0.434702,-14.47209,NaN,-1.385363,-1.471834,0.5346768,14.11688,NaN,NaN,0.5388293,0.8092051,0.8273184,1.049418,-4.566995E-05,1.377845
715.5566,0.03303851,0.0004849111,NaN,-0.3273138,0.0004204318,NaN,-0.434702,-14.47209,NaN,-1.385363,-1.471834,0.5346768,14.11688,NaN,NaN,0.5388293,0.8092051,0.8273184,1.049418,-4.566995E-05,1.377845
715.5708,0.02958314,0.0004851921,NaN,-0.3273152,0.0004209928,NaN,-0.4397434,-14.47226,NaN,-1.380867,-1.467359,0.5377278,14.1122,NaN,NaN,0.5336794,0.8089327,0.8265768,1.042936,-4.478243E-05,1.377342
715.5868,0.02528896,0.0004854681,NaN,-0.3273182,0.0004211713,NaN,-0.4389856,-14.47344,NaN,-1.376219,-1.471351,0.5377631,14.11653,NaN,NaN,0.5324181,0.8078504,0.8232081,1.048758,-4.388539E-05,1.383771
715.6017,0.020485,0.0004853189,NaN,-0.3273208,0.0004212962,NaN,-0.4398744,-14.472,NaN,-1.37109,-1.46655,0.5388892,14.11133,NaN,NaN,0.5296031,0.8091806,0.8227109,1.041767,-4.301412E-05,1.372551
715.6168,0.020485,0.0004853189,NaN,-0.3273208,0.0004212962,NaN,-0.4398744,-14.472,NaN,-1.37109,-1.46655,0.5388892,14.11133,NaN,NaN,0.5296031,0.8091806,0.8227109,1.041767,-4.301412E-05,1.372551
715.631,0.01538039,0.0004848374,NaN,-0.3273224,0.0004212764,NaN,-0.4421351,-14.4718,NaN,-1.365606,-1.465528,0.5403419,14.11022,NaN,NaN,0.5246476,0.8093455,0.8223527,1.040277,-4.215104E-05,1.371386
715.6468,0.01010803,0.0004850268,NaN,-0.3273229,0.0004208153,NaN,-0.4471484,-14.47261,NaN,-1.358494,-1.476677,0.5434928,14.12201,NaN,NaN,0.5165873,0.8088375,0.8227444,1.05646,-4.130846E-05,1.380356
715.6619,0.004023938,0.0004851073,NaN,-0.3273246,0.0004212014,NaN,-0.4551046,-14.47229,NaN,-1.349031,-1.466373,0.5491489,14.11117,NaN,NaN,0.5060106,0.8089846,0.8254967,1.041525,-4.046922E-05,1.374478
715.6768,0.004023938,0.0004851073,NaN,-0.3273246,0.0004212014,NaN,-0.4551046,-14.47229,NaN,-1.349031,-1.466373,0.5491489,14.11117,NaN,NaN,0.5060106,0.8089846,0.8254967,1.041525,-4.046922E-05,1.374478
715.6913,-0.002545233,0.0004854083,NaN,-0.3273254,0.00042076,NaN,-0.455966,-14.47303,NaN,-1.340604,-1.477467,0.5501921,14.12288,NaN,NaN,0.5015099,0.8085368,0.8243947,1.057616,-3.96694E-05,1.383353
715.7067,-0.009392157,0.0004855736,NaN,-0.3273255,0.0004212601,NaN,-0.4605497,-14.47267,NaN,-1.332671,-1.466846,0.5529017,14.11171,NaN,NaN,0.4939846,0.8087276,0.8247174,1.042223,-3.888947E-05,1.376841
715.7228,-0.01638511,0.000485685,NaN,-0.327325,0.0004217593,NaN,-0.4677899,-14.47286,NaN,-1.323136,-1.466023,0.5571926,14.11086,NaN,NaN,0.4834746,0.8085107,0.8251119,1.041033,-3.812504E-05,1.37822
715.7366,-0.01638511,0.000485685,NaN,-0.327325,0.0004217593,NaN,-0.4677899,-14.47286,NaN,-1.323136,-1.466023,0.5571926,14.11086,NaN,NaN,0.4834746,0.8085107,0.8251119,1.041033,-3.812504E-05,1.37822
715.7509,-0.02416896,0.0004856632,NaN,-0.3273254,0.000421172,NaN,-0.4739365,-14.47365,NaN,-1.312812,-1.476891,0.5609252,14.12233,NaN,NaN,0.4731364,0.8080041,0.8236913,1.056792,-3.737861E-05,1.384383
715.7666,-0.03241768,0.00048614,NaN,-0.327325,0.0004217692,NaN,-0.4691925,-14.4736,NaN,-1.304289,-1.470074,0.5570546,14.11518,NaN,NaN,0.470156,0.807936,0.8165585,1.04692,-3.665046E-05,1.38529
715.7816,-0.04092428,0.0004867035,NaN,-0.3273239,0.0004226111,NaN,-0.4668135,-14.47262,NaN,-1.295696,-1.467584,0.5550189,14.11244,NaN,NaN,0.4660557,0.8088431,0.8158296,1.043281,-3.590734E-05,1.377426
715.7966,-0.04092428,0.0004867035,NaN,-0.3273239,0.0004226111,NaN,-0.4668135,-14.47262,NaN,-1.295696,-1.467584,0.5550189,14.11244,NaN,NaN,0.4660557,0.8088431,0.8158296,1.043281,-3.590734E-05,1.377426
715.8111,-0.05028581,0.0004867795,NaN,-0.3273234,0.0004228419,NaN,-0.4642272,-14.47258,NaN,-1.286601,-1.468432,0.5525927,14.11332,NaN,NaN,0.461591,0.8089051,0.816169,1.044505,-3.518337E-05,1.376608
715.8269,-0.06014592,0.0004871534,NaN,-0.327322,0.0004229399,NaN,-0.4619142,-14.47379,NaN,-1.276822,-1.473263,0.5497696,14.11853,NaN,NaN,0.4559497,0.8077968,0.8154081,1.051542,-3.450534E-05,1.385629
715.8418,-0.07027835,0.0004877331,NaN,-0.3273195,0.00042309,NaN,-0.4589729,-14.47389,NaN,-1.266526,-1.474477,0.5461822,14.1198,NaN,NaN,0.4496724,0.8077086,0.8128973,1.053299,-3.381785E-05,1.386996
715.8568,-0.07027835,0.0004877331,NaN,-0.3273195,0.00042309,NaN,-0.4589729,-14.47389,NaN,-1.266526,-1.474477,0.5461822,14.1198,NaN,NaN,0.4496724,0.8077086,0.8128973,1.053299,-3.381785E-05,1.386996
715.871,-0.08053963,0.0004877654,NaN,-0.3273154,0.0004231033,NaN,-0.4551072,-14.47292,NaN,-1.25599,-1.468974,0.5419005,14.11393,NaN,NaN,0.4431791,0.8085732,0.8097528,1.045312,-3.314835E-05,1.380668
715.8868,-0.0915674,0.0004875445,NaN,-0.3273124,0.0004232769,NaN,-0.4459554,-14.47314,NaN,-1.24671,-1.465925,0.5329439,14.11076,NaN,NaN,0.4390725,0.8082767,0.801282,1.040905,-3.250607E-05,1.379315
715.9016,-0.1030311,0.0004878161,NaN,-0.3273081,0.0004230161,NaN,-0.4344537,-14.4742,NaN,-1.236115,-1.475503,0.522468,14.12091,NaN,NaN,0.4345029,0.8074678,0.793982,1.054805,-3.187016E-05,1.388803
715.9177,-0.1030311,0.0004878161,NaN,-0.3273081,0.0004230161,NaN,-0.4344537,-14.4742,NaN,-1.236115,-1.475503,0.522468,14.12091,NaN,NaN,0.4345029,0.8074678,0.793982,1.054805,-3.187016E-05,1.388803
715.931,-0.1147209,0.0004879408,NaN,-0.3273016,0.0004234713,NaN,-0.4220779,-14.47319,NaN,-1.225049,-1.466785,0.5110739,14.11168,NaN,NaN,0.4297232,0.8083314,0.7867286,1.04217,-3.12417E-05,1.380744
715.9467,-0.1265039,0.0004877811,NaN,-0.3272933,0.0004237655,NaN,-0.4094285,-14.47335,NaN,-1.213704,-1.465675,0.4992113,14.11054,NaN,NaN,0.4247012,0.8081474,0.779119,1.040568,-3.063288E-05,1.380682
715.9617,-0.1390246,0.0004883099,NaN,-0.3272858,0.0004235809,NaN,-0.3961086,-14.47317,NaN,-1.201411,-1.477113,0.4867473,14.12247,NaN,NaN,0.4193264,0.8086247,0.7705325,1.057111,-3.002402E-05,1.383672
715.9767,-0.1390246,0.0004883099,NaN,-0.3272858,0.0004235809,NaN,-0.3961086,-14.47317,NaN,-1.201411,-1.477113,0.4867473,14.12247,NaN,NaN,0.4193264,0.8086247,0.7705325,1.057111,-3.002402E-05,1.383672
715.9911,-0.1519567,0.0004884533,NaN,-0.3272768,0.0004238667,NaN,-0.3821613,-14.47333,NaN,-1.188419,-1.467688,0.4736219,14.11261,NaN,NaN,0.4135544,0.8083267,0.7608305,1.043464,-2.943833E-05,1.379329
716.0082,-0.1650933,0.0004887424,NaN,-0.3272656,0.0004240605,NaN,-0.3677735,-14.47415,NaN,-1.174917,-1.471277,0.4600267,14.11646,NaN,NaN,0.4073743,0.8075978,0.7501713,1.048682,-2.886307E-05,1.387765
716.0219,-0.1783036,0.0004892983,NaN,-0.3272524,0.0004237031,NaN,-0.3530533,-14.47317,NaN,-1.161031,-1.478812,0.4460973,14.12421,NaN,NaN,0.4008233,0.8087372,0.7387133,1.059549,-2.829534E-05,1.384018
716.0366,-0.1783036,0.0004892983,NaN,-0.3272524,0.0004237031,NaN,-0.3530533,-14.47317,NaN,-1.161031,-1.478812,0.4460973,14.12421,NaN,NaN,0.4008233,0.8087372,0.7387133,1.059549,-2.829534E-05,1.384018
716.051,-0.1922331,0.0004896059,NaN,-0.3272402,0.0004236294,NaN,-0.3376848,-14.47286,NaN,-1.146096,-1.47333,0.4317015,14.11842,NaN,NaN,0.3937131,0.8089625,0.7262006,1.0516,-2.773863E-05,1.381343
716.0667,-0.2065566,0.0004900445,NaN,-0.3272262,0.0004240662,NaN,-0.3214594,-14.47387,NaN,-1.130524,-1.470305,0.4165719,14.11536,NaN,NaN,0.3862295,0.8079023,0.7124547,1.04724,-2.720919E-05,1.386376
716.0818,-0.2210679,0.0004902841,NaN,-0.32721,0.0004237877,NaN,-0.3052048,-14.4733,NaN,-1.114138,-1.475328,0.401411,14.12053,NaN,NaN,0.3779429,0.8085749,0.6982431,1.054486,-2.66793E-05,1.38036
716.0966,-0.2210679,0.0004902841,NaN,-0.32721,0.0004237877,NaN,-0.3052048,-14.4733,NaN,-1.114138,-1.475328,0.401411,14.12053,NaN,NaN,0.3779429,0.8085749,0.6982431,1.054486,-2.66793E-05,1.38036
716.112,-0.2363647,0.000490103,NaN,-0.3271941,0.0004238295,NaN,-0.2890669,-14.47285,NaN,-1.098,-1.467015,0.3867071,14.11176,NaN,NaN,0.3701388,0.8088792,0.6845512,1.042437,-2.615955E-05,1.373388
716.1266,-0.2520914,0.0004899179,NaN,-0.3271759,0.0004240916,NaN,-0.2730954,-14.47348,NaN,-1.082156,-1.466342,0.3721721,14.11113,NaN,NaN,0.3624874,0.80823,0.6711277,1.041481,-2.563473E-05,1.377627
716.1417,-0.2680225,0.0004895672,NaN,-0.3271547,0.0004243749,NaN,-0.2574025,-14.47365,NaN,-1.066755,-1.465035,0.3578415,14.10978,NaN,NaN,0.354986,0.8080257,0.6579675,1.039592,-2.513644E-05,1.378343
716.1566,-0.2680225,0.0004895672,NaN,-0.3271547,0.0004243749,NaN,-0.2574025,-14.47365,NaN,-1.066755,-1.465035,0.3578415,14.10978,NaN,NaN,0.354986,0.8080257,0.6579675,1.039592,-2.513644E-05,1.378343
716.1708,-0.2840154,0.000489538,NaN,-0.3271312,0.0004247247,NaN,-0.2420241,-14.47425,NaN,-1.051818,-1.467353,0.3437543,14.11227,NaN,NaN,0.3476318,0.8074801,0.6450654,1.042965,-2.464917E-05,1.383801
716.1867,-0.3007084,0.000489754,NaN,-0.3271082,0.0004252926,NaN,-0.2267941,-14.47422,NaN,-1.03688,-1.466747,0.3299381,14.11162,NaN,NaN,0.3404216,0.8074959,0.6324162,1.042083,-2.41619E-05,1.384844
716.2018,-0.3177717,0.0004900108,NaN,-0.3270832,0.0004259769,NaN,-0.2117739,-14.47398,NaN,-1.022197,-1.465364,0.3163249,14.11014,NaN,NaN,0.3333526,0.8076886,0.6200151,1.040071,-2.369907E-05,1.383162
716.2166,-0.3177717,0.0004900108,NaN,-0.3270832,0.0004259769,NaN,-0.2117739,-14.47398,NaN,-1.022197,-1.465364,0.3163249,14.11014,NaN,NaN,0.3333526,0.8076886,0.6200151,1.040071,-2.369907E-05,1.383162
716.231,-0.3349963,0.0004898522,NaN,-0.3270556,0.0004262857,NaN,-0.1969979,-14.47335,NaN,-1.007854,-1.464733,0.302919,14.10939,NaN,NaN,0.3264223,0.808297,0.6078572,1.039132,-2.323296E-05,1.374379
716.2467,-0.3522501,0.0004895442,NaN,-0.3270258,0.0004265429,NaN,-0.1824749,-14.47319,NaN,-0.9938639,-1.465163,0.2897284,14.10981,NaN,NaN,0.3196278,0.8084605,0.5959377,1.039745,-2.277758E-05,1.376322
716.2621,-0.3701783,0.0004896675,NaN,-0.326997,0.0004266926,NaN,-0.1680385,-14.47431,NaN,-0.9797799,-1.470315,0.2767618,14.11534,NaN,NaN,0.3129664,0.8074849,0.5842519,1.047246,-2.232459E-05,1.384297
716.2767,-0.3701783,0.0004896675,NaN,-0.326997,0.0004266926,NaN,-0.1680385,-14.47431,NaN,-0.9797799,-1.470315,0.2767618,14.11534,NaN,NaN,0.3129664,0.8074849,0.5842519,1.047246,-2.232459E-05,1.384297
716.2909,-0.3884554,0.0004897868,NaN,-0.3269661,0.0004270799,NaN,-0.1537742,-14.47302,NaN,-0.9659019,-1.467582,0.2639643,14.11232,NaN,NaN,0.3064355,0.8086943,0.5727952,1.043251,-2.18853E-05,1.377212
716.307,-0.4068753,0.0004895811,NaN,-0.3269328,0.000427173,NaN,-0.1397305,-14.47337,NaN,-0.9523343,-1.467231,0.2513458,14.112,NaN,NaN,0.3000326,0.8083323,0.5615631,1.042758,-2.145853E-05,1.375015
716.3216,-0.4253078,0.0004896433,NaN,-0.3268974,0.0004271308,NaN,-0.1259233,-14.47439,NaN,-0.9391012,-1.471534,0.2389185,14.11663,NaN,NaN,0.2937553,0.8074226,0.5505513,1.049024,-2.103713E-05,1.383745
716.3365,-0.4253078,0.0004896433,NaN,-0.3268974,0.0004271308,NaN,-0.1259233,-14.47439,NaN,-0.9391012,-1.471534,0.2389185,14.11663,NaN,NaN,0.2937553,0.8074226,0.5505513,1.049024,-2.103713E-05,1.383745
716.3509,-0.4443991,0.0004896318,NaN,-0.326863,0.0004275118,NaN,-0.1121823,-14.47377,NaN,-0.9257537,-1.46592,0.2266827,14.11069,NaN,NaN,0.2876009,0.8079138,0.5397554,1.040889,-2.062228E-05,1.378853
716.3667,-0.4638248,0.0004892843,NaN,-0.3268267,0.0004276512,NaN,-0.09859818,-14.47299,NaN,-0.9125975,-1.465109,0.2145987,14.10973,NaN,NaN,0.2815672,0.8086675,0.5291712,1.039687,-2.022174E-05,1.372239
716.3817,-0.4833793,0.0004890647,NaN,-0.3267879,0.0004280718,NaN,-0.08522071,-14.47321,NaN,-0.8997401,-1.464474,0.2026772,14.10909,NaN,NaN,0.2756517,0.8084244,0.5187945,1.038775,-1.982298E-05,1.373569
716.3967,-0.4833793,0.0004890647,NaN,-0.3267879,0.0004280718,NaN,-0.08522071,-14.47321,NaN,-0.8997401,-1.464474,0.2026772,14.10909,NaN,NaN,0.2756517,0.8084244,0.5187945,1.038775,-1.982298E-05,1.373569
716.4114,-0.5036611,0.0004889066,NaN,-0.3267494,0.0004282576,NaN,-0.0718905,-14.47396,NaN,-0.886761,-1.467549,0.1909151,14.11241,NaN,NaN,0.2698521,0.8077611,0.5086212,1.043255,-1.943078E-05,1.378229
716.4269,-0.5243151,0.0004888182,NaN,-0.3267082,0.0004278129,NaN,-0.05870973,-14.4745,NaN,-0.8739769,-1.474312,0.1792901,14.11954,NaN,NaN,0.2641662,0.8073941,0.4986475,1.053057,-1.90511E-05,1.383571
716.4421,-0.5451166,0.0004887505,NaN,-0.3266638,0.0004280985,NaN,-0.04573048,-14.47308,NaN,-0.8614972,-1.466619,0.1678164,14.11134,NaN,NaN,0.2585918,0.8086571,0.4888693,1.041896,-1.868334E-05,1.373325
716.4571,-0.5451166,0.0004887505,NaN,-0.3266638,0.0004280985,NaN,-0.04573048,-14.47308,NaN,-0.8614972,-1.466619,0.1678164,14.11134,NaN,NaN,0.2585918,0.8086571,0.4888693,1.041896,-1.868334E-05,1.373325
716.4723,-0.5659235,0.0004890944,NaN,-0.3266169,0.0004277983,NaN,-0.03296934,-14.47392,NaN,-0.8493462,-1.476425,0.1565053,14.12171,NaN,NaN,0.2531268,0.8080819,0.4792829,1.056124,-1.831379E-05,1.381338
716.4879,-0.5873749,0.0004886863,NaN,-0.3265708,0.0004273322,NaN,-0.0202368,-14.47339,NaN,-0.8370682,-1.467895,0.1453284,14.11272,NaN,NaN,0.2477689,0.8084683,0.4698844,1.043765,-1.795318E-05,1.375231
716.5018,-0.6091415,0.0004880417,NaN,-0.3265225,0.0004265413,NaN,-0.007635371,-14.47337,NaN,-0.8249704,-1.471172,0.1342743,14.11615,NaN,NaN,0.2425161,0.8085653,0.4606703,1.048513,-1.76045E-05,1.382607
716.517,-0.6091415,0.0004880417,NaN,-0.3265225,0.0004265413,NaN,-0.007635371,-14.47337,NaN,-0.8249704,-1.471172,0.1342743,14.11615,NaN,NaN,0.2425161,0.8085653,0.4606703,1.048513,-1.76045E-05,1.382607
716.5311,-0.6310152,0.0004874821,NaN,-0.3264715,0.0004260873,NaN,0.004783355,-14.47335,NaN,-0.8131608,-1.469039,0.1233566,14.11391,NaN,NaN,0.2373664,0.8085344,0.4516368,1.045426,-1.726296E-05,1.375956
716.5468,-0.6528643,0.0004875259,NaN,-0.3264184,0.0004254891,NaN,0.01700203,-14.47448,NaN,-0.801665,-1.475985,0.1125847,14.12133,NaN,NaN,0.2323177,0.8075645,0.4427805,1.055522,-1.692381E-05,1.38379
716.562,-0.6748276,0.0004871625,NaN,-0.326365,0.0004251125,NaN,0.02908231,-14.47331,NaN,-0.7903411,-1.467758,0.1019452,14.11259,NaN,NaN,0.2273681,0.8085911,0.4340979,1.043596,-1.65936E-05,1.375233
716.577,-0.6748276,0.0004871625,NaN,-0.326365,0.0004251125,NaN,0.02908231,-14.47331,NaN,-0.7903411,-1.467758,0.1019452,14.11259,NaN,NaN,0.2273681,0.8085911,0.4340979,1.043596,-1.65936E-05,1.375233
716.5914,-0.6967705,0.0004873317,NaN,-0.3263107,0.0004242606,NaN,0.0409943,-14.4737,NaN,-0.779273,-1.478478,0.09143879,14.12387,NaN,NaN,0.2225156,0.8084655,0.4255855,1.05913,-1.626697E-05,1.381048
716.6072,-0.7186087,0.0004876183,NaN,-0.3262561,0.0004247544,NaN,0.05272728,-14.47319,NaN,-0.7684831,-1.468226,0.08106773,14.11307,NaN,NaN,0.2177584,0.8088394,0.4172401,1.044273,-1.595225E-05,1.376811
716.6222,-0.7402897,0.000487621,NaN,-0.3262016,0.0004250053,NaN,0.06428112,-14.4731,NaN,-0.7579702,-1.467433,0.07083157,14.11222,NaN,NaN,0.2130945,0.8089127,0.4090584,1.04312,-1.563814E-05,1.374533
716.6374,-0.7402897,0.000487621,NaN,-0.3262016,0.0004250053,NaN,0.06428112,-14.4731,NaN,-0.7579702,-1.467433,0.07083157,14.11222,NaN,NaN,0.2130945,0.8089127,0.4090584,1.04312,-1.563814E-05,1.374533
716.6516,-0.761781,0.0004868927,NaN,-0.3261478,0.0004246731,NaN,0.07566027,-14.47256,NaN,-0.747725,-1.46597,0.06072775,14.11061,NaN,NaN,0.2085223,0.80941,0.4010371,1.040981,-1.533415E-05,1.368764
716.6673,-0.7830632,0.0004867321,NaN,-0.3260952,0.0004238633,NaN,0.08687047,-14.47371,NaN,-0.7377368,-1.47696,0.05075277,14.12229,NaN,NaN,0.2040398,0.8085492,0.3931731,1.056951,-1.503673E-05,1.379517
716.6835,-0.8041249,0.0004863285,NaN,-0.326044,0.0004233442,NaN,0.09791735,-14.47304,NaN,-0.7279958,-1.469478,0.04090291,14.11437,NaN,NaN,0.1996453,0.8090869,0.3854634,1.046101,-1.47393E-05,1.373086
716.6974,-0.8041249,0.0004863285,NaN,-0.326044,0.0004233442,NaN,0.09791735,-14.47304,NaN,-0.7279958,-1.469478,0.04090291,14.11437,NaN,NaN,0.1996453,0.8090869,0.3854634,1.046101,-1.47393E-05,1.373086
716.7119,-0.8249598,0.0004865286,NaN,-0.3259945,0.0004224516,NaN,0.1088059,-14.47364,NaN,-0.7184934,-1.479004,0.0311747,14.12442,NaN,NaN,0.1953371,0.8087044,0.3779048,1.059917,-1.445081E-05,1.380242
716.7276,-0.8455651,0.0004866222,NaN,-0.3259468,0.0004224773,NaN,0.1195403,-14.47318,NaN,-0.7092223,-1.468109,0.02156498,14.11295,NaN,NaN,0.1911136,0.8090183,0.3704945,1.044126,-1.416829E-05,1.374267
716.7427,-0.8659397,0.000487012,NaN,-0.3259011,0.0004219959,NaN,0.1301242,-14.47383,NaN,-0.7001761,-1.47763,0.01207097,14.123,NaN,NaN,0.1869729,0.8085932,0.3632294,1.057934,-1.388814E-05,1.380507
716.7579,-0.8659397,0.000487012,NaN,-0.3259011,0.0004219959,NaN,0.1301242,-14.47383,NaN,-0.7001761,-1.47763,0.01207097,14.123,NaN,NaN,0.1869729,0.8085932,0.3632294,1.057934,-1.388814E-05,1.380507
716.7721,-0.8860843,0.0004873236,NaN,-0.3258573,0.0004225563,NaN,0.1405608,-14.47356,NaN,-0.6913492,-1.467737,0.002690194,14.1126,NaN,NaN,0.1829136,0.8087232,0.3561068,1.043597,-1.361784E-05,1.377132
716.788,-0.9059998,0.0004877048,NaN,-0.3258154,0.0004230997,NaN,0.150853,-14.47332,NaN,-0.6827367,-1.46861,-0.006579539,14.11347,NaN,NaN,0.1789341,0.8089792,0.349124,1.04485,-1.334991E-05,1.376456
716.803,-0.9256882,0.0004877647,NaN,-0.3257755,0.0004235256,NaN,0.1610031,-14.47384,NaN,-0.6743338,-1.465943,-0.01574021,14.11074,NaN,NaN,0.1750327,0.8083954,0.342278,1.041002,-1.308974E-05,1.377014
716.8181,-0.9256882,0.0004877647,NaN,-0.3257755,0.0004235256,NaN,0.1610031,-14.47384,NaN,-0.6743338,-1.465943,-0.01574021,14.11074,NaN,NaN,0.1750327,0.8083954,0.342278,1.041002,-1.308974E-05,1.377014
716.8325,-0.9451514,0.0004880638,NaN,-0.3257374,0.0004231243,NaN,0.1710136,-14.47392,NaN,-0.6661363,-1.477207,-0.02479361,14.12253,NaN,NaN,0.1712079,0.8086063,0.3355663,1.057308,-1.283642E-05,1.380466
716.8481,-0.9643916,0.0004880336,NaN,-0.3257013,0.0004233029,NaN,0.1808865,-14.47337,NaN,-0.6581398,-1.466606,-0.03374136,14.11136,NaN,NaN,0.1674583,0.8089955,0.3289862,1.041941,-1.258578E-05,1.372803
716.8642,-0.9834112,0.0004882791,NaN,-0.3256669,0.000423256,NaN,0.190624,-14.47458,NaN,-0.6503403,-1.473431,-0.04258499,14.11866,NaN,NaN,0.1637824,0.8079547,0.3225351,1.051866,-1.234066E-05,1.38312
716.8784,-0.9834112,0.0004882791,NaN,-0.3256669,0.000423256,NaN,0.190624,-14.47458,NaN,-0.6503403,-1.473431,-0.04258499,14.11866,NaN,NaN,0.1637824,0.8079547,0.3225351,1.051866,-1.234066E-05,1.38312
716.8928,-1.002213,0.0004883349,NaN,-0.3256344,0.000423264,NaN,0.2002278,-14.47403,NaN,-0.6427341,-1.469853,-0.05132589,14.11484,NaN,NaN,0.1601787,0.8084413,0.3162106,1.04667,-1.209598E-05,1.376857
716.9084,-1.020798,0.00048886,NaN,-0.3256035,0.0004229,NaN,0.2097,-14.47311,NaN,-0.635317,-1.478047,-0.05996541,14.1233,NaN,NaN,0.1566459,0.8095355,0.3100101,1.058499,-1.186084E-05,1.377305
716.9234,-1.03917,0.0004886828,NaN,-0.3255744,0.000422604,NaN,0.2190421,-14.47198,NaN,-0.6280856,-1.468123,-0.06850476,14.11275,NaN,NaN,0.1531824,0.8105108,0.3039312,1.044088,-1.163047E-05,1.369334
716.9399,-1.03917,0.0004886828,NaN,-0.3255744,0.000422604,NaN,0.2190421,-14.47198,NaN,-0.6280856,-1.468123,-0.06850476,14.11275,NaN,NaN,0.1531824,0.8105108,0.3039312,1.044088,-1.163047E-05,1.369334
716.9529,-1.057331,0.0004885696,NaN,-0.3255469,0.0004225943,NaN,0.228256,-14.47202,NaN,-0.6210359,-1.467981,-0.07694505,14.1126,NaN,NaN,0.1497871,0.8104641,0.2979716,1.043883,-1.140129E-05,1.369427
716.9687,-1.075284,0.0004890625,NaN,-0.3255209,0.0004227087,NaN,0.2373431,-14.47308,NaN,-0.6141645,-1.473512,-0.08528735,14.11854,NaN,NaN,0.1464585,0.8095509,0.2921288,1.051942,-1.117483E-05,1.377812
716.9837,-1.09303,0.0004892726,NaN,-0.3254966,0.0004232022,NaN,0.246305,-14.4725,NaN,-0.6074677,-1.467009,-0.09353262,14.11165,NaN,NaN,0.1431953,0.8100047,0.2864005,1.042502,-1.095822E-05,1.372231
716.9989,-1.09303,0.0004892726,NaN,-0.3254966,0.0004232022,NaN,0.246305,-14.4725,NaN,-0.6074677,-1.467009,-0.09353262,14.11165,NaN,NaN,0.1431953,0.8100047,0.2864005,1.042502,-1.095822E-05,1.372231
717.0134,-1.110572,0.0004888844,NaN,-0.3254737,0.0004232459,NaN,0.2551432,-14.47212,NaN,-0.600942,-1.465394,-0.1016818,14.1099,NaN,NaN,0.1399963,0.8103394,0.2807846,1.040145,-1.074485E-05,1.367194
717.0289,-1.127913,0.0004890416,NaN,-0.3254522,0.0004227654,NaN,0.263859,-14.47298,NaN,-0.5945839,-1.476586,-0.1097356,14.12177,NaN,NaN,0.1368602,0.8097872,0.2752789,1.05641,-1.053568E-05,1.376446
717.0448,-1.145054,0.0004887542,NaN,-0.3254322,0.0004220556,NaN,0.2724538,-14.47292,NaN,-0.5883901,-1.472357,-0.117695,14.11732,NaN,NaN,0.1337857,0.8097798,0.2698811,1.050277,-1.03287E-05,1.373866
717.059,-1.145054,0.0004887542,NaN,-0.3254322,0.0004220556,NaN,0.2724538,-14.47292,NaN,-0.5883901,-1.472357,-0.117695,14.11732,NaN,NaN,0.1337857,0.8097798,0.2698811,1.050277,-1.03287E-05,1.373866
717.0733,-1.161999,0.0004885922,NaN,-0.3254136,0.0004214214,NaN,0.2809288,-14.47214,NaN,-0.5823571,-1.473099,-0.1255605,14.118,NaN,NaN,0.1307718,0.8105699,0.2645891,1.051333,-1.012307E-05,1.371974
717.0889,-1.178748,0.0004883085,NaN,-0.3253963,0.0004210095,NaN,0.2892852,-14.47167,NaN,-0.5764818,-1.469725,-0.1333329,14.1144,NaN,NaN,0.127817,0.8109739,0.2594009,1.046425,-9.926074E-06,1.368293
717.1038,-1.195306,0.0004879692,NaN,-0.3253803,0.0004209887,NaN,0.2975241,-14.47218,NaN,-0.5707607,-1.466377,-0.1410128,14.11093,NaN,NaN,0.1249204,0.8103911,0.2543145,1.041584,-9.729528E-06,1.368693
717.1188,-1.195306,0.0004879692,NaN,-0.3253803,0.0004209887,NaN,0.2975241,-14.47218,NaN,-0.5707607,-1.466377,-0.1410128,14.11093,NaN,NaN,0.1249204,0.8103911,0.2543145,1.041584,-9.729528E-06,1.368693
717.1332,-1.211673,0.0004879795,NaN,-0.3253655,0.0004215821,NaN,0.3056467,-14.47244,NaN,-0.5651908,-1.464479,-0.1486006,14.10897,NaN,NaN,0.1220808,0.81008,0.2493278,1.03884,-9.537303E-06,1.373446
717.1491,-1.227851,0.0004880193,NaN,-0.3253519,0.0004210168,NaN,0.3136539,-14.47286,NaN,-0.5597688,-1.477077,-0.156097,14.12225,NaN,NaN,0.119297,0.8100202,0.2444389,1.057122,-9.350144E-06,1.375986
717.1641,-1.243623,0.0004884917,NaN,-0.3253388,0.0004214226,NaN,0.3214304,-14.47216,NaN,-0.5546232,-1.472181,-0.1634211,14.11702,NaN,NaN,0.116568,0.8106366,0.2396459,1.050002,-9.165966E-06,1.372143
717.1791,-1.243623,0.0004884917,NaN,-0.3253388,0.0004214226,NaN,0.3214304,-14.47216,NaN,-0.5546232,-1.472181,-0.1634211,14.11702,NaN,NaN,0.116568,0.8106366,0.2396459,1.050002,-9.165966E-06,1.372143
717.1935,-1.259073,0.0004887729,NaN,-0.3253271,0.000421983,NaN,0.329056,-14.47204,NaN,-0.549657,-1.468051,-0.1706287,14.11265,NaN,NaN,0.1138926,0.8106648,0.2349468,1.044003,-8.988344E-06,1.370383
717.2092,-1.274257,0.0004891062,NaN,-0.3253172,0.0004216922,NaN,0.3365629,-14.47299,NaN,-0.54483,-1.477316,-0.1777422,14.12251,NaN,NaN,0.1112698,0.8099421,0.23034,1.057478,-8.813106E-06,1.377161
717.2241,-1.289208,0.0004893193,NaN,-0.3253089,0.0004210194,NaN,0.343963,-14.47296,NaN,-0.5401272,-1.477565,-0.1847692,14.12276,NaN,NaN,0.1086986,0.809967,0.2258234,1.057836,-8.640849E-06,1.375559
717.24,-1.303224,0.0004894517,NaN,-0.3252998,0.0004213869,NaN,0.3508468,-14.47195,NaN,-0.5359728,-1.467401,-0.1914119,14.11197,NaN,NaN,0.1061778,0.8108104,0.2213954,1.043072,-8.472168E-06,1.369156
717.2542,-1.303224,0.0004894517,NaN,-0.3252998,0.0004213869,NaN,0.3508468,-14.47195,NaN,-0.5359728,-1.467401,-0.1914119,14.11197,NaN,NaN,0.1061778,0.8108104,0.2213954,1.043072,-8.472168E-06,1.369156
717.2682,-1.316592,0.0004888793,NaN,-0.3252928,0.0004212025,NaN,0.3574972,-14.47147,NaN,-0.5320582,-1.465641,-0.1978774,14.11005,NaN,NaN,0.1037065,0.8112363,0.2170543,1.040497,-8.308255E-06,1.36685
717.2838,-1.329498,0.0004886235,NaN,-0.3252889,0.0004204532,NaN,0.3640246,-14.47267,NaN,-0.528262,-1.476131,-0.204245,14.12124,NaN,NaN,0.1012838,0.8103249,0.2127983,1.05577,-8.147918E-06,1.377939
717.2988,-1.329498,0.0004886235,NaN,-0.3252889,0.0004204532,NaN,0.3640246,-14.47267,NaN,-0.528262,-1.476131,-0.204245,14.12124,NaN,NaN,0.1012838,0.8103249,0.2127983,1.05577,-8.147918E-06,1.377939
717.3132,-1.34133,0.000488593,NaN,-0.3252855,0.0004204439,NaN,0.3700334,-14.47259,NaN,-0.5249699,-1.469679,-0.2102192,14.11444,NaN,NaN,0.09890851,0.8102919,0.2086257,1.046406,-7.988774E-06,1.375443
717.329,-1.352438,0.0004888013,NaN,-0.3252845,0.0004201146,NaN,0.3758296,-14.47283,NaN,-0.5218686,-1.475205,-0.2160278,14.12027,NaN,NaN,0.09657983,0.8101788,0.204535,1.054427,-7.831418E-06,1.378149
717.3442,-1.363043,0.0004882078,NaN,-0.3252854,0.0004195824,NaN,0.3815257,-14.47171,NaN,-0.5188402,-1.467279,-0.2217528,14.11181,NaN,NaN,0.09429693,0.8111557,0.2005245,1.042901,-7.674657E-06,1.369653
717.3593,-1.363043,0.0004882078,NaN,-0.3252854,0.0004195824,NaN,0.3815257,-14.47171,NaN,-0.5188402,-1.467279,-0.2217528,14.11181,NaN,NaN,0.09429693,0.8111557,0.2005245,1.042901,-7.674657E-06,1.369653
717.3735,-1.373289,0.0004875335,NaN,-0.3252874,0.0004189249,NaN,0.3871558,-14.4717,NaN,-0.5158501,-1.469943,-0.2274178,14.11461,NaN,NaN,0.09205892,0.8112322,0.1965927,1.04677,-7.525646E-06,1.370973
717.3893,-1.382537,0.0004873516,NaN,-0.325289,0.0004191192,NaN,0.3922701,-14.47167,NaN,-0.5133191,-1.467762,-0.2326796,14.11231,NaN,NaN,0.08986462,0.8112095,0.1927379,1.043604,-7.380806E-06,1.369323
717.404,-1.391119,0.0004864042,NaN,-0.3252916,0.000418644,NaN,0.3971781,-14.47195,NaN,-0.5109525,-1.465797,-0.2377753,14.11028,NaN,NaN,0.08771335,0.8108819,0.1889587,1.040762,-7.234179E-06,1.370694
717.4203,-1.399247,0.0004858412,NaN,-0.325296,0.0004188405,NaN,0.4019952,-14.47204,NaN,-0.5086399,-1.465258,-0.2427919,14.10972,NaN,NaN,0.08560436,0.8107697,0.1852537,1.039983,-7.091128E-06,1.371322
717.435,-1.399247,0.0004858412,NaN,-0.325296,0.0004188405,NaN,0.4019952,-14.47204,NaN,-0.5086399,-1.465258,-0.2427919,14.10972,NaN,NaN,0.08560436,0.8107697,0.1852537,1.039983,-7.091128E-06,1.371322
717.4482,-1.407054,0.000485439,NaN,-0.3253027,0.0004186828,NaN,0.4067558,-14.47304,NaN,-0.506349,-1.470601,-0.2477545,14.11547,NaN,NaN,0.08353682,0.8099176,0.1816213,1.047777,-6.948673E-06,1.376974
717.464,-1.413899,0.0004854507,NaN,-0.3253092,0.0004183312,NaN,0.4109879,-14.47333,NaN,-0.5044977,-1.474926,-0.2522962,14.12004,NaN,NaN,0.08150958,0.8097202,0.1780601,1.054057,-6.814562E-06,1.380214
717.479,-1.413899,0.0004854507,NaN,-0.3253092,0.0004183312,NaN,0.4109879,-14.47333,NaN,-0.5044977,-1.474926,-0.2522962,14.12004,NaN,NaN,0.08150958,0.8097202,0.1780601,1.054057,-6.814562E-06,1.380214
717.4933,-1.42011,0.0004856206,NaN,-0.3253174,0.0004185873,NaN,0.4150181,-14.47176,NaN,-0.5027936,-1.470101,-0.2566721,14.11479,NaN,NaN,0.07952207,0.8111939,0.1745687,1.047024,-6.684624E-06,1.368767
717.5089,-1.425896,0.0004858771,NaN,-0.325328,0.0004180465,NaN,0.4189666,-14.47215,NaN,-0.5011268,-1.477775,-0.2609745,14.12292,NaN,NaN,0.07757358,0.8109824,0.1711458,1.058181,-6.551706E-06,1.373982
717.5239,-1.431391,0.0004863667,NaN,-0.3253407,0.0004183832,NaN,0.4228686,-14.47338,NaN,-0.4994652,-1.472129,-0.2652296,14.1171,NaN,NaN,0.07566338,0.8096611,0.1677901,1.050007,-6.423556E-06,1.379735
717.539,-1.431391,0.0004863667,NaN,-0.3253407,0.0004183832,NaN,0.4228686,-14.47338,NaN,-0.4994652,-1.472129,-0.2652296,14.1171,NaN,NaN,0.07566338,0.8096611,0.1677901,1.050007,-6.423556E-06,1.379735
717.5533,-1.435952,0.0004868838,NaN,-0.3253528,0.000419123,NaN,0.4262367,-14.47174,NaN,-0.4982237,-1.468501,-0.269053,14.11309,NaN,NaN,0.07379033,0.8111996,0.1645001,1.044697,-6.296002E-06,1.368043
717.5688,-1.439906,0.0004872834,NaN,-0.325366,0.0004198348,NaN,0.4294105,-14.4719,NaN,-0.4971121,-1.467318,-0.2727137,14.11186,NaN,NaN,0.07195395,0.8110035,0.1612746,1.042984,-6.173216E-06,1.369276
717.5839,-1.443461,0.0004874205,NaN,-0.3253806,0.000420449,NaN,0.4325148,-14.4724,NaN,-0.4960217,-1.465024,-0.2763093,14.1095,NaN,NaN,0.07015362,0.8104418,0.1581124,1.039671,-6.052815E-06,1.372328
717.5989,-1.443461,0.0004874205,NaN,-0.3253806,0.000420449,NaN,0.4325148,-14.4724,NaN,-0.4960217,-1.465024,-0.2763093,14.1095,NaN,NaN,0.07015362,0.8104418,0.1581124,1.039671,-6.052815E-06,1.372328
717.6132,-1.446023,0.0004878367,NaN,-0.3253941,0.000420971,NaN,0.4350863,-14.47346,NaN,-0.4953364,-1.468917,-0.2794716,14.11372,NaN,NaN,0.06838825,0.8094921,0.1550122,1.045357,-5.93599E-06,1.380519
717.6296,-1.447949,0.000488262,NaN,-0.3254082,0.0004205869,NaN,0.4374831,-14.47295,NaN,-0.4947578,-1.47848,-0.2824858,14.12369,NaN,NaN,0.06665743,0.8102134,0.1519728,1.059198,-5.821549E-06,1.380087
717.6445,-1.449467,0.0004881731,NaN,-0.3254231,0.0004204341,NaN,0.4398342,-14.47192,NaN,-0.4941766,-1.469031,-0.2854535,14.11364,NaN,NaN,0.06496058,0.8111064,0.148993,1.04547,-5.7083E-06,1.37152
717.6583,-1.449467,0.0004881731,NaN,-0.3254231,0.0004204341,NaN,0.4398342,-14.47192,NaN,-0.4941766,-1.469031,-0.2854535,14.11364,NaN,NaN,0.06496058,0.8111064,0.148993,1.04547,-5.7083E-06,1.37152
717.6725,-1.450721,0.0004883264,NaN,-0.3254388,0.0004201513,NaN,0.4421751,-14.47372,NaN,-0.4935626,-1.473879,-0.2884018,14.11897,NaN,NaN,0.06329705,0.8094311,0.1460716,1.052568,-5.59982E-06,1.381643
717.688,-1.451077,0.0004881553,NaN,-0.3254528,0.0004202538,NaN,0.4439983,-14.47205,NaN,-0.49333,-1.466119,-0.2909245,14.11062,NaN,NaN,0.06166577,0.8109625,0.1432075,1.041276,-5.490147E-06,1.370551
717.7029,-1.450866,0.000488102,NaN,-0.3254663,0.0004206558,NaN,0.4456572,-14.4727,NaN,-0.4931931,-1.465538,-0.2933055,14.11009,NaN,NaN,0.06006639,0.8103012,0.1403996,1.040456,-5.385243E-06,1.375328
717.7177,-1.450866,0.000488102,NaN,-0.3254663,0.0004206558,NaN,0.4456572,-14.4727,NaN,-0.4931931,-1.465538,-0.2933055,14.11009,NaN,NaN,0.06006639,0.8103012,0.1403996,1.040456,-5.385243E-06,1.375328
717.732,-1.4503,0.000488457,NaN,-0.3254797,0.0004203412,NaN,0.4472798,-14.47317,NaN,-0.4930465,-1.477258,-0.2956467,14.12246,NaN,NaN,0.05849838,0.810162,0.1376467,1.057471,-5.280339E-06,1.380715
717.7477,-1.449512,0.0004884516,NaN,-0.3254933,0.0004205849,NaN,0.4489022,-14.47224,NaN,-0.4928603,-1.466412,-0.2979763,14.11096,NaN,NaN,0.05696116,0.8109378,0.1349478,1.041718,-5.179011E-06,1.371699
717.7628,-1.44786,0.00048825,NaN,-0.3255045,0.0004201715,NaN,0.4500133,-14.4733,NaN,-0.4930466,-1.473065,-0.2998832,14.11809,NaN,NaN,0.05545368,0.8100751,0.1323019,1.051409,-5.077683E-06,1.377383
717.7776,-1.44786,0.00048825,NaN,-0.3255045,0.0004201715,NaN,0.4500133,-14.4733,NaN,-0.4930466,-1.473065,-0.2998832,14.11809,NaN,NaN,0.05545368,0.8100751,0.1323019,1.051409,-5.077683E-06,1.377383
717.7921,-1.445672,0.0004878679,NaN,-0.3255145,0.0004201742,NaN,0.4509712,-14.47269,NaN,-0.49332,-1.466493,-0.3016566,14.1111,NaN,NaN,0.05397566,0.8105717,0.1297078,1.041858,-4.977548E-06,1.371353
717.8077,-1.443155,0.0004873954,NaN,-0.3255237,0.0004200589,NaN,0.4519073,-14.47327,NaN,-0.4935745,-1.467914,-0.3034018,14.11267,NaN,NaN,0.05252662,0.8100435,0.1271645,1.043937,-4.880988E-06,1.373964
717.8224,-1.440442,0.0004878435,NaN,-0.3255326,0.0004196948,NaN,0.4528589,-14.47314,NaN,-0.4937796,-1.477977,-0.3051483,14.12321,NaN,NaN,0.05110604,0.8104244,0.1246711,1.05852,-4.785621E-06,1.377057
717.8382,-1.440442,0.0004878435,NaN,-0.3255326,0.0004196948,NaN,0.4528589,-14.47314,NaN,-0.4937796,-1.477977,-0.3051483,14.12321,NaN,NaN,0.05110604,0.8104244,0.1246711,1.05852,-4.785621E-06,1.377057
717.8525,-1.436889,0.0004881051,NaN,-0.3255387,0.0004200838,NaN,0.4533132,-14.47336,NaN,-0.494346,-1.468687,-0.3064826,14.11345,NaN,NaN,0.04971291,0.810077,0.1222267,1.045041,-4.692638E-06,1.374967
717.867,-1.432822,0.0004884482,NaN,-0.3255431,0.0004198783,NaN,0.4536309,-14.47366,NaN,-0.4949891,-1.476418,-0.3076964,14.1216,NaN,NaN,0.04834699,0.809968,0.1198301,1.056258,-4.600846E-06,1.378544
717.8831,-1.428448,0.0004883258,NaN,-0.3255462,0.0004198248,NaN,0.4539438,-14.47243,NaN,-0.4956029,-1.468514,-0.3088961,14.11316,NaN,NaN,0.04700785,0.8110787,0.1174806,1.044765,-4.513824E-06,1.369812
717.8967,-1.428448,0.0004883258,NaN,-0.3255462,0.0004198248,NaN,0.4539438,-14.47243,NaN,-0.4956029,-1.468514,-0.3088961,14.11316,NaN,NaN,0.04700785,0.8110787,0.1174806,1.044765,-4.513824E-06,1.369812
717.9111,-1.423173,0.0004886363,NaN,-0.3255471,0.000419235,NaN,0.4537766,-14.47315,NaN,-0.496569,-1.47866,-0.3096983,14.12392,NaN,NaN,0.04569457,0.8106192,0.1151771,1.059515,-4.427993E-06,1.377331
717.9266,-1.417351,0.0004888905,NaN,-0.325547,0.0004198792,NaN,0.4535012,-14.47279,NaN,-0.4975938,-1.467018,-0.3104043,14.11162,NaN,NaN,0.04440695,0.8108121,0.1129188,1.042609,-4.34097E-06,1.371437
717.9414,-1.411211,0.000488748,NaN,-0.3255462,0.000420188,NaN,0.4532501,-14.47278,NaN,-0.4985698,-1.465739,-0.3111206,14.11027,NaN,NaN,0.0431446,0.8107968,0.1107047,1.04075,-4.258716E-06,1.369185
717.9564,-1.411211,0.000488748,NaN,-0.3255462,0.000420188,NaN,0.4532501,-14.47278,NaN,-0.4985698,-1.465739,-0.3111206,14.11027,NaN,NaN,0.0431446,0.8107968,0.1107047,1.04075,-4.258716E-06,1.369185
717.9706,-1.404895,0.0004891161,NaN,-0.3255449,0.0004198964,NaN,0.4530579,-14.47268,NaN,-0.4994684,-1.47677,-0.3118748,14.12185,NaN,NaN,0.04190705,0.8111934,0.1085341,1.05675,-4.176462E-06,1.374789
717.9862,-1.397768,0.0004892382,NaN,-0.3255409,0.0004202995,NaN,0.452414,-14.47259,NaN,-0.5007026,-1.467375,-0.3122544,14.11194,NaN,NaN,0.04069337,0.8111293,0.1064061,1.043102,-4.093015E-06,1.369992
718.0009,-1.39016,0.000489353,NaN,-0.3255349,0.0004206664,NaN,0.451674,-14.47254,NaN,-0.5019897,-1.468032,-0.3125471,14.11261,NaN,NaN,0.0395034,0.8111935,0.1043197,1.044051,-4.014337E-06,1.369678
718.016,-1.39016,0.000489353,NaN,-0.3255349,0.0004206664,NaN,0.451674,-14.47254,NaN,-0.5019897,-1.468032,-0.3125471,14.11261,NaN,NaN,0.0395034,0.8111935,0.1043197,1.044051,-4.014337E-06,1.369678
718.0301,-1.382282,0.0004901211,NaN,-0.3255275,0.0004206939,NaN,0.450967,-14.4737,NaN,-0.5032259,-1.476947,-0.312857,14.12214,NaN,NaN,0.03833678,0.810248,0.1022743,1.057032,-3.934467E-06,1.378303
718.0457,-1.374266,0.0004903811,NaN,-0.325519,0.0004211992,NaN,0.4503277,-14.47263,NaN,-0.5043823,-1.467463,-0.3132122,14.11205,NaN,NaN,0.03719307,0.8111712,0.100269,1.043252,-3.856981E-06,1.369857
718.0616,-1.365469,0.0004909572,NaN,-0.3255076,0.0004210042,NaN,0.4492531,-14.47298,NaN,-0.5058714,-1.47808,-0.3132068,14.12327,NaN,NaN,0.03607142,0.8110844,0.09830297,1.058677,-3.782475E-06,1.37465
718.0753,-1.365469,0.0004909572,NaN,-0.3255076,0.0004210042,NaN,0.4492531,-14.47298,NaN,-0.5058714,-1.47808,-0.3132068,14.12327,NaN,NaN,0.03607142,0.8110844,0.09830297,1.058677,-3.782475E-06,1.37465
718.0894,-1.356218,0.0004912128,NaN,-0.3254937,0.0004215954,NaN,0.4480957,-14.47287,NaN,-0.5074093,-1.467355,-0.3131255,14.11196,NaN,NaN,0.03497168,0.8110436,0.09637551,1.043102,-3.705585E-06,1.371186
718.1047,-1.346719,0.0004914982,NaN,-0.3254782,0.0004219739,NaN,0.4469843,-14.47361,NaN,-0.5088909,-1.469565,-0.3130723,14.11437,NaN,NaN,0.03389352,0.8103632,0.09448585,1.046334,-3.633463E-06,1.375853
718.1198,-1.346719,0.0004914982,NaN,-0.3254782,0.0004219739,NaN,0.4469843,-14.47361,NaN,-0.5088909,-1.469565,-0.3130723,14.11437,NaN,NaN,0.03389352,0.8103632,0.09448585,1.046334,-3.633463E-06,1.375853
718.1339,-1.336377,0.0004915525,NaN,-0.325459,0.0004222841,NaN,0.4454573,-14.4728,NaN,-0.5106997,-1.467782,-0.3126758,14.11239,NaN,NaN,0.03283614,0.8111331,0.09263324,1.043719,-3.560149E-06,1.370816
718.1493,-1.325547,0.0004916543,NaN,-0.3254369,0.0004224151,NaN,0.4438748,-14.47371,NaN,-0.5125418,-1.470551,-0.3122261,14.11542,NaN,NaN,0.03179942,0.8102862,0.09081695,1.047772,-3.489816E-06,1.375871
718.1642,-1.314456,0.000491922,NaN,-0.3254126,0.0004231118,NaN,0.442365,-14.47342,NaN,-0.5143106,-1.466581,-0.3118268,14.1112,NaN,NaN,0.03078306,0.8104873,0.08903628,1.042004,-3.421867E-06,1.375462
718.1794,-1.314456,0.000491922,NaN,-0.3254126,0.0004231118,NaN,0.442365,-14.47342,NaN,-0.5143106,-1.466581,-0.3118268,14.1112,NaN,NaN,0.03078306,0.8104873,0.08903628,1.042004,-3.421867E-06,1.375462
718.194,-1.303246,0.0004920059,NaN,-0.3253867,0.000423627,NaN,0.4409605,-14.47373,NaN,-0.515978,-1.465468,-0.311504,14.11007,NaN,NaN,0.0297867,0.8101556,0.08729052,1.040401,-3.354513E-06,1.375105
718.2092,-1.291282,0.0004920878,NaN,-0.3253576,0.0004241948,NaN,0.4391713,-14.47367,NaN,-0.5179598,-1.465112,-0.3108647,14.10968,NaN,NaN,0.02880955,0.8101937,0.08557899,1.039881,-3.285372E-06,1.377313
718.224,-1.278892,0.0004920192,NaN,-0.3253256,0.0004246465,NaN,0.4373369,-14.47404,NaN,-0.5199724,-1.464737,-0.3101807,14.10933,NaN,NaN,0.02785149,0.8098118,0.08390103,1.039352,-3.221595E-06,1.376755
718.2388,-1.278892,0.0004920192,NaN,-0.3253256,0.0004246465,NaN,0.4373369,-14.47404,NaN,-0.5199724,-1.464737,-0.3101807,14.10933,NaN,NaN,0.02785149,0.8098118,0.08390103,1.039352,-3.221595E-06,1.376755
718.2532,-1.266287,0.000492555,NaN,-0.3252915,0.0004245399,NaN,0.43558,-14.47484,NaN,-0.521912,-1.476337,-0.3095509,14.12161,NaN,NaN,0.02691225,0.8093323,0.08225595,1.056199,-3.159606E-06,1.385352
718.2688,-1.253598,0.0004928735,NaN,-0.325256,0.0004240391,NaN,0.4339324,-14.47537,NaN,-0.5237502,-1.477074,-0.309001,14.12244,NaN,NaN,0.02599149,0.8088079,0.08064313,1.057281,-3.097617E-06,1.386561
718.2847,-1.240183,0.0004925411,NaN,-0.3252175,0.0004234854,NaN,0.4319167,-14.47435,NaN,-0.5259027,-1.469964,-0.3081494,14.11487,NaN,NaN,0.02508847,0.8097228,0.07906194,1.04696,-3.037417E-06,1.379114
718.2985,-1.240183,0.0004925411,NaN,-0.3252175,0.0004234854,NaN,0.4319167,-14.47435,NaN,-0.5259027,-1.469964,-0.3081494,14.11487,NaN,NaN,0.02508847,0.8097228,0.07906194,1.04696,-3.037417E-06,1.379114
718.3126,-1.226367,0.0004917145,NaN,-0.3251761,0.0004229271,NaN,0.4298657,-14.4738,NaN,-0.5280842,-1.466193,-0.3072613,14.11085,NaN,NaN,0.0242031,0.8101804,0.07751175,1.041478,-2.979004E-06,1.374757
718.3279,-1.212356,0.0004908586,NaN,-0.3251325,0.0004226431,NaN,0.4279007,-14.47386,NaN,-0.5301894,-1.46506,-0.3064341,14.10966,NaN,NaN,0.02333514,0.8100958,0.07599196,1.03984,-2.920592E-06,1.374248
718.343,-1.198281,0.0004904832,NaN,-0.3250877,0.0004230301,NaN,0.4260534,-14.47419,NaN,-0.5321892,-1.464649,-0.3056934,14.10927,NaN,NaN,0.02248426,0.809759,0.07450196,1.039256,-2.863967E-06,1.376983
718.3592,-1.198281,0.0004904832,NaN,-0.3250877,0.0004230301,NaN,0.4260534,-14.47419,NaN,-0.5321892,-1.464649,-0.3056934,14.10927,NaN,NaN,0.02248426,0.809759,0.07450196,1.039256,-2.863967E-06,1.376983
718.372,-1.183497,0.0004904959,NaN,-0.3250398,0.0004227165,NaN,0.4238582,-14.47522,NaN,-0.5345003,-1.474979,-0.304669,14.12025,NaN,NaN,0.02164977,0.8090226,0.07304118,1.05427,-2.806747E-06,1.385416
718.3876,-1.168328,0.0004901628,NaN,-0.3249891,0.0004227556,NaN,0.4216398,-14.47379,NaN,-0.5368359,-1.465868,-0.303618,14.11053,NaN,NaN,0.02083159,0.8102841,0.07160904,1.041035,-2.751911E-06,1.374718
718.4026,-1.152982,0.0004901184,NaN,-0.3249362,0.000422607,NaN,0.4195167,-14.4752,NaN,-0.5390905,-1.472111,-0.3026351,14.11726,NaN,NaN,0.0200295,0.8090505,0.07020498,1.05014,-2.697372E-06,1.38409
718.4177,-1.152982,0.0004901184,NaN,-0.3249362,0.000422607,NaN,0.4195167,-14.4752,NaN,-0.5390905,-1.472111,-0.3026351,14.11726,NaN,NaN,0.0200295,0.8090505,0.07020498,1.05014,-2.697372E-06,1.38409
718.4321,-1.136859,0.0004905902,NaN,-0.3248796,0.0004223539,NaN,0.4170656,-14.47508,NaN,-0.5416522,-1.477211,-0.3013856,14.12259,NaN,NaN,0.01924287,0.8092663,0.06882845,1.057522,-2.645218E-06,1.384117
718.4475,-1.120316,0.0004909691,NaN,-0.3248195,0.000422909,NaN,0.4146152,-14.47351,NaN,-0.5442242,-1.468861,-0.3001288,14.11365,NaN,NaN,0.0184716,0.8107067,0.06747891,1.045386,-2.591276E-06,1.372809
718.4625,-1.103578,0.0004911826,NaN,-0.3247566,0.0004232413,NaN,0.4122823,-14.47452,NaN,-0.5466994,-1.468947,-0.298958,14.11386,NaN,NaN,0.0177155,0.8097018,0.06615584,1.045544,-2.539718E-06,1.377992
718.4774,-1.103578,0.0004911826,NaN,-0.3247566,0.0004232413,NaN,0.4122823,-14.47452,NaN,-0.5466994,-1.468947,-0.298958,14.11386,NaN,NaN,0.0177155,0.8097018,0.06615584,1.045544,-2.539718E-06,1.377992
718.4929,-1.086787,0.000491066,NaN,-0.324692,0.0004235757,NaN,0.4100948,-14.47387,NaN,-0.54905,-1.465674,-0.2978958,14.11034,NaN,NaN,0.0169743,0.8102768,0.0648587,1.040775,-2.489501E-06,1.3736
718.5074,-1.069305,0.0004913626,NaN,-0.3246244,0.0004231926,NaN,0.4076063,-14.47433,NaN,-0.5516974,-1.47737,-0.296591,14.12268,NaN,NaN,0.0162474,0.810128,0.063587,1.057753,-2.442413E-06,1.380722
718.5222,-1.051461,0.0004912895,NaN,-0.3245536,0.0004229987,NaN,0.4051232,-14.47356,NaN,-0.5543549,-1.46985,-0.2952829,14.11469,NaN,NaN,0.01553474,0.8107801,0.06234023,1.046828,-2.393687E-06,1.37439
718.537,-1.051461,0.0004912895,NaN,-0.3245536,0.0004229987,NaN,0.4051232,-14.47356,NaN,-0.5543549,-1.46985,-0.2952829,14.11469,NaN,NaN,0.01553474,0.8107801,0.06234023,1.046828,-2.393687E-06,1.37439
718.5514,-1.033465,0.00049182,NaN,-0.3244805,0.0004226528,NaN,0.4027559,-14.47466,NaN,-0.5569178,-1.478007,-0.2940589,14.1234,NaN,NaN,0.01483614,0.8098711,0.06111791,1.0587,-2.343693E-06,1.381451
718.567,-1.015448,0.0004921494,NaN,-0.324406,0.0004232828,NaN,0.4005319,-14.47364,NaN,-0.5593581,-1.467421,-0.2929414,14.11216,NaN,NaN,0.01415133,0.8107464,0.05991954,1.043326,-2.298608E-06,1.373438
718.5823,-0.9967656,0.0004921029,NaN,-0.3243289,0.0004235889,NaN,0.3980191,-14.47357,NaN,-0.5620975,-1.466604,-0.2915924,14.11129,NaN,NaN,0.0134797,0.8108056,0.05874468,1.042138,-2.253718E-06,1.371706
718.5973,-0.9967656,0.0004921029,NaN,-0.3243289,0.0004235889,NaN,0.3980191,-14.47357,NaN,-0.5620975,-1.466604,-0.2915924,14.11129,NaN,NaN,0.0134797,0.8108056,0.05874468,1.042138,-2.253718E-06,1.371706
718.6118,-0.9777427,0.0004923422,NaN,-0.3242489,0.0004239482,NaN,0.395516,-14.47433,NaN,-0.5648469,-1.469307,-0.2902432,14.11422,NaN,NaN,0.01282123,0.8101265,0.05759286,1.046087,-2.206333E-06,1.37769
718.6272,-0.9585853,0.0004925244,NaN,-0.3241667,0.0004245047,NaN,0.3931311,-14.47413,NaN,-0.5675003,-1.466476,-0.2889791,14.11122,NaN,NaN,0.01217572,0.8102624,0.05646361,1.041974,-2.162821E-06,1.376052
718.6423,-0.9394234,0.0004929285,NaN,-0.3240834,0.000424386,NaN,0.3908914,-14.47517,NaN,-0.570029,-1.476071,-0.2878224,14.12143,NaN,NaN,0.01154295,0.8094696,0.05535651,1.055928,-2.118416E-06,1.383627
718.6573,-0.9394234,0.0004929285,NaN,-0.3240834,0.000424386,NaN,0.3908914,-14.47517,NaN,-0.570029,-1.476071,-0.2878224,14.12143,NaN,NaN,0.01154295,0.8094696,0.05535651,1.055928,-2.118416E-06,1.383627
718.6713,-0.9196112,0.0004927666,NaN,-0.3239977,0.0004239519,NaN,0.3883781,-14.47448,NaN,-0.5728557,-1.471566,-0.2864478,14.11662,NaN,NaN,0.01092238,0.810092,0.05427112,1.049381,-2.079375E-06,1.378164
718.688,-0.8994727,0.0004928834,NaN,-0.3239092,0.0004241186,NaN,0.385881,-14.47379,NaN,-0.5756897,-1.469366,-0.2850777,14.11423,NaN,NaN,0.01031396,0.8107351,0.05320701,1.046171,-2.037354E-06,1.373524
718.7021,-0.8792134,0.0004928745,NaN,-0.3238186,0.0004244992,NaN,0.3835053,-14.47432,NaN,-0.5784248,-1.465851,-0.2837946,14.11059,NaN,NaN,0.00971753,0.8101349,0.05216376,1.041088,-1.997419E-06,1.375229
718.7169,-0.8792134,0.0004928745,NaN,-0.3238186,0.0004244992,NaN,0.3835053,-14.47432,NaN,-0.5784248,-1.465851,-0.2837946,14.11059,NaN,NaN,0.00971753,0.8101349,0.05216376,1.041088,-1.997419E-06,1.375229
718.7313,-0.8582351,0.0004934904,NaN,-0.3237247,0.0004243338,NaN,0.3808722,-14.47421,NaN,-0.5814549,-1.477237,-0.2823068,14.12253,NaN,NaN,0.0091326,0.8105387,0.05114096,1.057595,-1.96106E-06,1.378061
718.7469,-0.8368923,0.0004941841,NaN,-0.3236272,0.0004239532,NaN,0.378274,-14.47421,NaN,-0.5844792,-1.479313,-0.2808378,14.12471,NaN,NaN,0.00855913,0.8105687,0.05013822,1.060606,-1.920827E-06,1.379882
718.7621,-0.8154096,0.000494899,NaN,-0.323527,0.0004240241,NaN,0.3758144,-14.47398,NaN,-0.5873899,-1.476413,-0.2794688,14.12162,NaN,NaN,0.007996977,0.8107526,0.04915515,1.056389,-1.884468E-06,1.378233
718.7772,-0.8154096,0.000494899,NaN,-0.323527,0.0004240241,NaN,0.3758144,-14.47398,NaN,-0.5873899,-1.476413,-0.2794688,14.12162,NaN,NaN,0.007996977,0.8107526,0.04915515,1.056389,-1.884468E-06,1.378233
718.7915,-0.7939287,0.0004948827,NaN,-0.3234253,0.0004241306,NaN,0.3735168,-14.47306,NaN,-0.5901593,-1.466951,-0.2782192,14.11156,NaN,NaN,0.007445932,0.811519,0.04819134,1.042631,-1.848109E-06,1.371192
718.8073,-0.7718112,0.0004950486,NaN,-0.323321,0.0004243229,NaN,0.3709821,-14.47485,NaN,-0.593215,-1.469634,-0.2767833,14.11461,NaN,NaN,0.006905521,0.8098028,0.04724644,1.046591,-1.81175E-06,1.381059
718.8223,-0.7493859,0.0004949071,NaN,-0.3232138,0.0004246062,NaN,0.3684818,-14.47413,NaN,-0.5962664,-1.465794,-0.275366,14.11048,NaN,NaN,0.006375705,0.8104314,0.04632006,1.040997,-1.778968E-06,1.375993
718.8386,-0.7493859,0.0004949071,NaN,-0.3232138,0.0004246062,NaN,0.3684818,-14.47413,NaN,-0.5962664,-1.465794,-0.275366,14.11048,NaN,NaN,0.006375705,0.8104314,0.04632006,1.040997,-1.778968E-06,1.375993
718.8515,-0.7268608,0.0004951888,NaN,-0.3231045,0.0004242126,NaN,0.3661137,-14.47459,NaN,-0.5992081,-1.477297,-0.274043,14.12262,NaN,NaN,0.005856334,0.8102722,0.04541184,1.057699,-1.743205E-06,1.383372
718.8672,-0.7043672,0.0004956705,NaN,-0.3229944,0.0004236091,NaN,0.3639008,-14.47379,NaN,-0.602012,-1.479112,-0.2728332,14.12444,NaN,NaN,0.005347234,0.8110885,0.04452143,1.060314,-1.709826E-06,1.378956
718.8833,-0.6812599,0.0004958631,NaN,-0.3228821,0.0004230501,NaN,0.3614578,-14.47373,NaN,-0.6051061,-1.475021,-0.2714438,14.12011,NaN,NaN,0.004847954,0.8110957,0.04364847,1.054367,-1.671679E-06,1.373173
718.8973,-0.6812599,0.0004958631,NaN,-0.3228821,0.0004230501,NaN,0.3614578,-14.47373,NaN,-0.6051061,-1.475021,-0.2714438,14.12011,NaN,NaN,0.004847954,0.8110957,0.04364847,1.054367,-1.671679E-06,1.373173
718.9114,-0.6578634,0.0004959578,NaN,-0.3227674,0.0004227387,NaN,0.359049,-14.47364,NaN,-0.6081972,-1.472435,-0.270072,14.11737,NaN,NaN,0.004358464,0.8111278,0.04279264,1.050606,-1.639493E-06,1.377514
718.9273,-0.6343828,0.0004958552,NaN,-0.3226508,0.0004223761,NaN,0.3567702,-14.47402,NaN,-0.6111785,-1.471288,-0.2687917,14.1162,NaN,NaN,0.003878632,0.8107274,0.04195358,1.048948,-1.606114E-06,1.373657
718.9423,-0.6109477,0.0004959069,NaN,-0.3225337,0.000422479,NaN,0.3546444,-14.47507,NaN,-0.6140215,-1.469315,-0.267622,14.11424,NaN,NaN,0.00340828,0.8096324,0.04113098,1.046112,-1.576312E-06,1.378997
718.9574,-0.6109477,0.0004959069,NaN,-0.3225337,0.000422479,NaN,0.3546444,-14.47507,NaN,-0.6140215,-1.469315,-0.267622,14.11424,NaN,NaN,0.00340828,0.8096324,0.04113098,1.046112,-1.576312E-06,1.378997
718.9716,-0.5870838,0.0004951743,NaN,-0.3224154,0.0004220987,NaN,0.3501478,-14.4741,NaN,-0.6202475,-1.465479,-0.264612,14.11008,NaN,NaN,0.005938679,0.8105114,0.04067348,1.040517,-1.538165E-06,1.372962
718.9875,-0.5630503,0.0004948482,NaN,-0.3222957,0.0004222094,NaN,0.3179897,-14.47391,NaN,-0.6594486,-1.467555,-0.2402627,14.11223,NaN,NaN,0.03708252,0.8107489,0.04565633,1.043518,-1.026786E-05,1.372494
719.0027,-0.5390108,0.000494345,NaN,-0.3221754,0.0004222444,NaN,0.2907525,-14.47415,NaN,-0.6967251,-1.466156,-0.2205239,14.11078,NaN,NaN,0.06275392,0.8104705,0.04944807,1.041495,-1.006997E-05,1.370522
719.0178,-0.5390108,0.000494345,NaN,-0.3221754,0.0004222444,NaN,0.2907525,-14.47415,NaN,-0.6967251,-1.466156,-0.2205239,14.11078,NaN,NaN,0.06275392,0.8104705,0.04944807,1.041495,-1.006997E-05,1.370522
719.0322,-0.5150682,0.000494101,NaN,-0.3220555,0.0004225327,NaN,0.2658988,-14.47389,NaN,-0.7343621,-1.467156,-0.20305,14.11179,NaN,NaN,0.0876468,0.8107508,0.0531285,1.042933,-9.871489E-06,1.372205
719.0478,-0.4912866,0.0004944887,NaN,-0.3219372,0.00042226,NaN,0.2435109,-14.47431,NaN,-0.7715263,-1.477858,-0.1877412,14.1231,NaN,NaN,0.1116899,0.810596,0.05680235,1.058479,-9.678966E-06,1.377152
719.064,-0.467706,0.0004945808,NaN,-0.3218212,0.0004227528,NaN,0.2231809,-14.47395,NaN,-0.808152,-1.466586,-0.1741858,14.1112,NaN,NaN,0.1351337,0.8107726,0.06057394,1.042113,-9.476311E-06,1.371766
719.078,-0.467706,0.0004945808,NaN,-0.3218212,0.0004227528,NaN,0.2231809,-14.47395,NaN,-0.808152,-1.466586,-0.1741858,14.1112,NaN,NaN,0.1351337,0.8107726,0.06057394,1.042113,-9.476311E-06,1.371766
719.0925,-0.4443505,0.0004948431,NaN,-0.3217085,0.0004223857,NaN,0.2046276,-14.47405,NaN,-0.8441252,-1.477397,-0.1621052,14.12258,NaN,NaN,0.1579944,0.8109503,0.06447189,1.057804,-9.283192E-06,1.375725
719.1081,-0.4212343,0.0004948071,NaN,-0.3215994,0.0004225617,NaN,0.1876027,-14.47375,NaN,-0.8793968,-1.467799,-0.1512666,14.11244,NaN,NaN,0.1802846,0.8110955,0.06850796,1.043863,-9.096629E-06,1.370946
719.1231,-0.3983657,0.0004945109,NaN,-0.3214945,0.0004224929,NaN,0.1719016,-14.47408,NaN,-0.9139391,-1.468453,-0.141483,14.11316,NaN,NaN,0.2020081,0.8107795,0.07268389,1.044822,-8.927352E-06,1.371701
719.138,-0.3983657,0.0004945109,NaN,-0.3214945,0.0004224929,NaN,0.1719016,-14.47408,NaN,-0.9139391,-1.468453,-0.141483,14.11316,NaN,NaN,0.2020081,0.8107795,0.07268389,1.044822,-8.927352E-06,1.371701
719.1526,-0.3757485,0.000494724,NaN,-0.3213938,0.0004218588,NaN,0.1573556,-14.47425,NaN,-0.9477369,-1.478599,-0.1326023,14.12385,NaN,NaN,0.2231684,0.8108486,0.07699687,1.059548,-8.753605E-06,1.377782
719.1686,-0.3533842,0.0004947885,NaN,-0.3212977,0.0004212479,NaN,0.1438231,-14.47447,NaN,-0.9807859,-1.474695,-0.1244989,14.11976,NaN,NaN,0.2437731,0.8105735,0.08144242,1.053884,-8.595354E-06,1.374644
719.1838,-0.3312728,0.0004953545,NaN,-0.3212061,0.0004207065,NaN,0.1311867,-14.47492,NaN,-1.013084,-1.479187,-0.1170696,14.12452,NaN,NaN,0.2638279,0.8101965,0.08601432,1.060409,-8.433528E-06,1.381486
719.1987,-0.3312728,0.0004953545,NaN,-0.3212061,0.0004207065,NaN,0.1311867,-14.47492,NaN,-1.013084,-1.479187,-0.1170696,14.12452,NaN,NaN,0.2638279,0.8101965,0.08601432,1.060409,-8.433528E-06,1.381486
719.2134,-0.309413,0.0004954779,NaN,-0.3211191,0.0004204366,NaN,0.1193462,-14.47356,NaN,-1.044636,-1.471113,-0.1102275,14.11588,NaN,NaN,0.2833437,0.8114479,0.09070654,1.048669,-8.274533E-06,1.37245
719.2289,-0.2878031,0.0004956559,NaN,-0.3210365,0.0004205833,NaN,0.1082169,-14.47464,NaN,-1.07545,-1.470311,-0.1038998,14.11516,NaN,NaN,0.3023307,0.8103568,0.09551238,1.047536,-8.104659E-06,1.377476
719.2451,-0.2664409,0.0004963347,NaN,-0.3209584,0.000420385,NaN,0.09772704,-14.47351,NaN,-1.105531,-1.47862,-0.09802531,14.12375,NaN,NaN,0.3207987,0.8116686,0.1004248,1.05955,-7.947899E-06,1.373234
719.2593,-0.2664409,0.0004963347,NaN,-0.3209584,0.000420385,NaN,0.09772704,-14.47351,NaN,-1.105531,-1.47862,-0.09802531,14.12375,NaN,NaN,0.3207987,0.8116686,0.1004248,1.05955,-7.947899E-06,1.373234
719.2734,-0.2516975,0.0004964417,NaN,-0.3209053,0.0004203744,NaN,0.09089715,-14.47298,NaN,-1.125947,-1.469893,-0.09421366,14.11448,NaN,NaN,0.3344065,0.8120835,0.1046204,1.046855,-7.788159E-06,1.366208
719.2891,-0.2411796,0.0004966254,NaN,-0.3208851,0.000419588,NaN,0.08604877,-14.4744,NaN,-1.140702,-1.479671,-0.09160439,14.12496,NaN,NaN,0.3447679,0.8108921,0.1083229,1.061106,-7.63259E-06,1.376002
719.3055,-0.2333648,0.0004963671,NaN,-0.3208899,0.0004193746,NaN,0.0824652,-14.47344,NaN,-1.151666,-1.467962,-0.08975594,14.11253,NaN,NaN,0.3526785,0.811716,0.1116065,1.044087,-7.486112E-06,1.366324
719.3193,-0.2333648,0.0004963671,NaN,-0.3208899,0.0004193746,NaN,0.0824652,-14.47344,NaN,-1.151666,-1.467962,-0.08975594,14.11253,NaN,NaN,0.3526785,0.811716,0.1116065,1.044087,-7.486112E-06,1.366324
719.3338,-0.2272837,0.000496049,NaN,-0.320913,0.0004187811,NaN,0.07967028,-14.4745,NaN,-1.160218,-1.473425,-0.08836772,14.11841,NaN,NaN,0.3589676,0.8108108,0.114596,1.052054,-7.341273E-06,1.371972
719.3496,-0.2223193,0.0004956327,NaN,-0.3209494,0.0004187477,NaN,0.07738282,-14.4737,NaN,-1.16722,-1.46681,-0.08726706,14.11135,NaN,NaN,0.3641916,0.8114947,0.1173795,1.042427,-7.199712E-06,1.367856
719.3646,-0.2180783,0.0004954359,NaN,-0.3209945,0.0004180477,NaN,0.07542848,-14.47475,NaN,-1.173222,-1.476933,-0.08635101,14.12214,NaN,NaN,0.3687177,0.8107265,0.120019,1.057163,-7.055767E-06,1.375534
719.3798,-0.2180783,0.0004954359,NaN,-0.3209945,0.0004180477,NaN,0.07542848,-14.47475,NaN,-1.173222,-1.476933,-0.08635101,14.12214,NaN,NaN,0.3687177,0.8107265,0.120019,1.057163,-7.055767E-06,1.375534
719.3943,-0.2143104,0.0004947853,NaN,-0.3210453,0.0004176689,NaN,0.07369826,-14.4734,NaN,-1.178569,-1.466882,-0.08555754,14.11141,NaN,NaN,0.372781,0.8119363,0.1225556,1.042543,-6.91957E-06,1.365853
719.4101,-0.210856,0.0004938698,NaN,-0.3210995,0.0004172518,NaN,0.07141343,-14.47326,NaN,-1.18304,-1.465977,-0.08743945,14.11043,NaN,NaN,0.3762573,0.8120633,0.1266232,1.041222,-6.787844E-06,1.364659
719.4261,-0.2076133,0.0004926447,NaN,-0.3211559,0.0004166595,NaN,0.06869134,-14.47331,NaN,-1.186996,-1.465457,-0.09023182,14.10989,NaN,NaN,0.3793236,0.8120147,0.130871,1.040466,-6.653734E-06,1.365477
719.4399,-0.2076133,0.0004926447,NaN,-0.3211559,0.0004166595,NaN,0.06869134,-14.47331,NaN,-1.186996,-1.465457,-0.09023182,14.10989,NaN,NaN,0.3793236,0.8120147,0.130871,1.040466,-6.653734E-06,1.365477
719.4544,-0.2045173,0.0004927142,NaN,-0.3212133,0.0004160026,NaN,0.06588053,-14.47369,NaN,-1.190573,-1.477359,-0.09327233,14.12248,NaN,NaN,0.382042,0.8119617,0.1348619,1.057773,-6.520219E-06,1.369946
719.4701,-0.2015267,0.0004921267,NaN,-0.3212712,0.0004154335,NaN,0.06344119,-14.47364,NaN,-1.193988,-1.467377,-0.09662936,14.11194,NaN,NaN,0.3846094,0.8118715,0.1382971,1.043265,-6.388493E-06,1.367759
719.4852,-0.1986147,0.0004922134,NaN,-0.3213293,0.00041538,NaN,0.061228,-14.47345,NaN,-1.197357,-1.471156,-0.09874284,14.1159,NaN,NaN,0.3871781,0.8121663,0.1410762,1.04875,-6.263323E-06,1.366287
719.5003,-0.1957645,0.0004923688,NaN,-0.3213871,0.0004159587,NaN,0.0592295,-14.47385,NaN,-1.200822,-1.466386,-0.1004247,14.11092,NaN,NaN,0.3898773,0.8116647,0.1436893,1.041832,-6.136067E-06,1.368959
719.5154,-0.1957645,0.0004923688,NaN,-0.3213871,0.0004159587,NaN,0.0592295,-14.47385,NaN,-1.200822,-1.466386,-0.1004247,14.11092,NaN,NaN,0.3898773,0.8116647,0.1436893,1.041832,-6.136067E-06,1.368959
719.53,-0.1929651,0.0004925275,NaN,-0.3214447,0.0004164725,NaN,0.05736384,-14.47442,NaN,-1.204281,-1.466883,-0.1020076,14.11151,NaN,NaN,0.3926048,0.8111179,0.1462684,1.042574,-6.015368E-06,1.372098
719.5459,-0.1902093,0.0004924334,NaN,-0.321502,0.0004169277,NaN,0.05557633,-14.47406,NaN,-1.207715,-1.464828,-0.1035757,14.10929,NaN,NaN,0.3953358,0.8114281,0.1488176,1.039577,-5.900331E-06,1.369267
719.5611,-0.1874924,0.0004925501,NaN,-0.3215587,0.0004170875,NaN,0.05416104,-14.4752,NaN,-1.211321,-1.47047,-0.1040179,14.11539,NaN,NaN,0.3981855,0.8104476,0.1506407,1.047815,-5.782612E-06,1.377365
719.5762,-0.1874924,0.0004925501,NaN,-0.3215587,0.0004170875,NaN,0.05416104,-14.4752,NaN,-1.211321,-1.47047,-0.1040179,14.11539,NaN,NaN,0.3981855,0.8104476,0.1506407,1.047815,-5.782612E-06,1.377365
719.5903,-0.1848114,0.0004929672,NaN,-0.321615,0.0004167331,NaN,0.0529973,-14.4749,NaN,-1.215001,-1.478249,-0.1040796,14.12352,NaN,NaN,0.401114,0.8109156,0.152324,1.059091,-5.669661E-06,1.378025
719.6071,-0.1821641,0.0004924519,NaN,-0.3216707,0.0004153962,NaN,0.05193278,-14.47413,NaN,-1.218706,-1.466782,-0.1040492,14.11137,NaN,NaN,0.4040793,0.8115299,0.1540344,1.04243,-5.556412E-06,1.368214
719.6211,-0.1795491,0.0004919604,NaN,-0.321726,0.0004147084,NaN,0.05091308,-14.47391,NaN,-1.222388,-1.4676,-0.1040057,14.1122,NaN,NaN,0.4070325,0.8117785,0.1557686,1.043615,-5.452998E-06,1.368962
719.6361,-0.1795491,0.0004919604,NaN,-0.321726,0.0004147084,NaN,0.05091308,-14.47391,NaN,-1.222388,-1.4676,-0.1040057,14.1122,NaN,NaN,0.4070325,0.8117785,0.1557686,1.043615,-5.452998E-06,1.368962
719.6506,-0.1769654,0.0004915849,NaN,-0.3217807,0.000413434,NaN,0.05022312,-14.47483,NaN,-1.226261,-1.477781,-0.1028256,14.12306,NaN,NaN,0.4100982,0.8111159,0.1568387,1.058442,-5.337067E-06,1.375218
719.6662,-0.1744122,0.0004913827,NaN,-0.3218349,0.0004134133,NaN,0.04975219,-14.47461,NaN,-1.230192,-1.467429,-0.1012672,14.11213,NaN,NaN,0.4131894,0.8111754,0.1577999,1.043406,-5.232461E-06,1.372964
719.6812,-0.1718888,0.000491375,NaN,-0.3218885,0.0004129482,NaN,0.04936132,-14.47526,NaN,-1.234119,-1.475158,-0.09962383,14.12034,NaN,NaN,0.4162645,0.8107192,0.158815,1.054651,-5.132922E-06,1.377442
719.6966,-0.1718888,0.000491375,NaN,-0.3218885,0.0004129482,NaN,0.04936132,-14.47526,NaN,-1.234119,-1.475158,-0.09962383,14.12034,NaN,NaN,0.4162645,0.8107192,0.158815,1.054651,-5.132922E-06,1.377442
719.7112,-0.1693946,0.0004910775,NaN,-0.3219416,0.0004129564,NaN,0.04929173,-14.474,NaN,-1.238243,-1.466693,-0.09682306,14.11129,NaN,NaN,0.4194426,0.8118184,0.1592309,1.042333,-5.03219E-06,1.368504
719.7269,-0.1669294,0.000490214,NaN,-0.3219942,0.0004126699,NaN,0.04942933,-14.47355,NaN,-1.242421,-1.464955,-0.09365398,14.1094,NaN,NaN,0.4226058,0.8122156,0.1595668,1.03979,-4.946657E-06,1.36584
719.7419,-0.1644926,0.0004903725,NaN,-0.3220463,0.0004121279,NaN,0.04964643,-14.47397,NaN,-1.24656,-1.47754,-0.09041861,14.12272,NaN,NaN,0.4256983,0.8121486,0.1599749,1.058093,-4.848608E-06,1.372073
719.7572,-0.1644926,0.0004903725,NaN,-0.3220463,0.0004121279,NaN,0.04964643,-14.47397,NaN,-1.24656,-1.47754,-0.09041861,14.12272,NaN,NaN,0.4256983,0.8121486,0.1599749,1.058093,-4.848608E-06,1.372073
719.7713,-0.1620838,0.0004907451,NaN,-0.3220978,0.0004127234,NaN,0.04988286,-14.47318,NaN,-1.250637,-1.469414,-0.08718938,14.11405,NaN,NaN,0.4287191,0.812817,0.1604698,1.046261,-4.76084E-06,1.366467
719.7884,-0.1597029,0.0004910067,NaN,-0.3221488,0.0004135695,NaN,0.05040182,-14.47355,NaN,-1.254896,-1.465445,-0.08281695,14.1099,NaN,NaN,0.4318291,0.8123587,0.1604005,1.0405,-4.663535E-06,1.368427
719.8022,-0.1573493,0.0004909309,NaN,-0.3221993,0.0004140271,NaN,0.05111749,-14.47354,NaN,-1.259194,-1.464802,-0.07809997,14.10921,NaN,NaN,0.4348823,0.812364,0.1602477,1.039563,-4.569956E-06,1.365786
719.8171,-0.1573493,0.0004909309,NaN,-0.3221993,0.0004140271,NaN,0.05111749,-14.47354,NaN,-1.259194,-1.464802,-0.07809997,14.10921,NaN,NaN,0.4348823,0.812364,0.1602477,1.039563,-4.569956E-06,1.365786
719.8314,-0.1550228,0.0004912035,NaN,-0.3222494,0.0004138302,NaN,0.05191337,-14.47458,NaN,-1.263426,-1.476166,-0.0733385,14.12134,NaN,NaN,0.43782,0.8116452,0.160168,1.056121,-4.471161E-06,1.374624
719.8473,-0.152723,0.0004913199,NaN,-0.3222989,0.000414466,NaN,0.05272493,-14.47342,NaN,-1.267574,-1.466095,-0.06859774,14.11059,NaN,NaN,0.4406593,0.8126439,0.1601926,1.041462,-4.385777E-06,1.366358
719.8625,-0.1504497,0.0004914505,NaN,-0.3223478,0.0004143372,NaN,0.05380443,-14.47465,NaN,-1.271895,-1.474396,-0.06270964,14.11951,NaN,NaN,0.4435809,0.8116464,0.1596976,1.053578,-4.292794E-06,1.372809
719.8774,-0.1504497,0.0004914505,NaN,-0.3223478,0.0004143372,NaN,0.05380443,-14.47465,NaN,-1.271895,-1.474396,-0.06270964,14.11951,NaN,NaN,0.4435809,0.8116464,0.1596976,1.053578,-4.292794E-06,1.372809
719.8923,-0.1482026,0.0004910856,NaN,-0.3223963,0.0004143692,NaN,0.05511525,-14.47334,NaN,-1.276188,-1.466396,-0.05635798,14.11092,NaN,NaN,0.4464191,0.8128105,0.1593089,1.041923,-4.204579E-06,1.364002
719.9078,-0.1459813,0.0004907692,NaN,-0.3224443,0.0004144046,NaN,0.05713801,-14.4743,NaN,-1.280794,-1.468672,-0.05057377,14.11344,NaN,NaN,0.4492736,0.8119226,0.1584232,1.045266,-4.126497E-06,1.36844
719.9231,-0.1437855,0.000490649,NaN,-0.3224919,0.0004146172,NaN,0.05933061,-14.47434,NaN,-1.285205,-1.469109,-0.04498694,14.1139,NaN,NaN,0.4518729,0.8118947,0.1575505,1.0459,-4.044392E-06,1.369316
719.9382,-0.1437855,0.000490649,NaN,-0.3224919,0.0004146172,NaN,0.05933061,-14.47434,NaN,-1.285205,-1.469109,-0.04498694,14.1139,NaN,NaN,0.4518729,0.8118947,0.1575505,1.0459,-4.044392E-06,1.369316
719.9524,-0.1416149,0.0004906712,NaN,-0.3225389,0.0004152264,NaN,0.06152133,-14.47399,NaN,-1.289642,-1.465493,-0.0380457,14.11004,NaN,NaN,0.4544633,0.8121551,0.1564878,1.040633,-3.965266E-06,1.36707
719.9691,-0.1394693,0.0004906393,NaN,-0.3225855,0.0004156737,NaN,0.0629749,-14.47468,NaN,-1.293779,-1.465976,-0.03000978,14.11063,NaN,NaN,0.4568124,0.8114891,0.1562845,1.04136,-3.892698E-06,1.370271
719.983,-0.1373484,0.0004906203,NaN,-0.3226316,0.0004162242,NaN,0.06382736,-14.47455,NaN,-1.297638,-1.46463,-0.02137428,14.10919,NaN,NaN,0.4589471,0.8115842,0.1568203,1.039397,-3.812529E-06,1.369876
719.998,-0.1373484,0.0004906203,NaN,-0.3226316,0.0004162242,NaN,0.06382736,-14.47455,NaN,-1.297638,-1.46463,-0.02137428,14.10919,NaN,NaN,0.4589471,0.8115842,0.1568203,1.039397,-3.812529E-06,1.369876
720.0125,-0.1352518,0.0004907107,NaN,-0.3226772,0.0004158347,NaN,0.06400257,-14.47554,NaN,-1.301275,-1.476283,-0.01075298,14.12159,NaN,NaN,0.4609094,0.8109208,0.1578588,1.056357,-3.736236E-06,1.376971
720.0284,-0.1331794,0.0004908147,NaN,-0.3227223,0.0004164451,NaN,0.06773752,-14.4744,NaN,-1.30586,-1.466556,-0.002578708,14.11122,NaN,NaN,0.4641033,0.811897,0.1556864,1.042209,-3.666945E-06,1.369974
720.0435,-0.1311308,0.0004910546,NaN,-0.322767,0.0004168163,NaN,0.07130654,-14.4752,NaN,-1.310724,-1.469546,0.005616222,14.11447,NaN,NaN,0.4675803,0.8111776,0.153973,1.046581,-3.602721E-06,1.374454
720.0585,-0.1311308,0.0004910546,NaN,-0.322767,0.0004168163,NaN,0.07130654,-14.4752,NaN,-1.310724,-1.469546,0.005616222,14.11447,NaN,NaN,0.4675803,0.8111776,0.153973,1.046581,-3.602721E-06,1.374454
720.0729,-0.1291057,0.00049107,NaN,-0.3228112,0.0004169422,NaN,0.07482212,-14.47488,NaN,-1.315517,-1.469533,0.01373722,14.11441,NaN,NaN,0.470969,0.8114973,0.1524772,1.046548,-3.533133E-06,1.370295
720.0887,-0.1271038,0.0004907169,NaN,-0.322855,0.0004166565,NaN,0.07868304,-14.47427,NaN,-1.320377,-1.470213,0.02294226,14.11504,NaN,NaN,0.4744578,0.8121109,0.1505185,1.047516,-3.465035E-06,1.368092
720.1038,-0.125125,0.0004910787,NaN,-0.3228983,0.000416107,NaN,0.08252116,-14.47463,NaN,-1.325218,-1.47873,0.03259251,14.12406,NaN,NaN,0.4779407,0.8119381,0.1487948,1.059902,-3.392913E-06,1.373947
720.119,-0.125125,0.0004910787,NaN,-0.3228983,0.000416107,NaN,0.08252116,-14.47463,NaN,-1.325218,-1.47873,0.03259251,14.12406,NaN,NaN,0.4779407,0.8119381,0.1487948,1.059902,-3.392913E-06,1.373947
720.1334,-0.123169,0.0004911856,NaN,-0.3229412,0.0004164872,NaN,0.08633944,-14.47424,NaN,-1.329975,-1.467092,0.04229081,14.11174,NaN,NaN,0.4813404,0.8121634,0.1472989,1.04298,-3.32556E-06,1.368161
720.15,-0.1212354,0.0004906597,NaN,-0.3229836,0.0004164385,NaN,0.09012078,-14.47373,NaN,-1.334626,-1.46554,0.05194011,14.11003,NaN,NaN,0.4846402,0.8126202,0.1460074,1.040702,-3.264763E-06,1.363835
720.1642,-0.119324,0.0004895086,NaN,-0.3230256,0.0004160008,NaN,0.09425028,-14.47352,NaN,-1.33932,-1.464185,0.06268649,14.10856,NaN,NaN,0.4880455,0.8127897,0.1442853,1.03872,-3.201433E-06,1.362484
720.1791,-0.119324,0.0004895086,NaN,-0.3230256,0.0004160008,NaN,0.09425028,-14.47352,NaN,-1.33932,-1.464185,0.06268649,14.10856,NaN,NaN,0.4880455,0.8127897,0.1442853,1.03872,-3.201433E-06,1.362484
720.1937,-0.1174347,0.0004888607,NaN,-0.3230671,0.0004149979,NaN,0.09835187,-14.47437,NaN,-1.343974,-1.47687,0.07387201,14.12207,NaN,NaN,0.4914238,0.8123041,0.1428143,1.057197,-3.13855E-06,1.371934
720.2097,-0.115567,0.000488131,NaN,-0.3231083,0.0004143894,NaN,0.1024318,-14.47344,NaN,-1.348529,-1.470047,0.08509546,14.11475,NaN,NaN,0.4947063,0.813107,0.1415806,1.047254,-3.079393E-06,1.364933
720.2245,-0.1137208,0.000487672,NaN,-0.323149,0.0004147851,NaN,0.1064707,-14.47393,NaN,-1.352971,-1.464364,0.09626217,14.1088,NaN,NaN,0.4978823,0.8124931,0.1405647,1.038999,-3.023215E-06,1.365131
720.2396,-0.1137208,0.000487672,NaN,-0.323149,0.0004147851,NaN,0.1064707,-14.47393,NaN,-1.352971,-1.464364,0.09626217,14.1088,NaN,NaN,0.4978823,0.8124931,0.1405647,1.038999,-3.023215E-06,1.365131
720.2553,-0.1118959,0.0004873331,NaN,-0.3231892,0.0004144333,NaN,0.110859,-14.47528,NaN,-1.357427,-1.473603,0.1085274,14.11873,NaN,NaN,0.5011611,0.8114085,0.1391475,1.052481,-2.963759E-06,1.374972
720.2698,-0.1100919,0.0004874608,NaN,-0.3232291,0.000415146,NaN,0.1152183,-14.47379,NaN,-1.361824,-1.466751,0.1212197,14.11132,NaN,NaN,0.5043924,0.812758,0.1379899,1.042485,-2.905719E-06,1.364489
720.285,-0.1083086,0.0004874475,NaN,-0.3232685,0.0004156174,NaN,0.1195529,-14.47442,NaN,-1.36611,-1.465842,0.1339403,14.11044,NaN,NaN,0.507519,0.812108,0.1370774,1.041185,-2.853789E-06,1.367685
720.3002,-0.1065459,0.000487324,NaN,-0.3233076,0.0004155748,NaN,0.1238423,-14.47516,NaN,-1.370278,-1.470858,0.146597,14.11582,NaN,NaN,0.5105335,0.8115048,0.1363938,1.0485,-2.795078E-06,1.372924
720.3153,-0.1065459,0.000487324,NaN,-0.3233076,0.0004155748,NaN,0.1238423,-14.47516,NaN,-1.370278,-1.470858,0.146597,14.11582,NaN,NaN,0.5105335,0.8115048,0.1363938,1.0485,-2.795078E-06,1.372924
720.3317,-0.1048034,0.0004872908,NaN,-0.3233462,0.0004161669,NaN,0.1284825,-14.47426,NaN,-1.37443,-1.464969,0.1603531,14.1095,NaN,NaN,0.5136482,0.8122653,0.1353351,1.039917,-2.737038E-06,1.367326
720.3454,-0.103081,0.0004866174,NaN,-0.3233844,0.000416167,NaN,0.133095,-14.47381,NaN,-1.3785,-1.464158,0.1745227,14.10858,NaN,NaN,0.5166954,0.8126896,0.1345396,1.038719,-2.686523E-06,1.36356
720.3604,-0.1013783,0.0004860699,NaN,-0.3234223,0.0004152653,NaN,0.1376791,-14.47452,NaN,-1.382454,-1.477235,0.1887116,14.12247,NaN,NaN,0.5196323,0.8123614,0.133996,1.057759,-2.636232E-06,1.371361
720.3755,-0.1013783,0.0004860699,NaN,-0.3234223,0.0004152653,NaN,0.1376791,-14.47452,NaN,-1.382454,-1.477235,0.1887116,14.12247,NaN,NaN,0.5196323,0.8123614,0.133996,1.057759,-2.636232E-06,1.371361
720.39,-0.09969524,0.0004858246,NaN,-0.3234597,0.0004156069,NaN,0.1426119,-14.47372,NaN,-1.38636,-1.46709,0.2040251,14.11167,NaN,NaN,0.5226555,0.8129931,0.1331211,1.04299,-2.588027E-06,1.363393
720.4055,-0.09803153,0.0004855327,NaN,-0.3234968,0.0004159713,NaN,0.1475199,-14.47406,NaN,-1.390164,-1.465581,0.2197423,14.11012,NaN,NaN,0.5255926,0.812621,0.1325223,1.040805,-2.541609E-06,1.365431
720.4206,-0.09638694,0.000485872,NaN,-0.3235334,0.000415721,NaN,0.1523933,-14.47407,NaN,-1.393839,-1.477241,0.2354718,14.12242,NaN,NaN,0.5284076,0.8129203,0.132192,1.057754,-2.490945E-06,1.370612
720.4359,-0.09638694,0.000485872,NaN,-0.3235334,0.000415721,NaN,0.1523933,-14.47407,NaN,-1.393839,-1.477241,0.2354718,14.12242,NaN,NaN,0.5284076,0.8129203,0.132192,1.057754,-2.490945E-06,1.370612
720.4503,-0.09476126,0.0004859261,NaN,-0.3235697,0.0004161518,NaN,0.1572115,-14.4741,NaN,-1.397379,-1.466619,0.251123,14.11119,NaN,NaN,0.5310963,0.8127228,0.1321152,1.042302,-2.442815E-06,1.366375
720.4661,-0.09315427,0.0004865185,NaN,-0.3236056,0.0004160066,NaN,0.1623794,-14.47396,NaN,-1.400837,-1.477273,0.2678715,14.12241,NaN,NaN,0.5338752,0.8131403,0.1317112,1.057785,-2.399601E-06,1.369962
720.4813,-0.09156575,0.0004862102,NaN,-0.3236411,0.0004152387,NaN,0.1675235,-14.47491,NaN,-1.404181,-1.473047,0.2850036,14.11804,NaN,NaN,0.5365609,0.81212,0.1315765,1.051654,-2.351024E-06,1.373411
720.4963,-0.09156575,0.0004862102,NaN,-0.3236411,0.0004152387,NaN,0.1675235,-14.47491,NaN,-1.404181,-1.473047,0.2850036,14.11804,NaN,NaN,0.5365609,0.81212,0.1315765,1.051654,-2.351024E-06,1.373411
