JMolnar6/NonAnthroHands_User_Study/HandsLoggerWithURDF/tempdata/PID 0 (test)/files/Reachy_PID0_JointMotion_gesture_7_3.csv
Time,r_shoulder,r_shoulder_x,r_upper_arm,r_forearm,r_wrist,r_wrist2hand,
547.2729,-0.1161313,-0.3272704,0.4647608,-2.14125,-0.3568868,-0.019101
547.2891,-0.1162786,-0.3272689,0.4647745,-2.141338,-0.3569091,-0.01911877
547.3028,-0.1164241,-0.3272674,0.4647879,-2.141426,-0.356931,-0.01913618
547.3172,-0.1164241,-0.3272674,0.4647879,-2.141426,-0.356931,-0.01913618
547.3312,-0.116568,-0.3272659,0.4648011,-2.141512,-0.3569525,-0.01915327
547.3466,-0.1167103,-0.3272644,0.4648139,-2.141598,-0.3569736,-0.01917001
547.3613,-0.1168509,-0.3272629,0.4648265,-2.141683,-0.3569943,-0.01918642
547.3767,-0.1168509,-0.3272629,0.4648265,-2.141683,-0.3569943,-0.01918642
547.3904,-0.1169899,-0.3272614,0.4648388,-2.141767,-0.3570146,-0.01920251
547.406,-0.1171273,-0.32726,0.4648508,-2.14185,-0.3570345,-0.01921828
547.421,-0.1172631,-0.3272585,0.4648626,-2.141932,-0.3570541,-0.01923374
547.4356,-0.1172631,-0.3272585,0.4648626,-2.141932,-0.3570541,-0.01923374
547.4499,-0.1173973,-0.3272571,0.4648741,-2.142014,-0.3570732,-0.0192489
547.4654,-0.11753,-0.3272557,0.4648853,-2.142095,-0.357092,-0.01926377
547.4802,-0.1176612,-0.3272543,0.4648963,-2.142174,-0.3571105,-0.01927834
547.4952,-0.1176612,-0.3272543,0.4648963,-2.142174,-0.3571105,-0.01927834
547.5093,-0.1177908,-0.3272529,0.4649071,-2.142254,-0.3571286,-0.01929262
547.5255,-0.117919,-0.3272516,0.4649176,-2.142332,-0.3571464,-0.01930662
547.5397,-0.117919,-0.3272516,0.4649176,-2.142332,-0.3571464,-0.01930662
547.5536,-0.1180457,-0.3272502,0.4649278,-2.142409,-0.3571638,-0.01932035
547.5689,-0.1181709,-0.3272489,0.4649379,-2.142486,-0.3571809,-0.01933382
547.5836,-0.1182947,-0.3272476,0.4649477,-2.142562,-0.3571977,-0.01934701
547.5984,-0.1182947,-0.3272476,0.4649477,-2.142562,-0.3571977,-0.01934701
547.6128,-0.118417,-0.3272462,0.4649572,-2.142637,-0.3572142,-0.01935995
547.6282,-0.118538,-0.327245,0.4649666,-2.142711,-0.3572303,-0.01937263
547.6429,-0.1186575,-0.3272437,0.4649757,-2.142785,-0.3572462,-0.01938507
547.6578,-0.1186575,-0.3272437,0.4649757,-2.142785,-0.3572462,-0.01938507
547.6721,-0.1187757,-0.3272424,0.4649846,-2.142858,-0.3572617,-0.01939726
547.6878,-0.1188925,-0.3272412,0.4649933,-2.14293,-0.357277,-0.0194092
547.7025,-0.119008,-0.3272399,0.4650018,-2.143001,-0.357292,-0.01942092
547.7174,-0.119008,-0.3272399,0.4650018,-2.143001,-0.357292,-0.01942092
547.7314,-0.1191221,-0.3272387,0.4650101,-2.143071,-0.3573067,-0.01943241
547.748,-0.1192349,-0.3272375,0.4650182,-2.143141,-0.3573212,-0.01944367
547.7616,-0.1193465,-0.3272363,0.4650261,-2.14321,-0.3573354,-0.01945471
547.7766,-0.1193465,-0.3272363,0.4650261,-2.14321,-0.3573354,-0.01945471
547.7905,-0.1194567,-0.3272351,0.4650338,-2.143279,-0.3573493,-0.01946553
547.806,-0.1195657,-0.3272339,0.4650413,-2.143347,-0.3573629,-0.01947614
547.8208,-0.1196734,-0.3272327,0.4650487,-2.143414,-0.3573763,-0.01948654
547.8357,-0.1196734,-0.3272327,0.4650487,-2.143414,-0.3573763,-0.01948654
547.8497,-0.1197799,-0.3272316,0.4650558,-2.14348,-0.3573895,-0.01949674
547.8653,-0.1198851,-0.3272304,0.4650628,-2.143545,-0.3574024,-0.01950673
547.8801,-0.1199892,-0.3272293,0.4650696,-2.14361,-0.3574151,-0.01951653
547.8951,-0.1199892,-0.3272293,0.4650696,-2.14361,-0.3574151,-0.01951653
547.9094,-0.120092,-0.3272282,0.4650762,-2.143675,-0.3574275,-0.01952614
547.9249,-0.1201937,-0.3272271,0.4650827,-2.143738,-0.3574397,-0.01953556
547.9398,-0.1201937,-0.3272271,0.4650827,-2.143738,-0.3574397,-0.01953556
547.954,-0.1202941,-0.327226,0.465089,-2.143801,-0.3574517,-0.01954479
547.9697,-0.1203935,-0.3272249,0.4650951,-2.143863,-0.3574634,-0.01955385
547.9853,-0.1204917,-0.3272238,0.4651011,-2.143925,-0.357475,-0.01956272
547.999,-0.1204917,-0.3272238,0.4651011,-2.143925,-0.357475,-0.01956272
548.0135,-0.1205887,-0.3272227,0.4651069,-2.143986,-0.3574864,-0.01957142
548.0286,-0.1206846,-0.3272217,0.4651126,-2.144046,-0.3574975,-0.01957995
548.0433,-0.1207795,-0.3272206,0.4651181,-2.144106,-0.3575085,-0.01958831
548.0582,-0.1207795,-0.3272206,0.4651181,-2.144106,-0.3575085,-0.01958831
548.0723,-0.1208732,-0.3272196,0.4651235,-2.144165,-0.3575192,-0.01959651
548.088,-0.1209659,-0.3272186,0.4651287,-2.144223,-0.3575297,-0.01960454
548.1027,-0.1210575,-0.3272176,0.4651338,-2.144281,-0.35754,-0.01961242
548.1173,-0.1210575,-0.3272176,0.4651338,-2.144281,-0.35754,-0.01961242
548.1315,-0.121148,-0.3272166,0.4651387,-2.144339,-0.3575502,-0.01962015
548.1472,-0.1212375,-0.3272156,0.4651435,-2.144395,-0.3575602,-0.01962772
548.1619,-0.1213259,-0.3272146,0.4651482,-2.144451,-0.35757,-0.01963514
548.1771,-0.1213259,-0.3272146,0.4651482,-2.144451,-0.35757,-0.01963514
548.1911,-0.1214134,-0.3272137,0.4651527,-2.144507,-0.3575796,-0.01964242
548.2078,-0.1214998,-0.3272127,0.4651572,-2.144562,-0.3575891,-0.01964956
548.2216,-0.1215852,-0.3272118,0.4651614,-2.144616,-0.3575983,-0.01965655
548.2365,-0.1215852,-0.3272118,0.4651614,-2.144616,-0.3575983,-0.01965655
548.2505,-0.1216697,-0.3272108,0.4651656,-2.14467,-0.3576074,-0.01966341
548.2654,-0.1217532,-0.3272099,0.4651697,-2.144723,-0.3576164,-0.01967013
548.2814,-0.1211085,-0.3272066,0.4650036,-2.145161,-0.3576206,-0.01967644
548.2952,-0.1211085,-0.3272066,0.4650036,-2.145161,-0.3576206,-0.01967644
548.3093,-0.1200083,-0.3272022,0.4647647,-2.145711,-0.3576729,-0.01968267
548.325,-0.1186261,-0.3271974,0.4645174,-2.146267,-0.357746,-0.01968884
548.3402,-0.1170722,-0.3271924,0.4642859,-2.146792,-0.3578218,-0.01969491
548.3547,-0.1170722,-0.3271924,0.4642859,-2.146792,-0.3578218,-0.01969491
548.3689,-0.1161451,-0.3271899,0.464245,-2.146892,-0.3578987,-0.01970117
548.3843,-0.1156164,-0.3271886,0.4642957,-2.146842,-0.3579215,-0.01970725
548.3989,-0.1156164,-0.3271886,0.4642957,-2.146842,-0.3579215,-0.01970725
548.4133,-0.1153404,-0.3271879,0.4643695,-2.146757,-0.3579179,-0.01971317
548.4289,-0.1159519,-0.3271888,0.4646089,-2.146292,-0.357912,-0.01971923
548.4445,-0.1171192,-0.3271903,0.4649099,-2.145732,-0.357858,-0.0197251
548.4586,-0.1171192,-0.3271903,0.4649099,-2.145732,-0.357858,-0.0197251
548.4726,-0.1186314,-0.3271915,0.465208,-2.145185,-0.3577856,-0.01973081
548.488,-0.1203543,-0.3271923,0.4654812,-2.144685,-0.3577129,-0.01973636
548.5027,-0.1229308,-0.327195,0.4658974,-2.143849,-0.3576511,-0.01974209
548.5173,-0.1229308,-0.327195,0.4658974,-2.143849,-0.3576511,-0.01974209
548.5313,-0.1260336,-0.3271979,0.4663636,-2.142943,-0.3575473,-0.01974763
548.5469,-0.1294545,-0.3272003,0.4668199,-2.142066,-0.3574282,-0.01975301
548.5618,-0.1330613,-0.3272019,0.4672461,-2.141249,-0.3573107,-0.01975824
548.5766,-0.1330613,-0.3272019,0.4672461,-2.141249,-0.3573107,-0.01975824
548.5907,-0.1374982,-0.327205,0.4678109,-2.140106,-0.3572041,-0.01976363
548.6063,-0.1424388,-0.3272078,0.468421,-2.138904,-0.3570566,-0.01976885
548.6211,-0.1476755,-0.3272095,0.4690168,-2.13774,-0.356895,-0.01977389
548.6361,-0.1476755,-0.3272095,0.4690168,-2.13774,-0.356895,-0.01977389
548.6504,-0.153805,-0.3272123,0.4697487,-2.136259,-0.3567383,-0.01977909
548.6655,-0.1604704,-0.327214,0.4705171,-2.134734,-0.356541,-0.01978409
548.6813,-0.167445,-0.3272145,0.4712616,-2.133266,-0.356332,-0.01978892
548.6952,-0.167445,-0.3272145,0.4712616,-2.133266,-0.356332,-0.01978892
548.7094,-0.174585,-0.3272143,0.4719632,-2.131882,-0.3561285,-0.01979362
548.7245,-0.1825273,-0.3272148,0.4727927,-2.130196,-0.3559356,-0.01979847
548.7393,-0.1825273,-0.3272148,0.4727927,-2.130196,-0.3559356,-0.01979847
548.7534,-0.1909411,-0.3272147,0.4736559,-2.128472,-0.3557051,-0.01980314
548.769,-0.1996162,-0.3272137,0.4744943,-2.126807,-0.3554641,-0.01980766
548.7837,-0.2084194,-0.3272121,0.4752893,-2.125229,-0.355229,-0.01981203
548.7985,-0.2084194,-0.3272121,0.4752893,-2.125229,-0.355229,-0.01981203
548.8126,-0.2179946,-0.3272114,0.4762112,-2.123353,-0.3550022,-0.01981656
548.8284,-0.2280152,-0.3272099,0.4771639,-2.121442,-0.3547385,-0.01982091
548.8432,-0.2382741,-0.3272076,0.4780889,-2.119596,-0.3544655,-0.01982511
548.858,-0.2382741,-0.3272076,0.4780889,-2.119596,-0.3544655,-0.01982511
548.8724,-0.2493683,-0.3272058,0.4791389,-2.117457,-0.3541949,-0.01982943
548.8878,-0.2609412,-0.3272029,0.4802112,-2.115298,-0.3538882,-0.01983356
548.9036,-0.2727669,-0.3271981,0.4812471,-2.113219,-0.3535742,-0.01983754
548.9183,-0.2727669,-0.3271981,0.4812471,-2.113219,-0.3535742,-0.01983754
548.9314,-0.2847019,-0.3271912,0.4822293,-2.111245,-0.3532693,-0.0198414
548.9483,-0.2973839,-0.3271851,0.4833293,-2.108994,-0.3529716,-0.01984539
548.9615,-0.3104828,-0.3271773,0.4844496,-2.106727,-0.3526403,-0.01984919
548.9764,-0.3104828,-0.3271773,0.4844496,-2.106727,-0.3526403,-0.01984919
548.9905,-0.3237888,-0.3271673,0.4855334,-2.104539,-0.3523032,-0.01985286
549.0059,-0.3371694,-0.3271553,0.4865636,-2.102458,-0.3519757,-0.0198564
549.0209,-0.3512691,-0.3271441,0.4877116,-2.100101,-0.3516527,-0.01986006
549.0358,-0.3512691,-0.3271441,0.4877116,-2.100101,-0.3516527,-0.01986006
549.05,-0.3657619,-0.3271312,0.4888775,-2.09773,-0.3512973,-0.01986356
549.0654,-0.3804413,-0.327116,0.4900047,-2.095442,-0.3509375,-0.01986691
549.0804,-0.3951765,-0.3270987,0.4910764,-2.093265,-0.3505886,-0.01987016
549.0952,-0.3951765,-0.3270987,0.4910764,-2.093265,-0.3505886,-0.01987016
549.1103,-0.4106133,-0.3270824,0.4922642,-2.090817,-0.350242,-0.01987352
549.1248,-0.4264266,-0.3270642,0.4934663,-2.08836,-0.3498646,-0.01987672
549.1406,-0.4424105,-0.3270437,0.494627,-2.085991,-0.349485,-0.01987978
549.1545,-0.4424105,-0.3270437,0.494627,-2.085991,-0.349485,-0.01987978
549.1689,-0.4591629,-0.3270235,0.4959014,-2.083355,-0.3491024,-0.01988293
549.184,-0.4763283,-0.3270007,0.4971818,-2.080724,-0.348691,-0.01988592
549.1987,-0.4763283,-0.3270007,0.4971818,-2.080724,-0.348691,-0.01988592
549.2128,-0.4936816,-0.326975,0.4984127,-2.078195,-0.3482804,-0.01988878
549.2285,-0.5110801,-0.3269467,0.4995791,-2.075794,-0.3478847,-0.01989154
549.2435,-0.5291624,-0.3269192,0.5008539,-2.073141,-0.3474892,-0.01989438
549.2581,-0.5291624,-0.3269192,0.5008539,-2.073141,-0.3474892,-0.01989438
549.2725,-0.547599,-0.3268894,0.5021337,-2.070493,-0.3470677,-0.01989707
549.2883,-0.566181,-0.326857,0.5033649,-2.067946,-0.3466483,-0.01989964
549.303,-0.5847766,-0.3268225,0.504533,-2.065526,-0.3462443,-0.01990212
549.3181,-0.5847766,-0.3268225,0.504533,-2.065526,-0.3462443,-0.01990212
549.332,-0.604031,-0.3267889,0.5058101,-2.062854,-0.3458375,-0.01990467
549.3476,-0.623619,-0.3267533,0.5070908,-2.060188,-0.3454063,-0.01990709
549.3637,-0.6433346,-0.3267151,0.5083219,-2.057624,-0.3449788,-0.01990939
549.3776,-0.6433346,-0.3267151,0.5083219,-2.057624,-0.3449788,-0.01990939
549.3915,-0.663776,-0.3266774,0.5096599,-2.054811,-0.344544,-0.01991175
549.407,-0.6845881,-0.3266368,0.5109939,-2.052016,-0.3440872,-0.01991398
549.4216,-0.7055461,-0.326593,0.512271,-2.049337,-0.3436373,-0.01991609
549.4368,-0.7055461,-0.326593,0.512271,-2.049337,-0.3436373,-0.01991609
549.4508,-0.7265078,-0.3265467,0.5134783,-2.0468,-0.3432064,-0.01991811
549.4666,-0.747605,-0.3264996,0.5146698,-2.044288,-0.342789,-0.01992011
549.4811,-0.7686989,-0.3264515,0.5158176,-2.041872,-0.34238,-0.01992203
549.4961,-0.7686989,-0.3264515,0.5158176,-2.041872,-0.34238,-0.01992203
549.5104,-0.7897025,-0.3264026,0.5169106,-2.039572,-0.3419864,-0.01992387
549.5259,-0.8105613,-0.3263537,0.5179487,-2.03739,-0.3416104,-0.01992564
549.541,-0.8312417,-0.3263053,0.5189354,-2.035319,-0.3412516,-0.01992735
549.5557,-0.8312417,-0.3263053,0.5189354,-2.035319,-0.3412516,-0.01992735
549.5699,-0.8517234,-0.3262579,0.5198746,-2.033352,-0.3409091,-0.01992901
549.5865,-0.8719946,-0.3262117,0.52077,-2.031483,-0.3405817,-0.01993061
549.6002,-0.8920484,-0.326167,0.5216242,-2.029706,-0.3402683,-0.01993217
549.615,-0.8920484,-0.326167,0.5216242,-2.029706,-0.3402683,-0.01993217
549.629,-0.9118819,-0.326124,0.5224397,-2.028017,-0.3399684,-0.01993367
549.6445,-0.9314937,-0.3260828,0.5232183,-2.026412,-0.3396813,-0.01993512
549.6595,-0.9314937,-0.3260828,0.5232183,-2.026412,-0.3396813,-0.01993512
549.6735,-0.9508842,-0.3260433,0.5239616,-2.024887,-0.3394064,-0.01993653
549.6895,-0.9700545,-0.3260056,0.5246709,-2.023441,-0.3391435,-0.01993789
549.7042,-0.9890062,-0.3259696,0.5253474,-2.02207,-0.3388921,-0.01993921
549.7188,-0.9890062,-0.3259696,0.5253474,-2.02207,-0.3388921,-0.01993921
549.7329,-1.007741,-0.3259355,0.5259922,-2.020773,-0.3386519,-0.01994049
549.7487,-1.026261,-0.325903,0.5266063,-2.019548,-0.3384227,-0.01994172
549.7635,-1.044569,-0.3258722,0.5271905,-2.018392,-0.3382041,-0.01994292
549.7784,-1.044569,-0.3258722,0.5271905,-2.018392,-0.3382041,-0.01994292
549.7926,-1.062667,-0.3258431,0.5277458,-2.017305,-0.337996,-0.01994409
549.8092,-1.080557,-0.3258155,0.528273,-2.016284,-0.3377981,-0.01994521
549.8234,-1.098242,-0.3257895,0.528773,-2.015329,-0.33761,-0.01994631
549.8378,-1.098242,-0.3257895,0.528773,-2.015329,-0.33761,-0.01994631
549.8517,-1.115723,-0.325765,0.5292464,-2.014436,-0.3374317,-0.01994736
549.8672,-1.133004,-0.3257419,0.5296942,-2.013606,-0.3372628,-0.01994839
549.8819,-1.150086,-0.3257203,0.5301169,-2.012836,-0.3371032,-0.01994939
549.8969,-1.150086,-0.3257203,0.5301169,-2.012836,-0.3371032,-0.01994939
549.911,-1.166972,-0.3257,0.5305154,-2.012124,-0.3369525,-0.01995036
549.9266,-1.183663,-0.3256811,0.5308902,-2.01147,-0.3368106,-0.0199513
549.9412,-1.200163,-0.3256635,0.5312421,-2.010872,-0.3366773,-0.01995222
549.9562,-1.200163,-0.3256635,0.5312421,-2.010872,-0.3366773,-0.01995222
549.9705,-1.216474,-0.3256471,0.5315718,-2.010328,-0.3365524,-0.0199531
549.986,-1.232597,-0.3256319,0.5318798,-2.009838,-0.3364356,-0.01995396
550.0009,-1.248534,-0.3256179,0.5321668,-2.009399,-0.3363268,-0.0199548
550.0154,-1.248534,-0.3256179,0.5321668,-2.009399,-0.3363268,-0.0199548
550.0319,-1.264288,-0.325605,0.5324333,-2.009012,-0.3362257,-0.01995561
550.045,-1.279862,-0.3255933,0.53268,-2.008673,-0.3361322,-0.0199564
550.0598,-1.279862,-0.3255933,0.53268,-2.008673,-0.3361322,-0.0199564
550.0739,-1.295035,-0.3255818,0.5328563,-2.008496,-0.3360569,-0.01995715
550.0894,-1.309893,-0.3255717,0.5329987,-2.0084,-0.3359989,-0.01995789
550.1038,-1.324492,-0.3255631,0.5331236,-2.00835,-0.3359498,-0.0199586
550.1187,-1.324492,-0.3255631,0.5331236,-2.00835,-0.3359498,-0.0199586
550.1326,-1.338137,-0.3255538,0.5330682,-2.008711,-0.3359423,-0.01995923
550.1481,-1.351126,-0.3255466,0.5329514,-2.009213,-0.3359725,-0.01995988
550.163,-1.363648,-0.3255424,0.5328253,-2.009751,-0.3360139,-0.01996053
550.1779,-1.363648,-0.3255424,0.5328253,-2.009751,-0.3360139,-0.01996053
550.192,-1.375824,-0.3255405,0.5327049,-2.010291,-0.3360559,-0.01996118
550.2075,-1.387004,-0.3255387,0.5324233,-2.011201,-0.3361319,-0.01996172
550.2222,-1.39751,-0.3255382,0.5320954,-2.012218,-0.3362395,-0.01996229
550.2372,-1.39751,-0.3255382,0.5320954,-2.012218,-0.3362395,-0.01996229
550.2513,-1.407548,-0.3255391,0.5317705,-2.013244,-0.3363532,-0.01996287
550.2666,-1.41725,-0.3255409,0.5314612,-2.014247,-0.3364636,-0.01996343
550.2826,-1.425972,-0.3255421,0.5309986,-2.0156,-0.3366041,-0.0199639
550.2964,-1.425972,-0.3255421,0.5309986,-2.0156,-0.3366041,-0.0199639
550.3103,-1.434041,-0.3255443,0.5304965,-2.017044,-0.3367739,-0.0199644
550.3256,-1.441666,-0.3255476,0.5300037,-2.018481,-0.3369479,-0.01996491
550.3405,-1.448979,-0.3255527,0.5295321,-2.019881,-0.3371169,-0.0199654
550.3553,-1.448979,-0.3255527,0.5295321,-2.019881,-0.3371169,-0.0199654
550.3695,-1.455337,-0.3255572,0.5289124,-2.021618,-0.3373125,-0.0199658
550.3847,-1.461069,-0.3255631,0.5282576,-2.023433,-0.3375365,-0.01996623
550.3994,-1.461069,-0.3255631,0.5282576,-2.023433,-0.3375365,-0.01996623
550.4138,-1.466382,-0.3255711,0.5276167,-2.025229,-0.3377633,-0.01996666
550.4293,-1.470681,-0.3255787,0.5268329,-2.027352,-0.3380153,-0.019967
550.444,-1.474325,-0.3255875,0.5260222,-2.029536,-0.3382937,-0.01996736
550.459,-1.474325,-0.3255875,0.5260222,-2.029536,-0.3382937,-0.01996736
550.4732,-1.477541,-0.325598,0.5252339,-2.031681,-0.3385722,-0.01996774
550.4887,-1.480474,-0.3256101,0.5244793,-2.03376,-0.3388412,-0.01996812
550.5049,-1.482489,-0.3256209,0.523587,-2.036149,-0.3391288,-0.01996837
550.5185,-1.482489,-0.3256209,0.523587,-2.036149,-0.3391288,-0.01996837
550.5331,-1.483918,-0.325632,0.5226678,-2.038591,-0.3394426,-0.01996867
550.5479,-1.484972,-0.3256436,0.521771,-2.04099,-0.3397568,-0.01996897
550.5624,-1.485786,-0.3256559,0.5209088,-2.043319,-0.3400613,-0.01996928
550.5772,-1.485786,-0.3256559,0.5209088,-2.043319,-0.3400613,-0.01996928
550.5912,-1.485719,-0.3256663,0.5199103,-2.045951,-0.3403814,-0.01996945
550.6068,-1.485097,-0.325676,0.5188857,-2.04863,-0.3407278,-0.01996966
550.6215,-1.48413,-0.3256856,0.5178855,-2.05126,-0.3410746,-0.01996989
550.6362,-1.48413,-0.3256856,0.5178855,-2.05126,-0.3410746,-0.01996989
550.6508,-1.482221,-0.3256927,0.5167524,-2.054189,-0.3414356,-0.01996998
550.666,-1.479727,-0.3256985,0.5155995,-2.05715,-0.341822,-0.01997012
550.6838,-1.476875,-0.3257036,0.5144782,-2.060044,-0.3422067,-0.01997027
550.6956,-1.476875,-0.3257036,0.5144782,-2.060044,-0.3422067,-0.01997027
550.7098,-1.473811,-0.3257082,0.5134007,-2.062845,-0.3425788,-0.01997042
550.7252,-1.469897,-0.3257101,0.5121947,-2.06593,-0.3429572,-0.01997042
550.7399,-1.469897,-0.3257101,0.5121947,-2.06593,-0.3429572,-0.01997042
550.7552,-1.465466,-0.3257112,0.5109671,-2.069043,-0.3433616,-0.01997046
550.7697,-1.460727,-0.3257118,0.5097697,-2.072088,-0.3437653,-0.01997052
550.7842,-1.455814,-0.3257124,0.5086159,-2.075037,-0.344157,-0.01997058
550.7989,-1.455814,-0.3257124,0.5086159,-2.075037,-0.344157,-0.01997058
550.8129,-1.450085,-0.3257114,0.5073337,-2.07827,-0.3445514,-0.01997047
550.8284,-1.443866,-0.3257093,0.5060293,-2.081526,-0.3449725,-0.01997041
550.8433,-1.437365,-0.3257064,0.5047558,-2.084709,-0.3453935,-0.01997038
550.858,-1.437365,-0.3257064,0.5047558,-2.084709,-0.3453935,-0.01997038
550.8722,-1.429986,-0.3257005,0.5033569,-2.088171,-0.3458161,-0.01997016
550.8877,-1.422084,-0.3256924,0.5019414,-2.091642,-0.3462649,-0.01996999
550.9025,-1.413888,-0.3256827,0.5005631,-2.095026,-0.3467121,-0.01996985
550.9172,-1.413888,-0.3256827,0.5005631,-2.095026,-0.3467121,-0.01996985
550.9312,-1.40554,-0.3256718,0.4992361,-2.098294,-0.3471451,-0.01996971
550.9471,-1.396404,-0.3256579,0.4977883,-2.101829,-0.3475702,-0.01996937
550.9617,-1.38681,-0.3256415,0.4963209,-2.105371,-0.3480218,-0.01996908
550.9764,-1.38681,-0.3256415,0.4963209,-2.105371,-0.3480218,-0.01996908
550.9926,-1.376969,-0.3256233,0.4948882,-2.108826,-0.3484734,-0.01996882
551.006,-1.367012,-0.3256038,0.4935055,-2.112165,-0.3489117,-0.01996857
551.0206,-1.356297,-0.3255814,0.4920022,-2.11577,-0.3493375,-0.0199681
551.0353,-1.356297,-0.3255814,0.4920022,-2.11577,-0.3493375,-0.0199681
551.0491,-1.34515,-0.3255563,0.4904774,-2.11938,-0.3497911,-0.01996768
551.0645,-1.333778,-0.3255293,0.488987,-2.1229,-0.350246,-0.01996729
551.0793,-1.333778,-0.3255293,0.488987,-2.1229,-0.350246,-0.01996729
551.0935,-1.321583,-0.3254986,0.487378,-2.126683,-0.3506883,-0.01996667
551.1088,-1.308922,-0.3254648,0.4857522,-2.130459,-0.3511584,-0.01996611
551.1235,-1.296021,-0.3254284,0.4841668,-2.13413,-0.3516288,-0.01996559
551.1404,-1.283022,-0.3253905,0.482638,-2.13767,-0.3520849,-0.01996509
551.1531,-1.283022,-0.3253905,0.482638,-2.13767,-0.3520849,-0.01996509
551.1677,-1.269289,-0.3253493,0.4809961,-2.141462,-0.3525174,-0.01996433
551.1828,-1.255151,-0.3253052,0.4793339,-2.145246,-0.3529774,-0.01996362
551.1981,-1.255151,-0.3253052,0.4793339,-2.145246,-0.3529774,-0.01996362
551.2119,-1.240818,-0.3252588,0.4777086,-2.148926,-0.3534397,-0.01996296
551.2275,-1.226422,-0.325211,0.4761379,-2.152477,-0.3538892,-0.01996232
551.2433,-1.211318,-0.3251602,0.4744543,-2.156281,-0.3543105,-0.01996139
551.2571,-1.211318,-0.3251602,0.4744543,-2.156281,-0.3543105,-0.01996139
551.2711,-1.195833,-0.3251066,0.4727478,-2.160077,-0.3547605,-0.01996052
551.2864,-1.180172,-0.3250508,0.4710769,-2.163768,-0.3552146,-0.01995971
551.3011,-1.164467,-0.3249936,0.4694611,-2.167326,-0.3556569,-0.01995893
551.3157,-1.164467,-0.3249936,0.4694611,-2.167326,-0.3556569,-0.01995893
551.3298,-1.148071,-0.3249336,0.4677343,-2.171136,-0.3560658,-0.01995783
551.3455,-1.13131,-0.3248708,0.4659833,-2.174936,-0.3565039,-0.01995679
551.3602,-1.114389,-0.3248058,0.4642676,-2.178627,-0.3569478,-0.01995582
551.3752,-1.114389,-0.3248058,0.4642676,-2.178627,-0.3569478,-0.01995582
551.3892,-1.09671,-0.3247372,0.4624414,-2.182569,-0.3573605,-0.01995453
551.4048,-1.078628,-0.324665,0.4605878,-2.186296,-0.3578193,-0.01995311
551.4196,-1.078628,-0.324665,0.4605878,-2.186296,-0.3578193,-0.01995311
551.4337,-1.060369,-0.32459,0.4587258,-2.188466,-0.3583953,-0.01995033
551.4492,-1.042074,-0.3245133,0.456912,-2.189039,-0.3590099,-0.01994727
551.4639,-1.023106,-0.3244337,0.4550087,-2.188986,-0.3595743,-0.01994419
551.4797,-1.023106,-0.3244337,0.4550087,-2.188986,-0.3595743,-0.01994419
551.493,-1.003794,-0.3243509,0.4530983,-2.18855,-0.3601475,-0.01994156
551.5084,-0.9843462,-0.3242659,0.4512401,-2.188017,-0.3607072,-0.0199394
551.5229,-0.9648942,-0.3241796,0.4494538,-2.187576,-0.3612415,-0.01993758
551.5381,-0.9648942,-0.3241796,0.4494538,-2.187576,-0.3612415,-0.01993758
551.5518,-0.9447932,-0.3240908,0.4475735,-2.18768,-0.3617305,-0.01993561
551.5675,-0.9243681,-0.3239992,0.4456739,-2.187897,-0.362262,-0.01993366
551.582,-0.9038248,-0.3239056,0.4438169,-2.188008,-0.362815,-0.01993172
551.5969,-0.9038248,-0.3239056,0.4438169,-2.188008,-0.362815,-0.01993172
551.6111,-0.8825652,-0.3238085,0.4418622,-2.188356,-0.3633445,-0.0199295
551.6267,-0.8609441,-0.3237078,0.4398958,-2.188571,-0.3639184,-0.0199273
551.6414,-0.8391861,-0.3236044,0.437982,-2.188559,-0.3645065,-0.01992521
551.6564,-0.8391861,-0.3236044,0.437982,-2.188559,-0.3645065,-0.01992521
551.6705,-0.8174329,-0.3234994,0.4361449,-2.188377,-0.3650826,-0.0199233
551.686,-0.7950462,-0.3233919,0.4342209,-2.18852,-0.3656166,-0.01992121
551.7017,-0.7723545,-0.3232816,0.4322858,-2.188652,-0.3661871,-0.01991918
551.7167,-0.7723545,-0.3232816,0.4322858,-2.188652,-0.3661871,-0.01991918
551.7297,-0.7495662,-0.3231691,0.4304,-2.188647,-0.3667712,-0.01991725
551.7451,-0.7268123,-0.3230557,0.4285872,-2.188514,-0.3673461,-0.01991546
551.7599,-0.7268123,-0.3230557,0.4285872,-2.188514,-0.3673461,-0.01991546
551.774,-0.7034476,-0.3229402,0.4266845,-2.188709,-0.3678837,-0.01991346
551.7892,-0.6797967,-0.3228223,0.4247694,-2.188875,-0.3684597,-0.0199115
551.8042,-0.6560647,-0.3227025,0.4229032,-2.188882,-0.36905,-0.01990962
551.8188,-0.6560647,-0.3227025,0.4229032,-2.188882,-0.36905,-0.01990962
551.8331,-0.6318253,-0.3225803,0.4209829,-2.189045,-0.3696182,-0.01990761
551.8486,-0.6073684,-0.3224556,0.4190754,-2.189117,-0.3702121,-0.01990567
551.8635,-0.5828769,-0.3223294,0.4172275,-2.189039,-0.3708093,-0.01990387
551.8784,-0.5828769,-0.3223294,0.4172275,-2.189039,-0.3708093,-0.01990387
551.8925,-0.5584662,-0.322203,0.4154557,-2.188856,-0.3713915,-0.01990224
551.9082,-0.5342084,-0.3220776,0.4137601,-2.188639,-0.3719514,-0.01990076
551.9226,-0.5101483,-0.3219543,0.4121351,-2.18844,-0.3724889,-0.01989945
551.9386,-0.5101483,-0.3219543,0.4121351,-2.18844,-0.3724889,-0.01989945
551.9528,-0.4863134,-0.3218341,0.410574,-2.188284,-0.3730067,-0.01989825
551.9673,-0.4627199,-0.3217175,0.4090713,-2.188168,-0.373508,-0.01989715
551.982,-0.4393772,-0.3216051,0.4076226,-2.188078,-0.3739952,-0.01989611
551.9976,-0.4393772,-0.3216051,0.4076226,-2.188078,-0.3739952,-0.01989611
552.0106,-0.4162899,-0.3214971,0.4062249,-2.188002,-0.3744696,-0.01989515
552.0262,-0.3934602,-0.3213938,0.4048758,-2.187927,-0.374932,-0.01989425
552.0412,-0.3708881,-0.3212952,0.4035735,-2.187849,-0.3753824,-0.01989342
552.0559,-0.3708881,-0.3212952,0.4035735,-2.187849,-0.3753824,-0.01989342
552.0701,-0.3485726,-0.3212013,0.4023165,-2.187768,-0.3758209,-0.01989266
552.0858,-0.326512,-0.3211121,0.4011034,-2.187685,-0.3762477,-0.01989196
552.1006,-0.3047043,-0.3210276,0.3999331,-2.187602,-0.3766629,-0.01989133
552.1154,-0.3047043,-0.3210276,0.3999331,-2.187602,-0.3766629,-0.01989133
552.1296,-0.2895206,-0.3209682,0.4002669,-2.184044,-0.3771634,-0.01989396
552.1451,-0.2785675,-0.3209426,0.4013664,-2.180731,-0.3771126,-0.01989774
552.16,-0.2703225,-0.3209446,0.4026184,-2.178651,-0.376794,-0.01990132
552.1762,-0.2703225,-0.3209446,0.4026184,-2.178651,-0.376794,-0.01990132
552.1899,-0.2638163,-0.3209646,0.4037603,-2.177403,-0.3764533,-0.01990407
552.2044,-0.2584318,-0.3209976,0.4047505,-2.176711,-0.3761548,-0.01990642
552.2191,-0.2584318,-0.3209976,0.4047505,-2.176711,-0.3761548,-0.01990642
552.233,-0.2537756,-0.3210393,0.4056106,-2.176384,-0.3759046,-0.01990856
552.2485,-0.2495973,-0.3210868,0.4063732,-2.176292,-0.3756938,-0.01991057
552.2634,-0.2457372,-0.3211378,0.4070666,-2.176348,-0.3755117,-0.01991249
552.2781,-0.2457372,-0.3211378,0.4070666,-2.176348,-0.3755117,-0.01991249
552.2922,-0.2421316,-0.3337954,0.4067746,-2.179603,-0.3791771,-0.01992316
552.308,-0.2387821,-0.3540752,0.4071819,-2.183684,-0.3825831,-0.01993224
552.3227,-0.2356464,-0.3789187,0.4079825,-2.187126,-0.3854311,-0.0199387
552.3375,-0.2356464,-0.3789187,0.4079825,-2.187126,-0.3854311,-0.0199387
552.3518,-0.232672,-0.4056891,0.408934,-2.18856,-0.3877041,-0.01994212
552.3674,-0.2298139,-0.4335217,0.4098611,-2.188402,-0.3897159,-0.01994491
552.3819,-0.2270405,-0.4618811,0.4107653,-2.187472,-0.3915178,-0.01994796
552.3967,-0.2270405,-0.4618811,0.4107653,-2.187472,-0.3915178,-0.01994796
552.4122,-0.2243305,-0.4904354,0.4116501,-2.186467,-0.3931407,-0.01995143
552.4266,-0.2216664,-0.5182174,0.4125679,-2.185568,-0.3943852,-0.01995459
552.4414,-0.2190373,-0.5454,0.4134011,-2.185055,-0.3955488,-0.01995801
552.4559,-0.2190373,-0.5454,0.4134011,-2.185055,-0.3955488,-0.01995801
552.4703,-0.2164377,-0.5720905,0.4141619,-2.184912,-0.3966897,-0.01996149
552.4856,-0.213865,-0.5983565,0.4148721,-2.184985,-0.3978172,-0.01996486
552.5008,-0.2113137,-0.6234791,0.41561,-2.184928,-0.3986874,-0.01996749
552.5151,-0.2113137,-0.6234791,0.41561,-2.184928,-0.3986874,-0.01996749
552.5294,-0.2087812,-0.6477861,0.4162835,-2.184856,-0.3995436,-0.01997015
552.545,-0.2062676,-0.6714815,0.4169158,-2.184811,-0.4004038,-0.01997285
552.5599,-0.2062676,-0.6714815,0.4169158,-2.184811,-0.4004038,-0.01997285
552.5748,-0.2037688,-0.6939309,0.417589,-2.184602,-0.4010145,-0.01997498
552.5896,-0.2012838,-0.7155149,0.4182077,-2.184427,-0.4016169,-0.01997725
552.6048,-0.1988138,-0.73647,0.4187911,-2.184346,-0.4022306,-0.01997961
552.6194,-0.1988138,-0.73647,0.4187911,-2.184346,-0.4022306,-0.01997961
552.6356,-0.1963607,-0.7569436,0.419358,-2.184343,-0.4028447,-0.01998198
552.6489,-0.1939206,-0.7762663,0.4199768,-2.184181,-0.4032095,-0.01998372
552.6637,-0.1914923,-0.7947975,0.420546,-2.184037,-0.4035695,-0.01998557
552.6786,-0.1914923,-0.7947975,0.420546,-2.184037,-0.4035695,-0.01998557
552.6924,-0.1890772,-0.8127602,0.4210823,-2.18397,-0.4039457,-0.01998752
552.7079,-0.1866775,-0.830293,0.4216041,-2.183968,-0.4043274,-0.01998947
552.7227,-0.1842888,-0.8467208,0.4221788,-2.183803,-0.4044657,-0.01999081
552.7374,-0.1842888,-0.8467208,0.4221788,-2.183803,-0.4044657,-0.01999081
552.7516,-0.1819095,-0.8624,0.4227042,-2.183656,-0.4046053,-0.01999229
552.7673,-0.1795412,-0.877551,0.4231973,-2.18359,-0.4047673,-0.01999387
552.7817,-0.1771865,-0.8923106,0.4236766,-2.183593,-0.4049412,-0.01999547
552.7967,-0.1771865,-0.8923106,0.4236766,-2.183593,-0.4049412,-0.01999547
552.8109,-0.1748407,-0.9060023,0.4242089,-2.183432,-0.4048786,-0.01999647
552.8266,-0.1725019,-0.9189819,0.4246919,-2.183292,-0.404824,-0.01999761
552.8412,-0.1701721,-0.9314691,0.4251429,-2.183233,-0.4047982,-0.01999888
552.8559,-0.1701721,-0.9314691,0.4251429,-2.183233,-0.4047982,-0.01999888
552.8724,-0.1678468,-0.942838,0.425638,-2.183048,-0.4045527,-0.01999961
552.8855,-0.1655246,-0.9534759,0.4260801,-2.182915,-0.4043286,-0.02000051
552.9005,-0.1632081,-0.9636213,0.4264897,-2.18288,-0.404144,-0.02000154
552.9149,-0.1632081,-0.9636213,0.4264897,-2.18288,-0.404144,-0.02000154
552.929,-0.1609014,-0.9734216,0.4268868,-2.182916,-0.4039858,-0.02000258
552.9445,-0.1586,-0.982206,0.4273381,-2.18278,-0.4036048,-0.02000304
552.9593,-0.1586,-0.982206,0.4273381,-2.18278,-0.4036048,-0.02000304
552.9734,-0.1563018,-0.9903348,0.4277411,-2.182655,-0.4032441,-0.02000364
552.9888,-0.1540095,-0.9980294,0.4281138,-2.182606,-0.4029229,-0.02000439
553.004,-0.1517271,-1.005426,0.4284754,-2.182621,-0.4026291,-0.02000517
553.0186,-0.1517271,-1.005426,0.4284754,-2.182621,-0.4026291,-0.02000517
553.0327,-0.14945,-1.011847,0.4288916,-2.182471,-0.4021153,-0.02000539
553.0484,-0.1471756,-1.017648,0.429259,-2.182341,-0.4016255,-0.02000576
553.063,-0.1449068,-1.023048,0.429596,-2.182293,-0.4011793,-0.02000628
553.0781,-0.1449068,-1.023048,0.429596,-2.182293,-0.4011793,-0.02000628
553.0923,-0.1426395,-1.027419,0.4299778,-2.182119,-0.4005291,-0.0200063
553.1089,-0.1403717,-1.031148,0.4303072,-2.181999,-0.3999152,-0.02000651
553.1227,-0.1381072,-1.034473,0.4306051,-2.181962,-0.3993557,-0.02000685
553.1375,-0.1381072,-1.034473,0.4306051,-2.181962,-0.3993557,-0.02000685
553.1512,-0.1358511,-1.037538,0.4308933,-2.181979,-0.3988357,-0.02000721
553.1669,-0.1335999,-1.03967,0.4312384,-2.181831,-0.3981044,-0.02000704
553.1815,-0.1313509,-1.04123,0.4315344,-2.181655,-0.3974102,-0.02000697
553.1962,-0.1313509,-1.04123,0.4315344,-2.181655,-0.3974102,-0.02000697
553.2107,-0.1291075,-1.042437,0.4318008,-2.181493,-0.3967706,-0.02000702
553.226,-0.1268747,-1.043425,0.4320595,-2.181355,-0.3961694,-0.02000713
553.241,-0.1246487,-1.043516,0.4323755,-2.18104,-0.3953585,-0.02000672
553.2557,-0.1246487,-1.043516,0.4323755,-2.18104,-0.3953585,-0.02000672
553.27,-0.1224267,-1.043067,0.4326421,-2.180693,-0.3945883,-0.02000643
553.2855,-0.1202259,-1.042292,0.4328896,-2.180357,-0.3938716,-0.02000626
553.3005,-0.118056,-1.041324,0.4331396,-2.180042,-0.3931921,-0.02000615
553.3152,-0.118056,-1.041324,0.4331396,-2.180042,-0.3931921,-0.02000615
553.3327,-0.1159113,-1.039482,0.4334526,-2.17955,-0.3923043,-0.02000553
553.3448,-0.1138097,-1.037119,0.4337361,-2.17902,-0.3914533,-0.02000503
553.3597,-0.1138097,-1.037119,0.4337361,-2.17902,-0.3914533,-0.02000503
553.3737,-0.1117541,-1.034453,0.4340051,-2.178503,-0.3906562,-0.02000464
553.3892,-0.1097332,-1.030852,0.4343262,-2.177815,-0.3896685,-0.0200038
553.404,-0.1077604,-1.026702,0.4346123,-2.177099,-0.3887295,-0.0200031
553.4188,-0.1077604,-1.026702,0.4346123,-2.177099,-0.3887295,-0.0200031
553.4327,-0.1058351,-1.022237,0.4348807,-2.176406,-0.3878528,-0.02000254
553.4486,-0.1039525,-1.0176,0.4351463,-2.17575,-0.3870225,-0.02000205
553.4631,-0.1020986,-1.012116,0.4354656,-2.17493,-0.3859984,-0.02000109
553.478,-0.1020986,-1.012116,0.4354656,-2.17493,-0.3859984,-0.02000109
553.4921,-0.1002855,-1.006144,0.4357484,-2.174084,-0.3850212,-0.02000026
553.5078,-0.09851284,-0.9999,0.4360112,-2.173263,-0.3841064,-0.01999957
553.5225,-0.09677646,-0.993518,0.4362689,-2.17248,-0.3832394,-0.01999896
553.5377,-0.09677646,-0.993518,0.4362689,-2.17248,-0.3832394,-0.01999896
553.5514,-0.09506375,-0.9863171,0.436577,-2.171535,-0.382184,-0.0199979
553.568,-0.09338631,-0.9786505,0.4368471,-2.170566,-0.3811784,-0.01999698
553.5817,-0.09174428,-0.9707335,0.437096,-2.169625,-0.3802373,-0.01999619
553.5966,-0.09174428,-0.9707335,0.437096,-2.169625,-0.3802373,-0.01999619
553.6109,-0.09012633,-0.9619361,0.4373875,-2.168525,-0.3791251,-0.019995
553.626,-0.08854318,-0.9526416,0.437639,-2.16741,-0.3780726,-0.01999398
553.6411,-0.08699428,-0.9430843,0.4378694,-2.16633,-0.3770908,-0.01999311
553.6557,-0.08699428,-0.9430843,0.4378694,-2.16633,-0.3770908,-0.01999311
553.6701,-0.08547565,-0.9334074,0.4380943,-2.165299,-0.3761636,-0.01999234
553.6856,-0.08397559,-0.9229367,0.4383658,-2.164114,-0.3750616,-0.01999114
553.7006,-0.08250417,-0.9120283,0.4385984,-2.162915,-0.3740162,-0.01999009
553.7151,-0.08250417,-0.9120283,0.4385984,-2.162915,-0.3740162,-0.01999009
553.7294,-0.08106147,-0.9008996,0.4388096,-2.161752,-0.3730399,-0.0199892
553.7451,-0.07964443,-0.8896841,0.4390145,-2.160636,-0.3721179,-0.0199884
553.7601,-0.07824965,-0.8784631,0.439219,-2.159569,-0.3712383,-0.01998767
553.7747,-0.07824965,-0.8784631,0.439219,-2.159569,-0.3712383,-0.01998767
553.7909,-0.07687425,-0.8672866,0.4394244,-2.158543,-0.3703939,-0.01998698
553.8046,-0.0755161,-0.856185,0.4396302,-2.157554,-0.3695805,-0.01998633
553.8193,-0.0755161,-0.856185,0.4396302,-2.157554,-0.3695805,-0.01998633
553.8333,-0.07418041,-0.8459384,0.4397929,-2.156798,-0.369004,-0.01998617
553.8488,-0.07285478,-0.8362569,0.4399946,-2.156126,-0.3684315,-0.01998594
553.8634,-0.07153602,-0.8269619,0.4402165,-2.155481,-0.3678463,-0.01998562
553.8784,-0.07153602,-0.8269619,0.4402165,-2.155481,-0.3678463,-0.01998562
553.8926,-0.07022437,-0.8179435,0.4404424,-2.154843,-0.3672594,-0.01998528
553.9081,-0.06892751,-0.809895,0.4406242,-2.154408,-0.3668852,-0.01998538
553.9229,-0.06763658,-0.8024734,0.4408413,-2.154032,-0.3665005,-0.01998539
553.9379,-0.06763658,-0.8024734,0.4408413,-2.154032,-0.3665005,-0.01998539
553.952,-0.06635018,-0.7954674,0.4410754,-2.153663,-0.3660929,-0.01998531
553.9677,-0.06506959,-0.7887459,0.4413114,-2.153285,-0.3656752,-0.01998519
553.9825,-0.06380281,-0.7829898,0.4415024,-2.153098,-0.3654612,-0.0199855
553.9973,-0.06380281,-0.7829898,0.4415024,-2.153098,-0.3654612,-0.0199855
554.0136,-0.06254227,-0.7778487,0.4417277,-2.152961,-0.3652306,-0.01998571
554.027,-0.06128686,-0.7731062,0.4419693,-2.152822,-0.3649717,-0.01998582
554.0418,-0.06003776,-0.7686284,0.4422126,-2.152667,-0.3646975,-0.01998588
554.0567,-0.06003776,-0.7686284,0.4422126,-2.152667,-0.3646975,-0.01998588
554.0707,-0.05880271,-0.765094,0.4424107,-2.152696,-0.3646214,-0.01998637
554.0862,-0.05757472,-0.7621523,0.4426432,-2.152769,-0.3645241,-0.01998675
554.101,-0.05635259,-0.759586,0.4428919,-2.152834,-0.3643943,-0.01998702
554.1157,-0.05635259,-0.759586,0.4428919,-2.152834,-0.3643943,-0.01998702
554.1299,-0.05514317,-0.7580227,0.4431011,-2.153079,-0.3644484,-0.01998768
554.1454,-0.05393983,-0.7570801,0.4433456,-2.153357,-0.364472,-0.01998821
554.1605,-0.05274153,-0.7565216,0.4436058,-2.153617,-0.3644563,-0.01998863
554.1754,-0.05274153,-0.7565216,0.4436058,-2.153617,-0.3644563,-0.01998863
554.1896,-0.05154938,-0.7562007,0.4438668,-2.153847,-0.3644157,-0.01998898
554.2054,-0.05037085,-0.7567849,0.4440818,-2.154247,-0.3645643,-0.01998975
554.2198,-0.05037085,-0.7567849,0.4440818,-2.154247,-0.3645643,-0.01998975
554.2372,-0.04920609,-0.7579237,0.4443335,-2.154678,-0.3646849,-0.0199904
554.2496,-0.04805691,-0.7593972,0.4446054,-2.155086,-0.3647644,-0.01999093
554.2645,-0.04692354,-0.7610692,0.4448816,-2.155459,-0.364816,-0.01999139
554.2792,-0.04692354,-0.7610692,0.4448816,-2.155459,-0.364816,-0.01999139
554.293,-0.04581138,-0.7636172,0.4451127,-2.156003,-0.3650565,-0.01999227
554.3086,-0.04471962,-0.7666907,0.4453824,-2.156572,-0.3652653,-0.01999302
554.3232,-0.04364643,-0.7700728,0.4456722,-2.157116,-0.3654302,-0.01999365
554.3382,-0.04364643,-0.7700728,0.4456722,-2.157116,-0.3654302,-0.01999365
554.3524,-0.04259586,-0.7743909,0.4459224,-2.157827,-0.3657724,-0.01999466
554.3682,-0.04156581,-0.7792637,0.4462122,-2.158555,-0.3660747,-0.01999553
554.3826,-0.04055372,-0.7844553,0.4465215,-2.159251,-0.3663273,-0.01999626
554.3974,-0.04055372,-0.7844553,0.4465215,-2.159251,-0.3663273,-0.01999626
554.4117,-0.03955736,-0.7898193,0.4468331,-2.159902,-0.3665453,-0.01999692
554.4274,-0.0385811,-0.7960271,0.4470959,-2.160715,-0.3669504,-0.01999799
554.4423,-0.03762267,-0.802725,0.447396,-2.161546,-0.3673196,-0.01999892
554.4569,-0.03762267,-0.802725,0.447396,-2.161546,-0.3673196,-0.01999892
554.4732,-0.03667977,-0.8096939,0.4477155,-2.162345,-0.3676395,-0.01999973
554.4869,-0.03575046,-0.8167982,0.4480382,-2.163099,-0.3679239,-0.02000046
554.5016,-0.03483965,-0.8247157,0.4483113,-2.164015,-0.368397,-0.02000161
554.5162,-0.03483965,-0.8247157,0.4483113,-2.164015,-0.368397,-0.02000161
554.5301,-0.03394491,-0.8330972,0.4486225,-2.164947,-0.3688329,-0.02000261
554.5455,-0.03306403,-0.8417263,0.4489541,-2.165846,-0.3692174,-0.02000349
554.5605,-0.03219524,-0.850469,0.4492895,-2.166698,-0.369564,-0.02000428
554.5754,-0.03219524,-0.850469,0.4492895,-2.166698,-0.369564,-0.02000428
554.5894,-0.03134392,-0.8600041,0.4495741,-2.167709,-0.3701007,-0.02000549
554.605,-0.03050736,-0.8699836,0.4498974,-2.168735,-0.3705988,-0.02000657
554.6199,-0.03050736,-0.8699836,0.4498974,-2.168735,-0.3705988,-0.02000657
554.6341,-0.02968333,-0.8801914,0.4502417,-2.169725,-0.3710431,-0.0200075
554.6498,-0.02887711,-0.8912557,0.4505416,-2.17087,-0.3716671,-0.02000883
554.6645,-0.02808532,-0.9027972,0.4508824,-2.172022,-0.3722444,-0.02001
554.6794,-0.02808532,-0.9027972,0.4508824,-2.172022,-0.3722444,-0.02001
554.6957,-0.02730545,-0.9145804,0.4512445,-2.173131,-0.3727622,-0.02001102
554.7092,-0.02653578,-0.9264594,0.4516104,-2.174183,-0.3732354,-0.02001195
554.7238,-0.0257825,-0.9391059,0.4519219,-2.175386,-0.3739007,-0.02001331
554.7388,-0.0257825,-0.9391059,0.4519219,-2.175386,-0.3739007,-0.02001331
554.7527,-0.02504207,-0.952168,0.4522723,-2.176598,-0.3745239,-0.02001453
554.7682,-0.02431211,-0.9654272,0.4526446,-2.177768,-0.3750887,-0.0200156
554.7828,-0.02359115,-0.9787482,0.4530217,-2.178881,-0.3756084,-0.02001656
554.7977,-0.02359115,-0.9787482,0.4530217,-2.178881,-0.3756084,-0.02001656
554.8119,-0.02288605,-0.9928093,0.4533432,-2.180148,-0.3763237,-0.02001797
554.8274,-0.02219279,-1.007263,0.4537048,-2.181422,-0.3769967,-0.02001924
554.8421,-0.02150897,-1.021894,0.4540893,-2.182654,-0.3776093,-0.02002035
554.8571,-0.02150897,-1.021894,0.4540893,-2.182654,-0.3776093,-0.02002035
554.8715,-0.02084138,-1.03733,0.4544162,-2.183813,-0.3784269,-0.02002161
554.8871,-0.02018514,-1.053192,0.4547746,-2.184451,-0.3792256,-0.02002229
554.9018,-0.01953761,-1.069247,0.4551625,-2.184567,-0.3799618,-0.02002271
554.9163,-0.01953761,-1.069247,0.4551625,-2.184567,-0.3799618,-0.02002271
554.9326,-0.01889743,-1.085347,0.4555707,-2.184366,-0.3806279,-0.02002311
554.9462,-0.01827264,-1.102165,0.4559351,-2.184275,-0.3814635,-0.02002412
554.9609,-0.01765786,-1.119351,0.4563453,-2.184216,-0.3822363,-0.02002503
554.9756,-0.01765786,-1.119351,0.4563453,-2.184216,-0.3822363,-0.02002503
554.9896,-0.01705056,-1.136686,0.4567803,-2.184154,-0.3829335,-0.02002578
555.0052,-0.01644963,-1.154036,0.457221,-2.184087,-0.3835711,-0.02002644
555.0201,-0.01586386,-1.172078,0.4576046,-2.18423,-0.3843963,-0.02002755
555.0347,-0.01586386,-1.172078,0.4576046,-2.18423,-0.3843963,-0.02002755
555.0489,-0.01528701,-1.190467,0.4580249,-2.184365,-0.385175,-0.02002843
555.0643,-0.01471654,-1.208988,0.4584669,-2.184407,-0.3858866,-0.02002909
555.0793,-0.01471654,-1.208988,0.4584669,-2.184407,-0.3858866,-0.02002909
555.0937,-0.01416119,-1.228269,0.4588618,-2.184572,-0.3867741,-0.02003016
555.1093,-0.01361369,-1.247933,0.4592979,-2.184673,-0.3876042,-0.02003099
555.1241,-0.01307145,-1.267745,0.4597579,-2.184666,-0.3883581,-0.02003162
555.139,-0.01307145,-1.267745,0.4597579,-2.184666,-0.3883581,-0.02003162
555.1553,-0.01253375,-1.28756,0.4602255,-2.184581,-0.3890472,-0.02003216
555.1689,-0.01201059,-1.308043,0.4606393,-2.184677,-0.3899144,-0.02003319
555.1833,-0.0114939,-1.328847,0.4610891,-2.184767,-0.3907294,-0.02003399
555.1981,-0.0114939,-1.328847,0.4610891,-2.184767,-0.3907294,-0.02003399
555.2122,-0.0109813,-1.349756,0.4615594,-2.184781,-0.3914735,-0.0200346
555.2277,-0.01047235,-1.370637,0.4620352,-2.184727,-0.3921567,-0.0200351
555.2426,-0.009790915,-1.378801,0.4633926,-2.181146,-0.3889216,-0.02002697
555.2573,-0.009790915,-1.378801,0.4633926,-2.181146,-0.3889216,-0.02002697
555.2715,-0.009043931,-1.379085,0.4639919,-2.177553,-0.3858856,-0.02002192
555.2871,-0.008235336,-1.374546,0.4640354,-2.174422,-0.3835624,-0.02001858
555.3019,-0.007454206,-1.367082,0.4639238,-2.1718,-0.3817298,-0.02001622
555.317,-0.007454206,-1.367082,0.4639238,-2.1718,-0.3817298,-0.02001622
555.3311,-0.006730901,-1.357867,0.4638316,-2.169604,-0.3801793,-0.02001432
555.3469,-0.006062299,-1.347622,0.4637996,-2.167727,-0.3787924,-0.02001259
555.3613,-0.005435704,-1.336791,0.4638204,-2.16608,-0.3775094,-0.02001096
555.3765,-0.005435704,-1.336791,0.4638204,-2.16608,-0.3775094,-0.02001096
555.3915,-0.004838901,-1.325646,0.4638843,-2.164596,-0.3763093,-0.02000941
555.406,-0.00426277,-1.314357,0.4639779,-2.163228,-0.3751653,-0.0200079
555.4209,-0.003701158,-1.303028,0.4640875,-2.161944,-0.3740671,-0.02000644
555.4355,-0.003701158,-1.303028,0.4640875,-2.161944,-0.3740671,-0.02000644
555.4496,-0.003150107,-1.291723,0.4642042,-2.160724,-0.3730095,-0.02000503
555.4651,-0.002607107,-1.280483,0.4636025,-2.159472,-0.3710876,-0.02000092
555.4798,-0.002607107,-1.280483,0.4636025,-2.159472,-0.3710876,-0.02000092
555.4941,-0.002070637,-1.269331,0.4621758,-2.158247,-0.3693335,-0.01999731
555.5109,-0.001539752,-1.258282,0.4602987,-2.157075,-0.3678232,-0.0199944
555.5244,-0.001013877,-1.247344,0.4582209,-2.155957,-0.366473,-0.01999192
555.5395,-0.001013877,-1.247344,0.4582209,-2.155957,-0.366473,-0.01999192
555.5535,-0.00049264,-1.236523,0.4553382,-2.154806,-0.3643181,-0.01998694
555.5694,2.414593E-05,-1.22582,0.4516101,-2.153684,-0.3623691,-0.0199826
555.5839,0.0005365926,-1.215237,0.4474435,-2.152616,-0.3606828,-0.019979
555.5986,0.0005365926,-1.215237,0.4474435,-2.152616,-0.3606828,-0.019979
555.614,0.001044784,-1.204774,0.4423637,-2.151524,-0.3582628,-0.01997316
555.6285,0.001548731,-1.19443,0.4364064,-2.150469,-0.3560941,-0.01996807
555.6431,0.002048438,-1.184205,0.4300161,-2.149476,-0.3542119,-0.0199638
555.6577,0.002048438,-1.184205,0.4300161,-2.149476,-0.3542119,-0.0199638
555.6719,0.002543902,-1.174098,0.4234694,-2.148543,-0.352515,-0.01996002
555.6874,0.003035135,-1.164107,0.4161575,-2.147584,-0.3500294,-0.01995387
555.7021,0.003522105,-1.154231,0.4080526,-2.146662,-0.3477762,-0.01994843
555.7168,0.003522105,-1.154231,0.4080526,-2.146662,-0.3477762,-0.01994843
555.7308,0.004004792,-1.14447,0.3995712,-2.1458,-0.3458021,-0.01994377
555.7468,0.004483178,-1.134822,0.3909754,-2.144997,-0.3440122,-0.01993962
555.7612,0.00495727,-1.125285,0.3816419,-2.144169,-0.3414347,-0.01993313
555.7762,0.00495727,-1.125285,0.3816419,-2.144169,-0.3414347,-0.01993313
555.7905,0.005427036,-1.115859,0.3715436,-2.14338,-0.3390988,-0.01992737
555.8062,0.005892457,-1.106542,0.3610997,-2.142652,-0.3370473,-0.01992241
555.8209,0.006353522,-1.097333,0.3505717,-2.141983,-0.3351843,-0.01991796
555.8369,0.006353522,-1.097333,0.3505717,-2.141983,-0.3351843,-0.01991796
555.8509,0.006810239,-1.088231,0.3393282,-2.141291,-0.3325371,-0.01991124
555.8654,0.007262585,-1.079235,0.3273458,-2.14064,-0.3301406,-0.01990526
555.88,0.007710548,-1.070344,0.3150463,-2.140049,-0.3280336,-0.0199001
555.8947,0.007710548,-1.070344,0.3150463,-2.140049,-0.3280336,-0.0199001
555.9091,0.008154141,-1.061555,0.3019285,-2.139443,-0.3252098,-0.01989289
555.9244,0.008593346,-1.052869,0.2880409,-2.138884,-0.3226767,-0.01988653
555.9396,0.008593346,-1.052869,0.2880409,-2.138884,-0.3226767,-0.01988653
555.9535,0.009028157,-1.044284,0.2738402,-2.13839,-0.3204533,-0.01988102
555.9692,0.009458574,-1.035799,0.2596018,-2.137958,-0.318434,-0.01987609
555.9839,0.009884619,-1.027413,0.2446893,-2.137508,-0.3156413,-0.01986899
555.9988,0.009884619,-1.027413,0.2446893,-2.137508,-0.3156413,-0.01986899
556.0129,0.01030628,-1.019124,0.2290863,-2.137102,-0.3131163,-0.01986268
556.0288,0.01072356,-1.010932,0.2132203,-2.136757,-0.3108914,-0.01985719
556.0436,0.01113647,-1.002836,0.1973526,-2.136471,-0.3088676,-0.01985225
556.0585,0.01113647,-1.002836,0.1973526,-2.136471,-0.3088676,-0.01985225
556.0735,0.01154503,-0.9948342,0.1808362,-2.136167,-0.3060699,-0.01984521
556.0882,0.01194924,-0.9869257,0.1636538,-2.135905,-0.3035446,-0.01983895
556.1028,0.0123491,-0.9791095,0.1462337,-2.135703,-0.3013219,-0.01983351
556.1174,0.0123491,-0.9791095,0.1462337,-2.135703,-0.3013219,-0.01983351
556.1315,0.01274466,-0.9713847,0.1280622,-2.135488,-0.2983919,-0.01982619
556.147,0.0131359,-0.9637502,0.1091929,-2.13532,-0.2957709,-0.01981975
556.1619,0.01352285,-0.956205,0.09008704,-2.135216,-0.2934715,-0.01981418
556.1767,0.01352285,-0.956205,0.09008704,-2.135216,-0.2934715,-0.01981418
556.1907,0.01390551,-0.948748,0.07101922,-2.135169,-0.2913859,-0.01980919
556.2065,0.01428393,-0.9413783,0.05134233,-2.135104,-0.2885353,-0.01980221
556.2213,0.01465812,-0.9340949,0.03104279,-2.135083,-0.2859682,-0.01979603
556.2362,0.01465812,-0.9340949,0.03104279,-2.135083,-0.2859682,-0.01979603
556.2504,0.01502808,-0.9268969,0.01055216,-2.135119,-0.2837118,-0.01979069
556.266,0.01539386,-0.9197832,-0.009868845,-2.135209,-0.2816652,-0.0197859
556.2809,0.01575547,-0.9127529,-0.03087495,-2.135279,-0.2788526,-0.01977918
556.2966,0.01575547,-0.9127529,-0.03087495,-2.135279,-0.2788526,-0.01977918
556.3109,0.01611294,-0.9058051,-0.05248225,-2.13539,-0.2763251,-0.01977325
556.3251,0.01646629,-0.8989388,-0.07425967,-2.135554,-0.2741097,-0.01976814
556.3401,0.01681555,-0.8921531,-0.09594712,-2.135768,-0.2721055,-0.01976359
556.3549,0.01681555,-0.8921531,-0.09594712,-2.135768,-0.2721055,-0.01976359
556.3688,0.01716075,-0.8854471,-0.1174225,-2.136026,-0.2702476,-0.01975941
556.3843,0.0175019,-0.8788199,-0.1386337,-2.136322,-0.2685037,-0.01975554
556.399,0.0175019,-0.8788199,-0.1386337,-2.136322,-0.2685037,-0.01975554
556.4132,0.01783905,-0.8722705,-0.15956,-2.136651,-0.2668578,-0.01975193
556.4288,0.01817222,-0.8657982,-0.1801948,-2.137011,-0.2653014,-0.01974855
556.4437,0.01850145,-0.8594019,-0.2005375,-2.137398,-0.2638294,-0.01974539
556.4584,0.01850145,-0.8594019,-0.2005375,-2.137398,-0.2638294,-0.01974539
556.4728,0.01882676,-0.8530809,-0.2205902,-2.137811,-0.2624383,-0.01974243
556.4887,0.0191482,-0.8468344,-0.2403558,-2.138247,-0.2611251,-0.01973967
556.5032,0.01946579,-0.8406613,-0.2598379,-2.138706,-0.2598875,-0.01973711
556.5189,0.01946579,-0.8406613,-0.2598379,-2.138706,-0.2598875,-0.01973711
556.5328,0.01977956,-0.8345609,-0.2790399,-2.139184,-0.2587229,-0.01973474
556.5475,0.02008956,-0.8285324,-0.2979658,-2.139681,-0.2576292,-0.01973254
556.5621,0.02039582,-0.8225749,-0.3166191,-2.140196,-0.2566043,-0.01973051
556.5771,0.02039582,-0.8225749,-0.3166191,-2.140196,-0.2566043,-0.01973051
556.5911,0.02069836,-0.8166876,-0.3350035,-2.140726,-0.255646,-0.01972864
556.6066,0.02099723,-0.8108698,-0.3531227,-2.14127,-0.2547522,-0.01972693
556.6213,0.02129247,-0.8051206,-0.3709804,-2.141827,-0.2539212,-0.01972538
556.636,0.02129247,-0.8051206,-0.3709804,-2.141827,-0.2539212,-0.01972538
556.6505,0.0215841,-0.7994392,-0.38858,-2.142396,-0.2531509,-0.01972397
556.6657,0.02187216,-0.7938249,-0.4059252,-2.142976,-0.2524394,-0.0197227
556.6807,0.0221567,-0.7882767,-0.4230195,-2.143565,-0.251785,-0.01972156
556.6956,0.0221567,-0.7882767,-0.4230195,-2.143565,-0.251785,-0.01972156
556.7099,0.02243774,-0.7827941,-0.4398664,-2.144162,-0.2511859,-0.01972055
556.7254,0.02271532,-0.7773763,-0.4564693,-2.144767,-0.2506404,-0.01971967
556.7404,0.02298948,-0.7720224,-0.4728317,-2.145377,-0.2501468,-0.0197189
556.7562,0.02298948,-0.7720224,-0.4728317,-2.145377,-0.2501468,-0.0197189
556.7704,0.02326025,-0.7667319,-0.4889569,-2.145993,-0.2497035,-0.01971825
556.7846,0.02352768,-0.7615038,-0.5048483,-2.146613,-0.249309,-0.0197177
556.7994,0.02352768,-0.7615038,-0.5048483,-2.146613,-0.249309,-0.0197177
556.8137,0.02379179,-0.7563375,-0.5205092,-2.147237,-0.2489617,-0.01971727
556.829,0.02405263,-0.7512323,-0.5359428,-2.147863,-0.24866,-0.01971693
556.8438,0.02431023,-0.7461874,-0.5511523,-2.148492,-0.2484026,-0.01971669
556.8586,0.02431023,-0.7461874,-0.5511523,-2.148492,-0.2484026,-0.01971669
556.8729,0.02456462,-0.7412023,-0.5661411,-2.149121,-0.248188,-0.01971654
556.8885,0.02481585,-0.7362761,-0.5809121,-2.14975,-0.2480149,-0.01971648
556.9034,0.02506394,-0.7314082,-0.5954686,-2.15038,-0.2478819,-0.0197165
556.9183,0.02506394,-0.7314082,-0.5954686,-2.15038,-0.2478819,-0.0197165
556.9324,0.02530894,-0.7265979,-0.6098135,-2.151008,-0.2477877,-0.0197166
556.9484,0.02555087,-0.7218446,-0.6239499,-2.151635,-0.247731,-0.01971679
556.9629,0.02578979,-0.7171475,-0.6378809,-2.15226,-0.2477105,-0.01971705
556.9787,0.02578979,-0.7171475,-0.6378809,-2.15226,-0.2477105,-0.01971705
556.9929,0.02602571,-0.7125061,-0.6516092,-2.152882,-0.2477252,-0.01971738
557.0075,0.02625868,-0.7079197,-0.665138,-2.153501,-0.2477737,-0.01971778
557.0222,0.02648872,-0.7033875,-0.67847,-2.154116,-0.247855,-0.01971824
557.037,0.02648872,-0.7033875,-0.67847,-2.154116,-0.247855,-0.01971824
557.051,0.02671589,-0.698909,-0.6916081,-2.154727,-0.2479679,-0.01971877
557.0664,0.0269402,-0.6944837,-0.704555,-2.155334,-0.2481114,-0.01971937
557.0811,0.02716169,-0.6901108,-0.7173136,-2.155935,-0.2482843,-0.01972002
557.0962,0.02716169,-0.6901108,-0.7173136,-2.155935,-0.2482843,-0.01972002
557.1102,0.0273804,-0.6857897,-0.7298865,-2.156532,-0.2484857,-0.01972073
557.1259,0.02759637,-0.6815199,-0.7422765,-2.157122,-0.2487144,-0.01972149
557.1411,0.02780961,-0.6773006,-0.7544861,-2.157707,-0.2489697,-0.0197223
557.1558,0.02780961,-0.6773006,-0.7544861,-2.157707,-0.2489697,-0.0197223
557.17,0.02802018,-0.6731315,-0.7665181,-2.158286,-0.2492504,-0.01972316
557.1853,0.02822809,-0.6690117,-0.778375,-2.158858,-0.2495558,-0.01972407
557.2011,0.02843339,-0.6649408,-0.7900593,-2.159423,-0.2498847,-0.01972502
557.215,0.02843339,-0.6649408,-0.7900593,-2.159423,-0.2498847,-0.01972502
557.2292,0.0286361,-0.6609182,-0.8015735,-2.159981,-0.2502365,-0.01972602
557.2445,0.02883626,-0.6569434,-0.81292,-2.160532,-0.2506101,-0.01972705
557.2592,0.02883626,-0.6569434,-0.81292,-2.160532,-0.2506101,-0.01972705
557.2735,0.0290339,-0.6530157,-0.8241014,-2.161076,-0.2510048,-0.01972813
557.289,0.02922905,-0.6491347,-0.8351201,-2.161611,-0.2514198,-0.01972924
557.3037,0.02942174,-0.6452997,-0.8459783,-2.162139,-0.2518542,-0.01973039
557.3184,0.02942174,-0.6452997,-0.8459783,-2.162139,-0.2518542,-0.01973039
557.3325,0.029612,-0.6415102,-0.8566784,-2.162659,-0.2523073,-0.01973158
557.3481,0.02979986,-0.6377658,-0.8672228,-2.163171,-0.2527783,-0.01973279
557.3632,0.02998536,-0.6340657,-0.8776136,-2.163675,-0.2532665,-0.01973404
557.3777,0.02998536,-0.6340657,-0.8776136,-2.163675,-0.2532665,-0.01973404
557.3923,0.03016852,-0.6304097,-0.8878531,-2.164171,-0.2537712,-0.01973532
557.4078,0.03034937,-0.626797,-0.8979436,-2.164658,-0.2542916,-0.01973663
557.4225,0.03052794,-0.6232273,-0.907887,-2.165136,-0.2548271,-0.01973796
557.4386,0.03052794,-0.6232273,-0.907887,-2.165136,-0.2548271,-0.01973796
557.4525,0.03070426,-0.6197,-0.9176857,-2.165606,-0.2553771,-0.01973931
557.4669,0.03087835,-0.6162145,-0.9273418,-2.166067,-0.2559409,-0.0197407
557.4816,0.03105026,-0.6127705,-0.9368572,-2.16652,-0.2565178,-0.0197421
557.4963,0.03105026,-0.6127705,-0.9368572,-2.16652,-0.2565178,-0.0197421
557.5104,0.03121999,-0.6093674,-0.946234,-2.166964,-0.2571073,-0.01974352
557.5259,0.03138759,-0.6060048,-0.9554743,-2.167399,-0.2577087,-0.01974497
557.5408,0.03155308,-0.6026821,-0.9645799,-2.167825,-0.2583216,-0.01974644
557.5557,0.03155308,-0.6026821,-0.9645799,-2.167825,-0.2583216,-0.01974644
557.5701,0.03171649,-0.5993989,-0.973553,-2.168243,-0.2589452,-0.01974793
557.5855,0.03187783,-0.5961547,-0.9823954,-2.168652,-0.2595791,-0.01974943
557.6005,0.03203715,-0.5929492,-0.991109,-2.169052,-0.2602227,-0.01975095
557.6154,0.03203715,-0.5929492,-0.991109,-2.169052,-0.2602227,-0.01975095
557.6294,0.03219446,-0.5897816,-0.9996957,-2.169443,-0.2608756,-0.01975249
557.6447,0.03234979,-0.5866518,-1.008157,-2.169826,-0.2615372,-0.01975404
557.6606,0.03250317,-0.5835592,-1.016496,-2.1702,-0.262207,-0.01975561
557.6746,0.03250317,-0.5835592,-1.016496,-2.1702,-0.262207,-0.01975561
557.6902,0.03265462,-0.5805034,-1.024713,-2.170565,-0.2628846,-0.01975718
557.7042,0.03280416,-0.5774839,-1.03281,-2.170921,-0.2635695,-0.01975877
557.7187,0.03280416,-0.5774839,-1.03281,-2.170921,-0.2635695,-0.01975877
557.7325,0.03295182,-0.5745003,-1.040789,-2.171269,-0.2642612,-0.01976038
557.748,0.03309763,-0.5715522,-1.048652,-2.171608,-0.2649594,-0.01976199
557.763,0.03324161,-0.5686392,-1.0564,-2.171939,-0.2656635,-0.01976361
557.7781,0.03324161,-0.5686392,-1.0564,-2.171939,-0.2656635,-0.01976361
557.7917,0.03338378,-0.5657608,-1.064036,-2.172262,-0.2663732,-0.01976525
557.8076,0.03352416,-0.5629166,-1.07156,-2.172576,-0.2670881,-0.01976689
557.8221,0.03366277,-0.5601063,-1.078974,-2.172881,-0.2678077,-0.01976854
557.8372,0.03366277,-0.5601063,-1.078974,-2.172881,-0.2678077,-0.01976854
557.8514,0.03379966,-0.5573295,-1.086281,-2.173179,-0.2685318,-0.01977019
557.8668,0.03393482,-0.5545856,-1.093481,-2.173468,-0.2692599,-0.01977186
557.8814,0.03406829,-0.5518745,-1.100576,-2.17375,-0.2699918,-0.01977352
557.8974,0.03406829,-0.5518745,-1.100576,-2.17375,-0.2699918,-0.01977352
557.9116,0.03420008,-0.5491955,-1.107567,-2.174023,-0.2707269,-0.0197752
557.9258,0.03433023,-0.5465485,-1.114457,-2.174288,-0.2714652,-0.01977688
557.9408,0.03445874,-0.543933,-1.121246,-2.174546,-0.2722061,-0.01977856
557.9555,0.03445874,-0.543933,-1.121246,-2.174546,-0.2722061,-0.01977856
557.9696,0.03458564,-0.5413486,-1.127936,-2.174795,-0.2729494,-0.01978025
557.9849,0.03471095,-0.5387949,-1.134529,-2.175037,-0.2736947,-0.01978194
557.9995,0.03471095,-0.5387949,-1.134529,-2.175037,-0.2736947,-0.01978194
558.0139,0.0348347,-0.5362717,-1.141025,-2.175272,-0.2744419,-0.01978364
558.0293,0.0349569,-0.5337785,-1.147427,-2.175499,-0.2751905,-0.01978534
558.044,0.03507757,-0.531315,-1.153735,-2.175718,-0.2759404,-0.01978704
558.059,0.03507757,-0.531315,-1.153735,-2.175718,-0.2759404,-0.01978704
558.0732,0.03519673,-0.5288808,-1.159952,-2.175931,-0.2766913,-0.01978874
558.0888,0.0353144,-0.5264756,-1.166077,-2.176136,-0.2774428,-0.01979044
558.1036,0.03543061,-0.5240991,-1.172113,-2.176333,-0.2781948,-0.01979214
558.118,0.03543061,-0.5240991,-1.172113,-2.176333,-0.2781948,-0.01979214
558.1344,0.03554536,-0.5217508,-1.178061,-2.176524,-0.278947,-0.01979384
558.1478,0.03565868,-0.5194305,-1.183922,-2.176708,-0.2796992,-0.01979555
558.1625,0.03577059,-0.5171378,-1.189698,-2.176886,-0.2804511,-0.01979725
558.1773,0.03577059,-0.5171378,-1.189698,-2.176886,-0.2804511,-0.01979725
558.1913,0.0358811,-0.5148724,-1.195389,-2.177056,-0.2812026,-0.01979895
558.207,0.03599023,-0.512634,-1.200997,-2.17722,-0.2819533,-0.01980065
558.2215,0.036098,-0.5104223,-1.206523,-2.177378,-0.2827032,-0.01980235
558.2364,0.036098,-0.5104223,-1.206523,-2.177378,-0.2827032,-0.01980235
558.2504,0.03620443,-0.5082369,-1.211969,-2.177529,-0.283452,-0.01980405
558.266,0.03630954,-0.5060775,-1.217335,-2.177674,-0.2841996,-0.01980574
558.281,0.03641334,-0.5039439,-1.222622,-2.177812,-0.2849462,-0.01980744
558.2957,0.03641334,-0.5039439,-1.222622,-2.177812,-0.2849462,-0.01980744
558.3099,0.03651584,-0.5018357,-1.227831,-2.177945,-0.2856911,-0.01980912
558.3253,0.03661707,-0.4997526,-1.232964,-2.178071,-0.2864341,-0.01981081
558.3404,0.03671705,-0.4976943,-1.238022,-2.178192,-0.2871751,-0.0198125
558.3553,0.03671705,-0.4976943,-1.238022,-2.178192,-0.2871751,-0.0198125
558.3714,0.03681577,-0.4956605,-1.242302,-2.178373,-0.2888109,-0.01981645
558.3846,0.03691327,-0.493651,-1.245688,-2.178563,-0.290322,-0.01982006
558.3992,0.03691327,-0.493651,-1.245688,-2.178563,-0.290322,-0.01982006
558.4136,0.03700956,-0.4916654,-1.248551,-2.178741,-0.29162,-0.01982314
558.429,0.03710464,-0.4897034,-1.25044,-2.17897,-0.2936805,-0.01982817
558.4437,0.03719855,-0.4877648,-1.251367,-2.1792,-0.2955464,-0.0198327
558.4583,0.03719855,-0.4877648,-1.251367,-2.1792,-0.2955464,-0.0198327
558.4725,0.03729128,-0.4858494,-1.251759,-2.179412,-0.2971604,-0.01983659
558.4883,0.03738287,-0.4839567,-1.251896,-2.179602,-0.2986167,-0.01984008
558.5031,0.03747333,-0.4820866,-1.251216,-2.179842,-0.3008786,-0.01984569
558.5177,0.03747333,-0.4820866,-1.251216,-2.179842,-0.3008786,-0.01984569
558.5316,0.03756267,-0.4802388,-1.249664,-2.180087,-0.3029657,-0.01985083
558.5475,0.0376509,-0.478413,-1.247636,-2.180313,-0.3048043,-0.01985534
558.5622,0.03773804,-0.4766089,-1.245396,-2.180517,-0.3064807,-0.01985943
558.5771,0.03773804,-0.4766089,-1.245396,-2.180517,-0.3064807,-0.01985943
558.5911,0.0378241,-0.4748264,-1.242378,-2.180772,-0.3089541,-0.01986567
558.6078,0.0379091,-0.4730651,-1.238525,-2.181031,-0.3112455,-0.01987141
558.6216,0.03799305,-0.4713248,-1.234229,-2.181272,-0.3132797,-0.0198765
558.6363,0.03799305,-0.4713248,-1.234229,-2.181272,-0.3132797,-0.0198765
558.6506,0.03807596,-0.4696052,-1.229056,-2.18156,-0.3160366,-0.01988355
558.6654,0.03815785,-0.4679061,-1.223019,-2.181849,-0.3185699,-0.01989001
558.6802,0.03823874,-0.4662273,-1.216541,-2.182117,-0.3208208,-0.01989574
558.6951,0.03823874,-0.4662273,-1.216541,-2.182117,-0.3208208,-0.01989574
558.7094,0.03831863,-0.4645684,-1.209902,-2.18233,-0.3228858,-0.01990095
558.7247,0.03839754,-0.4629294,-1.20255,-2.182504,-0.3257301,-0.01990828
558.7396,0.03839754,-0.4629294,-1.20255,-2.182504,-0.3257301,-0.01990828
558.7538,0.03847547,-0.4613099,-1.194423,-2.182579,-0.3283804,-0.01991503
558.7692,0.03855245,-0.4597096,-1.18591,-2.182558,-0.3307562,-0.01992106
558.7839,0.03862849,-0.4581285,-1.17727,-2.182486,-0.3329401,-0.01992662
558.7988,0.03862849,-0.4581285,-1.17727,-2.182486,-0.3329401,-0.01992662
558.8131,0.03870359,-0.4565661,-1.167946,-2.18248,-0.3358893,-0.01993442
558.8284,0.03877778,-0.4550224,-1.157876,-2.182492,-0.3386354,-0.01994166
558.8442,0.03885105,-0.4534971,-1.147448,-2.182485,-0.3411012,-0.01994814
558.8582,0.03885105,-0.4534971,-1.147448,-2.182485,-0.3411012,-0.01994814
558.8724,0.03892343,-0.45199,-1.136233,-2.182533,-0.344264,-0.01995667
558.8878,0.03899493,-0.4505008,-1.124239,-2.18257,-0.3471848,-0.0199645
558.9022,0.03906555,-0.4490294,-1.111887,-2.182563,-0.3498027,-0.0199715
558.9171,0.03906555,-0.4490294,-1.111887,-2.182563,-0.3498027,-0.0199715
558.9312,0.03913531,-0.4475755,-1.099451,-2.182522,-0.3522096,-0.01997794
558.9466,0.03920422,-0.4461389,-1.086382,-2.182547,-0.355366,-0.01998666
558.9612,0.03927229,-0.4447195,-1.072619,-2.182576,-0.3583075,-0.01999474
558.9761,0.03927229,-0.4447195,-1.072619,-2.182576,-0.3583075,-0.01999474
558.9902,0.03933953,-0.443317,-1.058549,-2.182573,-0.3609565,-0.020002
559.0059,0.03940596,-0.4419312,-1.04443,-2.182539,-0.3633967,-0.02000871
559.021,0.03947158,-0.4405619,-1.029707,-2.18257,-0.3665842,-0.02001773
559.0356,0.03947158,-0.4405619,-1.029707,-2.18257,-0.3665842,-0.02001773
559.0502,0.0395364,-0.4392089,-1.014318,-2.182604,-0.3695549,-0.02002609
559.0652,0.03960044,-0.4378721,-0.9986453,-2.182601,-0.3722296,-0.0200336
559.0812,0.03966369,-0.4365512,-0.982946,-2.182564,-0.3746914,-0.02004054
559.095,0.03966369,-0.4365512,-0.982946,-2.182564,-0.3746914,-0.02004054
559.1092,0.03972619,-0.435246,-0.9666673,-2.182593,-0.3778955,-0.02004982
559.1245,0.03978793,-0.4339564,-0.9497446,-2.182626,-0.3808799,-0.02005842
559.1394,0.03978793,-0.4339564,-0.9497446,-2.182626,-0.3808799,-0.02005842
559.1533,0.03984892,-0.4326821,-0.9325596,-2.182622,-0.3835648,-0.02006614
559.1689,0.03990918,-0.431423,-0.9146869,-2.182665,-0.3869238,-0.02007602
559.1836,0.0399687,-0.430179,-0.8961323,-2.182695,-0.3900248,-0.0200851
559.1985,0.0399687,-0.430179,-0.8961323,-2.182695,-0.3900248,-0.0200851
559.2126,0.04002751,-0.4289497,-0.8773108,-2.182678,-0.3928045,-0.02009323
559.2283,0.04008561,-0.4277351,-0.858494,-2.182625,-0.395354,-0.02010074
559.243,0.04014302,-0.426535,-0.8398266,-2.18256,-0.397732,-0.02010782
559.2579,0.04014302,-0.426535,-0.8398266,-2.18256,-0.397732,-0.02010782
559.2721,0.04019974,-0.4253492,-0.8213723,-2.182503,-0.399987,-0.02011459
559.2878,0.04025577,-0.4241775,-0.8031533,-2.182461,-0.4021399,-0.0201211
559.3035,0.04031114,-0.4230198,-0.7851771,-2.182435,-0.4042007,-0.02012737
559.3174,0.04031114,-0.4230198,-0.7851771,-2.182435,-0.4042007,-0.02012737
559.3314,0.04036583,-0.4218758,-0.7674445,-2.182417,-0.406175,-0.02013342
559.3469,0.04041988,-0.4207456,-0.7499542,-2.182402,-0.4080664,-0.02013925
559.3616,0.04047327,-0.4196287,-0.7327035,-2.182387,-0.4098776,-0.02014485
559.3765,0.04047327,-0.4196287,-0.7327035,-2.182387,-0.4098776,-0.02014485
559.3905,0.04052594,-0.4185253,-0.7161284,-2.17172,-0.4125904,-0.02013559
559.4061,0.04057796,-0.4174351,-0.6995619,-2.155016,-0.4151041,-0.02013235
559.4208,0.04062937,-0.4163578,-0.6829831,-2.135591,-0.4172891,-0.0201315
559.4359,0.04062937,-0.4163578,-0.6829831,-2.135591,-0.4172891,-0.0201315
559.4498,0.04068019,-0.4152933,-0.6664511,-2.115025,-0.4192105,-0.02013168
559.4656,0.04073043,-0.4142414,-0.6500399,-2.092834,-0.4210239,-0.02013074
559.48,0.0407801,-0.4132021,-0.6336961,-2.069916,-0.4226226,-0.02013061
559.4949,0.0407801,-0.4132021,-0.6336961,-2.069916,-0.4226226,-0.02013061
559.5092,0.04082922,-0.4121751,-0.6174361,-2.046825,-0.4240136,-0.02013076
559.5246,0.04087779,-0.4111603,-0.6012778,-2.023825,-0.4252143,-0.02013099
559.5406,0.0409258,-0.4101575,-0.5852637,-1.999798,-0.4263248,-0.02012984
559.5544,0.0409258,-0.4101575,-0.5852637,-1.999798,-0.4263248,-0.02012984
559.5685,0.04097327,-0.4091667,-0.5693554,-1.975341,-0.427232,-0.02012917
559.5837,0.04102021,-0.4081876,-0.5535731,-1.950865,-0.4279487,-0.02012867
559.5983,0.04102021,-0.4081876,-0.5535731,-1.950865,-0.4279487,-0.02012867
559.6125,0.04106662,-0.4072202,-0.5379516,-1.925324,-0.4285637,-0.02012693
559.6281,0.04111251,-0.4062642,-0.5224674,-1.899347,-0.4289828,-0.02012565
559.6428,0.04115789,-0.4053196,-0.5071384,-1.873364,-0.4292255,-0.02012454
559.6577,0.04115789,-0.4053196,-0.5071384,-1.873364,-0.4292255,-0.02012454
559.6719,0.04120276,-0.4043863,-0.4919769,-1.847574,-0.4293087,-0.02012347
559.6875,0.04124712,-0.403464,-0.4770007,-1.820832,-0.4292933,-0.02012127
559.7022,0.04129099,-0.4025526,-0.4622002,-1.793719,-0.4291158,-0.02011948
559.717,0.04129099,-0.4025526,-0.4622002,-1.793719,-0.4291158,-0.02011948
559.7311,0.04133436,-0.4016521,-0.4475863,-1.766641,-0.4287957,-0.02011785
559.7468,0.04137726,-0.4007623,-0.4331658,-1.739789,-0.4283477,-0.02011628
559.7618,0.04141967,-0.3998831,-0.4189437,-1.713104,-0.4277864,-0.02011462
559.7776,0.04141967,-0.3998831,-0.4189437,-1.713104,-0.4277864,-0.02011462
559.7916,0.0414616,-0.3990143,-0.4049231,-1.686691,-0.4271175,-0.02011302
559.806,0.04150305,-0.3981558,-0.3911071,-1.660611,-0.4263506,-0.02011146
559.8206,0.04154404,-0.3973075,-0.3774976,-1.63489,-0.4254943,-0.02010993
559.8355,0.04154404,-0.3973075,-0.3774976,-1.63489,-0.4254943,-0.02010993
559.8497,0.04158454,-0.3964694,-0.3640961,-1.60954,-0.4245561,-0.02010842
559.8648,0.04162458,-0.3956411,-0.3509035,-1.584562,-0.4235429,-0.02010697
559.8796,0.04162458,-0.3956411,-0.3509035,-1.584562,-0.4235429,-0.02010697
559.8951,0.04166415,-0.3948228,-0.3379204,-1.559955,-0.4224608,-0.02010559
559.9093,0.04170326,-0.3940142,-0.3251467,-1.535717,-0.4213155,-0.02010426
559.924,0.04174189,-0.3932153,-0.3125824,-1.511843,-0.420112,-0.02010294
559.9388,0.04174189,-0.3932153,-0.3125824,-1.511843,-0.420112,-0.02010294
559.9528,0.04178007,-0.3924258,-0.300227,-1.488328,-0.4188553,-0.02010162
559.9683,0.04181777,-0.3916458,-0.2880799,-1.465169,-0.4175494,-0.02010028
559.9834,0.04185502,-0.3908751,-0.2761403,-1.44236,-0.4161981,-0.02009895
559.9979,0.04185502,-0.3908751,-0.2761403,-1.44236,-0.4161981,-0.02009895
560.0131,0.04189181,-0.3901137,-0.2644072,-1.419897,-0.414805,-0.02009767
560.0278,0.04192813,-0.3893613,-0.2528798,-1.397775,-0.4133731,-0.02009641
560.0424,0.04196401,-0.3886178,-0.2415569,-1.375989,-0.4119052,-0.0200952
560.0571,0.04196401,-0.3886178,-0.2415569,-1.375989,-0.4119052,-0.0200952
560.0712,0.04199943,-0.3878833,-0.2304375,-1.354536,-0.4104042,-0.02009403
560.087,0.0420344,-0.3871576,-0.2195204,-1.333409,-0.4088725,-0.0200929
560.1014,0.04206893,-0.3864405,-0.2088044,-1.312606,-0.4073128,-0.02009181
560.116,0.04206893,-0.3864405,-0.2088044,-1.312606,-0.4073128,-0.02009181
560.1304,0.04210301,-0.3857321,-0.1982883,-1.29212,-0.4057277,-0.02009076
560.1459,0.04213665,-0.3850321,-0.1879705,-1.271948,-0.4041203,-0.02008974
560.1606,0.04216986,-0.3843405,-0.1778495,-1.252086,-0.4024938,-0.02008876
560.1755,0.04216986,-0.3843405,-0.1778495,-1.252086,-0.4024938,-0.02008876
560.1899,0.04220264,-0.3836571,-0.1679235,-1.232529,-0.4008515,-0.0200878
560.2059,0.04223499,-0.382982,-0.1581905,-1.213272,-0.399197,-0.02008687
560.2204,0.04226692,-0.3823149,-0.1486483,-1.194311,-0.3975339,-0.02008594
560.2363,0.04226692,-0.3823149,-0.1486483,-1.194311,-0.3975339,-0.02008594
560.2504,0.04229843,-0.3816558,-0.1392947,-1.175643,-0.3958661,-0.02008504
560.2648,0.04232953,-0.3810047,-0.1301271,-1.157262,-0.3941971,-0.02008415
560.2798,0.04232953,-0.3810047,-0.1301271,-1.157262,-0.3941971,-0.02008415
560.2938,0.04236022,-0.3803613,-0.1211429,-1.139165,-0.3925304,-0.02008326
560.3094,0.04239051,-0.3797256,-0.1123395,-1.121348,-0.3908694,-0.02008238
560.3239,0.04242041,-0.3790976,-0.1037141,-1.103806,-0.3892173,-0.02008149
560.3388,0.04242041,-0.3790976,-0.1037141,-1.103806,-0.3892173,-0.02008149
560.353,0.04244991,-0.3784771,-0.0952639,-1.086536,-0.3875771,-0.02008061
560.3688,0.04247902,-0.377864,-0.08698599,-1.069533,-0.3859514,-0.02007972
560.3832,0.04250775,-0.3772582,-0.07887751,-1.052794,-0.3843428,-0.02007882
560.3981,0.04250775,-0.3772582,-0.07887751,-1.052794,-0.3843428,-0.02007882
560.4125,0.0425361,-0.3766598,-0.07093555,-1.036315,-0.3827536,-0.02007792
560.4286,0.04256408,-0.3760685,-0.06315723,-1.020092,-0.3811857,-0.02007701
560.4429,0.04259169,-0.3754843,-0.05553966,-1.00412,-0.3796412,-0.02007609
560.4577,0.04259169,-0.3754843,-0.05553966,-1.00412,-0.3796412,-0.02007609
560.473,0.04261895,-0.374907,-0.04807995,-0.9883976,-0.3781217,-0.02007515
560.4876,0.04264584,-0.3743367,-0.04077525,-0.9729194,-0.3766286,-0.0200742
560.5027,0.04267238,-0.3737733,-0.03362273,-0.9576822,-0.3751633,-0.02007324
560.517,0.04267238,-0.3737733,-0.03362273,-0.9576822,-0.3751633,-0.02007324
560.5311,0.04269857,-0.3732166,-0.02661955,-0.9426824,-0.3737269,-0.02007227
560.5466,0.04272442,-0.3726665,-0.01976294,-0.9279163,-0.3723205,-0.02007129
560.5614,0.04274993,-0.3721231,-0.01305014,-0.9133806,-0.3709449,-0.02007029
560.5764,0.04274993,-0.3721231,-0.01305014,-0.9133806,-0.3709449,-0.02007029
560.5905,0.04277511,-0.3715861,-0.006478409,-0.8990717,-0.3696009,-0.02006928
560.6063,0.04279996,-0.3710556,-4.506717E-05,-0.8849861,-0.3682891,-0.02006825
560.6209,0.04282449,-0.3705315,0.006252557,-0.8711205,-0.3670101,-0.02006721
560.636,0.04282449,-0.3705315,0.006252557,-0.8711205,-0.3670101,-0.02006721
560.6504,0.0428487,-0.3700136,0.01241709,-0.8574715,-0.3657642,-0.02006614
560.6655,0.04287259,-0.3695019,0.01845112,-0.8440359,-0.3645519,-0.02006507
560.6805,0.04289617,-0.3689964,0.02435723,-0.8308104,-0.3633733,-0.02006397
560.6966,0.04289617,-0.3689964,0.02435723,-0.8308104,-0.3633733,-0.02006397
560.7097,0.04291945,-0.3684969,0.03013793,-0.8177917,-0.3622286,-0.02006287
560.7255,0.04294242,-0.3680034,0.03579571,-0.8049767,-0.361118,-0.02006174
560.7401,0.0429651,-0.3675158,0.04133304,-0.7923623,-0.3600415,-0.0200606
560.7547,0.0429651,-0.3675158,0.04133304,-0.7923623,-0.3600415,-0.0200606
560.7689,0.04298749,-0.367034,0.04675233,-0.7799454,-0.358999,-0.02005943
560.7843,0.04300958,-0.3665581,0.05205597,-0.7677229,-0.3579905,-0.02005825
560.7991,0.04300958,-0.3665581,0.05205597,-0.7677229,-0.3579905,-0.02005825
560.8135,0.04303139,-0.3660878,0.05724632,-0.7556919,-0.3570158,-0.02005705
560.8289,0.04305293,-0.3656231,0.06232569,-0.7438495,-0.3560749,-0.02005583
560.8437,0.04307418,-0.365164,0.06729636,-0.7321926,-0.3551673,-0.02005459
560.8587,0.04307418,-0.365164,0.06729636,-0.7321926,-0.3551673,-0.02005459
560.8732,0.04309516,-0.3647105,0.07216057,-0.7207186,-0.354293,-0.02005333
560.8887,0.04311587,-0.3642623,0.07692055,-0.7094244,-0.3534516,-0.02005205
560.9046,0.04313632,-0.3638195,0.08157848,-0.6983073,-0.3526427,-0.02005075
560.9194,0.04313632,-0.3638195,0.08157848,-0.6983073,-0.3526427,-0.02005075
560.9325,0.0431565,-0.363382,0.08613648,-0.6873647,-0.3518661,-0.02004943
560.9479,0.04317643,-0.3629497,0.09059669,-0.6765938,-0.3511213,-0.02004808
560.9626,0.0431961,-0.3625226,0.09496117,-0.6659918,-0.350408,-0.02004671
560.9775,0.0431961,-0.3625226,0.09496117,-0.6659918,-0.350408,-0.02004671
560.992,0.04321552,-0.3621007,0.09923197,-0.6555563,-0.3497258,-0.02004531
561.0072,0.0432347,-0.3616837,0.1034111,-0.6452847,-0.3490741,-0.02004389
561.022,0.04325363,-0.3612718,0.1075005,-0.6351743,-0.3484525,-0.02004245
561.037,0.04325363,-0.3612718,0.1075005,-0.6351743,-0.3484525,-0.02004245
561.0513,0.04327232,-0.3608648,0.1115022,-0.6252226,-0.3478606,-0.02004097
561.0665,0.04329077,-0.3604626,0.1154181,-0.6154273,-0.347298,-0.02003947
561.0815,0.04330899,-0.3600653,0.11925,-0.6057858,-0.346764,-0.02003795
561.0966,0.04330899,-0.3600653,0.11925,-0.6057858,-0.346764,-0.02003795
561.1106,0.04332698,-0.3596727,0.1229998,-0.5962958,-0.3462582,-0.02003639
561.1274,0.04334474,-0.3592848,0.1266694,-0.586955,-0.3457802,-0.0200348
561.1454,0.04336228,-0.3589016,0.1302605,-0.5777608,-0.3453293,-0.02003319
561.1558,0.04336228,-0.3589016,0.1302605,-0.5777608,-0.3453293,-0.02003319
561.1702,0.04337959,-0.358523,0.1337748,-0.5687112,-0.344905,-0.02003154
561.1855,0.04339669,-0.3581488,0.1372141,-0.5598038,-0.344507,-0.02002986
561.2003,0.04341358,-0.3577792,0.1405801,-0.5510365,-0.3441345,-0.02002815
561.215,0.04341358,-0.3577792,0.1405801,-0.5510365,-0.3441345,-0.02002815
561.2294,0.04343025,-0.3574139,0.1438745,-0.5424069,-0.3437872,-0.02002641
561.2449,0.04344671,-0.3570531,0.147114,-0.5340576,-0.3434853,-0.02002496
561.2597,0.04344671,-0.3570531,0.147114,-0.5340576,-0.3434853,-0.02002496
561.274,0.04346297,-0.3566965,0.1502839,-0.5259238,-0.3432085,-0.02002334
561.2895,0.04347902,-0.3563443,0.1533828,-0.5179585,-0.3429505,-0.02002163
561.3044,0.04349487,-0.3559962,0.1564136,-0.5101379,-0.3427112,-0.02001987
561.3195,0.04349487,-0.3559962,0.1564136,-0.5101379,-0.3427112,-0.02001987
561.3334,0.04351054,-0.3556523,0.1595175,-0.5036777,-0.3426753,-0.02002123
561.3509,0.04352602,-0.3553125,0.1625507,-0.4980406,-0.3426698,-0.02002126
561.3646,0.0435413,-0.3549768,0.1654859,-0.4928389,-0.3426442,-0.02002075
561.3785,0.0435413,-0.3549768,0.1654859,-0.4928389,-0.3426442,-0.02002075
561.3925,0.04355642,-0.354645,0.1684797,-0.4891138,-0.3427882,-0.0200234
561.4079,0.04357135,-0.3543173,0.1713963,-0.4862449,-0.3429342,-0.02002454
561.4228,0.0435861,-0.3539934,0.1742171,-0.4838045,-0.3430401,-0.02002507
561.4375,0.0435861,-0.3539934,0.1742171,-0.4838045,-0.3430401,-0.02002507
561.4515,0.04360066,-0.3536735,0.1769609,-0.4815871,-0.3431131,-0.02002534
561.4672,0.04361506,-0.3533573,0.1797957,-0.4807211,-0.3433596,-0.02002908
561.4821,0.04362929,-0.353045,0.1825775,-0.4806287,-0.3436091,-0.02003124
561.4968,0.04362929,-0.353045,0.1825775,-0.4806287,-0.3436091,-0.02003124
561.5109,0.04364334,-0.3527364,0.1852823,-0.4809029,-0.3438168,-0.02003275
561.5269,0.04365722,-0.3524314,0.187926,-0.4813485,-0.3439879,-0.02003398
561.5421,0.04367094,-0.3521301,0.1906747,-0.4830993,-0.3443283,-0.02003867
561.5564,0.04367094,-0.3521301,0.1906747,-0.4830993,-0.3443283,-0.02003867
561.5706,0.0436845,-0.3518324,0.1933811,-0.4855804,-0.3446648,-0.02004172
561.587,0.0436979,-0.3515382,0.196021,-0.4883865,-0.344953,-0.02004408
561.6007,0.04371113,-0.3512476,0.1986098,-0.4913235,-0.3451984,-0.0200461
561.6155,0.04371113,-0.3512476,0.1986098,-0.4913235,-0.3451984,-0.0200461
561.6297,0.04372434,-0.3509605,0.2024295,-0.5049898,-0.3470702,-0.02007813
561.6451,0.04373742,-0.3506768,0.206062,-0.524728,-0.3489415,-0.02009629
561.6598,0.04373742,-0.3506768,0.206062,-0.524728,-0.3489415,-0.02009629
561.674,0.04375034,-0.3503965,0.2092635,-0.5471774,-0.3503919,-0.02010843
561.6896,0.04376308,-0.3501195,0.212173,-0.5707284,-0.3514667,-0.02011763
561.7045,0.04377565,-0.3498459,0.2149445,-0.59461,-0.35228,-0.02012515
561.7192,0.04377565,-0.3498459,0.2149445,-0.59461,-0.35228,-0.02012515
561.7334,0.04378806,-0.3495755,0.2176777,-0.6184533,-0.352921,-0.02013151
561.7488,0.04380032,-0.3493083,0.2204245,-0.6420832,-0.3534474,-0.02013699
561.7637,0.04381244,-0.3490443,0.2257726,-0.6653996,-0.3576364,-0.02014639
561.7787,0.04381244,-0.3490443,0.2257726,-0.6653996,-0.3576364,-0.02014639
561.7926,0.04382443,-0.3487835,0.2315799,-0.6883599,-0.3632242,-0.02015164
561.8082,0.04383628,-0.3485257,0.237077,-0.7109647,-0.3691284,-0.02015543
561.8239,0.04384802,-0.348271,0.2421546,-0.7332224,-0.3750021,-0.02015864
561.8379,0.04384802,-0.348271,0.2421546,-0.7332224,-0.3750021,-0.02015864
561.8519,0.04385964,-0.3480193,0.2457838,-0.755149,-0.3789664,-0.02015994
561.8671,0.04387114,-0.3477706,0.249061,-0.7767519,-0.3821881,-0.02016239
561.882,0.04388252,-0.3475248,0.2523446,-0.7980283,-0.3851859,-0.02016482
561.8967,0.04388252,-0.3475248,0.2523446,-0.7980283,-0.3851859,-0.02016482
561.9111,0.0438938,-0.3472819,0.254604,-0.8189849,-0.3861859,-0.02016571
561.9263,0.04390496,-0.3470419,0.2568821,-0.8396277,-0.386579,-0.02016755
561.9412,0.04391602,-0.3468047,0.2593918,-0.8599502,-0.3868838,-0.02016923
561.9563,0.04391602,-0.3468047,0.2593918,-0.8599502,-0.3868838,-0.02016923
561.9705,0.04392696,-0.3465704,0.2620763,-0.8799502,-0.3872081,-0.02017056
561.9861,0.04393781,-0.3463387,0.2638192,-0.8996391,-0.3854449,-0.02017074
562.001,0.04394855,-0.3461099,0.265702,-0.9190284,-0.3832209,-0.02017173
562.0158,0.04394855,-0.3461099,0.265702,-0.9190284,-0.3832209,-0.02017173
562.0299,0.04395918,-0.3458837,0.267854,-0.9381112,-0.3810166,-0.02017251
562.0462,0.04396972,-0.3456602,0.2701823,-0.9568859,-0.3788928,-0.02017297
562.0602,0.04398016,-0.3454393,0.2716267,-0.9753647,-0.3745454,-0.02017273
562.075,0.04398016,-0.3454393,0.2716267,-0.9753647,-0.3745454,-0.02017273
562.0891,0.0439905,-0.3452211,0.2733082,-0.9935603,-0.3699073,-0.0201731
562.1046,0.04400074,-0.3450054,0.2752653,-1.011464,-0.3653837,-0.02017321
562.1227,0.04401088,-0.3447922,0.2773843,-1.029075,-0.3609894,-0.02017303
562.1356,0.04401088,-0.3447922,0.2773843,-1.029075,-0.3609894,-0.02017303
562.1484,0.04402094,-0.3445816,0.2786917,-1.046405,-0.3542573,-0.02017254
562.1637,0.04403089,-0.3443735,0.2803024,-1.063467,-0.3474211,-0.02017241
562.1787,0.04403089,-0.3443735,0.2803024,-1.063467,-0.3474211,-0.02017241
562.1928,0.04404076,-0.3441678,0.2821689,-1.080252,-0.3407708,-0.02017198
562.2086,0.04405054,-0.3439645,0.2833499,-1.096766,-0.3317562,-0.02017141
562.2234,0.04406022,-0.3437636,0.2848894,-1.113022,-0.3227936,-0.02017095
562.2385,0.04406022,-0.3437636,0.2848894,-1.113022,-0.3227936,-0.02017095
562.2525,0.04406982,-0.3435651,0.2866757,-1.129009,-0.3140711,-0.0201702
562.2698,0.04407932,-0.343369,0.2885945,-1.144731,-0.3055563,-0.02016925
562.2827,0.04408874,-0.3431751,0.289875,-1.160196,-0.2946192,-0.02016839
562.2974,0.04408874,-0.3431751,0.289875,-1.160196,-0.2946192,-0.02016839
562.3115,0.04409807,-0.3429835,0.2914901,-1.175417,-0.283871,-0.02016746
562.327,0.04410731,-0.3427942,0.2933034,-1.190387,-0.2733931,-0.02016628
562.3419,0.04411647,-0.3426072,0.2952229,-1.205108,-0.2631535,-0.02016493
562.3569,0.04411647,-0.3426072,0.2952229,-1.205108,-0.2631535,-0.02016493
562.3709,0.04412555,-0.3424223,0.2966075,-1.219587,-0.2505016,-0.02016377
562.3865,0.04413454,-0.3422396,0.2982961,-1.233837,-0.2381361,-0.02016241
562.4014,0.04414345,-0.3420591,0.3001457,-1.247853,-0.2260654,-0.02016083
562.4163,0.04414345,-0.3420591,0.3001457,-1.247853,-0.2260654,-0.02016083
562.4305,0.04415228,-0.3418807,0.3015685,-1.261635,-0.2116348,-0.02015941
562.4462,0.04416102,-0.3417044,0.303277,-1.275198,-0.197549,-0.02015775
562.4609,0.04416968,-0.3415301,0.3051299,-1.288537,-0.183787,-0.0201559
562.4756,0.04416968,-0.3415301,0.3051299,-1.288537,-0.183787,-0.0201559
562.4898,0.04417825,-0.341358,0.3070604,-1.301656,-0.1703247,-0.02015392
562.5056,0.04418676,-0.3411878,0.3086277,-1.314556,-0.1545469,-0.02015208
562.5201,0.04419518,-0.3410197,0.3104192,-1.327251,-0.1391367,-0.02015002
562.5347,0.04419518,-0.3410197,0.3104192,-1.327251,-0.1391367,-0.02015002
562.5488,0.04420351,-0.3408536,0.3123205,-1.33974,-0.1240651,-0.02014784
562.5645,0.04421177,-0.3406894,0.3142798,-1.352025,-0.109313,-0.02014557
562.5793,0.04421177,-0.3406894,0.3142798,-1.352025,-0.109313,-0.02014557
562.5934,0.04421995,-0.3405271,0.3159526,-1.364106,-0.09229738,-0.02014336
562.6091,0.04422805,-0.3403668,0.3178025,-1.375997,-0.07566004,-0.02014103
562.6241,0.04423608,-0.3402084,0.3197369,-1.387697,-0.05937525,-0.02013863
562.639,0.04423608,-0.3402084,0.3197369,-1.387697,-0.05937525,-0.02013863
562.6532,0.04424403,-0.3400518,0.3214523,-1.399203,-0.04087587,-0.02013626
562.6685,0.0442519,-0.3398971,0.323322,-1.410528,-0.02277389,-0.02013381
562.6834,0.04425969,-0.3397442,0.3252644,-1.421675,-0.005047224,-0.02013133
562.6983,0.04425969,-0.3397442,0.3252644,-1.421675,-0.005047224,-0.02013133
562.7123,0.04426741,-0.3395931,0.3272432,-1.432646,0.0123179,-0.02012884
562.729,0.04427505,-0.3394438,0.3290472,-1.443436,0.03186413,-0.02012637
562.7429,0.04428262,-0.3392963,0.3309627,-1.454061,0.05100609,-0.0201239
562.7575,0.04428262,-0.3392963,0.3309627,-1.454061,0.05100609,-0.0201239
562.7717,0.04429011,-0.3391505,0.3329296,-1.464522,0.06975991,-0.02012145
562.7871,0.04429752,-0.3390065,0.3349207,-1.474822,0.08813685,-0.02011904
562.8021,0.04430487,-0.3388641,0.336789,-1.484957,0.1086661,-0.02011665
562.8169,0.04430487,-0.3388641,0.336789,-1.484957,0.1086661,-0.02011665
562.8312,0.04431214,-0.3387234,0.338737,-1.494939,0.128781,-0.02011434
562.8469,0.04431934,-0.3385844,0.3407204,-1.504773,0.1484939,-0.02011209
562.8615,0.04432645,-0.3384471,0.342719,-1.514459,0.1678148,-0.02010993
562.8765,0.04432645,-0.3384471,0.342719,-1.514459,0.1678148,-0.02010993
562.8908,0.04433351,-0.3383113,0.3446427,-1.523994,0.189265,-0.02010781
562.9063,0.04434049,-0.3381772,0.3466184,-1.53339,0.2102891,-0.02010581
562.9208,0.0443474,-0.3380446,0.3486155,-1.54265,0.2308971,-0.02010392
562.936,0.0443474,-0.3380446,0.3486155,-1.54265,0.2308971,-0.02010392
562.951,0.04435424,-0.3379137,0.3505773,-1.551768,0.2536085,-0.02010212
562.9654,0.044361,-0.3377842,0.352575,-1.560757,0.2758721,-0.02010046
562.9802,0.0443677,-0.3376563,0.3545866,-1.569619,0.2976978,-0.02009893
562.9947,0.0443677,-0.3376563,0.3545866,-1.569619,0.2976978,-0.02009893
563.009,0.04437432,-0.33753,0.356602,-1.578357,0.3190944,-0.02009755
563.0246,0.04438088,-0.3374051,0.3586207,-1.586968,0.3425806,-0.0200963
563.0394,0.04438088,-0.3374051,0.3586207,-1.586968,0.3425806,-0.0200963
563.0533,0.04438737,-0.3372817,0.3606499,-1.59546,0.3656069,-0.02009521
563.0692,0.04439378,-0.3371598,0.3626808,-1.603837,0.3881823,-0.02009428
563.0839,0.04440013,-0.3370394,0.364709,-1.612101,0.4103159,-0.02009349
563.0989,0.04440013,-0.3370394,0.364709,-1.612101,0.4103159,-0.02009349
563.113,0.0444064,-0.3369203,0.3667318,-1.620254,0.4320168,-0.02009285
563.1286,0.04441261,-0.3368027,0.3687477,-1.628299,0.4532937,-0.02009235
563.1435,0.04441874,-0.3366865,0.3707554,-1.636237,0.4741552,-0.02009198
563.1584,0.04441874,-0.3366865,0.3707554,-1.636237,0.4741552,-0.02009198
563.1747,0.0444248,-0.3365717,0.3726695,-1.644072,0.4920932,-0.02009166
563.1879,0.04443079,-0.3364582,0.3745914,-1.651803,0.5096826,-0.02009146
563.2026,0.04443672,-0.3363461,0.3765092,-1.659431,0.5269298,-0.02009138
563.2176,0.04443672,-0.3363461,0.3765092,-1.659431,0.5269298,-0.02009138
563.2316,0.04444258,-0.3362353,0.3784174,-1.666956,0.5438414,-0.0200914
563.2472,0.04444836,-0.3361259,0.3801844,-1.67438,0.5579002,-0.02009136
563.2618,0.04445408,-0.3360178,0.3819732,-1.681703,0.5716891,-0.02009144
563.2767,0.04445408,-0.3360178,0.3819732,-1.681703,0.5716891,-0.02009144
563.291,0.04445974,-0.335911,0.3837623,-1.688925,0.5852115,-0.0200916
563.3067,0.04446533,-0.3358054,0.3855419,-1.696049,0.5984719,-0.02009184
563.3216,0.04447085,-0.3357011,0.387135,-1.703072,0.6089418,-0.02009194
563.3362,0.04447085,-0.3357011,0.387135,-1.703072,0.6089418,-0.02009194
563.3505,0.0444763,-0.3355981,0.3887651,-1.709996,0.6192151,-0.02009214
563.3661,0.0444817,-0.3354963,0.3904012,-1.716822,0.6292921,-0.02009242
563.3804,0.04448703,-0.3353957,0.3920296,-1.723553,0.6391752,-0.02009275
563.3966,0.04448703,-0.3353957,0.3920296,-1.723553,0.6391752,-0.02009275
563.4107,0.04449229,-0.3352963,0.393428,-1.730184,0.6463224,-0.02009285
563.4252,0.04449749,-0.3351981,0.3948796,-1.736718,0.6533415,-0.02009306
563.4398,0.04449749,-0.3351981,0.3948796,-1.736718,0.6533415,-0.02009306
563.454,0.04450263,-0.335101,0.3963444,-1.743158,0.6602294,-0.02009333
563.4697,0.0445077,-0.3350052,0.3975563,-1.749499,0.6644319,-0.02009333
563.4843,0.04451271,-0.3349105,0.3988379,-1.755745,0.6685669,-0.02009346
563.4996,0.04451271,-0.3349105,0.3988379,-1.755745,0.6685669,-0.02009346
563.5133,0.04451766,-0.3348169,0.4001405,-1.761898,0.6726284,-0.02009363
563.529,0.04452256,-0.3347244,0.4014421,-1.767962,0.6766142,-0.02009384
563.5439,0.04452738,-0.3346331,0.4024427,-1.773929,0.6779567,-0.02009371
563.5589,0.04452738,-0.3346331,0.4024427,-1.773929,0.6779567,-0.02009371
563.5731,0.04453215,-0.3345428,0.4035272,-1.779801,0.6792902,-0.0200937
563.5886,0.04453686,-0.3344536,0.4046401,-1.785585,0.6806066,-0.02009373
563.6032,0.04454152,-0.3343655,0.4057561,-1.791283,0.6819013,-0.0200938
563.6183,0.04454152,-0.3343655,0.4057561,-1.791283,0.6819013,-0.0200938
563.6331,0.04454611,-0.3342784,0.406533,-1.796886,0.680593,-0.02009348
563.6477,0.04455064,-0.3341924,0.4074119,-1.802397,0.6793299,-0.02009328
563.6624,0.04455512,-0.3341074,0.4083289,-1.807824,0.6781026,-0.02009314
563.6774,0.04455512,-0.3341074,0.4083289,-1.807824,0.6781026,-0.02009314
563.6917,0.04455954,-0.3340235,0.4088938,-1.813159,0.6743163,-0.02009261
563.7071,0.0445639,-0.3339405,0.4095812,-1.818404,0.6706257,-0.02009221
563.7219,0.04456821,-0.3338586,0.4103178,-1.823568,0.667021,-0.02009186
563.7369,0.04456821,-0.3338586,0.4103178,-1.823568,0.667021,-0.02009186
563.751,0.04457247,-0.3337776,0.4110697,-1.828653,0.6634926,-0.02009154
563.7667,0.04457666,-0.3336976,0.4114227,-1.833649,0.6574383,-0.02009079
563.7814,0.04458081,-0.3336186,0.4119107,-1.838557,0.6515225,-0.02009014
563.7964,0.04458081,-0.3336186,0.4119107,-1.838557,0.6515225,-0.02009014
563.8106,0.0445849,-0.3335405,0.4124563,-1.843387,0.6457386,-0.02008957
563.826,0.04458895,-0.3334633,0.4130228,-1.848143,0.640075,-0.02008903
563.8408,0.04459293,-0.3333871,0.413159,-1.852814,0.6319211,-0.02008804
563.856,0.04459293,-0.3333871,0.413159,-1.852814,0.6319211,-0.02008804
563.8708,0.04459687,-0.3333118,0.4134479,-1.8574,0.6239444,-0.02008713
563.8851,0.04460075,-0.3332373,0.4138056,-1.861912,0.6161436,-0.02008632
563.8998,0.04460075,-0.3332373,0.4138056,-1.861912,0.6161436,-0.02008632
563.914,0.04460458,-0.3331638,0.4137311,-1.866344,0.605897,-0.02008508
563.9296,0.04460836,-0.3330912,0.4138314,-1.870693,0.5958682,-0.02008393
563.9443,0.04461209,-0.3330194,0.414014,-1.874972,0.5860594,-0.02008288
563.9591,0.04461209,-0.3330194,0.414014,-1.874972,0.5860594,-0.02008288
563.9733,0.04461578,-0.3329485,0.4142329,-1.879185,0.5764537,-0.02008187
563.9891,0.04461941,-0.3328785,0.4139754,-1.883321,0.5644315,-0.02008041
564.0039,0.044623,-0.3328093,0.4139013,-1.887378,0.5526544,-0.02007902
564.019,0.044623,-0.3328093,0.4139013,-1.887378,0.5526544,-0.02007902
564.0328,0.04462655,-0.3327409,0.4139175,-1.891369,0.5411347,-0.02007773
564.0484,0.04463004,-0.3326733,0.4139762,-1.895297,0.5298535,-0.02007648
564.063,0.04463349,-0.3326066,0.4135342,-1.899155,0.5161897,-0.02007483
564.0789,0.04463349,-0.3326066,0.4135342,-1.899155,0.5161897,-0.02007483
564.0931,0.04463689,-0.3325407,0.4132906,-1.902936,0.5027964,-0.0200732
564.1076,0.04464025,-0.3324755,0.413149,-1.906656,0.4896963,-0.02007169
564.1221,0.04464357,-0.3324111,0.4130571,-1.910318,0.4768684,-0.02007024
564.1373,0.04464357,-0.3324111,0.4130571,-1.910318,0.4768684,-0.02007024
564.1511,0.04464684,-0.3323475,0.4124432,-1.913915,0.4616911,-0.02006842
564.1666,0.04465006,-0.3322847,0.4120421,-1.91744,0.4468063,-0.0200666
564.1814,0.04465325,-0.3322226,0.4117542,-1.920908,0.4322483,-0.02006493
564.1961,0.04465325,-0.3322226,0.4117542,-1.920908,0.4322483,-0.02006493
564.2108,0.04465638,-0.3321613,0.4109557,-1.924315,0.4153866,-0.02006296
564.2261,0.04465948,-0.3321007,0.4103922,-1.927654,0.3988482,-0.020061
564.241,0.04466254,-0.3320408,0.4099561,-1.930941,0.3826738,-0.0200592
564.2559,0.04466254,-0.3320408,0.4099561,-1.930941,0.3826738,-0.0200592
564.27,0.04466556,-0.3319817,0.4095856,-1.934179,0.3668372,-0.02005749
564.2872,0.04466853,-0.3319233,0.4086623,-1.937364,0.348719,-0.02005552
564.3002,0.04467147,-0.3318655,0.4079755,-1.940484,0.3309364,-0.02005354
564.316,0.04467147,-0.3318655,0.4079755,-1.940484,0.3309364,-0.02005354
564.3294,0.04467437,-0.3318085,0.4074218,-1.943556,0.3135447,-0.02005173
564.3446,0.04467723,-0.3317522,0.4069383,-1.946584,0.2965165,-0.02005002
564.3593,0.04467723,-0.3317522,0.4069383,-1.946584,0.2965165,-0.02005002
564.3735,0.04468004,-0.3316965,0.4058842,-1.949566,0.2772358,-0.02004815
564.389,0.04468282,-0.3316415,0.4050768,-1.952487,0.2583042,-0.02004625
564.404,0.04468557,-0.3315871,0.4044121,-1.955365,0.2397896,-0.02004454
564.4189,0.04468557,-0.3315871,0.4044121,-1.955365,0.2397896,-0.02004454
564.4329,0.0446883,-0.3315333,0.4052781,-1.958208,0.2276731,-0.02004339
564.4487,0.044691,-0.3314802,0.4056799,-1.961043,0.2159141,-0.02004249
564.4633,0.04469367,-0.3314278,0.4058323,-1.963843,0.204301,-0.02004144
564.4781,0.04469367,-0.3314278,0.4058323,-1.963843,0.204301,-0.02004144
564.4924,0.04469629,-0.331376,0.4058831,-1.9666,0.1928769,-0.02004033
564.508,0.04469889,-0.3313248,0.4058968,-1.969312,0.1816627,-0.02003922
564.5225,0.04470144,-0.3312742,0.4059009,-1.971982,0.1706649,-0.02003814
564.5385,0.04470144,-0.3312742,0.4059009,-1.971982,0.1706649,-0.02003814
564.5524,0.04470396,-0.3312242,0.4059068,-1.974611,0.159884,-0.02003709
564.5668,0.04470645,-0.3311748,0.4059192,-1.9772,0.1493175,-0.02003609
564.5816,0.04470896,-0.331126,0.4045426,-1.97057,0.1383168,-0.03503468
564.5962,0.04470896,-0.331126,0.4045426,-1.97057,0.1383168,-0.03503468
564.6104,0.04471145,-0.3310778,0.4039146,-1.967107,0.1278519,-0.04973936
564.626,0.04471393,-0.3310302,0.4036126,-1.965227,0.1177481,-0.0641558
564.6407,0.04471637,-0.3309831,0.4034646,-1.964153,0.1079227,-0.07828963
564.6556,0.04471637,-0.3309831,0.4034646,-1.964153,0.1079227,-0.07828963
564.6698,0.04471877,-0.3309366,0.4036247,-1.965553,0.09843895,-0.0888209
564.6854,0.04472114,-0.3308907,0.4037182,-1.966478,0.0891265,-0.0991457
564.7001,0.04472347,-0.3308453,0.4038037,-1.967191,0.08000202,-0.1092681
564.7149,0.04472347,-0.3308453,0.4038037,-1.967191,0.08000202,-0.1092681
564.7292,0.04472577,-0.3308004,0.40407,-1.969875,0.07114547,-0.1158587
564.7446,0.04472803,-0.3307561,0.404261,-1.971816,0.0624409,-0.1223202
564.7595,0.04472803,-0.3307561,0.404261,-1.971816,0.0624409,-0.1223202
564.7755,0.04473025,-0.3307123,0.4044345,-1.973401,0.05390548,-0.1286549
564.7889,0.04473246,-0.330669,0.404613,-1.974818,0.04554606,-0.1348655
564.8036,0.04473462,-0.3306262,0.404899,-1.978218,0.03740259,-0.137621
564.8183,0.04473462,-0.3306262,0.404899,-1.978218,0.03740259,-0.137621
564.8323,0.04473675,-0.330584,0.405134,-1.980862,0.02940392,-0.1403225
564.8477,0.04473885,-0.3305422,0.4053555,-1.98313,0.02155947,-0.1429711
564.8625,0.04474093,-0.330501,0.4055784,-1.985206,0.01387256,-0.1455677
564.8776,0.04474093,-0.330501,0.4055784,-1.985206,0.01387256,-0.1455677
564.8917,0.04474296,-0.3304602,0.4058362,-1.989244,0.006349906,-0.1447801
564.9074,0.04474497,-0.33042,0.4060652,-1.992499,-0.001034462,-0.144008
564.9219,0.04474695,-0.3303802,0.4062864,-1.995353,-0.008276952,-0.1432511
564.9368,0.04474695,-0.3303802,0.4062864,-1.995353,-0.008276952,-0.1432511
564.9511,0.04474889,-0.3303409,0.4064896,-2.000054,-0.01539335,-0.1391757
564.9664,0.0447508,-0.330302,0.4066796,-2.003905,-0.02237586,-0.1351802
564.9813,0.04475269,-0.3302636,0.4068663,-2.00731,-0.02922459,-0.1312631
564.9958,0.04475269,-0.3302636,0.4068663,-2.00731,-0.02922459,-0.1312631
565.0121,0.04475455,-0.3302257,0.4070525,-2.010467,-0.03594141,-0.1274228
565.0256,0.04475637,-0.3301883,0.4071621,-2.015532,-0.04257616,-0.1203245
565.0406,0.04475816,-0.3301513,0.407283,-2.019768,-0.0490781,-0.1133655
565.0558,0.04475816,-0.3301513,0.407283,-2.019768,-0.0490781,-0.1133655
565.0691,0.04475993,-0.3301147,0.4074095,-2.023558,-0.05545272,-0.1065429
565.0846,0.04476167,-0.3300786,0.4075383,-2.02709,-0.06170492,-0.09985407
565.0994,0.04476167,-0.3300786,0.4075383,-2.02709,-0.06170492,-0.09985407
565.1134,0.04476337,-0.3300429,0.4075344,-2.032513,-0.06791703,-0.08996317
565.1289,0.04476505,-0.3300076,0.407566,-2.037091,-0.0739947,-0.08026621
565.1439,0.0447667,-0.3299728,0.4076135,-2.041207,-0.07994878,-0.0707594
565.1588,0.0447667,-0.3299728,0.4076135,-2.041207,-0.07994878,-0.0707594
565.1731,0.04476831,-0.3299384,0.4074934,-2.047104,-0.08588997,-0.05810575
565.1885,0.0447699,-0.3299043,0.4074289,-2.052094,-0.09169264,-0.04570023
565.2031,0.04477147,-0.3298708,0.4073892,-2.056582,-0.09737272,-0.03353797
565.2181,0.04477147,-0.3298708,0.4073892,-2.056582,-0.09737272,-0.03353797
565.232,0.044773,-0.3298376,0.4073595,-2.060768,-0.1029408,-0.02161418
565.2487,0.04477451,-0.3298048,0.4071075,-2.066799,-0.1085379,-0.00659097
565.2623,0.04477599,-0.3297724,0.4069339,-2.071953,-0.1139914,0.008137671
565.2771,0.04477599,-0.3297724,0.4069339,-2.071953,-0.1139914,0.008137671
565.2916,0.04477745,-0.3297404,0.4067957,-2.076611,-0.1193228,0.0225775
565.3065,0.04477888,-0.3297088,0.4066733,-2.080963,-0.1245454,0.0367342
565.3214,0.04478029,-0.3296776,0.4064925,-2.085588,-0.1297059,0.05140541
565.3361,0.04478029,-0.3296776,0.4064925,-2.085588,-0.1297059,0.05140541
565.3501,0.04478167,-0.3296467,0.4063398,-2.089875,-0.1347551,0.06578894
565.3655,0.04478304,-0.3296162,0.4062012,-2.093933,-0.1397015,0.07989044
565.3807,0.04478438,-0.3295861,0.4060708,-2.097818,-0.14455,0.09371545
565.3954,0.04478438,-0.3295861,0.4060708,-2.097818,-0.14455,0.09371545
565.4097,0.0447857,-0.3295564,0.4059463,-2.101557,-0.1493036,0.1072694
565.425,0.044787,-0.329527,0.4058273,-2.105166,-0.153964,0.1205575
565.44,0.044787,-0.329527,0.4058273,-2.105166,-0.153964,0.1205575
565.4539,0.04478828,-0.329498,0.4057138,-2.108655,-0.1585328,0.1335852
565.4696,0.04478955,-0.3294693,0.4056913,-2.111544,-0.1629584,0.1455652
565.4852,0.04479079,-0.329441,0.405643,-2.114492,-0.1673128,0.1573104
565.499,0.04479079,-0.329441,0.405643,-2.114492,-0.1673128,0.1573104
565.5131,0.04479202,-0.329413,0.4055873,-2.117419,-0.1715881,0.1688253
565.5284,0.04479322,-0.3293854,0.4055327,-2.120286,-0.1757808,0.1801143
565.5432,0.04479442,-0.3293581,0.4058822,-2.121045,-0.1796398,0.1878488
565.5579,0.04479442,-0.3293581,0.4058822,-2.121045,-0.1796398,0.1878488
565.5721,0.04479561,-0.3293311,0.4060839,-2.122434,-0.1835041,0.1954316
565.5875,0.04479678,-0.3293045,0.4062251,-2.124098,-0.1873291,0.2028657
565.6021,0.04479794,-0.3292782,0.4063443,-2.125864,-0.1910933,0.2101541
565.6171,0.04479794,-0.3292782,0.4063443,-2.125864,-0.1910933,0.2101541
565.6314,0.04479909,-0.3292522,0.4068932,-2.125621,-0.1945152,0.2139663
565.6467,0.04480023,-0.3292265,0.4072728,-2.12607,-0.1979626,0.2177037
565.6615,0.04480135,-0.3292011,0.407582,-2.126837,-0.2013839,0.2213679
565.6764,0.04480135,-0.3292011,0.407582,-2.126837,-0.2013839,0.2213679
565.6907,0.04480248,-0.3291761,0.4083218,-2.125722,-0.2044684,0.2216269
565.706,0.04480359,-0.3291513,0.4088707,-2.125369,-0.2075972,0.2218808
565.7217,0.04480468,-0.3291268,0.4093382,-2.125383,-0.2107124,0.2221297
565.7365,0.04480468,-0.3291268,0.4093382,-2.125383,-0.2107124,0.2221297
565.7495,0.04480577,-0.3291027,0.4097721,-2.125573,-0.2137868,0.2223738
565.7651,0.04480685,-0.3290788,0.4106782,-2.123827,-0.2165058,0.2192798
565.7795,0.04480685,-0.3290788,0.4106782,-2.123827,-0.2165058,0.2192798
565.7939,0.04480792,-0.3290552,0.4113847,-2.122828,-0.2192797,0.2162465
565.8094,0.04480898,-0.3290319,0.4120038,-2.1222,-0.2220492,0.2132726
565.8242,0.04481003,-0.3290088,0.4125844,-2.121763,-0.2247864,0.2103571
565.8392,0.04481003,-0.3290088,0.4125844,-2.121763,-0.2247864,0.2103571
565.8532,0.04481108,-0.3289861,0.4136566,-2.119413,-0.2271638,0.2041654
565.8688,0.04481212,-0.3289636,0.4145139,-2.117829,-0.2296102,0.1980952
565.8836,0.04481314,-0.3289414,0.4152748,-2.116637,-0.2320629,0.1921439
565.8987,0.04481314,-0.3289414,0.4152748,-2.116637,-0.2320629,0.1921439
565.9127,0.04481417,-0.3289194,0.416515,-2.113647,-0.2341703,0.1829762
565.9283,0.0448152,-0.3288977,0.4175192,-2.111484,-0.2363636,0.1739881
565.9429,0.04481621,-0.3288763,0.4184156,-2.109755,-0.2385748,0.1651763
565.9588,0.04481621,-0.3288763,0.4184156,-2.109755,-0.2385748,0.1651763
565.9728,0.04481722,-0.3288551,0.41926,-2.108267,-0.2407715,0.1565373
565.9874,0.04481822,-0.3288342,0.4206172,-2.10492,-0.2426096,0.1447345
566.002,0.04481922,-0.3288135,0.4217348,-2.102378,-0.2445384,0.133163
566.0165,0.04481922,-0.3288135,0.4217348,-2.102378,-0.2445384,0.133163
566.0307,0.04482021,-0.328793,0.42274,-2.100266,-0.2464913,0.1218185
566.0461,0.0448212,-0.3287728,0.4236888,-2.098403,-0.248436,0.1106964
566.061,0.04482218,-0.3287529,0.42516,-2.094697,-0.2500238,0.09645919
566.0758,0.04482218,-0.3287529,0.42516,-2.094697,-0.2500238,0.09645919
566.0901,0.04482316,-0.3287331,0.4263805,-2.091807,-0.2517107,0.08250111
566.1055,0.04482413,-0.3287137,0.427481,-2.089362,-0.2534299,0.0688167
566.1202,0.04482509,-0.3286944,0.4285192,-2.087181,-0.2551475,0.05540062
566.1384,0.04482509,-0.3286944,0.4285192,-2.087181,-0.2551475,0.05540062
566.1494,0.04409812,-0.3286777,0.4277147,-2.091775,-0.2579786,0.0539215
566.1649,0.04291625,-0.3286623,0.4277398,-2.093921,-0.2603185,0.05247158
566.1797,0.04291625,-0.3286623,0.4277398,-2.093921,-0.2603185,0.05247158
566.1958,0.04145316,-0.3286474,0.4281038,-2.094927,-0.2624018,0.05105019
566.2094,0.03981927,-0.3286327,0.4285924,-2.09541,-0.2643545,0.04965669
566.224,0.03808479,-0.328618,0.4291193,-2.095664,-0.2662328,0.04829051
566.2388,0.03808479,-0.328618,0.4291193,-2.095664,-0.2662328,0.04829051
566.2529,0.03629429,-0.3286032,0.4296517,-2.095823,-0.2680605,0.04695111
566.2684,0.03447604,-0.3285885,0.4301786,-2.095948,-0.2698475,0.04563796
566.283,0.03264796,-0.3285737,0.4306969,-2.096066,-0.2715981,0.04435056
566.2979,0.03264796,-0.3285737,0.4306969,-2.096066,-0.2715981,0.04435056
566.312,0.03082134,-0.3285589,0.4312063,-2.096188,-0.273314,0.0430884
566.3279,0.0290033,-0.3285442,0.4317076,-2.096318,-0.2749961,0.04185098
566.3427,0.02719826,-0.3285296,0.4322012,-2.096457,-0.276645,0.04063783
566.3573,0.02719826,-0.3285296,0.4322012,-2.096457,-0.276645,0.04063783
566.3717,0.02540896,-0.3285151,0.4326879,-2.096605,-0.2782613,0.03944847
566.3875,0.02363706,-0.3285008,0.4331681,-2.096762,-0.2798456,0.03828242
566.4019,0.02188352,-0.3284865,0.4336419,-2.096927,-0.2813983,0.03713923
566.4177,0.02188352,-0.3284865,0.4336419,-2.096927,-0.2813983,0.03713923
