JMolnar6/NonAnthroHands_User_Study/HandsLoggerWithURDF/tempdata/PID 0 (test)/files/Reachy_PID0_JointMotion_gesture_7_2.csv
Time,r_shoulder,r_shoulder_x,r_upper_arm,r_forearm,r_wrist,r_wrist2hand,
523.8743,-0.1182946,-0.3272475,0.4649491,-2.142622,-0.357213,-0.01938899
523.8895,-0.1184169,-0.3272462,0.4649586,-2.142696,-0.3572292,-0.0194011
523.9042,-0.1185379,-0.3272449,0.4649679,-2.14277,-0.3572451,-0.01941297
523.9189,-0.1185379,-0.3272449,0.4649679,-2.14277,-0.3572451,-0.01941297
523.933,-0.1186574,-0.3272437,0.464977,-2.142843,-0.3572607,-0.01942462
523.9486,-0.1187756,-0.3272424,0.4649859,-2.142915,-0.3572761,-0.01943603
523.9635,-0.1188924,-0.3272411,0.4649946,-2.142986,-0.3572911,-0.01944722
523.9785,-0.1188924,-0.3272411,0.4649946,-2.142986,-0.3572911,-0.01944722
523.9926,-0.1190079,-0.3272399,0.465003,-2.143056,-0.3573058,-0.01945819
524.0084,-0.119122,-0.3272386,0.4650113,-2.143126,-0.3573203,-0.01946895
524.0232,-0.1192349,-0.3272374,0.4650194,-2.143195,-0.3573345,-0.01947949
524.0385,-0.1192349,-0.3272374,0.4650194,-2.143195,-0.3573345,-0.01947949
524.0523,-0.1193464,-0.3272362,0.4650272,-2.143264,-0.3573485,-0.01948982
524.0676,-0.1194566,-0.327235,0.4650349,-2.143332,-0.3573622,-0.01949996
524.0822,-0.1195656,-0.3272339,0.4650424,-2.143399,-0.3573756,-0.01950989
524.0973,-0.1195656,-0.3272339,0.4650424,-2.143399,-0.3573756,-0.01950989
524.1115,-0.1196733,-0.3272327,0.4650497,-2.143465,-0.3573888,-0.01951963
524.127,-0.1197798,-0.3272315,0.4650568,-2.14353,-0.3574017,-0.01952918
524.1418,-0.119885,-0.3272304,0.4650638,-2.143595,-0.3574144,-0.01953854
524.1568,-0.119885,-0.3272304,0.4650638,-2.143595,-0.3574144,-0.01953854
524.1707,-0.1199891,-0.3272293,0.4650705,-2.14366,-0.3574269,-0.01954771
524.1865,-0.1200919,-0.3272281,0.4650772,-2.143723,-0.3574391,-0.01955671
524.2014,-0.1201936,-0.327227,0.4650836,-2.143786,-0.3574511,-0.01956552
524.2162,-0.1201936,-0.327227,0.4650836,-2.143786,-0.3574511,-0.01956552
524.2305,-0.1202941,-0.3272259,0.4650899,-2.143849,-0.3574629,-0.01957417
524.2458,-0.1203934,-0.3272249,0.465096,-2.14391,-0.3574745,-0.01958265
524.2617,-0.1204916,-0.3272238,0.465102,-2.143971,-0.3574858,-0.01959096
524.2758,-0.1204916,-0.3272238,0.465102,-2.143971,-0.3574858,-0.01959096
524.2897,-0.1205886,-0.3272227,0.4651077,-2.144032,-0.357497,-0.0195991
524.3051,-0.1206846,-0.3272217,0.4651134,-2.144092,-0.3575079,-0.01960709
524.32,-0.1207794,-0.3272206,0.4651189,-2.144151,-0.3575187,-0.01961492
524.3347,-0.1207794,-0.3272206,0.4651189,-2.144151,-0.3575187,-0.01961492
524.3488,-0.1208731,-0.3272196,0.4651242,-2.144209,-0.3575292,-0.0196226
524.3643,-0.1209658,-0.3272186,0.4651294,-2.144267,-0.3575396,-0.01963012
524.3794,-0.1209658,-0.3272186,0.4651294,-2.144267,-0.3575396,-0.01963012
524.3934,-0.1210574,-0.3272175,0.4651345,-2.144325,-0.3575498,-0.0196375
524.4089,-0.1211479,-0.3272166,0.4651394,-2.144381,-0.3575597,-0.01964473
524.4241,-0.1212374,-0.3272156,0.4651442,-2.144437,-0.3575695,-0.01965182
524.4387,-0.1212374,-0.3272156,0.4651442,-2.144437,-0.3575695,-0.01965182
524.4531,-0.1213259,-0.3272146,0.4651488,-2.144493,-0.3575792,-0.01965877
524.4686,-0.1214133,-0.3272136,0.4651534,-2.144548,-0.3575886,-0.01966559
524.4844,-0.1214997,-0.3272127,0.4651577,-2.144602,-0.3575979,-0.01967226
524.4987,-0.1214997,-0.3272127,0.4651577,-2.144602,-0.3575979,-0.01967226
524.5124,-0.1215852,-0.3272117,0.465162,-2.144656,-0.357607,-0.01967881
524.5277,-0.1216696,-0.3272108,0.4651662,-2.144709,-0.3576159,-0.01968523
524.5425,-0.1217531,-0.3272099,0.4651702,-2.144762,-0.3576247,-0.01969153
524.5574,-0.1217531,-0.3272099,0.4651702,-2.144762,-0.3576247,-0.01969153
524.5717,-0.1218356,-0.327209,0.4651741,-2.144814,-0.3576334,-0.0196977
524.5871,-0.1219172,-0.3272081,0.4651779,-2.144866,-0.3576419,-0.01970375
524.6019,-0.1219978,-0.3272072,0.4651815,-2.144917,-0.3576502,-0.01970968
524.6166,-0.1219978,-0.3272072,0.4651815,-2.144917,-0.3576502,-0.01970968
524.631,-0.1220775,-0.3272063,0.4651851,-2.144967,-0.3576584,-0.0197155
524.6469,-0.1221563,-0.3272054,0.4651885,-2.145017,-0.3576664,-0.0197212
524.6615,-0.1222342,-0.3272045,0.4651919,-2.145066,-0.3576743,-0.01972678
524.6765,-0.1222342,-0.3272045,0.4651919,-2.145066,-0.3576743,-0.01972678
524.6906,-0.1223112,-0.3272037,0.4651951,-2.145115,-0.357682,-0.01973226
524.7072,-0.1223873,-0.3272028,0.4651982,-2.145164,-0.3576896,-0.01973764
524.7209,-0.1224625,-0.327202,0.4652013,-2.145211,-0.3576971,-0.0197429
524.7357,-0.1224625,-0.327202,0.4652013,-2.145211,-0.3576971,-0.0197429
524.7518,-0.1225368,-0.3272011,0.4652042,-2.145259,-0.3577045,-0.01974806
524.7651,-0.1226103,-0.3272003,0.465207,-2.145306,-0.3577117,-0.01975312
524.7798,-0.1226103,-0.3272003,0.465207,-2.145306,-0.3577117,-0.01975312
524.7941,-0.122683,-0.3271995,0.4652098,-2.145352,-0.3577188,-0.01975809
524.8095,-0.1227548,-0.3271987,0.4652124,-2.145398,-0.3577257,-0.01976295
524.8243,-0.1228257,-0.3271979,0.465215,-2.145443,-0.3577326,-0.01976771
524.8393,-0.1228257,-0.3271979,0.465215,-2.145443,-0.3577326,-0.01976771
524.8535,-0.1228959,-0.3271971,0.4652175,-2.145488,-0.3577393,-0.01977239
524.8692,-0.1229653,-0.3271963,0.4652199,-2.145532,-0.3577459,-0.01977697
524.8851,-0.1223066,-0.3271931,0.4650523,-2.145961,-0.3577475,-0.01978117
524.8989,-0.1223066,-0.3271931,0.4650523,-2.145961,-0.3577475,-0.01978117
524.9128,-0.1211926,-0.3271889,0.4648117,-2.146503,-0.3577972,-0.01978534
524.9294,-0.1197968,-0.3271842,0.4645626,-2.147051,-0.3578679,-0.01978949
524.9432,-0.1182294,-0.3271793,0.4643294,-2.147567,-0.3579413,-0.01979358
524.9582,-0.1182294,-0.3271793,0.4643294,-2.147567,-0.3579413,-0.01979358
524.9722,-0.1172891,-0.3271769,0.4642867,-2.147658,-0.3580164,-0.0197979
524.9875,-0.1167471,-0.3271757,0.4643358,-2.147601,-0.3580373,-0.01980209
525.0022,-0.1164581,-0.3271751,0.4644082,-2.147507,-0.3580318,-0.01980614
525.017,-0.1164581,-0.3271751,0.4644082,-2.147507,-0.3580318,-0.01980614
525.0311,-0.1170567,-0.3271762,0.4646462,-2.147034,-0.3580243,-0.01981038
525.0466,-0.1182113,-0.3271777,0.4649459,-2.146466,-0.3579687,-0.01981447
525.0613,-0.119711,-0.3271791,0.4652429,-2.145911,-0.3578945,-0.01981842
525.0762,-0.119711,-0.3271791,0.4652429,-2.145911,-0.3578945,-0.01981842
525.0905,-0.1214214,-0.32718,0.4655151,-2.145403,-0.3578201,-0.01982225
525.1061,-0.1239856,-0.3271828,0.4659302,-2.144559,-0.3577568,-0.01982629
525.1208,-0.1270762,-0.3271859,0.4663954,-2.143646,-0.3576517,-0.01983018
525.1361,-0.1270762,-0.3271859,0.4663954,-2.143646,-0.3576517,-0.01983018
525.1497,-0.1304852,-0.3271884,0.4668508,-2.142761,-0.357531,-0.01983393
525.1663,-0.1340801,-0.3271901,0.4672762,-2.141937,-0.357412,-0.01983758
525.1801,-0.1385052,-0.3271934,0.4678402,-2.140787,-0.3573042,-0.01984142
525.1946,-0.1385052,-0.3271934,0.4678402,-2.140787,-0.3573042,-0.01984142
525.2089,-0.1434342,-0.3271964,0.4684497,-2.139577,-0.3571554,-0.01984511
525.2242,-0.1486595,-0.3271982,0.4690448,-2.138406,-0.3569924,-0.01984867
525.2416,-0.1540494,-0.3271989,0.4696057,-2.137303,-0.356832,-0.01985211
525.2538,-0.1540494,-0.3271989,0.4696057,-2.137303,-0.356832,-0.01985211
525.2679,-0.1602484,-0.3272008,0.4703012,-2.135885,-0.3566823,-0.01985574
525.2834,-0.1669306,-0.3272018,0.4710376,-2.134415,-0.3564926,-0.01985923
525.2983,-0.1669306,-0.3272018,0.4710376,-2.134415,-0.3564926,-0.01985923
525.3123,-0.1738888,-0.327202,0.4717551,-2.132993,-0.3562904,-0.01986258
525.3279,-0.1817196,-0.3272029,0.472605,-2.131262,-0.3560925,-0.01986609
525.3429,-0.1900667,-0.327203,0.4734867,-2.129495,-0.3558555,-0.01986945
525.3576,-0.1900667,-0.327203,0.4734867,-2.129495,-0.3558555,-0.01986945
525.3721,-0.1987035,-0.3272022,0.47434,-2.127794,-0.3556084,-0.01987267
525.3874,-0.2074865,-0.3272008,0.4751467,-2.126184,-0.3553681,-0.01987578
525.4033,-0.2170528,-0.3272002,0.4760779,-2.124282,-0.3551374,-0.01987906
525.4169,-0.2170528,-0.3272002,0.4760779,-2.124282,-0.3551374,-0.01987906
525.4311,-0.2270718,-0.3271988,0.4770381,-2.122349,-0.3548704,-0.01988219
525.4463,-0.2373337,-0.3271965,0.4779695,-2.120482,-0.3545944,-0.01988518
525.4609,-0.2477052,-0.3271931,0.4788541,-2.118709,-0.3543252,-0.01988808
525.4759,-0.2477052,-0.3271931,0.4788541,-2.118709,-0.3543252,-0.01988808
525.4899,-0.2588307,-0.3271908,0.4798621,-2.116646,-0.3540637,-0.01989113
525.5055,-0.2703837,-0.3271875,0.4808967,-2.114556,-0.3537664,-0.01989404
525.5204,-0.2821573,-0.3271824,0.4819,-2.112537,-0.353461,-0.01989682
525.5352,-0.2821573,-0.3271824,0.4819,-2.112537,-0.353461,-0.01989682
525.5493,-0.2947485,-0.3271778,0.4830249,-2.110232,-0.3531572,-0.01989973
525.565,-0.3078013,-0.3271713,0.484168,-2.107915,-0.3528185,-0.01990249
525.5798,-0.3078013,-0.3271713,0.484168,-2.107915,-0.3528185,-0.01990249
525.5938,-0.3210896,-0.3271622,0.4852709,-2.105683,-0.3524746,-0.01990512
525.6096,-0.3344704,-0.3271508,0.486317,-2.103564,-0.3521411,-0.01990765
525.6255,-0.3485815,-0.32714,0.4874782,-2.101173,-0.3518134,-0.01991032
525.6394,-0.3485815,-0.32714,0.4874782,-2.101173,-0.3518134,-0.01991032
525.6534,-0.3630928,-0.3271274,0.4886556,-2.098773,-0.3514537,-0.01991284
525.6688,-0.377795,-0.3271123,0.4897931,-2.096458,-0.3510902,-0.01991524
525.6835,-0.3925555,-0.3270951,0.4908742,-2.094256,-0.3507376,-0.01991755
525.6984,-0.3925555,-0.3270951,0.4908742,-2.094256,-0.3507376,-0.01991755
525.7125,-0.4080192,-0.3270788,0.4920705,-2.091784,-0.350388,-0.01991998
525.728,-0.4238604,-0.3270606,0.4932809,-2.089305,-0.3500077,-0.01992227
525.7427,-0.4398724,-0.32704,0.4944494,-2.086914,-0.3496251,-0.01992444
525.7576,-0.4398724,-0.32704,0.4944494,-2.086914,-0.3496251,-0.01992444
525.772,-0.4566532,-0.3270197,0.4957314,-2.084258,-0.3492399,-0.01992672
525.7873,-0.473847,-0.3269969,0.4970193,-2.081606,-0.3488258,-0.01992886
525.8022,-0.4912284,-0.3269711,0.4982573,-2.079057,-0.3484124,-0.01993088
525.817,-0.4912284,-0.3269711,0.4982573,-2.079057,-0.3484124,-0.01993088
525.8312,-0.5086549,-0.3269427,0.4994307,-2.076637,-0.3480139,-0.01993282
525.8469,-0.526765,-0.326915,0.5007123,-2.073964,-0.3476159,-0.01993486
525.8624,-0.545229,-0.3268852,0.5019988,-2.071297,-0.3471918,-0.01993676
525.8765,-0.545229,-0.3268852,0.5019988,-2.071297,-0.3471918,-0.01993676
525.8904,-0.5638382,-0.3268526,0.5032365,-2.068732,-0.3467697,-0.01993857
525.9059,-0.5824607,-0.326818,0.504411,-2.066294,-0.3463629,-0.01994029
525.9203,-0.6017417,-0.3267843,0.5056943,-2.063604,-0.3459537,-0.0199421
525.9353,-0.6017417,-0.3267843,0.5056943,-2.063604,-0.3459537,-0.0199421
525.9493,-0.621356,-0.3267486,0.506981,-2.06092,-0.34552,-0.01994378
525.9647,-0.6410975,-0.3267103,0.508218,-2.05834,-0.3450899,-0.01994537
525.9797,-0.6410975,-0.3267103,0.508218,-2.05834,-0.3450899,-0.01994537
525.9938,-0.6615646,-0.3266724,0.5095618,-2.05551,-0.3446528,-0.01994704
526.0098,-0.6824022,-0.3266317,0.5109014,-2.052699,-0.3441935,-0.01994857
526.0244,-0.7033853,-0.3265878,0.512184,-2.050004,-0.343741,-0.01995001
526.0395,-0.7033853,-0.3265878,0.512184,-2.050004,-0.343741,-0.01995001
526.0534,-0.7243719,-0.3265414,0.5133967,-2.047451,-0.3433076,-0.01995138
526.0692,-0.7454936,-0.3264942,0.5145934,-2.044923,-0.3428878,-0.01995273
526.0848,-0.7666118,-0.3264459,0.5157462,-2.042492,-0.3424763,-0.01995401
526.099,-0.7666118,-0.3264459,0.5157462,-2.042492,-0.3424763,-0.01995401
526.1129,-0.7876394,-0.326397,0.516844,-2.040177,-0.3420803,-0.01995523
526.1284,-0.8085219,-0.326348,0.5178868,-2.03798,-0.3417018,-0.01995639
526.1432,-0.8292257,-0.3262995,0.5188779,-2.035895,-0.3413407,-0.01995751
526.1578,-0.8292257,-0.3262995,0.5188779,-2.035895,-0.3413407,-0.01995751
526.1721,-0.8497306,-0.3262519,0.5198215,-2.033915,-0.3409958,-0.01995858
526.1875,-0.8700246,-0.3262056,0.520721,-2.032032,-0.340666,-0.01995961
526.2023,-0.8901011,-0.3261608,0.5215793,-2.030242,-0.3403504,-0.0199606
526.2174,-0.8901011,-0.3261608,0.5215793,-2.030242,-0.3403504,-0.0199606
526.2313,-0.9099569,-0.3261178,0.5223987,-2.028539,-0.3400482,-0.01996155
526.247,-0.9295908,-0.3260764,0.5231811,-2.026921,-0.3397588,-0.01996246
526.2618,-0.9490032,-0.3260368,0.523928,-2.025383,-0.3394818,-0.01996333
526.2769,-0.9490032,-0.3260368,0.523928,-2.025383,-0.3394818,-0.01996333
526.291,-0.9681951,-0.325999,0.5246409,-2.023924,-0.3392167,-0.01996417
526.3066,-0.9871681,-0.325963,0.5253208,-2.022541,-0.3389632,-0.01996497
526.322,-1.005924,-0.3259288,0.5259688,-2.021232,-0.3387209,-0.01996575
526.336,-1.005924,-0.3259288,0.5259688,-2.021232,-0.3387209,-0.01996575
526.35,-1.024465,-0.3258963,0.5265861,-2.019995,-0.3384896,-0.01996649
526.3654,-1.042794,-0.3258654,0.5271733,-2.018829,-0.3382691,-0.01996721
526.3801,-1.060912,-0.3258362,0.5277316,-2.01773,-0.338059,-0.0199679
526.3949,-1.060912,-0.3258362,0.5277316,-2.01773,-0.338059,-0.0199679
526.409,-1.078822,-0.3258086,0.5282617,-2.016699,-0.3378591,-0.01996855
526.4244,-1.096527,-0.3257826,0.5287644,-2.015732,-0.3376692,-0.01996919
526.4395,-1.096527,-0.3257826,0.5287644,-2.015732,-0.3376692,-0.01996919
526.4533,-1.114028,-0.325758,0.5292405,-2.014829,-0.337489,-0.0199698
526.4689,-1.131328,-0.3257349,0.5296908,-2.013988,-0.3373183,-0.01997039
526.4837,-1.14843,-0.3257132,0.530116,-2.013208,-0.3371569,-0.01997096
526.4987,-1.14843,-0.3257132,0.530116,-2.013208,-0.3371569,-0.01997096
526.5127,-1.165334,-0.325693,0.5305169,-2.012486,-0.3370045,-0.0199715
526.5283,-1.182045,-0.325674,0.530894,-2.011823,-0.336861,-0.01997203
526.5441,-1.198563,-0.3256563,0.5312482,-2.011215,-0.336726,-0.01997254
526.5589,-1.198563,-0.3256563,0.5312482,-2.011215,-0.336726,-0.01997254
526.5721,-1.214892,-0.3256399,0.53158,-2.010662,-0.3365995,-0.01997302
526.5877,-1.231033,-0.3256247,0.5318901,-2.010163,-0.3364811,-0.0199735
526.6035,-1.246989,-0.3256107,0.5321791,-2.009715,-0.3363707,-0.01997395
526.6167,-1.246989,-0.3256107,0.5321791,-2.009715,-0.3363707,-0.01997395
526.6308,-1.262761,-0.3255978,0.5324475,-2.009318,-0.3362681,-0.01997439
526.6462,-1.278352,-0.325586,0.5326961,-2.008971,-0.3361731,-0.01997481
526.6611,-1.293542,-0.3255745,0.5328742,-2.008786,-0.3360963,-0.0199752
526.6758,-1.293542,-0.3255745,0.5328742,-2.008786,-0.3360963,-0.0199752
526.6899,-1.308418,-0.3255644,0.5330183,-2.008681,-0.3360368,-0.01997558
526.7054,-1.323033,-0.3255559,0.5331448,-2.008623,-0.3359864,-0.01997596
526.7202,-1.337423,-0.3255489,0.533259,-2.008601,-0.3359416,-0.01997633
526.7351,-1.337423,-0.3255489,0.533259,-2.008601,-0.3359416,-0.01997633
526.7494,-1.350884,-0.325541,0.5331939,-2.008985,-0.3359373,-0.0199766
526.7648,-1.363703,-0.325535,0.5330669,-2.009511,-0.3359708,-0.01997691
526.7795,-1.363703,-0.325535,0.5330669,-2.009511,-0.3359708,-0.01997691
526.7949,-1.376066,-0.3255319,0.53293,-2.010074,-0.3360156,-0.01997722
526.8097,-1.387362,-0.3255292,0.5326303,-2.011015,-0.3360969,-0.01997745
526.8239,-1.39794,-0.3255283,0.5322871,-2.01206,-0.3362096,-0.01997772
526.8387,-1.39794,-0.3255283,0.5322871,-2.01206,-0.3362096,-0.01997772
526.8528,-1.408021,-0.3255289,0.5319501,-2.013108,-0.3363272,-0.01997799
526.868,-1.417748,-0.3255306,0.5316316,-2.014128,-0.3364406,-0.01997826
526.8829,-1.426484,-0.3255318,0.5311618,-2.015494,-0.3365831,-0.01997844
526.8976,-1.426484,-0.3255318,0.5311618,-2.015494,-0.3365831,-0.01997844
526.9117,-1.43456,-0.325534,0.530654,-2.016947,-0.3367545,-0.01997865
526.9272,-1.442187,-0.3255373,0.5301564,-2.018391,-0.3369295,-0.01997888
526.9421,-1.449499,-0.3255425,0.5296808,-2.019797,-0.3370994,-0.0199791
526.9569,-1.449499,-0.3255425,0.5296808,-2.019797,-0.3370994,-0.0199791
526.9711,-1.455855,-0.325547,0.5290576,-2.021538,-0.3372956,-0.01997923
526.9866,-1.461582,-0.325553,0.5283995,-2.023357,-0.3375201,-0.01997939
527.0013,-1.46689,-0.3255611,0.5277556,-2.025156,-0.3377474,-0.01997957
527.0162,-1.46689,-0.3255611,0.5277556,-2.025156,-0.3377474,-0.01997957
527.0314,-1.471185,-0.3255688,0.526969,-2.027283,-0.3379997,-0.01997964
527.0458,-1.474823,-0.3255777,0.5261557,-2.029469,-0.3382784,-0.01997976
527.0604,-1.478033,-0.3255884,0.5253648,-2.031617,-0.3385572,-0.0199799
527.0754,-1.478033,-0.3255884,0.5253648,-2.031617,-0.3385572,-0.0199799
527.0894,-1.480961,-0.3256005,0.5246077,-2.033699,-0.3388264,-0.01998003
527.1049,-1.482971,-0.3256115,0.5237129,-2.03609,-0.3391143,-0.01998005
527.1198,-1.482971,-0.3256115,0.5237129,-2.03609,-0.3391143,-0.01998005
527.1337,-1.484394,-0.3256227,0.5227913,-2.038534,-0.3394284,-0.01998012
527.1492,-1.485443,-0.3256344,0.5218921,-2.040935,-0.3397427,-0.0199802
527.164,-1.486251,-0.3256468,0.5210276,-2.043266,-0.3400475,-0.01998028
527.1793,-1.486251,-0.3256468,0.5210276,-2.043266,-0.3400475,-0.01998028
527.1931,-1.486179,-0.3256573,0.5200268,-2.045901,-0.3403678,-0.01998024
527.209,-1.485552,-0.3256672,0.5190001,-2.048582,-0.3407145,-0.01998024
527.224,-1.484579,-0.3256768,0.5179976,-2.051213,-0.3410614,-0.01998026
527.2391,-1.484579,-0.3256768,0.5179976,-2.051213,-0.3410614,-0.01998026
527.2546,-1.482665,-0.325684,0.5168623,-2.054144,-0.3414226,-0.01998015
527.2691,-1.480166,-0.3256899,0.5157074,-2.057106,-0.3418093,-0.01998008
527.2827,-1.477309,-0.3256951,0.5145841,-2.060003,-0.3421942,-0.01998004
527.2973,-1.477309,-0.3256951,0.5145841,-2.060003,-0.3421942,-0.01998004
527.3114,-1.47424,-0.3256998,0.5135046,-2.062805,-0.3425665,-0.01998
527.3269,-1.470321,-0.3257018,0.5122966,-2.065892,-0.342945,-0.0199798
527.3416,-1.465885,-0.3257029,0.5110672,-2.069007,-0.3433495,-0.01997966
527.3563,-1.465885,-0.3257029,0.5110672,-2.069007,-0.3433495,-0.01997966
527.3705,-1.461141,-0.3257036,0.5098678,-2.072054,-0.3437535,-0.01997954
527.386,-1.456224,-0.3257042,0.5087121,-2.075005,-0.3441453,-0.01997943
527.4009,-1.45049,-0.3257032,0.5074281,-2.078238,-0.3445399,-0.01997915
527.4157,-1.45049,-0.3257032,0.5074281,-2.078238,-0.3445399,-0.01997915
527.4297,-1.444267,-0.3257012,0.5061219,-2.081496,-0.3449612,-0.01997891
527.4454,-1.437761,-0.3256983,0.5048466,-2.084681,-0.3453823,-0.01997871
527.4604,-1.431105,-0.3256949,0.5036164,-2.087764,-0.3457912,-0.01997851
527.4751,-1.431105,-0.3256949,0.5036164,-2.087764,-0.3457912,-0.01997851
527.4915,-1.423654,-0.3256888,0.5022601,-2.091126,-0.3461977,-0.01997812
527.5051,-1.415735,-0.3256806,0.5008817,-2.094506,-0.3466314,-0.01997779
527.5193,-1.415735,-0.3256806,0.5008817,-2.094506,-0.3466314,-0.01997779
527.5335,-1.407554,-0.3256709,0.4995352,-2.097806,-0.3470656,-0.01997749
527.549,-1.398514,-0.3256579,0.4980656,-2.10138,-0.3474966,-0.01997699
527.5635,-1.388972,-0.3256421,0.4965792,-2.104959,-0.3479545,-0.01997655
527.5783,-1.388972,-0.3256421,0.4965792,-2.104959,-0.3479545,-0.01997655
527.5923,-1.379154,-0.3256243,0.4951313,-2.108444,-0.3484114,-0.01997614
527.6082,-1.369203,-0.3256052,0.4937365,-2.111808,-0.348854,-0.01997575
527.623,-1.358483,-0.3255828,0.4922234,-2.115433,-0.3492833,-0.01997514
527.6376,-1.358483,-0.3255828,0.4922234,-2.115433,-0.3492833,-0.01997514
527.6516,-1.347323,-0.3255578,0.4906905,-2.119061,-0.3497396,-0.01997457
527.6671,-1.335933,-0.3255307,0.4891932,-2.122596,-0.3501967,-0.01997405
527.6819,-1.324447,-0.3255024,0.4877476,-2.12601,-0.3506405,-0.01997355
527.697,-1.324447,-0.3255024,0.4877476,-2.12601,-0.3506405,-0.01997355
527.711,-1.312219,-0.325471,0.4861839,-2.129685,-0.3510664,-0.0199728
527.7263,-1.299577,-0.3254368,0.4845983,-2.133362,-0.3515205,-0.01997211
527.7423,-1.286726,-0.3254006,0.4830476,-2.136942,-0.3519768,-0.01997146
527.7562,-1.286726,-0.3254006,0.4830476,-2.136942,-0.3519768,-0.01997146
527.7704,-1.273071,-0.3253607,0.4813804,-2.140782,-0.3524157,-0.01997056
527.7854,-1.258966,-0.3253174,0.4796957,-2.144611,-0.3528829,-0.01996973
527.8001,-1.244638,-0.3252715,0.4780518,-2.14833,-0.3533517,-0.01996894
527.8149,-1.244638,-0.3252715,0.4780518,-2.14833,-0.3533517,-0.01996894
527.8291,-1.230229,-0.325224,0.476466,-2.151913,-0.3538064,-0.01996819
527.8446,-1.215101,-0.3251732,0.4747696,-2.155746,-0.3542322,-0.01996715
527.8595,-1.215101,-0.3251732,0.4747696,-2.155746,-0.3542322,-0.01996715
527.8737,-1.199585,-0.3251194,0.4730522,-2.159566,-0.3546859,-0.01996617
527.8892,-1.183889,-0.3250633,0.4713719,-2.163278,-0.3551432,-0.01996524
527.9042,-1.168146,-0.3250058,0.4697473,-2.166857,-0.3555882,-0.01996435
527.9191,-1.168146,-0.3250058,0.4697473,-2.166857,-0.3555882,-0.01996435
527.9327,-1.151711,-0.3249454,0.4680124,-2.170685,-0.3559997,-0.01996315
527.9486,-1.134909,-0.3248821,0.4662538,-2.174502,-0.3564402,-0.01996201
527.9644,-1.117948,-0.3248166,0.4645307,-2.17821,-0.3568863,-0.01996093
527.9791,-1.117948,-0.3248166,0.4645307,-2.17821,-0.3568863,-0.01996093
527.9923,-1.100229,-0.3247475,0.4626974,-2.182168,-0.357301,-0.01995954
528.0078,-1.082107,-0.3246748,0.4608425,-2.186056,-0.3577497,-0.01995818
528.0224,-1.063808,-0.3245992,0.4589755,-2.188395,-0.3583217,-0.01995535
528.0372,-1.063808,-0.3245992,0.4589755,-2.188395,-0.3583217,-0.01995535
528.0511,-1.045475,-0.324522,0.457154,-2.189079,-0.3589386,-0.01995217
528.0664,-1.026467,-0.3244418,0.4552422,-2.189068,-0.359508,-0.01994894
528.0813,-1.007117,-0.3243585,0.4533236,-2.188627,-0.3600862,-0.01994617
528.0961,-1.007117,-0.3243585,0.4533236,-2.188627,-0.3600862,-0.01994617
528.1104,-0.9876304,-0.3242729,0.4514579,-2.188067,-0.3606495,-0.01994388
528.1259,-0.9681405,-0.3241861,0.4496647,-2.187599,-0.361186,-0.01994195
528.1408,-0.9480022,-0.3240967,0.4477778,-2.187687,-0.361676,-0.01993989
528.1555,-0.9480022,-0.3240967,0.4477778,-2.187687,-0.361676,-0.01993989
528.17,-0.9275402,-0.3240046,0.4458718,-2.187897,-0.3622083,-0.01993785
528.1851,-0.9069603,-0.3239104,0.4440084,-2.18801,-0.3627622,-0.01993583
528.2009,-0.8863924,-0.3238152,0.4422131,-2.187973,-0.3633133,-0.01993389
528.2158,-0.8863924,-0.3238152,0.4422131,-2.187973,-0.3633133,-0.01993389
528.2289,-0.8651902,-0.3237177,0.4403248,-2.188219,-0.3638282,-0.01993172
528.2443,-0.843678,-0.3236176,0.4384211,-2.188399,-0.3643833,-0.01992957
528.259,-0.843678,-0.3236176,0.4384211,-2.188399,-0.3643833,-0.01992957
528.2731,-0.8220608,-0.3235155,0.4365638,-2.188402,-0.3649534,-0.01992753
528.2885,-0.7997401,-0.3234102,0.4346115,-2.188647,-0.3654952,-0.01992527
528.3033,-0.7770706,-0.3233013,0.4326495,-2.188798,-0.3660772,-0.01992306
528.3181,-0.7770706,-0.3233013,0.4326495,-2.188798,-0.3660772,-0.01992306
528.332,-0.7542765,-0.3231897,0.4307411,-2.188762,-0.3666716,-0.01992099
528.3477,-0.7314993,-0.3230767,0.42891,-2.188583,-0.3672538,-0.01991908
528.3625,-0.7081003,-0.3229614,0.4269922,-2.18874,-0.3677959,-0.019917
528.3775,-0.7081003,-0.3229614,0.4269922,-2.18874,-0.3677959,-0.019917
528.3915,-0.6844084,-0.3228432,0.4250642,-2.188885,-0.3683747,-0.01991496
528.4074,-0.6606312,-0.3227229,0.4231865,-2.188886,-0.368967,-0.01991301
528.4218,-0.6369,-0.3226019,0.4213826,-2.188752,-0.3695498,-0.01991122
528.4379,-0.6369,-0.3226019,0.4213826,-2.188752,-0.3695498,-0.01991122
528.4518,-0.6127414,-0.3224797,0.4195288,-2.18885,-0.3700999,-0.0199093
528.4662,-0.588415,-0.3223559,0.4176834,-2.188924,-0.3706735,-0.01990745
528.481,-0.5640851,-0.3222315,0.4158916,-2.188884,-0.3712525,-0.0199057
528.4956,-0.5640851,-0.3222315,0.4158916,-2.188884,-0.3712525,-0.0199057
528.5099,-0.5398546,-0.3221076,0.4141701,-2.188746,-0.3718198,-0.01990409
528.5251,-0.5157882,-0.3219852,0.4125206,-2.188562,-0.3723675,-0.01990262
528.54,-0.4919257,-0.3218653,0.4109384,-2.18838,-0.3728944,-0.0199013
528.5547,-0.4919257,-0.3218653,0.4109384,-2.18838,-0.3728944,-0.0199013
528.569,-0.4682914,-0.3217486,0.4094179,-2.188228,-0.3734024,-0.0199001
528.5847,-0.4448997,-0.3216358,0.4079541,-2.188109,-0.3738941,-0.01989899
528.5992,-0.4448997,-0.3216358,0.4079541,-2.188109,-0.3738941,-0.01989899
528.6135,-0.4217586,-0.3215272,0.406543,-2.188016,-0.3743716,-0.01989796
528.6292,-0.398872,-0.321423,0.4051817,-2.187936,-0.3748365,-0.01989701
528.644,-0.3762414,-0.3213235,0.4038679,-2.18786,-0.3752894,-0.01989611
528.6587,-0.3762414,-0.3213235,0.4038679,-2.18786,-0.3752894,-0.01989611
528.675,-0.3538668,-0.3212286,0.4026,-2.187783,-0.3757305,-0.01989529
528.6884,-0.3317468,-0.3211384,0.4013764,-2.187704,-0.3761599,-0.01989453
528.7033,-0.3098798,-0.3210528,0.4001959,-2.187623,-0.3765778,-0.01989384
528.7179,-0.3098798,-0.3210528,0.4001959,-2.187623,-0.3765778,-0.01989384
528.7326,-0.2946372,-0.3209923,0.4005198,-2.184066,-0.3770815,-0.01989641
528.7474,-0.2836255,-0.3209657,0.4016099,-2.180752,-0.3770338,-0.01990013
528.7622,-0.2753226,-0.3209671,0.4028531,-2.178679,-0.3767177,-0.01990366
528.7769,-0.2753226,-0.3209671,0.4028531,-2.178679,-0.3767177,-0.01990366
528.791,-0.268759,-0.3209866,0.4039864,-2.177441,-0.3763793,-0.01990636
528.808,-0.2633177,-0.3210191,0.4049681,-2.17676,-0.376083,-0.01990866
528.8217,-0.2586054,-0.3210603,0.40582,-2.176444,-0.375835,-0.01991075
528.8364,-0.2586054,-0.3210603,0.40582,-2.176444,-0.375835,-0.01991075
528.8505,-0.2543716,-0.3211072,0.4065745,-2.176364,-0.3756264,-0.01991272
528.866,-0.2504566,-0.3211577,0.4072599,-2.176431,-0.3754465,-0.0199146
528.881,-0.2467967,-0.3338148,0.4069594,-2.179698,-0.3791152,-0.01992521
528.8957,-0.2467967,-0.3338148,0.4069594,-2.179698,-0.3791152,-0.01992521
528.9119,-0.2433949,-0.3540925,0.4073585,-2.183791,-0.3825245,-0.01993425
528.9252,-0.240209,-0.3789321,0.4081497,-2.187204,-0.3853788,-0.01994061
528.9402,-0.2371892,-0.4064516,0.409031,-2.188787,-0.3878969,-0.01994453
528.955,-0.2371892,-0.4064516,0.409031,-2.188787,-0.3878969,-0.01994453
528.9691,-0.2342898,-0.4347351,0.4099942,-2.188581,-0.3899007,-0.0199471
528.9842,-0.2314762,-0.4633612,0.4109211,-2.187542,-0.3916667,-0.01994994
528.9988,-0.2314762,-0.4633612,0.4109211,-2.187542,-0.3916667,-0.01994994
529.013,-0.228726,-0.4920684,0.4118118,-2.18645,-0.3932596,-0.01995329
529.0287,-0.2260215,-0.5199329,0.4127262,-2.185509,-0.3944825,-0.01995641
529.0434,-0.2233514,-0.5471544,0.4135512,-2.184998,-0.3956315,-0.0199598
529.0583,-0.2233514,-0.5471544,0.4135512,-2.184998,-0.3956315,-0.0199598
529.0725,-0.2207105,-0.573857,0.414301,-2.184876,-0.3967633,-0.01996326
529.0881,-0.2180965,-0.6001184,0.4149991,-2.184973,-0.3978862,-0.01996659
529.103,-0.2155039,-0.6252263,0.4157248,-2.184935,-0.3987544,-0.01996918
529.1177,-0.2155039,-0.6252263,0.4157248,-2.184935,-0.3987544,-0.01996918
529.1316,-0.2129301,-0.6495124,0.4163865,-2.18487,-0.3996101,-0.01997179
529.1482,-0.2103753,-0.6731831,0.4170077,-2.184826,-0.4004702,-0.01997446
529.162,-0.2078407,-0.6963676,0.4176101,-2.184806,-0.4013213,-0.01997711
529.1768,-0.2078407,-0.6963676,0.4176101,-2.184806,-0.4013213,-0.01997711
529.1907,-0.2053221,-0.7183852,0.4182643,-2.184606,-0.401912,-0.01997915
529.2062,-0.2028182,-0.739588,0.4188685,-2.184424,-0.4024876,-0.0199813
529.2209,-0.20033,-0.7601947,0.419439,-2.184331,-0.4030707,-0.01998356
529.2357,-0.20033,-0.7601947,0.419439,-2.184331,-0.4030707,-0.01998356
529.2497,-0.1978535,-0.7795801,0.4200524,-2.184124,-0.4034127,-0.01998527
529.265,-0.1953876,-0.7981307,0.4206118,-2.183975,-0.4037566,-0.01998711
529.28,-0.1929341,-0.8160862,0.4211365,-2.183927,-0.4041219,-0.01998905
529.295,-0.1929341,-0.8160862,0.4211365,-2.183927,-0.4041219,-0.01998905
529.3089,-0.1904956,-0.8335958,0.4216458,-2.183949,-0.4044968,-0.01999098
529.3245,-0.1880677,-0.8499906,0.4222081,-2.183802,-0.404631,-0.0199923
529.3394,-0.1880677,-0.8499906,0.4222081,-2.183802,-0.404631,-0.0199923
529.3535,-0.1856489,-0.8656312,0.4227217,-2.183665,-0.4047679,-0.01999373
529.369,-0.1832411,-0.8807405,0.4232036,-2.1836,-0.4049279,-0.01999529
529.3846,-0.1808469,-0.8954568,0.4236725,-2.183601,-0.4050997,-0.01999685
529.3985,-0.1808469,-0.8954568,0.4236725,-2.183601,-0.4050997,-0.01999685
529.4127,-0.1784616,-0.9091044,0.4241949,-2.183437,-0.405035,-0.01999782
529.4279,-0.1760833,-0.9220399,0.4246683,-2.183295,-0.4049784,-0.01999894
529.4426,-0.1737139,-0.9344833,0.42511,-2.183234,-0.4049507,-0.02000017
529.4574,-0.1737139,-0.9344833,0.42511,-2.183234,-0.4049507,-0.02000017
529.4716,-0.1713492,-0.9458088,0.4255958,-2.183049,-0.4047033,-0.02000088
529.487,-0.1689874,-0.9564041,0.4260287,-2.182917,-0.4044776,-0.02000176
529.5019,-0.1666315,-0.9665077,0.4264291,-2.182883,-0.4042916,-0.02000277
529.5167,-0.1666315,-0.9665077,0.4264291,-2.182883,-0.4042916,-0.02000277
529.5306,-0.1642852,-0.976267,0.4268172,-2.182919,-0.4041321,-0.02000379
529.5461,-0.1619445,-0.9850112,0.4272598,-2.182783,-0.4037499,-0.02000423
529.561,-0.159607,-0.9931006,0.427654,-2.182658,-0.4033882,-0.02000482
529.576,-0.159607,-0.9931006,0.427654,-2.182658,-0.4033882,-0.02000482
529.5902,-0.1572754,-1.000757,0.428018,-2.182609,-0.403066,-0.02000554
529.6056,-0.1549537,-1.008115,0.4283712,-2.182625,-0.4027714,-0.02000631
529.6216,-0.1526376,-1.014499,0.428779,-2.182474,-0.4022568,-0.0200065
529.6354,-0.1526376,-1.014499,0.428779,-2.182474,-0.4022568,-0.0200065
529.6494,-0.1503242,-1.020264,0.4291381,-2.182344,-0.4017663,-0.02000686
529.6648,-0.1480163,-1.025629,0.4294669,-2.182297,-0.4013196,-0.02000736
529.6794,-0.1480163,-1.025629,0.4294669,-2.182297,-0.4013196,-0.02000736
529.6942,-0.1457101,-1.029966,0.4298407,-2.182122,-0.4006689,-0.02000736
529.7091,-0.1434033,-1.033661,0.4301622,-2.182002,-0.4000546,-0.02000755
529.724,-0.1410998,-1.036953,0.4304523,-2.181967,-0.3994948,-0.02000787
529.7388,-0.1410998,-1.036953,0.4304523,-2.181967,-0.3994948,-0.02000787
529.7529,-0.1388048,-1.039986,0.4307327,-2.181986,-0.3989744,-0.02000822
529.7687,-0.1365148,-1.042088,0.4310703,-2.181841,-0.3982428,-0.02000803
529.7832,-0.1342271,-1.043617,0.4313589,-2.181667,-0.3975484,-0.02000795
529.7981,-0.1342271,-1.043617,0.4313589,-2.181667,-0.3975484,-0.02000795
529.8124,-0.131945,-1.044795,0.4316181,-2.181508,-0.3969087,-0.02000798
529.828,-0.1296737,-1.045754,0.4318697,-2.181372,-0.3963074,-0.02000808
529.8439,-0.1274095,-1.045816,0.4321788,-2.18106,-0.3954963,-0.02000766
529.8586,-0.1274095,-1.045816,0.4321788,-2.18106,-0.3954963,-0.02000766
529.8719,-0.1251492,-1.04534,0.4324388,-2.180715,-0.3947259,-0.02000736
529.8875,-0.1229116,-1.044538,0.4326804,-2.180381,-0.3940089,-0.02000717
529.902,-0.1207059,-1.043543,0.4329251,-2.180069,-0.393329,-0.02000705
529.9167,-0.1207059,-1.043543,0.4329251,-2.180069,-0.393329,-0.02000705
529.9307,-0.1185261,-1.041675,0.4332333,-2.179579,-0.3924407,-0.02000642
529.9462,-0.1163905,-1.039288,0.4335122,-2.179051,-0.3915891,-0.02000591
529.9611,-0.1143018,-1.036597,0.433777,-2.178536,-0.3907914,-0.02000551
529.9761,-0.1143018,-1.036597,0.433777,-2.178536,-0.3907914,-0.02000551
529.9902,-0.1122486,-1.032972,0.4340942,-2.17785,-0.389803,-0.02000466
530.0059,-0.1102443,-1.028799,0.4343766,-2.177136,-0.3888633,-0.02000394
530.0208,-0.1082883,-1.024311,0.4346417,-2.176446,-0.3879858,-0.02000337
530.0361,-0.1082883,-1.024311,0.4346417,-2.176446,-0.3879858,-0.02000337
530.0499,-0.1063757,-1.019652,0.4349041,-2.175791,-0.3871547,-0.02000287
530.0653,-0.1044924,-1.014147,0.4352204,-2.174973,-0.3861296,-0.02000189
530.0811,-0.1026505,-1.008153,0.4355005,-2.17413,-0.3851516,-0.02000105
530.0953,-0.1026505,-1.008153,0.4355005,-2.17413,-0.3851516,-0.02000105
530.1093,-0.1008497,-1.001889,0.4357608,-2.173311,-0.3842359,-0.02000035
530.1245,-0.09908578,-0.9954863,0.4360162,-2.17253,-0.3833679,-0.01999973
530.1398,-0.09908578,-0.9954863,0.4360162,-2.17253,-0.3833679,-0.01999973
530.1536,-0.09734596,-0.9882653,0.4363221,-2.171587,-0.3823115,-0.01999866
530.1691,-0.095642,-0.980579,0.4365902,-2.17062,-0.3813049,-0.01999772
530.1838,-0.09397399,-0.9726427,0.4368375,-2.16968,-0.3803627,-0.01999693
530.1987,-0.09397399,-0.9726427,0.4368375,-2.16968,-0.3803627,-0.01999693
530.2132,-0.09233052,-0.9638262,0.4371274,-2.168583,-0.3792493,-0.01999572
530.2286,-0.09072242,-0.9545131,0.4373775,-2.16747,-0.3781956,-0.01999469
530.2435,-0.0891491,-0.9449375,0.4376068,-2.166392,-0.3772127,-0.0199938
530.2582,-0.0891491,-0.9449375,0.4376068,-2.166392,-0.3772127,-0.0199938
530.2726,-0.08760647,-0.9352425,0.4378306,-2.165362,-0.3762842,-0.01999302
530.2883,-0.08608277,-0.924754,0.4381012,-2.16418,-0.3751809,-0.0199918
530.304,-0.08458816,-0.913828,0.4383331,-2.162983,-0.3741342,-0.01999075
530.3177,-0.08458816,-0.913828,0.4383331,-2.162983,-0.3741342,-0.01999075
530.3323,-0.0831227,-0.9026821,0.4385438,-2.161821,-0.3731566,-0.01998984
530.3474,-0.08168327,-0.8914495,0.4387482,-2.160708,-0.3722332,-0.01998904
530.3624,-0.08026639,-0.8802115,0.4389524,-2.159642,-0.3713523,-0.01998829
530.3771,-0.08026639,-0.8802115,0.4389524,-2.159642,-0.3713523,-0.01998829
530.3911,-0.07886916,-0.8690183,0.4391574,-2.158618,-0.3705066,-0.01998759
530.407,-0.07748942,-0.8579,0.439363,-2.157631,-0.3696919,-0.01998692
530.4218,-0.07612564,-0.8468751,0.4395684,-2.156677,-0.3689055,-0.01998629
530.4366,-0.07612564,-0.8468751,0.4395684,-2.156677,-0.3689055,-0.01998629
530.4505,-0.07478344,-0.8367162,0.4397306,-2.155951,-0.3683534,-0.01998616
530.4662,-0.07345089,-0.8271289,0.4399312,-2.155308,-0.3678038,-0.01998594
530.481,-0.07212504,-0.817932,0.4401517,-2.154689,-0.3672408,-0.01998565
530.496,-0.07212504,-0.817932,0.4401517,-2.154689,-0.3672408,-0.01998565
530.5102,-0.07081264,-0.809775,0.4403346,-2.154276,-0.3668807,-0.01998577
530.5266,-0.06950473,-0.8022883,0.4405544,-2.15392,-0.3665048,-0.01998579
530.5407,-0.06820019,-0.7952438,0.440791,-2.153567,-0.3661032,-0.0199857
530.5555,-0.06820019,-0.7952438,0.440791,-2.153567,-0.3661032,-0.0199857
530.5696,-0.06690059,-0.7885004,0.4410289,-2.153202,-0.3656898,-0.01998557
530.5849,-0.06561425,-0.7827324,0.4412212,-2.153026,-0.3654792,-0.01998588
530.5993,-0.06561425,-0.7827324,0.4412212,-2.153026,-0.3654792,-0.01998588
530.6136,-0.06433377,-0.7775856,0.4414475,-2.152898,-0.3652513,-0.01998608
530.6293,-0.06305818,-0.7728412,0.4416898,-2.152767,-0.3649949,-0.01998619
530.6442,-0.06178879,-0.7683638,0.4419335,-2.152618,-0.3647228,-0.01998624
530.6592,-0.06178879,-0.7683638,0.4419335,-2.152618,-0.3647228,-0.01998624
530.6731,-0.06053346,-0.7648312,0.4421322,-2.152653,-0.3646486,-0.01998672
530.6889,-0.05928519,-0.7618919,0.442365,-2.152732,-0.3645532,-0.0199871
530.7039,-0.05804282,-0.7593285,0.4426141,-2.152802,-0.3644251,-0.01998737
530.7185,-0.05804282,-0.7593285,0.4426141,-2.152802,-0.3644251,-0.01998737
530.7328,-0.05681325,-0.7577683,0.4428237,-2.153051,-0.3644809,-0.01998803
530.7491,-0.05558981,-0.7568288,0.4430685,-2.153334,-0.364506,-0.01998856
530.7632,-0.05437149,-0.7562734,0.4433291,-2.153599,-0.3644919,-0.01998897
530.7779,-0.05437149,-0.7562734,0.4433291,-2.153599,-0.3644919,-0.01998897
530.7917,-0.05315942,-0.7559556,0.4435905,-2.153833,-0.3644527,-0.01998932
530.8074,-0.05196112,-0.7565427,0.4438059,-2.154238,-0.3646027,-0.01999008
530.8223,-0.0507768,-0.7576844,0.4440579,-2.154672,-0.3647246,-0.01999073
530.837,-0.0507768,-0.7576844,0.4440579,-2.154672,-0.3647246,-0.01999073
530.8512,-0.04960835,-0.7591605,0.4443304,-2.155084,-0.3648054,-0.01999125
530.8666,-0.04845598,-0.760835,0.4446072,-2.155461,-0.3648583,-0.01999171
530.8818,-0.0473251,-0.7633854,0.4448389,-2.156008,-0.3651,-0.01999259
530.8964,-0.0473251,-0.7633854,0.4448389,-2.156008,-0.3651,-0.01999259
530.9105,-0.04621492,-0.7664613,0.4451092,-2.15658,-0.36531,-0.01999333
530.9261,-0.04512362,-0.7698455,0.4453997,-2.157128,-0.365476,-0.01999395
530.9412,-0.04404929,-0.7734039,0.4456937,-2.157639,-0.3656116,-0.01999451
530.956,-0.04404929,-0.7734039,0.4456937,-2.157639,-0.3656116,-0.01999451
530.9725,-0.04299629,-0.777815,0.4459408,-2.158316,-0.3659358,-0.01999548
530.9858,-0.04196282,-0.7827294,0.4462259,-2.159018,-0.3662265,-0.01999632
531.0004,-0.04094663,-0.7879307,0.4465308,-2.159691,-0.3664708,-0.01999703
531.0184,-0.04094663,-0.7879307,0.4465308,-2.159691,-0.3664708,-0.01999703
531.0317,-0.03995183,-0.7940467,0.4467947,-2.160528,-0.3668923,-0.01999813
531.0447,-0.03897596,-0.8006967,0.4470984,-2.161379,-0.367272,-0.01999908
531.0594,-0.03897596,-0.8006967,0.4470984,-2.161379,-0.367272,-0.01999908
531.0738,-0.03801646,-0.807645,0.4474217,-2.162195,-0.3675994,-0.01999989
531.0894,-0.03707121,-0.8147452,0.4477476,-2.162963,-0.3678895,-0.02000063
531.1044,-0.03614491,-0.822669,0.4480233,-2.163889,-0.3683673,-0.02000177
531.1191,-0.03614491,-0.822669,0.4480233,-2.163889,-0.3683673,-0.02000177
531.1337,-0.0352351,-0.8310631,0.4483367,-2.164831,-0.3688073,-0.02000278
531.1489,-0.03433948,-0.8397085,0.44867,-2.165738,-0.3691957,-0.02000366
531.1638,-0.03345624,-0.8484697,0.4490067,-2.166597,-0.3695459,-0.02000445
531.1788,-0.03345624,-0.8484697,0.4490067,-2.166597,-0.3695459,-0.02000445
531.1949,-0.03259069,-0.8580246,0.4492926,-2.167614,-0.370086,-0.02000567
531.2086,-0.03174014,-0.8680245,0.449617,-2.168646,-0.3705873,-0.02000675
531.2232,-0.03090234,-0.8782531,0.4499624,-2.169641,-0.3710349,-0.02000768
531.2382,-0.03090234,-0.8782531,0.4499624,-2.169641,-0.3710349,-0.02000768
531.2521,-0.03008255,-0.8893383,0.4502633,-2.170791,-0.371662,-0.02000902
531.2674,-0.02927742,-0.9009005,0.450605,-2.171948,-0.3722422,-0.02001019
531.2821,-0.02848443,-0.9127042,0.4509681,-2.173061,-0.3727629,-0.02001122
531.2972,-0.02848443,-0.9127042,0.4509681,-2.173061,-0.3727629,-0.02001122
531.3113,-0.02770183,-0.9246035,0.4513349,-2.174117,-0.373239,-0.02001215
531.3272,-0.0269358,-0.9372701,0.4516473,-2.175325,-0.3739071,-0.02001351
531.3417,-0.0261828,-0.950352,0.4519987,-2.176541,-0.3745331,-0.02001474
531.3567,-0.0261828,-0.950352,0.4519987,-2.176541,-0.3745331,-0.02001474
531.3708,-0.0254405,-0.9636307,0.452372,-2.177713,-0.3751005,-0.02001581
531.3866,-0.02470737,-0.976971,0.45275,-2.178831,-0.3756228,-0.02001678
531.4013,-0.02399027,-0.9910511,0.4530725,-2.180101,-0.3763407,-0.02001819
531.4173,-0.02399027,-0.9910511,0.4530725,-2.180101,-0.3763407,-0.02001819
531.4315,-0.0232852,-1.005523,0.453435,-2.181379,-0.3770161,-0.02001946
531.446,-0.02258976,-1.020172,0.4538205,-2.182613,-0.3776311,-0.02002057
531.4605,-0.02190256,-1.034865,0.4542035,-2.183583,-0.3782172,-0.02002133
531.4756,-0.02190256,-1.034865,0.4542035,-2.183583,-0.3782172,-0.02002133
531.4896,-0.02123109,-1.050279,0.4545205,-2.184258,-0.3790276,-0.02002221
531.5052,-0.02057073,-1.066069,0.4548814,-2.18449,-0.3798018,-0.0200228
531.5199,-0.02057073,-1.066069,0.4548814,-2.18449,-0.3798018,-0.0200228
531.5342,-0.01991899,-1.08202,0.4552784,-2.184389,-0.3805003,-0.02002327
531.5499,-0.01928328,-1.098761,0.4556396,-2.184349,-0.381361,-0.02002428
531.5646,-0.01865804,-1.115913,0.4560504,-2.184294,-0.3821529,-0.02002517
531.5797,-0.01865804,-1.115913,0.4560504,-2.184294,-0.3821529,-0.02002517
531.5938,-0.01804058,-1.133241,0.456488,-2.184211,-0.3828638,-0.0200259
531.6096,-0.0174297,-1.150601,0.4569321,-2.184116,-0.3835113,-0.02002656
531.6245,-0.01683412,-1.168664,0.4573192,-2.184239,-0.3843436,-0.02002768
531.6404,-0.01624765,-1.187081,0.4577427,-2.184363,-0.3851277,-0.02002857
531.6542,-0.01624765,-1.187081,0.4577427,-2.184363,-0.3851277,-0.02002857
531.6684,-0.01566773,-1.205632,0.4581874,-2.184403,-0.3858442,-0.02002925
531.6835,-0.0150934,-1.224184,0.4586384,-2.184361,-0.3865026,-0.02002981
531.6984,-0.0150934,-1.224184,0.4586384,-2.184361,-0.3865026,-0.02002981
531.7125,-0.01453414,-1.243414,0.459035,-2.184484,-0.3873459,-0.02003085
531.728,-0.01398279,-1.262978,0.4594697,-2.184585,-0.388139,-0.02003166
531.7429,-0.01343682,-1.28266,0.4599269,-2.184598,-0.388862,-0.02003228
531.7579,-0.01343682,-1.28266,0.4599269,-2.184598,-0.388862,-0.02003228
531.7726,-0.01290556,-1.303081,0.4603377,-2.184746,-0.3897564,-0.02003331
531.7874,-0.01238089,-1.323869,0.460788,-2.184843,-0.3905928,-0.02003411
531.8024,-0.01186038,-1.344789,0.4612609,-2.184838,-0.391353,-0.02003471
531.8173,-0.01186038,-1.344789,0.4612609,-2.184838,-0.391353,-0.02003471
531.8316,-0.01134356,-1.365698,0.4617405,-2.184758,-0.3920482,-0.0200352
531.8471,-0.01065469,-1.3739,0.4631025,-2.181159,-0.3888211,-0.02002708
531.8629,-0.009899494,-1.374229,0.463705,-2.177562,-0.3857918,-0.02002205
531.8769,-0.009899494,-1.374229,0.463705,-2.177562,-0.3857918,-0.02002205
531.8911,-0.009081956,-1.36974,0.4637503,-2.174434,-0.3834758,-0.02001872
531.9064,-0.008290865,-1.362327,0.4636396,-2.171817,-0.3816504,-0.02001638
531.9211,-0.007557323,-1.353166,0.4635481,-2.169627,-0.380107,-0.02001448
531.9359,-0.007557323,-1.353166,0.4635481,-2.169627,-0.380107,-0.02001448
531.95,-0.006878571,-1.342975,0.463517,-2.167756,-0.3787268,-0.02001277
531.9655,-0.006242035,-1.332198,0.4635389,-2.166115,-0.3774501,-0.02001114
531.9806,-0.00563552,-1.321108,0.4635966,-2.164635,-0.3762467,-0.02000956
531.9952,-0.00563552,-1.321108,0.4635966,-2.164635,-0.3762467,-0.02000956
532.0099,-0.005049881,-1.309873,0.463683,-2.163273,-0.3751099,-0.02000806
532.025,-0.004478936,-1.298598,0.4637893,-2.161994,-0.3740194,-0.02000661
532.0401,-0.003918701,-1.287346,0.4639054,-2.160779,-0.3729684,-0.02000521
532.055,-0.003918701,-1.287346,0.4639054,-2.160779,-0.3729684,-0.02000521
532.0692,-0.003366648,-1.276159,0.4633045,-2.159532,-0.3710523,-0.02000111
532.0856,-0.002821242,-1.265059,0.4618791,-2.158312,-0.3693035,-0.01999751
532.0995,-0.002821242,-1.265059,0.4618791,-2.158312,-0.3693035,-0.01999751
532.1136,-0.002281532,-1.254062,0.4600038,-2.157145,-0.3677981,-0.01999461
532.129,-0.001746935,-1.243175,0.4579277,-2.156031,-0.3664527,-0.01999213
532.1439,-0.001217077,-1.232404,0.455047,-2.154885,-0.3643023,-0.01998716
532.1584,-0.001217077,-1.232404,0.455047,-2.154885,-0.3643023,-0.01998716
532.1729,-0.0006917687,-1.221751,0.451321,-2.153767,-0.3623576,-0.01998282
532.1881,-0.0001708969,-1.211217,0.4471564,-2.152703,-0.3606754,-0.01997923
532.2029,0.0003456019,-1.200803,0.4428149,-2.151694,-0.3591641,-0.01997609
532.2181,0.0003456019,-1.200803,0.4428149,-2.151694,-0.3591641,-0.01997609
532.2321,0.0008577795,-1.190507,0.4376883,-2.150655,-0.3568548,-0.01997053
532.2476,0.001365628,-1.180329,0.4317427,-2.149647,-0.3547647,-0.01996563
532.2625,0.00186914,-1.170268,0.4253901,-2.148695,-0.3529449,-0.01996149
532.2775,0.00186914,-1.170268,0.4253901,-2.148695,-0.3529449,-0.01996149
532.2917,0.002368325,-1.160324,0.4181484,-2.147722,-0.3503959,-0.01995517
532.3083,0.002863154,-1.150494,0.4100572,-2.146789,-0.3481098,-0.01994962
532.3221,0.003353606,-1.140777,0.4015648,-2.145919,-0.3461166,-0.01994491
532.337,0.003353606,-1.140777,0.4015648,-2.145919,-0.3461166,-0.01994491
532.351,0.003839666,-1.131173,0.3929477,-2.145111,-0.3443142,-0.01994071
532.3666,0.004321339,-1.12168,0.3835888,-2.144279,-0.341727,-0.0199342
532.3813,0.004798596,-1.112298,0.3734636,-2.143486,-0.3393826,-0.0199284
532.396,0.004798596,-1.112298,0.3734636,-2.143486,-0.3393826,-0.0199284
532.4103,0.005271419,-1.103024,0.3629922,-2.142754,-0.3373233,-0.01992341
532.4257,0.005739796,-1.093857,0.3524367,-2.142081,-0.335453,-0.01991894
532.4407,0.006203737,-1.084797,0.3411661,-2.141387,-0.3327988,-0.01991219
532.4554,0.006203737,-1.084797,0.3411661,-2.141387,-0.3327988,-0.01991219
532.4698,0.00666322,-1.075842,0.3291569,-2.140732,-0.3303954,-0.01990619
532.4855,0.007118233,-1.066991,0.316831,-2.140138,-0.3282816,-0.019901
532.5004,0.007568772,-1.058243,0.3044498,-2.139603,-0.3263605,-0.01989632
532.5151,0.007568772,-1.058243,0.3044498,-2.139603,-0.3263605,-0.01989632
532.5315,0.008014854,-1.049597,0.2913758,-2.139047,-0.3236584,-0.01988944
532.545,0.008456464,-1.041051,0.2775877,-2.138532,-0.321215,-0.01988332
532.5599,0.008456464,-1.041051,0.2775877,-2.138532,-0.321215,-0.01988332
532.5742,0.008893598,-1.032605,0.2635103,-2.138078,-0.3190655,-0.01987801
532.5895,0.009326276,-1.024257,0.2486372,-2.137609,-0.3162023,-0.01987072
532.6043,0.009754491,-1.016006,0.233019,-2.137188,-0.3136365,-0.01986428
532.6191,0.009754491,-1.016006,0.233019,-2.137188,-0.3136365,-0.01986428
532.6333,0.01017824,-1.007852,0.2171144,-2.136831,-0.3113844,-0.01985871
532.6488,0.01059754,-0.9997922,0.2011985,-2.136534,-0.3093398,-0.0198537
532.6639,0.01101241,-0.9918268,0.1846303,-2.13622,-0.3065243,-0.0198466
532.6788,0.01101241,-0.9918268,0.1846303,-2.13622,-0.3065243,-0.0198466
532.6929,0.01142286,-0.9839543,0.167395,-2.135949,-0.3039826,-0.01984028
532.7088,0.01182889,-0.9761738,0.1499218,-2.135739,-0.3017444,-0.01983479
532.7235,0.01223051,-0.9684842,0.1324718,-2.135586,-0.2997103,-0.01982985
532.7386,0.01223051,-0.9684842,0.1324718,-2.135586,-0.2997103,-0.01982985
532.7537,0.01262776,-0.9608845,0.1143945,-2.135413,-0.2969049,-0.01982287
532.7682,0.01302064,-0.9533736,0.09567354,-2.135283,-0.2943765,-0.01981668
532.7829,0.01340917,-0.9459505,0.0767385,-2.135211,-0.2921541,-0.01981132
532.7977,0.01340917,-0.9459505,0.0767385,-2.135211,-0.2921541,-0.01981132
532.8123,0.01379339,-0.9386144,0.05707345,-2.135125,-0.2892266,-0.01980413
532.8273,0.0141733,-0.9313641,0.03673233,-2.135086,-0.2866122,-0.01979781
532.842,0.01454892,-0.9241988,0.01617748,-2.135107,-0.2843221,-0.01979236
532.8568,0.01454892,-0.9241988,0.01617748,-2.135107,-0.2843221,-0.01979236
532.8711,0.01492028,-0.9171175,-0.004316861,-2.135183,-0.2822482,-0.01978749
532.8868,0.01528741,-0.9101191,-0.02539958,-2.135241,-0.2794114,-0.01978071
532.9016,0.01565033,-0.9032028,-0.04708429,-2.13534,-0.2768615,-0.01977471
532.9164,0.01565033,-0.9032028,-0.04708429,-2.13534,-0.2768615,-0.01977471
532.931,0.01600907,-0.8963677,-0.06893892,-2.135493,-0.2746246,-0.01976954
532.9462,0.01636364,-0.8896129,-0.09070294,-2.135697,-0.2725999,-0.01976493
532.9613,0.01671409,-0.8829373,-0.1122541,-2.135944,-0.270722,-0.0197607
532.9771,0.01671409,-0.8829373,-0.1122541,-2.135944,-0.270722,-0.0197607
532.9902,0.01706044,-0.8763401,-0.1335401,-2.13623,-0.2689588,-0.01975677
533.0056,0.01740271,-0.8698205,-0.1545403,-2.136549,-0.2672942,-0.0197531
533.0205,0.01774095,-0.8633775,-0.1752481,-2.136899,-0.2657197,-0.01974967
533.0353,0.01774095,-0.8633775,-0.1752481,-2.136899,-0.2657197,-0.01974967
533.0493,0.01807518,-0.8570102,-0.1956629,-2.137278,-0.26423,-0.01974645
533.0646,0.01840544,-0.8507178,-0.2157867,-2.137682,-0.2628218,-0.01974345
533.0797,0.01840544,-0.8507178,-0.2157867,-2.137682,-0.2628218,-0.01974345
533.0938,0.01873176,-0.8444995,-0.2356225,-2.13811,-0.261492,-0.01974064
533.1094,0.01905418,-0.8383544,-0.2551737,-2.13856,-0.2602383,-0.01973804
533.1255,0.01937273,-0.8322816,-0.2744441,-2.13903,-0.2590581,-0.01973562
533.1392,0.01937273,-0.8322816,-0.2744441,-2.13903,-0.2590581,-0.01973562
533.1534,0.01968744,-0.8262804,-0.2934373,-2.13952,-0.2579492,-0.01973338
533.1692,0.01999835,-0.8203499,-0.3121571,-2.140027,-0.2569095,-0.01973132
533.1839,0.02030549,-0.8144893,-0.3306071,-2.14055,-0.2559369,-0.01972941
533.1993,0.02030549,-0.8144893,-0.3306071,-2.14055,-0.2559369,-0.01972941
533.2131,0.02060891,-0.8086978,-0.348791,-2.141087,-0.2550294,-0.01972767
533.2285,0.02090863,-0.8029745,-0.3667124,-2.141638,-0.2541848,-0.01972608
533.2435,0.0212047,-0.7973188,-0.3843749,-2.1422,-0.2534014,-0.01972463
533.2584,0.0212047,-0.7973188,-0.3843749,-2.1422,-0.2534014,-0.01972463
533.272,0.02149715,-0.7917299,-0.4017821,-2.142774,-0.2526773,-0.01972332
533.2875,0.02178601,-0.7862068,-0.4189376,-2.143357,-0.2520106,-0.01972215
533.3024,0.02207133,-0.780749,-0.4358448,-2.143949,-0.2513995,-0.01972111
533.3173,0.02207133,-0.780749,-0.4358448,-2.143949,-0.2513995,-0.01972111
533.3315,0.02235314,-0.7753556,-0.4525072,-2.144547,-0.2508424,-0.0197202
533.3471,0.02263148,-0.770026,-0.4689282,-2.145153,-0.2503376,-0.0197194
533.3619,0.02290639,-0.7647592,-0.4851112,-2.145764,-0.2498835,-0.01971873
533.3768,0.02290639,-0.7647592,-0.4851112,-2.145764,-0.2498835,-0.01971873
533.3912,0.02317789,-0.7595548,-0.5010596,-2.146379,-0.2494784,-0.01971815
533.4066,0.02344604,-0.7544119,-0.5167766,-2.146998,-0.2491208,-0.01971769
533.4225,0.02371086,-0.7493297,-0.5322656,-2.14762,-0.2488092,-0.01971733
533.4364,0.02371086,-0.7493297,-0.5322656,-2.14762,-0.2488092,-0.01971733
533.4505,0.02397239,-0.7443077,-0.5475298,-2.148244,-0.2485421,-0.01971707
533.4657,0.02423068,-0.739345,-0.5625723,-2.148869,-0.2483182,-0.01971689
533.4807,0.02448575,-0.734441,-0.5773964,-2.149495,-0.248136,-0.01971681
533.4954,0.02448575,-0.734441,-0.5773964,-2.149495,-0.248136,-0.01971681
533.5096,0.02473764,-0.7295951,-0.5920051,-2.15012,-0.2479942,-0.01971681
533.5253,0.02498639,-0.7248065,-0.6064016,-2.150745,-0.2478915,-0.0197169
533.5401,0.02523204,-0.7200747,-0.6205888,-2.151369,-0.2478265,-0.01971706
533.5549,0.02523204,-0.7200747,-0.6205888,-2.151369,-0.2478265,-0.01971706
533.5693,0.02547462,-0.7153988,-0.6345698,-2.15199,-0.2477981,-0.0197173
533.5845,0.02571416,-0.7107783,-0.6483475,-2.152609,-0.247805,-0.01971762
533.5994,0.02571416,-0.7107783,-0.6483475,-2.152609,-0.247805,-0.01971762
533.6136,0.02595071,-0.7062125,-0.6619248,-2.153225,-0.247846,-0.019718
533.6295,0.0261843,-0.7017008,-0.6753047,-2.153838,-0.24792,-0.01971845
533.6451,0.02641496,-0.6972426,-0.68849,-2.154446,-0.2480259,-0.01971897
533.6589,0.02641496,-0.6972426,-0.68849,-2.154446,-0.2480259,-0.01971897
533.6732,0.02664273,-0.6928371,-0.7014834,-2.155051,-0.2481625,-0.01971954
533.6887,0.02686764,-0.6884839,-0.7142878,-2.15565,-0.2483288,-0.01972018
533.7036,0.02708973,-0.6841823,-0.7269059,-2.156244,-0.2485238,-0.01972087
533.7182,0.02708973,-0.6841823,-0.7269059,-2.156244,-0.2485238,-0.01972087
533.7321,0.02730903,-0.6799316,-0.7393404,-2.156833,-0.2487464,-0.01972162
533.7476,0.02752557,-0.6757314,-0.7515939,-2.157416,-0.2489956,-0.01972242
533.7625,0.0277394,-0.671581,-0.7636691,-2.157992,-0.2492706,-0.01972327
533.7773,0.0277394,-0.671581,-0.7636691,-2.157992,-0.2492706,-0.01972327
533.7916,0.02795053,-0.6674798,-0.7755685,-2.158563,-0.2495703,-0.01972416
533.8072,0.02815901,-0.6634273,-0.7872947,-2.159126,-0.2498938,-0.0197251
533.8221,0.02836487,-0.6594228,-0.7988503,-2.159683,-0.2502402,-0.01972608
533.8372,0.02836487,-0.6594228,-0.7988503,-2.159683,-0.2502402,-0.01972608
533.8514,0.02856814,-0.6554658,-0.8102376,-2.160233,-0.2506088,-0.01972711
533.8676,0.02876886,-0.6515558,-0.8214591,-2.160775,-0.2509986,-0.01972817
533.8813,0.02896705,-0.6476923,-0.8325173,-2.161309,-0.2514088,-0.01972928
533.8961,0.02896705,-0.6476923,-0.8325173,-2.161309,-0.2514088,-0.01972928
533.9103,0.02916274,-0.6438745,-0.8434144,-2.161836,-0.2518386,-0.01973042
533.9257,0.02935597,-0.6401021,-0.8541529,-2.162355,-0.2522872,-0.01973159
533.9404,0.02954677,-0.6363745,-0.8647351,-2.162866,-0.252754,-0.0197328
533.9552,0.02954677,-0.6363745,-0.8647351,-2.162866,-0.252754,-0.0197328
533.9694,0.02973516,-0.6326911,-0.8751631,-2.163369,-0.2532381,-0.01973404
533.9847,0.02992119,-0.6290514,-0.8854393,-2.163864,-0.2537387,-0.0197353
533.9998,0.02992119,-0.6290514,-0.8854393,-2.163864,-0.2537387,-0.0197353
534.0138,0.03010487,-0.625455,-0.8955659,-2.164351,-0.2542553,-0.0197366
534.0294,0.03028624,-0.6219013,-0.9055451,-2.164829,-0.2547871,-0.01973793
534.0442,0.03046533,-0.6183898,-0.9153789,-2.165298,-0.2553335,-0.01973928
534.0591,0.03046533,-0.6183898,-0.9153789,-2.165298,-0.2553335,-0.01973928
534.0737,0.03064216,-0.6149201,-0.9250695,-2.165759,-0.2558939,-0.01974065
534.0892,0.03081677,-0.6114916,-0.9346189,-2.166211,-0.2564675,-0.01974205
534.1049,0.03098918,-0.6081038,-0.9440293,-2.166655,-0.2570537,-0.01974347
534.1184,0.03098918,-0.6081038,-0.9440293,-2.166655,-0.2570537,-0.01974347
534.1326,0.03115943,-0.6047562,-0.9533026,-2.16709,-0.2576521,-0.01974492
534.1481,0.03132753,-0.6014485,-0.9624409,-2.167516,-0.2582619,-0.01974638
534.1628,0.03149351,-0.5981801,-0.9714461,-2.167934,-0.2588827,-0.01974786
534.1776,0.03149351,-0.5981801,-0.9714461,-2.167934,-0.2588827,-0.01974786
534.1917,0.03165741,-0.5949504,-0.9803201,-2.168343,-0.2595139,-0.01974936
534.2072,0.03181925,-0.5917593,-0.9890648,-2.168743,-0.2601549,-0.01975088
534.2223,0.03197905,-0.588606,-0.9976822,-2.169134,-0.2608052,-0.01975241
534.2371,0.03197905,-0.588606,-0.9976822,-2.169134,-0.2608052,-0.01975241
534.2512,0.03213685,-0.5854902,-1.006174,-2.169517,-0.2614644,-0.01975395
534.2668,0.03229266,-0.5824115,-1.014542,-2.169891,-0.2621319,-0.01975551
534.2816,0.03244652,-0.5793694,-1.022788,-2.170257,-0.2628072,-0.01975709
534.2968,0.03244652,-0.5793694,-1.022788,-2.170257,-0.2628072,-0.01975709
534.3106,0.03259844,-0.5763635,-1.030914,-2.170614,-0.26349,-0.01975867
534.3274,0.03274846,-0.5733933,-1.038922,-2.170962,-0.2641796,-0.01976028
534.3412,0.03289659,-0.5704585,-1.046813,-2.171302,-0.2648758,-0.01976189
534.3561,0.03289659,-0.5704585,-1.046813,-2.171302,-0.2648758,-0.01976189
534.3703,0.03304287,-0.5675585,-1.054589,-2.171633,-0.2655781,-0.01976351
534.3854,0.03318731,-0.5646931,-1.062252,-2.171956,-0.266286,-0.01976513
534.4002,0.03332994,-0.5618618,-1.069803,-2.172271,-0.2669992,-0.01976678
534.4151,0.03332994,-0.5618618,-1.069803,-2.172271,-0.2669992,-0.01976678
534.4293,0.03347078,-0.5590641,-1.077243,-2.172577,-0.2677172,-0.01976842
534.4448,0.03360986,-0.5562997,-1.084576,-2.172876,-0.2684397,-0.01977007
534.4597,0.03360986,-0.5562997,-1.084576,-2.172876,-0.2684397,-0.01977007
534.4749,0.03374719,-0.5535682,-1.091801,-2.173166,-0.2691664,-0.01977173
534.4896,0.0338828,-0.5508692,-1.098922,-2.173448,-0.2698968,-0.0197734
534.504,0.03401672,-0.5482023,-1.105938,-2.173722,-0.2706307,-0.01977508
534.5195,0.03401672,-0.5482023,-1.105938,-2.173722,-0.2706307,-0.01977508
534.5336,0.03414896,-0.5455672,-1.112852,-2.173988,-0.2713676,-0.01977676
534.5504,0.03427954,-0.5429634,-1.119666,-2.174247,-0.2721073,-0.01977844
534.5642,0.03440849,-0.5403906,-1.126379,-2.174497,-0.2728494,-0.01978013
534.5788,0.03440849,-0.5403906,-1.126379,-2.174497,-0.2728494,-0.01978013
534.593,0.03453584,-0.5378484,-1.132995,-2.17474,-0.2735937,-0.01978181
534.6086,0.03466158,-0.5353365,-1.139515,-2.174976,-0.2743399,-0.01978351
534.6235,0.03478576,-0.5328545,-1.145939,-2.175204,-0.2750876,-0.0197852
534.6383,0.03478576,-0.5328545,-1.145939,-2.175204,-0.2750876,-0.0197852
534.6523,0.03490839,-0.530402,-1.15227,-2.175424,-0.2758366,-0.0197869
534.6682,0.03502948,-0.5279787,-1.158508,-2.175637,-0.2765866,-0.0197886
534.6826,0.03514907,-0.5255843,-1.164655,-2.175844,-0.2773373,-0.0197903
534.6977,0.03514907,-0.5255843,-1.164655,-2.175844,-0.2773373,-0.0197903
534.7118,0.03526716,-0.5232184,-1.170713,-2.176043,-0.2780886,-0.019792
534.7276,0.03538378,-0.5208806,-1.176682,-2.176235,-0.2788401,-0.0197937
534.7421,0.03549895,-0.5185707,-1.182564,-2.17642,-0.2795916,-0.0197954
534.7571,0.03549895,-0.5185707,-1.182564,-2.17642,-0.2795916,-0.0197954
534.7724,0.03561268,-0.5162883,-1.188359,-2.176599,-0.280343,-0.01979711
534.7869,0.03572499,-0.5140331,-1.194071,-2.17677,-0.2810939,-0.01979881
534.8015,0.03583591,-0.5118048,-1.199699,-2.176935,-0.2818442,-0.0198005
534.8163,0.03583591,-0.5118048,-1.199699,-2.176935,-0.2818442,-0.0198005
534.8304,0.03594545,-0.509603,-1.205244,-2.177094,-0.2825937,-0.01980221
534.8457,0.03605362,-0.5074274,-1.210709,-2.177247,-0.2833421,-0.0198039
534.8605,0.03616045,-0.5052777,-1.216094,-2.177393,-0.2840893,-0.0198056
534.8754,0.03616045,-0.5052777,-1.216094,-2.177393,-0.2840893,-0.0198056
534.8896,0.03626595,-0.5031536,-1.2214,-2.177533,-0.2848356,-0.01980729
534.9054,0.03637014,-0.5010548,-1.226627,-2.177666,-0.2855802,-0.01980898
534.92,0.03647303,-0.4989811,-1.231778,-2.177794,-0.286323,-0.01981067
534.9348,0.03647303,-0.4989811,-1.231778,-2.177794,-0.286323,-0.01981067
534.9491,0.03657465,-0.496932,-1.236854,-2.177916,-0.2870638,-0.01981235
534.9648,0.03667501,-0.4949073,-1.241151,-2.178098,-0.2886996,-0.0198163
534.9793,0.03667501,-0.4949073,-1.241151,-2.178098,-0.2886996,-0.0198163
534.9955,0.03677411,-0.4929068,-1.244554,-2.178291,-0.2902104,-0.01981992
535.0094,0.03687198,-0.4909301,-1.247433,-2.17847,-0.291508,-0.01982299
535.0238,0.03696864,-0.4889769,-1.25004,-2.178633,-0.2926717,-0.01982573
535.0388,0.03696864,-0.4889769,-1.25004,-2.178633,-0.2926717,-0.01982573
535.0527,0.03706411,-0.487047,-1.251804,-2.178848,-0.2946588,-0.01983059
535.0681,0.03715838,-0.4851401,-1.252664,-2.179068,-0.2964831,-0.01983502
535.0827,0.03725149,-0.483256,-1.253016,-2.179271,-0.2980707,-0.01983885
535.0975,0.03725149,-0.483256,-1.253016,-2.179271,-0.2980707,-0.01983885
535.1118,0.03734345,-0.4813943,-1.252424,-2.179523,-0.3004035,-0.01984463
535.1271,0.03743427,-0.4795547,-1.2509,-2.179775,-0.302529,-0.01984987
535.1423,0.03752396,-0.4777371,-1.248875,-2.180008,-0.3043908,-0.01985443
535.1569,0.03752396,-0.4777371,-1.248875,-2.180008,-0.3043908,-0.01985443
535.1711,0.03761255,-0.4759411,-1.246626,-2.180217,-0.3060835,-0.01985857
535.1867,0.03770005,-0.4741665,-1.243595,-2.180476,-0.3085703,-0.01986483
535.2015,0.03778646,-0.4724131,-1.239726,-2.180739,-0.3108732,-0.01987061
535.2164,0.03778646,-0.4724131,-1.239726,-2.180739,-0.3108732,-0.01987061
535.2339,0.03787181,-0.4706806,-1.235414,-2.180983,-0.312918,-0.01987571
535.246,0.03795611,-0.4689687,-1.23092,-2.181204,-0.3147908,-0.01988038
535.2607,0.03803938,-0.4672772,-1.225683,-2.181475,-0.3174503,-0.01988721
535.2755,0.03803938,-0.4672772,-1.225683,-2.181475,-0.3174503,-0.01988721
535.2896,0.03812161,-0.4656059,-1.219642,-2.181751,-0.3199202,-0.01989352
535.305,0.03820284,-0.4639545,-1.213188,-2.182007,-0.3221243,-0.01989914
535.3198,0.03820284,-0.4639545,-1.213188,-2.182007,-0.3221243,-0.01989914
535.334,0.03828306,-0.4623228,-1.20589,-2.182311,-0.3250418,-0.01990675
535.3495,0.03836231,-0.4607105,-1.197761,-2.182519,-0.3277363,-0.01991364
535.3643,0.03844057,-0.4591174,-1.189223,-2.182584,-0.3301454,-0.01991973
535.3791,0.03844057,-0.4591174,-1.189223,-2.182584,-0.3301454,-0.01991973
535.3933,0.03851788,-0.4575433,-1.180548,-2.182543,-0.3323577,-0.01992533
535.409,0.03859425,-0.455988,-1.171185,-2.182531,-0.3353319,-0.01993315
535.4236,0.03866968,-0.4544512,-1.161074,-2.182522,-0.3381,-0.01994042
535.4387,0.03866968,-0.4544512,-1.161074,-2.182522,-0.3381,-0.01994042
535.4546,0.03874419,-0.4529327,-1.150603,-2.182494,-0.3405858,-0.01994694
535.4691,0.03881778,-0.4514323,-1.140034,-2.182453,-0.3428742,-0.01995296
535.4828,0.03889048,-0.4499498,-1.12881,-2.182487,-0.3459226,-0.01996122
535.4977,0.03889048,-0.4499498,-1.12881,-2.182487,-0.3459226,-0.01996122
535.5117,0.0389623,-0.448485,-1.116869,-2.182527,-0.3487638,-0.01996887
535.5271,0.03903323,-0.4470376,-1.104595,-2.182532,-0.3513194,-0.01997573
535.5424,0.03910331,-0.4456075,-1.092249,-2.182503,-0.353673,-0.01998205
535.5571,0.03910331,-0.4456075,-1.092249,-2.182503,-0.353673,-0.01998205
535.5708,0.03917253,-0.4441944,-1.079273,-2.182535,-0.3567806,-0.01999066
535.5862,0.03924091,-0.4427981,-1.065605,-2.182568,-0.3596763,-0.01999863
535.6011,0.03930845,-0.4414185,-1.051629,-2.182564,-0.3622812,-0.02000579
535.616,0.03930845,-0.4414185,-1.051629,-2.182564,-0.3622812,-0.02000579
535.6303,0.03937518,-0.4400554,-1.036918,-2.182607,-0.3655704,-0.02001505
535.646,0.0394411,-0.4387085,-1.021479,-2.182637,-0.3686084,-0.02002356
535.6608,0.03950622,-0.4373776,-1.005729,-2.182622,-0.3713332,-0.02003119
535.6755,0.03950622,-0.4373776,-1.005729,-2.182622,-0.3713332,-0.02003119
535.6919,0.03957055,-0.4360626,-0.9899423,-2.182574,-0.3738363,-0.02003823
535.7053,0.0396341,-0.4347633,-0.9735715,-2.182596,-0.3770774,-0.0200476
535.7199,0.0396341,-0.4347633,-0.9735715,-2.182596,-0.3770774,-0.0200476
535.7339,0.03969689,-0.4334794,-0.9565557,-2.182627,-0.3800962,-0.02005628
535.7493,0.03975891,-0.4322108,-0.939278,-2.182623,-0.382814,-0.02006409
535.764,0.03982019,-0.4309574,-0.9219958,-2.182585,-0.3853139,-0.0200713
535.7789,0.03982019,-0.4309574,-0.9219958,-2.182585,-0.3853139,-0.0200713
535.7928,0.03988073,-0.4297189,-0.9041575,-2.182616,-0.3885511,-0.02008088
535.8084,0.03994054,-0.4284952,-0.8856981,-2.18265,-0.3915653,-0.02008975
535.8235,0.03999963,-0.427286,-0.8669981,-2.182645,-0.3942761,-0.02009773
535.8381,0.03999963,-0.427286,-0.8669981,-2.182645,-0.3942761,-0.02009773
535.8525,0.04005801,-0.4260913,-0.8483208,-2.182604,-0.3967564,-0.02010505
535.8678,0.04011569,-0.4249107,-0.8297977,-2.182546,-0.3990809,-0.02011198
535.8826,0.04017268,-0.4237443,-0.8114842,-2.182492,-0.4012864,-0.02011862
535.8976,0.04017268,-0.4237443,-0.8114842,-2.182492,-0.4012864,-0.02011862
535.9116,0.04022899,-0.4225917,-0.7934027,-2.182451,-0.4033911,-0.02012501
535.9285,0.04028462,-0.4214529,-0.775561,-2.182423,-0.4054044,-0.02013116
535.9421,0.04033958,-0.4203277,-0.7579607,-2.182404,-0.4073323,-0.02013709
535.957,0.04033958,-0.4203277,-0.7579607,-2.182404,-0.4073323,-0.02013709
535.971,0.04039388,-0.4192158,-0.7406006,-2.182389,-0.4091783,-0.02014279
535.9863,0.04044754,-0.4181173,-0.7234784,-2.182373,-0.4109454,-0.02014828
536.0012,0.04050047,-0.4170319,-0.707031,-2.1717,-0.4136174,-0.02013884
536.0158,0.04050047,-0.4170319,-0.707031,-2.1717,-0.4136174,-0.02013884
536.03,0.04055274,-0.4159594,-0.6905903,-2.154987,-0.4160906,-0.02013544
536.0454,0.04060439,-0.4148997,-0.6741363,-2.135553,-0.4182357,-0.02013445
536.0605,0.04065547,-0.4138526,-0.6577286,-2.114978,-0.4201182,-0.0201345
536.0754,0.04065547,-0.4138526,-0.6577286,-2.114978,-0.4201182,-0.0201345
536.0895,0.04070596,-0.412818,-0.6414413,-2.092778,-0.4218943,-0.02013343
536.1052,0.04075588,-0.4117956,-0.625221,-2.069851,-0.4234571,-0.02013317
536.12,0.04075588,-0.4117956,-0.625221,-2.069851,-0.4234571,-0.02013317
536.1343,0.04080524,-0.4107854,-0.6090838,-2.046753,-0.4248137,-0.02013321
536.1508,0.04085403,-0.4097871,-0.5930792,-2.022505,-0.4260744,-0.02013192
536.1646,0.04090228,-0.4088008,-0.5771657,-1.99777,-0.4271247,-0.02013119
536.1794,0.04090228,-0.4088008,-0.5771657,-1.99777,-0.4271247,-0.02013119
536.1934,0.04095,-0.4078261,-0.5613643,-1.972992,-0.4279765,-0.02013066
536.209,0.04099718,-0.406863,-0.5456926,-1.94838,-0.4286467,-0.02013016
536.2239,0.04104382,-0.4059114,-0.5301822,-1.922789,-0.4292199,-0.0201284
536.2386,0.04104382,-0.4059114,-0.5301822,-1.922789,-0.4292199,-0.0201284
536.2526,0.04108994,-0.404971,-0.5148094,-1.896806,-0.4296004,-0.02012706
536.2683,0.04113555,-0.4040419,-0.4995919,-1.870836,-0.4298072,-0.02012588
536.2834,0.04118066,-0.4031237,-0.4845416,-1.845069,-0.429857,-0.02012474
536.298,0.04118066,-0.4031237,-0.4845416,-1.845069,-0.429857,-0.02012474
536.3121,0.04122524,-0.4022165,-0.4696761,-1.818353,-0.4298098,-0.02012248
536.3278,0.04126933,-0.40132,-0.4549861,-1.791269,-0.4296029,-0.02012062
536.3428,0.04131293,-0.4004342,-0.4404823,-1.764221,-0.4292557,-0.02011893
536.3575,0.04131293,-0.4004342,-0.4404823,-1.764221,-0.4292557,-0.02011893
536.3738,0.04135604,-0.3995589,-0.4261717,-1.737253,-0.428786,-0.02011719
536.3874,0.04139867,-0.398694,-0.412058,-1.710516,-0.4281999,-0.02011553
536.4019,0.04144081,-0.3978394,-0.3981451,-1.684096,-0.4275081,-0.02011391
536.4165,0.04144081,-0.3978394,-0.3981451,-1.684096,-0.4275081,-0.02011391
536.4307,0.04148248,-0.3969949,-0.3844357,-1.65803,-0.4267203,-0.02011231
536.446,0.04152367,-0.3961605,-0.3709318,-1.632334,-0.4258445,-0.02011073
536.4607,0.04156439,-0.3953361,-0.3576348,-1.607014,-0.4248883,-0.02010918
536.4755,0.04156439,-0.3953361,-0.3576348,-1.607014,-0.4248883,-0.02010918
536.4897,0.04160463,-0.3945214,-0.3445455,-1.582068,-0.4238584,-0.02010771
536.5054,0.04164441,-0.3937164,-0.3316643,-1.557494,-0.4227608,-0.0201063
536.52,0.04164441,-0.3937164,-0.3316643,-1.557494,-0.4227608,-0.0201063
536.5341,0.04168371,-0.392921,-0.3189915,-1.533288,-0.4216011,-0.02010494
536.5496,0.04172254,-0.3921351,-0.3065266,-1.509447,-0.4203844,-0.02010358
536.5646,0.04176091,-0.3913586,-0.2942694,-1.485965,-0.4191154,-0.02010222
536.5795,0.04176091,-0.3913586,-0.2942694,-1.485965,-0.4191154,-0.02010222
536.5937,0.04179881,-0.3905913,-0.2822191,-1.462838,-0.4177981,-0.02010084
536.6102,0.04183624,-0.3898332,-0.270375,-1.440062,-0.4164363,-0.02009948
536.6239,0.04187322,-0.3890841,-0.2587361,-1.417631,-0.4150334,-0.02009816
536.6386,0.04187322,-0.3890841,-0.2587361,-1.417631,-0.4150334,-0.02009816
536.6527,0.04190973,-0.388344,-0.2473015,-1.39554,-0.4135924,-0.02009688
536.6682,0.04194579,-0.3876128,-0.2360702,-1.373786,-0.4121162,-0.02009564
536.6826,0.04198139,-0.3868902,-0.2250409,-1.352364,-0.4106075,-0.02009444
536.6976,0.04198139,-0.3868902,-0.2250409,-1.352364,-0.4106075,-0.02009444
536.7115,0.04201654,-0.3861763,-0.2142127,-1.331268,-0.4090687,-0.02009329
536.727,0.04205124,-0.385471,-0.2035843,-1.310495,-0.4075026,-0.02009218
536.7419,0.04208549,-0.3847741,-0.1931543,-1.290039,-0.4059117,-0.02009111
536.7567,0.04208549,-0.3847741,-0.1931543,-1.290039,-0.4059117,-0.02009111
536.7708,0.04211931,-0.3840856,-0.1829214,-1.269897,-0.4042992,-0.02009007
536.7863,0.04215269,-0.3834053,-0.1728839,-1.250064,-0.4026681,-0.02008905
536.8011,0.04218563,-0.3827331,-0.1630401,-1.230536,-0.4010219,-0.02008808
536.8165,0.04218563,-0.3827331,-0.1630401,-1.230536,-0.4010219,-0.02008808
536.8304,0.04221815,-0.382069,-0.1533878,-1.211308,-0.3993642,-0.02008712
536.847,0.04225025,-0.3814128,-0.1439251,-1.192376,-0.3976986,-0.02008617
536.8607,0.04228192,-0.3807645,-0.1346495,-1.173735,-0.3960288,-0.02008525
536.8757,0.04228192,-0.3807645,-0.1346495,-1.173735,-0.3960288,-0.02008525
536.8899,0.04231318,-0.380124,-0.1255585,-1.155382,-0.3943584,-0.02008434
536.9052,0.04234403,-0.3794912,-0.1166497,-1.137313,-0.3926909,-0.02008343
536.9198,0.04234403,-0.3794912,-0.1166497,-1.137313,-0.3926909,-0.02008343
536.934,0.04237448,-0.3788659,-0.1079202,-1.119523,-0.3910296,-0.02008252
536.9495,0.04240453,-0.3782481,-0.09936737,-1.102008,-0.3893777,-0.02008162
536.9644,0.04243418,-0.3776377,-0.09098836,-1.084764,-0.387738,-0.02008071
536.9793,0.04243418,-0.3776377,-0.09098836,-1.084764,-0.387738,-0.02008071
536.9932,0.04246345,-0.3770347,-0.08278032,-1.067787,-0.3861134,-0.0200798
537.0089,0.04249233,-0.3764388,-0.07474037,-1.051074,-0.3845062,-0.02007888
537.024,0.04252083,-0.3758501,-0.06686564,-1.03462,-0.3829187,-0.02007796
537.0389,0.04252083,-0.3758501,-0.06686564,-1.03462,-0.3829187,-0.02007796
537.0529,0.04254896,-0.3752685,-0.05915325,-1.018422,-0.3813529,-0.02007702
537.0704,0.04257672,-0.3746939,-0.05160032,-1.002476,-0.3798106,-0.02007608
537.0842,0.04260412,-0.3741261,-0.044204,-0.9867772,-0.3782936,-0.02007513
537.098,0.04260412,-0.3741261,-0.044204,-0.9867772,-0.3782936,-0.02007513
537.1122,0.04263116,-0.3735651,-0.03696143,-0.9713232,-0.3768032,-0.02007416
537.1276,0.04265784,-0.3730109,-0.0298698,-0.9561098,-0.3753408,-0.02007319
537.1422,0.04268418,-0.3724633,-0.02292632,-0.9411335,-0.3739075,-0.0200722
537.157,0.04268418,-0.3724633,-0.02292632,-0.9411335,-0.3739075,-0.0200722
537.1711,0.04271017,-0.3719222,-0.0161282,-0.9263907,-0.3725043,-0.0200712
537.1868,0.04273582,-0.3713877,-0.009472722,-0.9118779,-0.371132,-0.02007019
537.2014,0.04276114,-0.3708595,-0.002957161,-0.8975915,-0.3697914,-0.02006915
537.2165,0.04276114,-0.3708595,-0.002957161,-0.8975915,-0.3697914,-0.02006915
537.2306,0.04278613,-0.3703377,0.003421154,-0.8835282,-0.368483,-0.02006811
537.246,0.0428108,-0.3698221,0.009664866,-0.8696846,-0.3672075,-0.02006705
537.2609,0.04283514,-0.3693127,0.01577659,-0.8560573,-0.3659652,-0.02006597
537.2761,0.04283514,-0.3693127,0.01577659,-0.8560573,-0.3659652,-0.02006597
537.29,0.04285917,-0.3688094,0.02175889,-0.842643,-0.3647564,-0.02006488
537.3065,0.04288289,-0.3683121,0.02761433,-0.8294385,-0.3635814,-0.02006377
537.3205,0.0429063,-0.3678208,0.03334541,-0.8164406,-0.3624403,-0.02006264
537.3354,0.0429063,-0.3678208,0.03334541,-0.8164406,-0.3624403,-0.02006264
537.3507,0.0429294,-0.3673353,0.03895461,-0.8036461,-0.3613332,-0.0200615
537.3647,0.04295221,-0.3668557,0.04444436,-0.7910519,-0.3602602,-0.02006034
537.3795,0.04295221,-0.3668557,0.04444436,-0.7910519,-0.3602602,-0.02006034
537.3936,0.04297473,-0.3663819,0.04981706,-0.7786549,-0.3592212,-0.02005916
537.4092,0.04299695,-0.3659137,0.05507509,-0.766452,-0.3582161,-0.02005796
537.4241,0.04301889,-0.3654511,0.06022079,-0.7544404,-0.3572449,-0.02005675
537.4389,0.04301889,-0.3654511,0.06022079,-0.7544404,-0.3572449,-0.02005675
537.4531,0.04304055,-0.364994,0.06525645,-0.742617,-0.3563072,-0.02005552
537.4688,0.04306193,-0.3645424,0.07018433,-0.7309789,-0.3554029,-0.02005427
537.4837,0.04308303,-0.3640963,0.07500666,-0.7195233,-0.3545318,-0.02005299
537.4987,0.04308303,-0.3640963,0.07500666,-0.7195233,-0.3545318,-0.02005299
537.5126,0.04310387,-0.3636554,0.07972565,-0.7082474,-0.3536935,-0.0200517
537.529,0.04312443,-0.3632199,0.08434346,-0.6971483,-0.3528877,-0.02005038
537.5431,0.04314474,-0.3627895,0.08886222,-0.6862234,-0.352114,-0.02004904
537.5578,0.04314474,-0.3627895,0.08886222,-0.6862234,-0.352114,-0.02004904
537.572,0.04316478,-0.3623643,0.09328402,-0.6754699,-0.3513721,-0.02004768
537.5872,0.04318457,-0.3619442,0.09761091,-0.6648852,-0.3506616,-0.02004629
537.6018,0.04320411,-0.3615291,0.1018449,-0.6544667,-0.349982,-0.02004488
537.6168,0.04320411,-0.3615291,0.1018449,-0.6544667,-0.349982,-0.02004488
537.6313,0.0432234,-0.361119,0.1059881,-0.6442117,-0.3493329,-0.02004345
537.6464,0.04324244,-0.3607138,0.1100423,-0.6341178,-0.3487139,-0.02004199
537.6611,0.04326124,-0.3603135,0.1140096,-0.6241824,-0.3481244,-0.0200405
537.6759,0.04326124,-0.3603135,0.1140096,-0.6241824,-0.3481244,-0.0200405
537.6901,0.04327981,-0.3599179,0.1178918,-0.6144031,-0.3475641,-0.02003899
537.7058,0.04329814,-0.3595271,0.1216908,-0.6047773,-0.3470323,-0.02003745
537.7205,0.04331624,-0.359141,0.1254084,-0.5953029,-0.3465286,-0.02003588
537.7356,0.04331624,-0.359141,0.1254084,-0.5953029,-0.3465286,-0.02003588
537.7495,0.04333411,-0.3587594,0.1290464,-0.5859773,-0.3460526,-0.02003428
537.7659,0.04335175,-0.3583825,0.1326067,-0.5767982,-0.3456036,-0.02003265
537.7798,0.04335175,-0.3583825,0.1326067,-0.5767982,-0.3456036,-0.02003265
537.7939,0.04336917,-0.35801,0.1360909,-0.5677634,-0.3451812,-0.02003099
537.8092,0.04338638,-0.357642,0.1395008,-0.5588707,-0.3447849,-0.0200293
537.8239,0.04340336,-0.3572784,0.142838,-0.5501177,-0.3444141,-0.02002757
537.8387,0.04340336,-0.3572784,0.142838,-0.5501177,-0.3444141,-0.02002757
537.8528,0.04342014,-0.3569192,0.1461191,-0.5416469,-0.344089,-0.02002613
537.8684,0.04343671,-0.3565642,0.1493295,-0.5333936,-0.3437893,-0.02002453
537.8831,0.04345306,-0.3562135,0.152468,-0.5253106,-0.3435089,-0.02002284
537.8983,0.04345306,-0.3562135,0.152468,-0.5253106,-0.3435089,-0.02002284
537.9121,0.04346922,-0.355867,0.1555376,-0.5173742,-0.3432476,-0.0200211
537.9279,0.04348518,-0.3555246,0.1586772,-0.5108001,-0.3431887,-0.02002239
537.9427,0.04350096,-0.3551863,0.1617448,-0.5050508,-0.3431601,-0.0200224
537.9575,0.04350096,-0.3551863,0.1617448,-0.5050508,-0.3431601,-0.0200224
537.9718,0.04351654,-0.3548521,0.1647137,-0.4997388,-0.3431121,-0.02002187
537.9872,0.04353192,-0.3545219,0.1675973,-0.4946773,-0.3430458,-0.02002112
538.0031,0.04354713,-0.3541956,0.1705555,-0.4910037,-0.3431602,-0.02002365
538.0169,0.04354713,-0.3541956,0.1705555,-0.4910037,-0.3431602,-0.02002365
538.0309,0.04356216,-0.3538732,0.1734482,-0.4881438,-0.3432868,-0.02002473
538.0463,0.043577,-0.3535547,0.1762523,-0.4856921,-0.3433801,-0.02002522
538.061,0.04359166,-0.3532399,0.1789832,-0.4834537,-0.3434445,-0.02002546
538.076,0.04359166,-0.3532399,0.1789832,-0.4834537,-0.3434445,-0.02002546
538.0899,0.04360615,-0.352929,0.1818064,-0.4825626,-0.3436844,-0.02002914
538.1055,0.04362047,-0.3526217,0.1845773,-0.4824431,-0.3439284,-0.02003127
538.1205,0.04363462,-0.3523181,0.1872716,-0.4826895,-0.3441314,-0.02003275
538.1353,0.04363462,-0.3523181,0.1872716,-0.4826895,-0.3441314,-0.02003275
538.1497,0.0436486,-0.3520181,0.1900526,-0.484335,-0.3444903,-0.02003753
538.165,0.04366243,-0.3517218,0.1927789,-0.4867561,-0.3448347,-0.02004063
538.18,0.04366243,-0.3517218,0.1927789,-0.4867561,-0.3448347,-0.02004063
538.1941,0.04367607,-0.3514289,0.1954314,-0.4895242,-0.3451241,-0.02004301
538.2098,0.04368956,-0.3511396,0.1980292,-0.492434,-0.3453669,-0.02004505
538.2256,0.04370302,-0.3508537,0.2018535,-0.5060788,-0.3472322,-0.02007697
538.2394,0.04370302,-0.3508537,0.2018535,-0.5060788,-0.3472322,-0.02007697
538.2535,0.04371634,-0.3505713,0.2054895,-0.5257981,-0.3490961,-0.02009509
538.2688,0.0437295,-0.3502923,0.2086951,-0.5482301,-0.3505388,-0.0201072
538.2834,0.04374248,-0.3500166,0.2116095,-0.5717645,-0.3516063,-0.02011639
538.2984,0.04374248,-0.3500166,0.2116095,-0.5717645,-0.3516063,-0.02011639
538.3123,0.04375529,-0.3497442,0.2143868,-0.5956299,-0.3524126,-0.02012391
538.3278,0.04376794,-0.349475,0.2171264,-0.6194574,-0.3530471,-0.02013029
538.3426,0.04378043,-0.349209,0.21988,-0.6430719,-0.3535674,-0.02013577
538.3576,0.04378043,-0.349209,0.21988,-0.6430719,-0.3535674,-0.02013577
538.3718,0.04379278,-0.3489462,0.2252352,-0.666373,-0.3577546,-0.02014517
538.3871,0.04380499,-0.3486865,0.2310474,-0.6893183,-0.363341,-0.02015042
538.402,0.04381707,-0.3484299,0.236548,-0.7119083,-0.3692428,-0.02015422
538.4173,0.04381707,-0.3484299,0.236548,-0.7119083,-0.3692428,-0.02015422
538.4312,0.04382903,-0.3481764,0.2416285,-0.7341514,-0.3751135,-0.02015742
538.4478,0.04384087,-0.3479258,0.2452609,-0.7560638,-0.3790724,-0.02015875
538.4625,0.04385258,-0.3476782,0.2485428,-0.7776527,-0.382289,-0.02016121
538.4764,0.04385258,-0.3476782,0.2485428,-0.7776527,-0.382289,-0.02016121
538.4905,0.04386418,-0.3474335,0.2518321,-0.7989153,-0.3852825,-0.02016365
538.506,0.04387566,-0.3471918,0.2551726,-0.8198493,-0.3882019,-0.02016579
538.5207,0.04388704,-0.3469528,0.2574698,-0.8404652,-0.3891081,-0.02016647
538.5355,0.04388704,-0.3469528,0.2574698,-0.8404652,-0.3891081,-0.02016647
538.5497,0.0438983,-0.3467167,0.2597815,-0.8607712,-0.3894292,-0.02016808
538.5652,0.04390945,-0.3464834,0.2623111,-0.8807617,-0.3896758,-0.02016954
538.5801,0.04392049,-0.3462528,0.2649993,-0.9004347,-0.3899457,-0.02017066
538.5949,0.04392049,-0.3462528,0.2649993,-0.9004347,-0.3899457,-0.02017066
538.6092,0.04393143,-0.346025,0.2667464,-0.9198021,-0.3880809,-0.02017077
538.6248,0.04394227,-0.3457998,0.2686498,-0.938875,-0.3857855,-0.02017164
538.6398,0.04394227,-0.3457998,0.2686498,-0.938875,-0.3857855,-0.02017164
538.6541,0.04395299,-0.3455773,0.2708175,-0.9576461,-0.3835258,-0.02017228
538.6696,0.04396363,-0.3453574,0.2721735,-0.9761223,-0.3790599,-0.02017218
538.6853,0.04397415,-0.3451402,0.2738055,-0.9943144,-0.3743214,-0.02017264
538.6992,0.04397415,-0.3451402,0.2738055,-0.9943144,-0.3743214,-0.02017264
538.7132,0.04398458,-0.3449254,0.2757316,-1.012214,-0.3697074,-0.02017282
538.7288,0.04399491,-0.3447132,0.2778281,-1.029819,-0.3652279,-0.02017271
538.7434,0.04400515,-0.3445036,0.2791181,-1.047143,-0.3584127,-0.02017228
538.7583,0.04400515,-0.3445036,0.2791181,-1.047143,-0.3584127,-0.02017228
538.7723,0.04401529,-0.3442963,0.2807139,-1.064198,-0.3514966,-0.02017219
538.788,0.04402533,-0.3440916,0.2825665,-1.080977,-0.3447681,-0.02017181
538.8029,0.04403528,-0.3438892,0.2845597,-1.097478,-0.3382092,-0.0201712
538.8178,0.04403528,-0.3438892,0.2845597,-1.097478,-0.3382092,-0.0201712
538.8318,0.04404514,-0.3436892,0.2858332,-1.113713,-0.3292392,-0.02017056
538.8475,0.04405491,-0.3434916,0.2874392,-1.129694,-0.3203418,-0.02017001
538.8623,0.04406459,-0.3432963,0.2892672,-1.145414,-0.3116794,-0.02016919
538.8772,0.04406459,-0.3432963,0.2892672,-1.145414,-0.3116794,-0.02016919
538.8919,0.04407418,-0.3431033,0.2904997,-1.160876,-0.3006127,-0.02016843
538.908,0.04408368,-0.3429126,0.292085,-1.176094,-0.2897446,-0.02016758
538.9218,0.04409309,-0.3427242,0.2938763,-1.19106,-0.2791516,-0.02016646
538.9366,0.04409309,-0.3427242,0.2938763,-1.19106,-0.2791516,-0.02016646
538.9504,0.04410241,-0.342538,0.2957778,-1.205777,-0.2688001,-0.02016515
538.9661,0.04411165,-0.3423539,0.2971477,-1.22025,-0.256039,-0.02016404
538.9807,0.0441208,-0.342172,0.2988224,-1.234495,-0.2435669,-0.02016272
538.9954,0.0441208,-0.342172,0.2988224,-1.234495,-0.2435669,-0.02016272
539.0098,0.04412986,-0.3419923,0.3006588,-1.248504,-0.2313915,-0.02016119
539.0254,0.04413884,-0.3418147,0.302582,-1.262282,-0.2194859,-0.02015951
539.0403,0.04414774,-0.3416392,0.3040726,-1.27583,-0.2052136,-0.020158
539.0552,0.04414774,-0.3416392,0.3040726,-1.27583,-0.2052136,-0.020158
539.0693,0.04415655,-0.3414657,0.3058213,-1.289164,-0.191281,-0.02015626
539.0848,0.04416528,-0.3412943,0.3076991,-1.302279,-0.1776648,-0.02015435
539.0996,0.04416528,-0.3412943,0.3076991,-1.302279,-0.1776648,-0.02015435
539.1138,0.04417393,-0.341125,0.309237,-1.315175,-0.1617419,-0.02015255
539.1304,0.04418249,-0.3409576,0.3110084,-1.327866,-0.1461916,-0.02015053
539.1443,0.04419098,-0.3407922,0.3128939,-1.340349,-0.1309833,-0.02014838
539.1589,0.04419098,-0.3407922,0.3128939,-1.340349,-0.1309833,-0.02014838
539.173,0.04419938,-0.3406287,0.3148395,-1.352629,-0.1160975,-0.02014614
539.1885,0.0442077,-0.3404672,0.3165009,-1.364704,-0.09895118,-0.02014397
539.2032,0.04421595,-0.3403076,0.3183398,-1.376588,-0.08218554,-0.02014165
539.2179,0.04421595,-0.3403076,0.3183398,-1.376588,-0.08218554,-0.02014165
539.2321,0.04422411,-0.3401499,0.3202635,-1.388281,-0.06577483,-0.02013926
539.2476,0.04423219,-0.339994,0.3222308,-1.399787,-0.04970361,-0.02013683
539.2625,0.0442402,-0.33984,0.323979,-1.411103,-0.03141525,-0.02013443
539.2775,0.0442402,-0.33984,0.323979,-1.411103,-0.03141525,-0.02013443
539.2918,0.04424813,-0.3396878,0.3258638,-1.422242,-0.01351515,-0.02013197
539.3072,0.04425598,-0.3395374,0.3278122,-1.433205,0.004016355,-0.02012949
539.3218,0.04426375,-0.3393887,0.3297918,-1.443997,0.02119188,-0.02012702
539.3369,0.04426375,-0.3393887,0.3297918,-1.443997,0.02119188,-0.02012702
539.3508,0.04427145,-0.3392418,0.3316096,-1.454612,0.04054961,-0.02012456
539.3676,0.04427907,-0.3390967,0.3335292,-1.465065,0.05950974,-0.02012211
539.3812,0.04428661,-0.3389533,0.3354947,-1.475358,0.07808702,-0.02011969
539.3959,0.04428661,-0.3389533,0.3354947,-1.475358,0.07808702,-0.02011969
539.4101,0.04429409,-0.3388115,0.3373475,-1.485484,0.0988119,-0.0201173
539.4255,0.04430148,-0.3386715,0.339284,-1.495458,0.1191185,-0.02011497
539.4402,0.0443088,-0.3385331,0.3412576,-1.505282,0.1390194,-0.0201127
539.4551,0.0443088,-0.3385331,0.3412576,-1.505282,0.1390194,-0.0201127
539.4693,0.04431604,-0.3383964,0.3432475,-1.514959,0.1585247,-0.02011051
539.4865,0.04432321,-0.3382612,0.3451638,-1.524485,0.1801558,-0.02010838
539.4997,0.04432321,-0.3382612,0.3451638,-1.524485,0.1801558,-0.02010838
539.5138,0.04433031,-0.3381277,0.3471323,-1.533871,0.2013573,-0.02010635
539.5295,0.04433733,-0.3379958,0.3491224,-1.543121,0.2221396,-0.02010443
539.5444,0.04434428,-0.3378654,0.3511205,-1.552237,0.2425117,-0.02010261
539.5594,0.04434428,-0.3378654,0.3511205,-1.552237,0.2425117,-0.02010261
539.5735,0.04435116,-0.3377365,0.3530896,-1.561216,0.264992,-0.0201009
539.5901,0.04435797,-0.3376092,0.3550857,-1.570067,0.2870301,-0.02009933
539.604,0.04436471,-0.3374834,0.3570913,-1.578794,0.3086353,-0.02009789
539.6187,0.04436471,-0.3374834,0.3570913,-1.578794,0.3086353,-0.02009789
539.6327,0.04437138,-0.3373591,0.3591035,-1.587393,0.3323262,-0.0200966
539.6482,0.04437798,-0.3372362,0.3611272,-1.595873,0.3555532,-0.02009547
539.6629,0.0443845,-0.3371148,0.3631531,-1.604239,0.3783256,-0.02009448
539.6779,0.0443845,-0.3371148,0.3631531,-1.604239,0.3783256,-0.02009448
539.692,0.04439095,-0.3369949,0.3651766,-1.612491,0.4006524,-0.02009364
539.7078,0.04439733,-0.3368764,0.367195,-1.620633,0.4225428,-0.02009296
539.7221,0.04440364,-0.3367593,0.3692068,-1.628667,0.4440056,-0.02009241
539.7376,0.04440364,-0.3367593,0.3692068,-1.628667,0.4440056,-0.02009241
539.7515,0.04440988,-0.3366436,0.3712105,-1.636593,0.4650494,-0.020092
539.7674,0.04441605,-0.3365293,0.3732052,-1.644415,0.4856829,-0.02009173
539.7819,0.04442214,-0.3364164,0.375094,-1.652135,0.503396,-0.02009147
539.7966,0.04442214,-0.3364164,0.375094,-1.652135,0.503396,-0.02009147
539.8129,0.04442817,-0.3363048,0.3769946,-1.659752,0.5207657,-0.02009135
539.8265,0.04443412,-0.3361945,0.3788927,-1.667268,0.5377982,-0.02009134
539.8414,0.04444001,-0.3360856,0.3807817,-1.674683,0.5544996,-0.02009142
539.856,0.04444001,-0.3360856,0.3807817,-1.674683,0.5544996,-0.02009142
539.8701,0.04444583,-0.3359779,0.3825181,-1.681998,0.5683504,-0.02009144
539.8856,0.04445158,-0.3358716,0.3842806,-1.689212,0.5819364,-0.02009158
539.9005,0.04445726,-0.3357665,0.3860453,-1.696329,0.5952604,-0.0200918
539.9151,0.04445726,-0.3357665,0.3860453,-1.696329,0.5952604,-0.0200918
539.9296,0.04446287,-0.3356627,0.3876283,-1.703345,0.6057931,-0.02009188
539.9449,0.04446842,-0.3355601,0.3892508,-1.710262,0.6161284,-0.02009208
539.96,0.0444739,-0.3354588,0.3908806,-1.717083,0.6262665,-0.02009235
539.9747,0.0444739,-0.3354588,0.3908806,-1.717083,0.6262665,-0.02009235
539.9891,0.04447932,-0.3353586,0.3925033,-1.723808,0.6362094,-0.02009267
540.0048,0.04448467,-0.3352596,0.3938959,-1.730433,0.6434153,-0.02009276
540.0197,0.04448467,-0.3352596,0.3938959,-1.730433,0.6434153,-0.02009276
540.0357,0.04448995,-0.3351619,0.3953422,-1.736962,0.650492,-0.02009297
540.0491,0.04449518,-0.3350653,0.3968018,-1.743397,0.6574365,-0.02009323
540.0639,0.04450034,-0.3349698,0.3982569,-1.749739,0.6642487,-0.02009353
540.0787,0.04450034,-0.3349698,0.3982569,-1.749739,0.6642487,-0.02009353
540.0939,0.04450544,-0.3348756,0.3994402,-1.755983,0.6683723,-0.02009355
540.1086,0.04451047,-0.3347824,0.4006941,-1.762132,0.6724304,-0.02009368
540.1231,0.04451544,-0.3346903,0.4019695,-1.76819,0.6764169,-0.02009386
540.1381,0.04451544,-0.3346903,0.4019695,-1.76819,0.6764169,-0.02009386
540.1521,0.04452035,-0.3345994,0.4029538,-1.774152,0.677762,-0.02009372
540.168,0.04452519,-0.3345096,0.4040268,-1.78002,0.679099,-0.02009371
540.1825,0.04452999,-0.3344208,0.4051304,-1.7858,0.6804191,-0.02009375
540.1974,0.04452999,-0.3344208,0.4051304,-1.7858,0.6804191,-0.02009375
540.2117,0.04453472,-0.334333,0.4062381,-1.791495,0.6817178,-0.02009381
540.2276,0.04453939,-0.3342464,0.407007,-1.797095,0.6804134,-0.0200935
540.2422,0.044544,-0.3341607,0.4078783,-1.802603,0.6791541,-0.0200933
540.2579,0.044544,-0.3341607,0.4078783,-1.802603,0.6791541,-0.0200933
540.2725,0.04454856,-0.3340761,0.408788,-1.808027,0.6779307,-0.02009316
540.2869,0.04455306,-0.3339925,0.4097068,-1.813368,0.676736,-0.02009304
540.3016,0.04455749,-0.33391,0.4102505,-1.818618,0.6729761,-0.02009251
540.3162,0.04455749,-0.33391,0.4102505,-1.818618,0.6729761,-0.02009251
540.3304,0.04456187,-0.3338284,0.4109149,-1.823779,0.6693102,-0.02009209
540.3458,0.0445662,-0.3337477,0.4116281,-1.82886,0.6657298,-0.02009174
540.3607,0.04457048,-0.3336681,0.4123568,-1.833862,0.6622255,-0.02009141
540.3755,0.04457048,-0.3336681,0.4123568,-1.833862,0.6622255,-0.02009141
540.3896,0.04457469,-0.3335894,0.4126772,-1.838777,0.656193,-0.02009064
540.4055,0.04457885,-0.3335117,0.4131366,-1.843605,0.6502981,-0.02008998
540.4201,0.04458297,-0.3334348,0.4136559,-1.848356,0.6445355,-0.0200894
540.4351,0.04458297,-0.3334348,0.4136559,-1.848356,0.6445355,-0.0200894
540.4494,0.04458702,-0.3333589,0.413762,-1.853024,0.6362893,-0.0200884
540.4647,0.04459102,-0.333284,0.4140289,-1.857607,0.6282241,-0.02008749
540.4806,0.04459497,-0.3332099,0.4143686,-1.862116,0.6203375,-0.02008668
540.4946,0.04459497,-0.3332099,0.4143686,-1.862116,0.6203375,-0.02008668
540.5089,0.04459887,-0.3331367,0.4147384,-1.866557,0.6126148,-0.02008589
540.5242,0.04460272,-0.3330644,0.4146501,-1.870917,0.6024392,-0.02008466
540.5391,0.04460272,-0.3330644,0.4146501,-1.870917,0.6024392,-0.02008466
540.553,0.04460651,-0.3329929,0.4147323,-1.875195,0.5924762,-0.0200835
540.5692,0.04461027,-0.3329223,0.4148956,-1.879403,0.5827321,-0.02008244
540.5833,0.04461397,-0.3328526,0.4150951,-1.883547,0.5731899,-0.02008142
540.5983,0.04461397,-0.3328526,0.4150951,-1.883547,0.5731899,-0.02008142
540.6124,0.04461762,-0.3327837,0.4148102,-1.887614,0.56123,-0.02007996
540.6281,0.04462122,-0.3327156,0.4147117,-1.891603,0.5495119,-0.02007855
540.6429,0.04462478,-0.3326483,0.414706,-1.895527,0.5380511,-0.02007725
540.6578,0.04462478,-0.3326483,0.414706,-1.895527,0.5380511,-0.02007725
540.672,0.04462828,-0.3325819,0.4142216,-1.89938,0.5242182,-0.02007556
540.6878,0.04463174,-0.3325163,0.4139461,-1.903158,0.510662,-0.02007392
540.7036,0.04463516,-0.3324514,0.4137774,-1.906874,0.4974036,-0.02007241
540.7173,0.04463516,-0.3324514,0.4137774,-1.906874,0.4974036,-0.02007241
540.732,0.04463853,-0.3323873,0.4136612,-1.910534,0.4844211,-0.02007095
540.7469,0.04464186,-0.332324,0.4130237,-1.914128,0.4690929,-0.02006912
540.7616,0.04464514,-0.3322614,0.4125999,-1.91765,0.4540599,-0.02006729
540.7766,0.04464514,-0.3322614,0.4125999,-1.91765,0.4540599,-0.02006729
540.7906,0.04464838,-0.3321996,0.4122901,-1.921115,0.4393567,-0.02006561
540.8061,0.04465158,-0.3321385,0.4120382,-1.924528,0.4249596,-0.020064
540.821,0.04465473,-0.3320782,0.4112449,-1.927882,0.4082488,-0.02006206
540.8361,0.04465473,-0.3320782,0.4112449,-1.927882,0.4082488,-0.02006206
540.85,0.04465784,-0.3320186,0.4106779,-1.931167,0.3918517,-0.02006012
540.8655,0.04466091,-0.3319597,0.4102358,-1.934399,0.3758152,-0.02005834
540.8806,0.04466394,-0.3319016,0.4098583,-1.937585,0.3601136,-0.02005664
540.8958,0.04466394,-0.3319016,0.4098583,-1.937585,0.3601136,-0.02005664
540.9097,0.04466693,-0.3318441,0.4089216,-1.940717,0.3421292,-0.0200547
540.9261,0.04466987,-0.3317873,0.408223,-1.943786,0.3244747,-0.02005273
540.9402,0.04467279,-0.3317312,0.4076594,-1.946807,0.3072093,-0.02005093
540.9551,0.04467279,-0.3317312,0.4076594,-1.946807,0.3072093,-0.02005093
540.9694,0.04467565,-0.3316758,0.4065536,-1.949782,0.2877068,-0.02004899
540.9845,0.04467848,-0.3316211,0.4057074,-1.952697,0.2685617,-0.02004706
540.9993,0.04467848,-0.3316211,0.4057074,-1.952697,0.2685617,-0.02004706
541.0134,0.04468128,-0.331567,0.4050099,-1.955568,0.2498397,-0.02004531
541.0291,0.04468404,-0.3315135,0.4043918,-1.958401,0.2315108,-0.02004368
541.0438,0.04468679,-0.3314606,0.4052894,-1.961199,0.2195618,-0.02004256
541.0588,0.04468679,-0.3314606,0.4052894,-1.961199,0.2195618,-0.02004256
541.0729,0.0446895,-0.3314084,0.4057085,-1.96399,0.2079704,-0.02004168
541.0885,0.04469217,-0.3313568,0.4058701,-1.966746,0.1965184,-0.02004065
541.1035,0.04469481,-0.3313058,0.4059263,-1.969459,0.1852507,-0.02003956
541.1185,0.04469481,-0.3313058,0.4059263,-1.969459,0.1852507,-0.02003956
541.1327,0.04469742,-0.3312554,0.405944,-1.972129,0.1741891,-0.02003849
541.1489,0.04469999,-0.3312056,0.4059514,-1.974757,0.1633407,-0.02003743
541.163,0.04470253,-0.3311565,0.4059604,-1.977344,0.1527061,-0.02003642
541.177,0.04470253,-0.3311565,0.4059604,-1.977344,0.1527061,-0.02003642
541.1905,0.04470507,-0.3311079,0.4045466,-1.970716,0.1416223,-0.035035
541.2054,0.04470761,-0.3310599,0.4038951,-1.967253,0.1310819,-0.04973967
541.2194,0.04470761,-0.3310599,0.4038951,-1.967253,0.1310819,-0.04973967
541.2332,0.04471013,-0.3310125,0.4035757,-1.965372,0.120907,-0.0641561
541.2487,0.04471262,-0.3309657,0.4034131,-1.964298,0.1110133,-0.07828991
541.2629,0.04471507,-0.3309194,0.4035666,-1.965695,0.1014666,-0.08882117
541.2775,0.04471507,-0.3309194,0.4035666,-1.965695,0.1014666,-0.08882117
541.2916,0.04471748,-0.3308737,0.4036516,-1.966618,0.09209151,-0.09914596
541.3069,0.04471986,-0.3308285,0.403728,-1.967329,0.08290538,-0.1092683
541.3215,0.0447222,-0.3307838,0.4038197,-1.967955,0.07391527,-0.1191923
541.3366,0.0447222,-0.3307838,0.4038197,-1.967955,0.07391527,-0.1191923
541.3505,0.04472451,-0.3307396,0.404088,-1.970616,0.06518873,-0.1255883
541.366,0.04472678,-0.330696,0.4042888,-1.972563,0.0566152,-0.131859
541.3806,0.04472902,-0.330653,0.4044747,-1.974167,0.0482094,-0.1380067
541.3954,0.04472902,-0.330653,0.4044747,-1.974167,0.0482094,-0.1380067
541.4096,0.04473123,-0.3306104,0.4047662,-1.977669,0.04001958,-0.1407007
541.425,0.04473339,-0.3305683,0.4050014,-1.980373,0.03197318,-0.1433418
541.4397,0.04473339,-0.3305683,0.4050014,-1.980373,0.03197318,-0.1433418
541.4559,0.04473553,-0.3305267,0.4052214,-1.98268,0.02408089,-0.1459311
541.4692,0.04473764,-0.3304856,0.4054419,-1.984786,0.01634667,-0.1484697
541.4841,0.04473972,-0.3304451,0.4057024,-1.988847,0.008780031,-0.1476253
541.4988,0.04473972,-0.3304451,0.4057024,-1.988847,0.008780031,-0.1476253
541.5129,0.04474176,-0.330405,0.4059317,-1.992123,0.001351394,-0.1467974
541.5284,0.04474378,-0.3303654,0.4061521,-1.994997,-0.005935185,-0.1459857
541.5433,0.04474577,-0.3303262,0.406372,-1.997654,-0.01307912,-0.14519
541.5582,0.04474577,-0.3303262,0.406372,-1.997654,-0.01307912,-0.14519
541.5724,0.04474772,-0.3302876,0.406566,-2.002247,-0.02010341,-0.1410766
541.5881,0.04474964,-0.3302494,0.406752,-2.006034,-0.02699364,-0.1370438
541.6029,0.04475153,-0.3302116,0.4069367,-2.009396,-0.03375102,-0.1330902
541.6177,0.04475153,-0.3302116,0.4069367,-2.009396,-0.03375102,-0.1330902
541.6334,0.04475339,-0.3301744,0.4070495,-2.014581,-0.0404228,-0.1258808
541.6476,0.04475521,-0.3301375,0.4071717,-2.018895,-0.04696204,-0.1188128
541.6621,0.04475701,-0.3301011,0.4072987,-2.022742,-0.0533739,-0.1118834
541.6781,0.04475701,-0.3301011,0.4072987,-2.022742,-0.0533739,-0.1118834
541.6923,0.04475879,-0.3300652,0.4074274,-2.026319,-0.05966311,-0.1050898
541.7069,0.04476053,-0.3300296,0.4074276,-2.031782,-0.06590945,-0.09509625
541.7215,0.04476224,-0.3299945,0.4074611,-2.036398,-0.07202208,-0.08529865
541.7365,0.04476224,-0.3299945,0.4074611,-2.036398,-0.07202208,-0.08529865
541.7505,0.04476392,-0.3299598,0.4075094,-2.040548,-0.07801135,-0.07569316
541.7662,0.04476558,-0.3299256,0.4075632,-2.044422,-0.08388492,-0.06627603
541.7811,0.0447672,-0.3298917,0.4074362,-2.050166,-0.08975553,-0.0537103
541.796,0.0447672,-0.3298917,0.4074362,-2.050166,-0.08975553,-0.0537103
541.8102,0.0447688,-0.3298583,0.4073669,-2.05505,-0.09548818,-0.04139098
541.8257,0.04477037,-0.3298252,0.4073234,-2.059454,-0.1010989,-0.02931322
541.8405,0.04477192,-0.3297926,0.4072908,-2.063567,-0.1065986,-0.01747229
541.8556,0.04477192,-0.3297926,0.4072908,-2.063567,-0.1065986,-0.01747229
541.8696,0.04477344,-0.3297603,0.4070279,-2.069531,-0.1121335,-0.0025303
541.8851,0.04477493,-0.3297285,0.4068477,-2.074622,-0.1175237,0.01211871
541.9007,0.04477639,-0.329697,0.4067049,-2.07922,-0.1227917,0.02648048
541.9146,0.04477639,-0.329697,0.4067049,-2.07922,-0.1227917,0.02648048
541.9289,0.04477783,-0.3296659,0.4065142,-2.084,-0.1279907,0.04135273
541.9444,0.04477924,-0.3296352,0.4063549,-2.088396,-0.1330758,0.05593339
541.9592,0.04477924,-0.3296352,0.4063549,-2.088396,-0.1330758,0.05593339
541.9733,0.04478064,-0.3296049,0.4062109,-2.092541,-0.1380568,0.07022813
541.9901,0.04478201,-0.3295749,0.4060754,-2.096501,-0.1429394,0.08424258
542.004,0.04478336,-0.3295453,0.4059459,-2.100308,-0.1477268,0.09798224
542.019,0.04478336,-0.3295453,0.4059459,-2.100308,-0.1477268,0.09798224
542.0333,0.04478469,-0.3295161,0.4058217,-2.10398,-0.1524208,0.1114525
542.0486,0.044786,-0.3294872,0.4057028,-2.107529,-0.1570229,0.1246586
542.0634,0.04478728,-0.3294587,0.4055896,-2.11096,-0.1615344,0.1376058
542.0788,0.04478728,-0.3294587,0.4055896,-2.11096,-0.1615344,0.1376058
542.0929,0.04478855,-0.3294305,0.4055694,-2.113794,-0.1659023,0.1495071
542.1092,0.04478981,-0.3294027,0.405523,-2.116689,-0.1702005,0.1611749
542.1241,0.04479104,-0.3293751,0.4054691,-2.119565,-0.1744207,0.172614
542.1381,0.04479104,-0.3293751,0.4054691,-2.119565,-0.1744207,0.172614
542.1522,0.04479226,-0.329348,0.4058125,-2.120349,-0.1783112,0.1804956
542.1678,0.04479348,-0.3293211,0.4060079,-2.121773,-0.1822068,0.1882226
542.1823,0.04479467,-0.3292946,0.4061426,-2.123475,-0.1860628,0.195798
542.1974,0.04479467,-0.3292946,0.4061426,-2.123475,-0.1860628,0.195798
542.2116,0.04479586,-0.3292684,0.4062555,-2.125279,-0.1898577,0.203225
542.2272,0.04479703,-0.3292425,0.4067952,-2.125074,-0.1933115,0.207173
542.2421,0.04479819,-0.329217,0.407167,-2.125561,-0.1967895,0.2110436
542.2568,0.04479819,-0.329217,0.407167,-2.125561,-0.1967895,0.2110436
542.2711,0.04479934,-0.3291917,0.4074689,-2.126366,-0.2002407,0.2148384
542.2867,0.04480047,-0.3291668,0.4077438,-2.127308,-0.2036409,0.2185587
542.3013,0.0448016,-0.3291421,0.4084735,-2.126279,-0.2066897,0.2188728
542.3161,0.0448016,-0.3291421,0.4084735,-2.126279,-0.2066897,0.2188728
542.3301,0.04480272,-0.3291178,0.409018,-2.125969,-0.2097795,0.2191807
542.3467,0.04480382,-0.3290937,0.4094833,-2.126005,-0.2128545,0.2194826
542.3607,0.04480492,-0.3290699,0.4099158,-2.126207,-0.2158886,0.2197786
542.3755,0.04480492,-0.3290699,0.4099158,-2.126207,-0.2158886,0.2197786
542.3895,0.044806,-0.3290465,0.410826,-2.124468,-0.2185644,0.2167355
542.4051,0.04480708,-0.3290232,0.4115345,-2.123473,-0.2212969,0.213752
542.4199,0.04480708,-0.3290232,0.4115345,-2.123473,-0.2212969,0.213752
542.434,0.04480815,-0.3290003,0.4121546,-2.122848,-0.2240263,0.2108271
542.4496,0.04480922,-0.3289777,0.4132436,-2.120399,-0.2264094,0.2046262
542.4646,0.04481028,-0.3289553,0.4141094,-2.118758,-0.2288672,0.1985469
542.4793,0.04481028,-0.3289553,0.4141094,-2.118758,-0.2288672,0.1985469
542.4935,0.04481133,-0.3289332,0.4148754,-2.117531,-0.231334,0.1925868
542.5091,0.04481237,-0.3289113,0.4155952,-2.116525,-0.2337785,0.1867436
542.5243,0.04481341,-0.3288897,0.4168198,-2.113637,-0.2358622,0.1776817
542.5389,0.04481341,-0.3288897,0.4168198,-2.113637,-0.2358622,0.1776817
542.553,0.04481444,-0.3288684,0.4178158,-2.111536,-0.2380272,0.1687975
542.5696,0.04481546,-0.3288473,0.418707,-2.109848,-0.2402084,0.1600875
542.5831,0.04481647,-0.3288265,0.4195472,-2.10839,-0.2423746,0.1515482
542.5982,0.04481647,-0.3288265,0.4195472,-2.10839,-0.2423746,0.1515482
542.6122,0.04481748,-0.3288059,0.4209045,-2.105069,-0.2441799,0.1398432
542.628,0.04481849,-0.3287855,0.4220207,-2.102548,-0.2460771,0.1283677
542.6426,0.04481949,-0.3287654,0.4230239,-2.100457,-0.2479994,0.1171172
542.6574,0.04481949,-0.3287654,0.4230239,-2.100457,-0.2479994,0.1171172
542.6719,0.04482049,-0.3287455,0.4245251,-2.096611,-0.2495793,0.1027541
542.6874,0.04482148,-0.3287259,0.4257655,-2.093626,-0.2512656,0.08867256
542.7023,0.04482247,-0.3287065,0.4268817,-2.091108,-0.2529872,0.07486714
542.717,0.04482247,-0.3287065,0.4268817,-2.091108,-0.2529872,0.07486714
542.7312,0.04482345,-0.3286873,0.4279337,-2.088864,-0.2547087,0.06133242
542.7482,0.0440965,-0.3286707,0.4271441,-2.093403,-0.2575447,0.059737
542.7681,0.04291466,-0.3286554,0.4271831,-2.095497,-0.2598889,0.05817306
542.7762,0.04291466,-0.3286554,0.4271831,-2.095497,-0.2598889,0.05817306
542.7914,0.04145158,-0.3286406,0.4275603,-2.096452,-0.2619768,0.05663988
542.8059,0.03981772,-0.328626,0.4280617,-2.096888,-0.2639342,0.05513678
542.8207,0.03808326,-0.3286113,0.428601,-2.097095,-0.2658171,0.05366315
542.8356,0.03808326,-0.3286113,0.428601,-2.097095,-0.2658171,0.05366315
542.8497,0.03629277,-0.3285967,0.4291456,-2.097209,-0.2676494,0.05221841
542.865,0.03447455,-0.328582,0.4296845,-2.09729,-0.269441,0.05080198
542.8801,0.03264648,-0.3285673,0.4302145,-2.097365,-0.271196,0.04941333
542.895,0.03264648,-0.3285673,0.4302145,-2.097365,-0.271196,0.04941333
542.9092,0.03081989,-0.3285526,0.4307355,-2.097445,-0.2729163,0.0480519
542.9249,0.02900186,-0.328538,0.431248,-2.097535,-0.2746028,0.04671716
542.9397,0.02900186,-0.328538,0.431248,-2.097535,-0.2746028,0.04671716
542.9539,0.02719684,-0.3285235,0.4317528,-2.097634,-0.2762561,0.04540859
542.9698,0.02540756,-0.3285091,0.4322504,-2.097744,-0.2778767,0.04412568
542.9841,0.02363568,-0.3284948,0.4327412,-2.097862,-0.2794652,0.04286792
542.9989,0.02363568,-0.3284948,0.4327412,-2.097862,-0.2794652,0.04286792
543.0142,0.02188216,-0.3284806,0.4332255,-2.097991,-0.2810221,0.04163483
