JMolnar6/NonAnthroHands_User_Study/HandsLoggerWithURDF/tempdata/PID 0 (test)/files/Reachy_PID0_JointMotion_gesture_13_5.csv
Time,r_shoulder,r_shoulder_x,r_upper_arm,r_forearm,r_wrist,r_wrist2hand,
1200.313,-0.2573867,-0.3513983,0.1116927,-0.5543012,0.06725643,0.1561196
1200.329,-0.2574658,-0.3511698,0.1121219,-0.5541589,0.06722265,0.1560887
1200.342,-0.257544,-0.350944,0.1125466,-0.5540192,0.06718785,0.1560584
1200.357,-0.257544,-0.350944,0.1125466,-0.5540192,0.06718785,0.1560584
1200.371,-0.2576213,-0.3507209,0.112967,-0.5538821,0.06715204,0.1560286
1200.386,-0.2576978,-0.3505004,0.1133832,-0.5537475,0.06711527,0.1559995
1200.401,-0.2577733,-0.3502826,0.113795,-0.5536155,0.06707758,0.155971
1200.416,-0.2577733,-0.3502826,0.113795,-0.5536155,0.06707758,0.155971
1200.43,-0.257848,-0.3500674,0.1142027,-0.5534859,0.067039,0.155943
1200.445,-0.2579218,-0.3498547,0.1146062,-0.5533587,0.06699955,0.1559155
1200.46,-0.2579948,-0.3496446,0.1150055,-0.5532339,0.06695929,0.1558886
1200.475,-0.2579948,-0.3496446,0.1150055,-0.5532339,0.06695929,0.1558886
1200.489,-0.2580669,-0.3494369,0.1154007,-0.5531114,0.06691823,0.1558622
1200.505,-0.2581382,-0.3492318,0.1157919,-0.5529913,0.06687641,0.1558364
1200.519,-0.2581382,-0.3492318,0.1157919,-0.5529913,0.06687641,0.1558364
1200.533,-0.2582087,-0.3490291,0.116179,-0.5528734,0.06683386,0.155811
1200.549,-0.2582783,-0.3488288,0.116562,-0.5527577,0.06679061,0.1557861
1200.563,-0.2583472,-0.3486309,0.1169412,-0.5526441,0.06674668,0.1557618
1200.579,-0.2583472,-0.3486309,0.1169412,-0.5526441,0.06674668,0.1557618
1200.593,-0.2584153,-0.3484353,0.1173163,-0.5525327,0.06670211,0.1557379
1200.607,-0.2584826,-0.3482421,0.1176876,-0.5524234,0.06665692,0.1557144
1200.622,-0.2585491,-0.3480512,0.118055,-0.5523162,0.06661114,0.1556914
1200.637,-0.2585491,-0.3480512,0.118055,-0.5523162,0.06661114,0.1556914
1200.651,-0.2586148,-0.3478626,0.1184186,-0.552211,0.0665648,0.1556689
1200.666,-0.2586798,-0.3476762,0.1187783,-0.5521078,0.06651792,0.1556468
1200.681,-0.2587441,-0.3474921,0.1191343,-0.5520065,0.06647053,0.1556252
1200.696,-0.2587441,-0.3474921,0.1191343,-0.5520065,0.06647053,0.1556252
1200.71,-0.2588076,-0.3473101,0.1194866,-0.5519071,0.06642265,0.1556039
1200.725,-0.2588704,-0.3471303,0.1198352,-0.5518096,0.0663743,0.1555831
1200.74,-0.2588704,-0.3471303,0.1198352,-0.5518096,0.0663743,0.1555831
1200.754,-0.2589324,-0.3469526,0.12018,-0.5517139,0.06632552,0.1555627
1200.769,-0.2589938,-0.3467771,0.1205213,-0.5516201,0.06627631,0.1555427
1200.784,-0.2590544,-0.3466037,0.1208589,-0.5515281,0.06622671,0.1555231
1200.799,-0.2590544,-0.3466037,0.1208589,-0.5515281,0.06622671,0.1555231
1200.813,-0.2591144,-0.3464323,0.121193,-0.5514378,0.06617673,0.1555039
1200.828,-0.2591736,-0.346263,0.1215235,-0.5513492,0.06612641,0.155485
1200.844,-0.2592322,-0.3460957,0.1218505,-0.5512623,0.06607575,0.1554665
1200.857,-0.2592322,-0.3460957,0.1218505,-0.5512623,0.06607575,0.1554665
1200.871,-0.2592901,-0.3459303,0.1221741,-0.5511771,0.06602477,0.1554484
1200.887,-0.2593473,-0.345767,0.1224942,-0.5510935,0.06597351,0.1554306
1200.901,-0.2594039,-0.3456056,0.1228108,-0.5510114,0.06592196,0.1554132
1200.916,-0.2594039,-0.3456056,0.1228108,-0.5510114,0.06592196,0.1554132
1200.93,-0.2594598,-0.3454461,0.1231241,-0.550931,0.06587017,0.1553961
1200.946,-0.2595151,-0.3452885,0.1234341,-0.5508521,0.06581813,0.1553794
1200.96,-0.2595697,-0.3451329,0.1237407,-0.5507747,0.06576588,0.155363
1200.975,-0.2595697,-0.3451329,0.1237407,-0.5507747,0.06576588,0.155363
1200.989,-0.2596238,-0.344979,0.124044,-0.5506988,0.06571342,0.1553469
1201.005,-0.2596772,-0.344827,0.1243441,-0.5506244,0.06566077,0.1553311
1201.02,-0.2596772,-0.344827,0.1243441,-0.5506244,0.06566077,0.1553311
1201.033,-0.25973,-0.3446768,0.1246409,-0.5505514,0.06560796,0.1553156
1201.049,-0.2597821,-0.3445284,0.1249345,-0.5504798,0.06555499,0.1553005
1201.064,-0.2598337,-0.3443818,0.125225,-0.5504096,0.06550188,0.1552856
1201.079,-0.2598337,-0.3443818,0.125225,-0.5504096,0.06550188,0.1552856
1201.094,-0.2598847,-0.3442369,0.1255123,-0.5503407,0.06544864,0.155271
1201.108,-0.2599351,-0.3440938,0.1257965,-0.5502732,0.0653953,0.1552567
1201.122,-0.2599849,-0.3439524,0.1260777,-0.550207,0.06534186,0.1552427
1201.137,-0.2599849,-0.3439524,0.1260777,-0.550207,0.06534186,0.1552427
1201.151,-0.2600342,-0.3438126,0.1263557,-0.550142,0.06528834,0.1552289
1201.166,-0.2600828,-0.3436745,0.1266308,-0.5500784,0.06523475,0.1552155
1201.181,-0.260131,-0.343538,0.1269028,-0.5500159,0.06518111,0.1552022
1201.196,-0.260131,-0.343538,0.1269028,-0.5500159,0.06518111,0.1552022
1201.21,-0.2601785,-0.3434032,0.1271719,-0.5499547,0.06512742,0.1551893
1201.225,-0.2602256,-0.34327,0.127438,-0.5498947,0.0650737,0.1551766
1201.24,-0.2602721,-0.3431384,0.1277013,-0.5498359,0.06501997,0.1551641
1201.255,-0.2602721,-0.3431384,0.1277013,-0.5498359,0.06501997,0.1551641
1201.269,-0.260318,-0.3430083,0.1279616,-0.5497782,0.06496622,0.1551519
1201.285,-0.2603634,-0.3428798,0.1282191,-0.5497216,0.06491249,0.15514
1201.299,-0.2603634,-0.3428798,0.1282191,-0.5497216,0.06491249,0.15514
1201.313,-0.2604083,-0.3427528,0.1284737,-0.5496662,0.06485877,0.1551282
1201.33,-0.2604849,-0.3425227,0.1283403,-0.5490767,0.06547479,0.1548025
1201.345,-0.2605813,-0.3422301,0.1281704,-0.5483689,0.06636254,0.1544832
1201.359,-0.2605813,-0.3422301,0.1281704,-0.5483689,0.06636254,0.1544832
1201.373,-0.2606896,-0.3419001,0.1280809,-0.5476148,0.06732484,0.1541703
1201.388,-0.260805,-0.3415485,0.1280878,-0.5468476,0.06828693,0.1538635
1201.402,-0.2608921,-0.3412899,0.1285635,-0.5466182,0.06855402,0.153877
1201.417,-0.2608921,-0.3412899,0.1285635,-0.5466182,0.06855402,0.153877
1201.431,-0.260961,-0.3410897,0.1291335,-0.5465176,0.06851997,0.1538901
1201.446,-0.2610183,-0.3409266,0.1296618,-0.5464765,0.06838316,0.1539029
1201.461,-0.2610679,-0.3407869,0.1301192,-0.5464625,0.0682211,0.1539154
1201.476,-0.2610679,-0.3407869,0.1301192,-0.5464625,0.0682211,0.1539154
1201.49,-0.2610803,-0.3407671,0.1309005,-0.5469954,0.0673911,0.1542419
1201.505,-0.2610704,-0.34082,0.1316646,-0.5476516,0.06630217,0.1545618
1201.52,-0.2610704,-0.34082,0.1316646,-0.5476516,0.06630217,0.1545618
1201.534,-0.2610466,-0.3409174,0.1323088,-0.5483568,0.06514958,0.1548755
1201.55,-0.2609819,-0.3411467,0.133214,-0.5496116,0.06333609,0.1554972
1201.565,-0.2608916,-0.3414562,0.1340476,-0.5509842,0.06128406,0.1561067
1201.579,-0.2608916,-0.3414562,0.1340476,-0.5509842,0.06128406,0.1561067
1201.593,-0.2607857,-0.3418139,0.1347181,-0.5523955,0.05919308,0.1567041
1201.609,-0.2606702,-0.3421997,0.1352314,-0.5538089,0.05713445,0.1572898
1201.623,-0.2605171,-0.3427058,0.1359984,-0.5557433,0.05446069,0.1581784
1201.638,-0.2605171,-0.3427058,0.1359984,-0.5557433,0.05446069,0.1581784
1201.652,-0.2603408,-0.3432837,0.1366979,-0.5577756,0.05157188,0.1590494
1201.667,-0.2601508,-0.3439034,0.1372377,-0.5598311,0.0486608,0.1599032
1201.682,-0.2599529,-0.344546,0.1376213,-0.5618755,0.04579643,0.1607404
1201.697,-0.2599529,-0.344546,0.1376213,-0.5618755,0.04579643,0.1607404
1201.712,-0.2597186,-0.3453046,0.1382475,-0.5644283,0.04233241,0.1618754
1201.726,-0.2594624,-0.3461312,0.1387979,-0.567067,0.03866616,0.162988
1201.74,-0.2591935,-0.346996,0.1391799,-0.5697173,0.03499177,0.1640789
1201.755,-0.2591935,-0.346996,0.1391799,-0.5697173,0.03499177,0.1640789
1201.77,-0.2588856,-0.3479852,0.1397581,-0.5728799,0.03071379,0.1654625
1201.785,-0.2585543,-0.3490465,0.1402182,-0.5761231,0.02624529,0.166819
1201.8,-0.2585543,-0.3490465,0.1402182,-0.5761231,0.02624529,0.166819
1201.814,-0.2582099,-0.3501475,0.1404747,-0.5793692,0.02178683,0.1681489
1201.829,-0.2578585,-0.351268,0.1405392,-0.5825825,0.01740852,0.1694527
1201.844,-0.2574721,-0.3525001,0.1407943,-0.5862817,0.01246641,0.1710452
1201.86,-0.2574721,-0.3525001,0.1407943,-0.5862817,0.01246641,0.1710452
1201.874,-0.2570652,-0.3537955,0.1409395,-0.590044,0.007350058,0.1726064
1201.888,-0.2566473,-0.3551239,0.1408881,-0.593796,0.002255615,0.174137
1201.903,-0.2562241,-0.3564668,0.1406485,-0.5975044,-0.002748002,0.1756377
1201.918,-0.2562241,-0.3564668,0.1406485,-0.5975044,-0.002748002,0.1756377
1201.931,-0.2557671,-0.3579171,0.1405845,-0.6016879,-0.008303063,0.1774231
1201.947,-0.2552907,-0.3594272,0.1404036,-0.6059243,-0.01402408,0.1791735
1201.961,-0.2548043,-0.3609671,0.1400193,-0.6101409,-0.01971208,0.1808896
1201.976,-0.2548043,-0.3609671,0.1400193,-0.6101409,-0.01971208,0.1808896
1201.99,-0.2542813,-0.3626232,0.1397583,-0.6148368,-0.02595712,0.1828862
1202.005,-0.2537374,-0.3643433,0.1393379,-0.6195816,-0.03235855,0.1848437
1202.02,-0.2531829,-0.366095,0.138681,-0.6242991,-0.03871015,0.1867628
1202.035,-0.2531829,-0.366095,0.138681,-0.6242991,-0.03871015,0.1867628
1202.049,-0.2526241,-0.3678584,0.1378071,-0.6289553,-0.04494138,0.1886444
1202.065,-0.2520323,-0.3697256,0.137054,-0.6340662,-0.05169313,0.1908032
1202.079,-0.2520323,-0.3697256,0.137054,-0.6340662,-0.05169313,0.1908032
1202.094,-0.2514225,-0.3716483,0.1361557,-0.6392104,-0.0585888,0.1929197
1202.109,-0.250804,-0.3735965,0.1350336,-0.6443163,-0.06542549,0.1949947
1202.125,-0.2501826,-0.3755516,0.1337048,-0.6493522,-0.07213346,0.1970291
1202.138,-0.2501826,-0.3755516,0.1337048,-0.6493522,-0.07213346,0.1970291
1202.152,-0.2495294,-0.3776069,0.132483,-0.6548333,-0.07935288,0.1993377
1202.168,-0.2488592,-0.3797144,0.1311135,-0.6603394,-0.08671062,0.2016012
1202.182,-0.2481811,-0.3818446,0.1295197,-0.6657997,-0.0940001,0.2038203
1202.197,-0.2481811,-0.3818446,0.1295197,-0.6657997,-0.0940001,0.2038203
1202.211,-0.2474685,-0.3840838,0.1279787,-0.6717098,-0.1018082,0.2063099
1202.226,-0.2467372,-0.38638,0.1262502,-0.6776421,-0.1097454,0.2087509
1202.241,-0.2459975,-0.3887007,0.1242699,-0.6835228,-0.1175978,0.2111441
1202.256,-0.2459975,-0.3887007,0.1242699,-0.6835228,-0.1175978,0.2111441
1202.27,-0.2452555,-0.3910262,0.1220672,-0.6893194,-0.1252943,0.2134904
1202.285,-0.2444825,-0.3934488,0.1199234,-0.6955431,-0.1334767,0.2161046
1202.3,-0.2436935,-0.3959202,0.1176152,-0.7017755,-0.1417786,0.2186678
1202.315,-0.2436935,-0.3959202,0.1176152,-0.7017755,-0.1417786,0.2186678
1202.329,-0.2428979,-0.3984103,0.1150764,-0.7079476,-0.1499887,0.2211807
1202.344,-0.2421013,-0.4009008,0.1123334,-0.7140292,-0.1580365,0.2236445
1202.359,-0.2421013,-0.4009008,0.1123334,-0.7140292,-0.1580365,0.2236445
1202.375,-0.2412748,-0.403485,0.1096394,-0.7205293,-0.1665647,0.2263738
1202.389,-0.2404332,-0.4061151,0.1067845,-0.7270318,-0.1752081,0.2290498
1202.403,-0.2395857,-0.4087616,0.1037059,-0.7334687,-0.1837514,0.2316735
1202.418,-0.2395857,-0.4087616,0.1037059,-0.7334687,-0.1837514,0.2316735
1202.432,-0.2387052,-0.4115108,0.1006216,-0.740329,-0.1927832,0.2345596
1202.447,-0.2378081,-0.4143107,0.09734116,-0.7471904,-0.20192,0.2373893
1202.462,-0.2369043,-0.4171292,0.09381627,-0.753982,-0.2109395,0.2401637
1202.476,-0.2369043,-0.4171292,0.09381627,-0.753982,-0.2109395,0.2401637
1202.49,-0.2360002,-0.4199463,0.09008702,-0.7606733,-0.2197709,0.2428836
1202.506,-0.2350667,-0.4228546,0.08636823,-0.7677669,-0.229063,0.2458641
1202.52,-0.2341189,-0.4258057,0.08248465,-0.7748507,-0.2384524,0.2487863
1202.535,-0.2341189,-0.4258057,0.08248465,-0.7748507,-0.2384524,0.2487863
1202.549,-0.2331662,-0.4287699,0.07838529,-0.7818581,-0.2477193,0.2516514
1202.565,-0.2322145,-0.4317287,0.07410618,-0.7887609,-0.2567936,0.2544603
1202.581,-0.2312342,-0.4347756,0.06983078,-0.7960582,-0.2663267,0.2575279
1202.594,-0.2312342,-0.4347756,0.06983078,-0.7960582,-0.2663267,0.2575279
1202.608,-0.2302405,-0.4378628,0.06539916,-0.8033416,-0.275953,0.2605356
1202.624,-0.2292426,-0.4409607,0.06076454,-0.8105454,-0.2854488,0.2634844
1202.639,-0.2292426,-0.4409607,0.06076454,-0.8105454,-0.2854488,0.2634844
1202.653,-0.2282131,-0.444156,0.05607945,-0.8181491,-0.2954113,0.2666892
1202.668,-0.2271686,-0.4473965,0.05120767,-0.8257394,-0.3054542,0.2698314
1202.682,-0.2261192,-0.4506502,0.04611915,-0.833248,-0.3153486,0.2729121
1202.697,-0.2261192,-0.4506502,0.04611915,-0.833248,-0.3153486,0.2729121
1202.711,-0.225071,-0.4538973,0.04086341,-0.8406459,-0.3250259,0.2759324
1202.726,-0.2239947,-0.4572304,0.03558108,-0.848424,-0.3351478,0.2792072
1202.741,-0.2229058,-0.4606012,0.03014857,-0.8561799,-0.3453442,0.282418
1202.755,-0.2229058,-0.4606012,0.03014857,-0.8561799,-0.3453442,0.282418
1202.77,-0.2218135,-0.46398,0.02453222,-0.8638494,-0.3553882,0.285566
1202.785,-0.2207237,-0.4673483,0.01877643,-0.8714056,-0.3652123,0.2886523
1202.8,-0.2207237,-0.4673483,0.01877643,-0.8714056,-0.3652123,0.2886523
1202.814,-0.2196066,-0.4707999,0.01298834,-0.8793349,-0.3754825,0.2919917
1202.829,-0.2184775,-0.4742867,0.007061165,-0.8872399,-0.3858219,0.2952659
1202.844,-0.2173457,-0.4777796,0.000966521,-0.8950571,-0.3960012,0.298476
1202.859,-0.2173457,-0.4777796,0.000966521,-0.8950571,-0.3960012,0.298476
1202.873,-0.2161835,-0.481365,-0.005213872,-0.9032534,-0.4066326,0.3019368
1202.889,-0.2150077,-0.4849908,-0.01155895,-0.9114278,-0.4173173,0.3053302
1202.904,-0.2138284,-0.4886251,-0.01807907,-0.9195142,-0.4278227,0.308657
1202.918,-0.2138284,-0.4886251,-0.01807907,-0.9195142,-0.4278227,0.308657
1202.932,-0.2126518,-0.4922482,-0.02471761,-0.9274846,-0.4380855,0.3119186
1202.948,-0.2114483,-0.4959528,-0.03141421,-0.935815,-0.4487852,0.3154298
1202.962,-0.2102334,-0.4996906,-0.03823767,-0.9441167,-0.4595334,0.3188725
1202.977,-0.2102334,-0.4996906,-0.03823767,-0.9441167,-0.4595334,0.3188725
1202.991,-0.2090166,-0.5034318,-0.04520255,-0.952327,-0.4700999,0.3222477
1203.006,-0.2078037,-0.5071583,-0.05225807,-0.9604198,-0.4804226,0.3255568
1203.021,-0.2065645,-0.5109636,-0.05937861,-0.9688659,-0.4911861,0.3291146
1203.036,-0.2065645,-0.5109636,-0.05937861,-0.9688659,-0.4911861,0.3291146
1203.05,-0.2053145,-0.5148,-0.06661423,-0.977283,-0.501991,0.3326029
1203.065,-0.2040632,-0.518638,-0.07397334,-0.9856089,-0.5126066,0.3360229
1203.08,-0.2028163,-0.5224599,-0.08140396,-0.9938174,-0.522973,0.3393758
1203.095,-0.2028163,-0.5224599,-0.08140396,-0.9938174,-0.522973,0.3393758
1203.109,-0.2015433,-0.5263592,-0.08891109,-1.002373,-0.5337817,0.3429765
1203.124,-0.20026,-0.5302883,-0.09652337,-1.010901,-0.5446223,0.346507
1203.139,-0.20026,-0.5302883,-0.09652337,-1.010901,-0.5446223,0.346507
1203.154,-0.1989758,-0.5342179,-0.1042418,-1.019338,-0.5552652,0.3499683
1203.169,-0.1976623,-0.5382347,-0.1120879,-1.028129,-0.5663515,0.3536753
1203.183,-0.1963368,-0.5422866,-0.1200579,-1.036897,-0.5774492,0.35731
1203.198,-0.1963368,-0.5422866,-0.1200579,-1.036897,-0.5774492,0.35731
1203.213,-0.1950096,-0.5463417,-0.1281349,-1.045576,-0.5883305,0.3608735
1203.227,-0.1936869,-0.5503805,-0.1362576,-1.054137,-0.5989446,0.364367
1203.242,-0.1923382,-0.5544958,-0.1444822,-1.063034,-0.6099962,0.3681056
1203.257,-0.1923382,-0.5544958,-0.1444822,-1.063034,-0.6099962,0.3681056
1203.271,-0.1909796,-0.5586391,-0.1527961,-1.071902,-0.6210548,0.3717713
1203.286,-0.1896209,-0.5627809,-0.1611862,-1.080679,-0.6318967,0.3753651
1203.301,-0.1882676,-0.5669032,-0.1695978,-1.089337,-0.6424728,0.3788884
1203.316,-0.1882676,-0.5669032,-0.1695978,-1.089337,-0.6424728,0.3788884
1203.33,-0.1868891,-0.5710995,-0.1781222,-1.098324,-0.653491,0.3826562
1203.346,-0.1855011,-0.575322,-0.1867244,-1.107283,-0.6645066,0.3863505
1203.36,-0.1841135,-0.5795416,-0.1953848,-1.116152,-0.6752995,0.3899723
1203.375,-0.1841135,-0.5795416,-0.1953848,-1.116152,-0.6752995,0.3899723
1203.389,-0.1826973,-0.5838448,-0.2042059,-1.125358,-0.6865315,0.3938367
1203.406,-0.1812702,-0.5881796,-0.2131177,-1.134542,-0.6977389,0.3976257
1203.42,-0.1812702,-0.5881796,-0.2131177,-1.134542,-0.6977389,0.3976257
1203.434,-0.1798425,-0.5925141,-0.2220846,-1.143639,-0.708708,0.4013405
1203.449,-0.1784206,-0.5968289,-0.2310464,-1.152617,-0.7194002,0.4049823
1203.463,-0.1769733,-0.6012168,-0.2401489,-1.161913,-0.7305299,0.4088664
1203.478,-0.1769733,-0.6012168,-0.2401489,-1.161913,-0.7305299,0.4088664
1203.492,-0.1755172,-0.6056294,-0.2493111,-1.171183,-0.7416309,0.4126746
1203.508,-0.1740621,-0.6100371,-0.2585011,-1.180363,-0.7524956,0.4164082
1203.522,-0.1726137,-0.6144221,-0.2676649,-1.189423,-0.7630877,0.4200687
1203.537,-0.1726137,-0.6144221,-0.2676649,-1.189423,-0.7630877,0.4200687
1203.551,-0.1711405,-0.6188779,-0.2769836,-1.198794,-0.7741194,0.423971
1203.566,-0.1696589,-0.6233568,-0.2863504,-1.208142,-0.7851124,0.427797
1203.581,-0.1681787,-0.6278295,-0.2957273,-1.2174,-0.7958674,0.4315482
1203.596,-0.1681787,-0.6278295,-0.2957273,-1.2174,-0.7958674,0.4315482
1203.61,-0.1666705,-0.6323828,-0.3053021,-1.226979,-0.8070544,0.4355394
1203.626,-0.1651524,-0.6369644,-0.314932,-1.236541,-0.8181832,0.4394526
1203.64,-0.1651524,-0.6369644,-0.314932,-1.236541,-0.8181832,0.4394526
1203.656,-0.1636349,-0.6415427,-0.3245662,-1.246016,-0.8290636,0.4432891
1203.67,-0.1621242,-0.6460983,-0.3341498,-1.255373,-0.8396684,0.4470504
1203.684,-0.1605888,-0.6507241,-0.3439189,-1.265029,-0.8507025,0.4510516
1203.699,-0.1605888,-0.6507241,-0.3439189,-1.265029,-0.8507025,0.4510516
1203.713,-0.1590454,-0.6553717,-0.3537162,-1.274665,-0.8616753,0.4549745
1203.73,-0.1575041,-0.6600114,-0.3634939,-1.284211,-0.8724055,0.4588206
1203.743,-0.1559706,-0.6646255,-0.3732039,-1.293637,-0.8828675,0.4625914
1203.758,-0.1559706,-0.6646255,-0.3732039,-1.293637,-0.8828675,0.4625914
1203.772,-0.1544128,-0.6693076,-0.383116,-1.303356,-0.8937548,0.4666018
1203.787,-0.1528474,-0.67401,-0.393044,-1.313058,-0.9045744,0.4705339
1203.802,-0.1512846,-0.6787034,-0.4029366,-1.322671,-0.9151552,0.474389
1203.817,-0.1512846,-0.6787034,-0.4029366,-1.322671,-0.9151552,0.474389
1203.831,-0.1496941,-0.6834747,-0.4130684,-1.332587,-0.9261503,0.4784822
1203.846,-0.1480946,-0.6882716,-0.4232183,-1.342494,-0.9370648,0.4824953
1203.861,-0.1464968,-0.6930625,-0.4333259,-1.352314,-0.947737,0.4864299
1203.876,-0.1464968,-0.6930625,-0.4333259,-1.352314,-0.947737,0.4864299
1203.89,-0.144907,-0.6978279,-0.4433451,-1.362014,-0.9581464,0.4902874
1203.906,-0.1432927,-0.702661,-0.4535983,-1.371996,-0.9689594,0.4943829
1203.921,-0.1416714,-0.7075133,-0.4638461,-1.381964,-0.9796922,0.4983984
1203.935,-0.1416714,-0.7075133,-0.4638461,-1.381964,-0.9796922,0.4983984
1203.949,-0.1400532,-0.7123551,-0.4740324,-1.391843,-0.9901925,0.5023353
1203.964,-0.1384439,-0.7171689,-0.4841167,-1.4016,-1.00044,0.5061949
1203.979,-0.1384439,-0.7171689,-0.4841167,-1.4016,-1.00044,0.5061949
1203.992,-0.1368104,-0.7220483,-0.4944519,-1.411634,-1.011078,0.5102928
1204.008,-0.1351704,-0.7269454,-0.5047698,-1.421655,-1.021637,0.5143105
1204.022,-0.1335338,-0.7318311,-0.5150132,-1.431589,-1.031973,0.5182495
1204.037,-0.1335338,-0.7318311,-0.5150132,-1.431589,-1.031973,0.5182495
1204.051,-0.1318699,-0.7367922,-0.5255377,-1.44181,-1.042687,0.5224251
1204.067,-0.1301977,-0.7417766,-0.5360445,-1.452027,-1.053318,0.526519
1204.082,-0.1285284,-0.7467524,-0.5464706,-1.462157,-1.063728,0.5305328
1204.097,-0.1285284,-0.7467524,-0.5464706,-1.462157,-1.063728,0.5305328
1204.111,-0.1268682,-0.7517006,-0.5567786,-1.472165,-1.073898,0.5344679
1204.126,-0.1252206,-0.7566097,-0.5669496,-1.482034,-1.083828,0.538326
1204.141,-0.1235876,-0.761473,-0.5769753,-1.491759,-1.093524,0.5421084
1204.156,-0.1235876,-0.761473,-0.5769753,-1.491759,-1.093524,0.5421084
1204.171,-0.1219703,-0.7662866,-0.586852,-1.501336,-1.102992,0.5458167
1204.185,-0.1203692,-0.7710483,-0.5965787,-1.510768,-1.11224,0.5494524
1204.2,-0.1203692,-0.7710483,-0.5965787,-1.510768,-1.11224,0.5494524
1204.214,-0.1188218,-0.7756527,-0.6057186,-1.519653,-1.120706,0.552703
1204.229,-0.1173118,-0.7801411,-0.6146057,-1.528256,-1.128805,0.5558897
1204.244,-0.11583,-0.7845391,-0.623297,-1.536659,-1.136672,0.559014
1204.259,-0.11583,-0.7845391,-0.623297,-1.536659,-1.136672,0.559014
1204.273,-0.1144084,-0.788758,-0.6313739,-1.544502,-1.1438,0.5617632
1204.288,-0.1130276,-0.7928493,-0.6392009,-1.55206,-1.150587,0.5644584
1204.303,-0.1116762,-0.7968449,-0.6468427,-1.559427,-1.157171,0.5671008
1204.318,-0.1116762,-0.7968449,-0.6468427,-1.559427,-1.157171,0.5671008
1204.332,-0.1103477,-0.8007644,-0.6543322,-1.566645,-1.16359,0.5696913
1204.348,-0.1090762,-0.8045156,-0.6612236,-1.573339,-1.169336,0.5719172
1204.362,-0.107843,-0.8081478,-0.6678905,-1.57977,-1.174778,0.5740994
1204.377,-0.107843,-0.8081478,-0.6678905,-1.57977,-1.174778,0.5740994
1204.391,-0.1066373,-0.8116914,-0.6743947,-1.586029,-1.180046,0.5762388
1204.408,-0.105453,-0.8151652,-0.6807662,-1.592156,-1.185179,0.5783362
1204.422,-0.1043243,-0.8184765,-0.6865476,-1.597781,-1.189689,0.5800786
1204.436,-0.1043243,-0.8184765,-0.6865476,-1.597781,-1.189689,0.5800786
1204.45,-0.1032326,-0.8216742,-0.6921237,-1.603156,-1.193921,0.5817868
1204.465,-0.1021672,-0.8247883,-0.6975566,-1.608375,-1.198003,0.5834614
1204.48,-0.1021672,-0.8247883,-0.6975566,-1.608375,-1.198003,0.5834614
1204.494,-0.10116,-0.8277333,-0.702397,-1.613087,-1.20148,0.5847893
1204.509,-0.1001909,-0.830562,-0.7070433,-1.617555,-1.204696,0.5860912
1204.524,-0.09924816,-0.8333072,-0.7115607,-1.621876,-1.207779,0.5873674
1204.539,-0.09924816,-0.8333072,-0.7115607,-1.621876,-1.207779,0.5873674
1204.553,-0.09832506,-0.8359892,-0.7159789,-1.626094,-1.210772,0.5886186
1204.569,-0.0974559,-0.8385161,-0.7198278,-1.629839,-1.21321,0.5895314
1204.583,-0.09662192,-0.8409372,-0.7235053,-1.633362,-1.215413,0.5904261
1204.598,-0.09662192,-0.8409372,-0.7235053,-1.633362,-1.215413,0.5904261
1204.612,-0.09581216,-0.8432828,-0.7270744,-1.636754,-1.217505,0.5913033
1204.628,-0.09502023,-0.8455719,-0.7305626,-1.64006,-1.219527,0.5921634
1204.642,-0.09428082,-0.8477116,-0.7334939,-1.64291,-1.221023,0.5926926
1204.658,-0.09428082,-0.8477116,-0.7334939,-1.64291,-1.221023,0.5926926
1204.672,-0.09357531,-0.8497506,-0.7362709,-1.645549,-1.222301,0.5932113
1204.687,-0.09289277,-0.8517189,-0.7389565,-1.648072,-1.223485,0.5937198
1204.701,-0.09222683,-0.8536351,-0.7415777,-1.650522,-1.224617,0.5942184
1204.716,-0.09222683,-0.8536351,-0.7415777,-1.650522,-1.224617,0.5942184
1204.73,-0.0916123,-0.8554065,-0.7436545,-1.652529,-1.225244,0.5943933
1204.745,-0.09103055,-0.8570812,-0.7455931,-1.654338,-1.22567,0.5945646
1204.76,-0.09103055,-0.8570812,-0.7455931,-1.654338,-1.22567,0.5945646
1204.774,-0.09047066,-0.8586894,-0.7474563,-1.656044,-1.226015,0.5947326
1204.79,-0.08996487,-0.860145,-0.748777,-1.6573,-1.225854,0.5945833
1204.804,-0.08949303,-0.8615008,-0.7499696,-1.658361,-1.225499,0.5944368
1204.819,-0.08949303,-0.8615008,-0.7499696,-1.658361,-1.225499,0.5944368
1204.833,-0.08904328,-0.8627892,-0.7510994,-1.659325,-1.225074,0.5942932
1204.849,-0.08860863,-0.8640305,-0.7521936,-1.660237,-1.224624,0.5941525
1204.864,-0.0882237,-0.8651329,-0.7527686,-1.66073,-1.223698,0.5937004
1204.878,-0.0882237,-0.8651329,-0.7527686,-1.66073,-1.223698,0.5937004
1204.892,-0.08786972,-0.8661451,-0.7532343,-1.661047,-1.222598,0.5932572
1204.909,-0.08753562,-0.8670974,-0.7536531,-1.661281,-1.221444,0.5928226
1204.922,-0.08721482,-0.8680086,-0.7540507,-1.661477,-1.22028,0.5923966
1204.937,-0.08721482,-0.8680086,-0.7540507,-1.661477,-1.22028,0.5923966
1204.951,-0.08694224,-0.868786,-0.7539421,-1.661266,-1.218648,0.5916649
1204.967,-0.08669933,-0.8694776,-0.7537376,-1.660889,-1.216856,0.5909475
1204.981,-0.08647507,-0.8701134,-0.7534996,-1.660442,-1.215021,0.5902442
1204.996,-0.08647507,-0.8701134,-0.7534996,-1.660442,-1.215021,0.5902442
1205.01,-0.0863018,-0.8706076,-0.7527579,-1.659577,-1.212709,0.5892407
1205.026,-0.08615945,-0.8710123,-0.7519291,-1.658549,-1.21024,0.5882568
1205.04,-0.08603607,-0.87136,-0.7510776,-1.657454,-1.207736,0.5872921
1205.055,-0.08603607,-0.87136,-0.7510776,-1.657454,-1.207736,0.5872921
1205.069,-0.08592455,-0.8716711,-0.7502289,-1.65634,-1.205244,0.5863464
1205.085,-0.0858595,-0.8718538,-0.7488992,-1.654836,-1.202293,0.5851052
1205.1,-0.0858595,-0.8718538,-0.7488992,-1.654836,-1.202293,0.5851052
1205.114,-0.08582231,-0.8719564,-0.7474984,-1.653186,-1.199203,0.5838884
1205.129,-0.08580185,-0.8720092,-0.7460877,-1.651484,-1.196095,0.5826953
1205.144,-0.08579145,-0.8720309,-0.7446914,-1.649773,-1.193009,0.5815256
1205.16,-0.08579145,-0.8720309,-0.7446914,-1.649773,-1.193009,0.5815256
1205.174,-0.08582433,-0.8719302,-0.7428275,-1.647682,-1.189463,0.580065
1205.188,-0.08588279,-0.8717545,-0.7409037,-1.645455,-1.185792,0.5786328
1205.203,-0.08595615,-0.8715332,-0.7389805,-1.643184,-1.182112,0.5772287
1205.217,-0.08595615,-0.8715332,-0.7389805,-1.643184,-1.182112,0.5772287
1205.231,-0.08607688,-0.8711803,-0.7365914,-1.640523,-1.177956,0.5755383
1205.247,-0.08622503,-0.8707478,-0.7341493,-1.637725,-1.173677,0.5738809
1205.261,-0.08638864,-0.8702682,-0.7317168,-1.634889,-1.169398,0.5722559
1205.276,-0.08638864,-0.8702682,-0.7317168,-1.634889,-1.169398,0.5722559
1205.291,-0.08656055,-0.8697616,-0.7293181,-1.632059,-1.16516,0.5706628
1205.306,-0.08677536,-0.8691363,-0.7264763,-1.628863,-1.160456,0.568787
1205.321,-0.08701434,-0.8684407,-0.7235948,-1.625548,-1.155647,0.5669479
1205.335,-0.08701434,-0.8684407,-0.7235948,-1.625548,-1.155647,0.5669479
1205.35,-0.08726633,-0.8677048,-0.720733,-1.622207,-1.150851,0.5651449
1205.365,-0.08752467,-0.8669475,-0.7179139,-1.618881,-1.146107,0.5633771
1205.38,-0.08782428,-0.8660758,-0.7146648,-1.615197,-1.14089,0.5613302
1205.394,-0.08782428,-0.8660758,-0.7146648,-1.615197,-1.14089,0.5613302
1205.411,-0.08814655,-0.8651378,-0.7113844,-1.611403,-1.135579,0.5593233
1205.424,-0.08848047,-0.864163,-0.7081313,-1.60759,-1.130292,0.5573557
1205.438,-0.08848047,-0.864163,-0.7081313,-1.60759,-1.130292,0.5573557
1205.453,-0.08885826,-0.8630657,-0.7044512,-1.603406,-1.124514,0.5551128
1205.468,-0.08925978,-0.8618979,-0.7007448,-1.599111,-1.118647,0.5529138
1205.483,-0.08967309,-0.8606921,-0.6970724,-1.594801,-1.112812,0.5507578
1205.497,-0.08967309,-0.8606921,-0.6970724,-1.594801,-1.112812,0.5507578
1205.511,-0.09009118,-0.8594682,-0.6934578,-1.590519,-1.107046,0.5486441
1205.527,-0.0905486,-0.8581343,-0.6894399,-1.585889,-1.100791,0.546258
1205.541,-0.09102661,-0.8567388,-0.6854062,-1.581166,-1.094463,0.5439186
1205.556,-0.09102661,-0.8567388,-0.6854062,-1.581166,-1.094463,0.5439186
1205.57,-0.09151415,-0.8553118,-0.6814138,-1.576438,-1.088182,0.5416249
1205.586,-0.09200473,-0.8538717,-0.6774856,-1.571747,-1.081979,0.5393762
1205.6,-0.09253319,-0.8523256,-0.6731687,-1.566713,-1.075275,0.5368578
1205.615,-0.09253319,-0.8523256,-0.6731687,-1.566713,-1.075275,0.5368578
1205.629,-0.09308094,-0.8507214,-0.6688413,-1.561594,-1.068511,0.5343886
1205.645,-0.09363709,-0.8490888,-0.66456,-1.556478,-1.061803,0.5319678
1205.661,-0.09419526,-0.847446,-0.6603477,-1.551404,-1.055184,0.5295944
1205.675,-0.09419526,-0.847446,-0.6603477,-1.551404,-1.055184,0.5295944
1205.688,-0.09479026,-0.8456998,-0.6557619,-1.545991,-1.048051,0.5269537
1205.704,-0.09540355,-0.8438981,-0.6511697,-1.540501,-1.040867,0.5243647
1205.718,-0.09540355,-0.8438981,-0.6511697,-1.540501,-1.040867,0.5243647
1205.732,-0.0960243,-0.8420703,-0.6466274,-1.535019,-1.033752,0.5218263
1205.749,-0.0966846,-0.8401304,-0.6417155,-1.529184,-1.026105,0.5190239
1205.762,-0.09736439,-0.8381304,-0.6367982,-1.523269,-1.018414,0.5162763
1205.777,-0.09736439,-0.8381304,-0.6367982,-1.523269,-1.018414,0.5162763
1205.791,-0.09805195,-0.8361026,-0.6319342,-1.517365,-1.010802,0.5135825
1205.807,-0.0987405,-0.8340668,-0.6271487,-1.511514,-1.003295,0.5109414
1205.821,-0.09946436,-0.8319307,-0.6220217,-1.50533,-0.9952526,0.5080384
1205.836,-0.09946436,-0.8319307,-0.6220217,-1.50533,-0.9952526,0.5080384
1205.85,-0.1002049,-0.8297428,-0.616896,-1.499084,-0.9871793,0.5051921
1205.866,-0.1009513,-0.8275329,-0.6118274,-1.492858,-0.9791973,0.5024015
1205.88,-0.1016973,-0.8253195,-0.6068407,-1.486693,-0.9713317,0.4996656
1205.895,-0.1016973,-0.8253195,-0.6068407,-1.486693,-0.9713317,0.4996656
1205.911,-0.1024774,-0.8230093,-0.601531,-1.480199,-0.9629174,0.4966696
1205.925,-0.1032731,-0.8206502,-0.5962235,-1.473649,-0.9544811,0.4937321
1205.939,-0.1032731,-0.8206502,-0.5962235,-1.473649,-0.9544811,0.4937321
1205.953,-0.1040738,-0.8182717,-0.5909739,-1.467125,-0.9461476,0.4908521
1205.969,-0.1049113,-0.8157875,-0.5854056,-1.460256,-0.9372532,0.4877149
1205.983,-0.1057657,-0.8132498,-0.5798371,-1.45333,-0.9283432,0.4846389
1205.998,-0.1057657,-0.8132498,-0.5798371,-1.45333,-0.9283432,0.4846389
1206.012,-0.1066255,-0.8106908,-0.5743274,-1.446431,-0.9195465,0.4816231
1206.027,-0.107484,-0.80813,-0.5689048,-1.439602,-0.9108852,0.4786664
1206.042,-0.1083753,-0.8054752,-0.5631968,-1.432446,-0.901657,0.4754539
1206.057,-0.1083753,-0.8054752,-0.5631968,-1.432446,-0.901657,0.4754539
1206.071,-0.1092809,-0.8027747,-0.557493,-1.42525,-0.8924215,0.4723042
1206.087,-0.1101901,-0.8000584,-0.5518492,-1.41809,-0.8833115,0.4692162
1206.101,-0.1110969,-0.7973446,-0.546294,-1.411006,-0.8743471,0.4661886
1206.116,-0.1110969,-0.7973446,-0.546294,-1.411006,-0.8743471,0.4661886
1206.13,-0.1120353,-0.7945397,-0.5404752,-1.403598,-0.8648062,0.4629067
1206.146,-0.1129871,-0.791692,-0.534659,-1.396155,-0.855263,0.4596888
1206.162,-0.1139419,-0.7888306,-0.5289004,-1.388754,-0.8458561,0.456534
1206.176,-0.1139419,-0.7888306,-0.5289004,-1.388754,-0.8458561,0.456534
1206.189,-0.114931,-0.7858692,-0.5228824,-1.381013,-0.8358681,0.4531272
1206.205,-0.1159349,-0.78286,-0.5168611,-1.373234,-0.8258836,0.449787
1206.219,-0.1159349,-0.78286,-0.5168611,-1.373234,-0.8258836,0.449787
1206.233,-0.1169423,-0.779835,-0.5108956,-1.365498,-0.8160468,0.4465121
1206.249,-0.1179465,-0.7768138,-0.5050196,-1.357844,-0.8063762,0.4433015
1206.263,-0.1189813,-0.7737039,-0.4989237,-1.349868,-0.7961199,0.43984
1206.278,-0.1189813,-0.7737039,-0.4989237,-1.349868,-0.7961199,0.43984
1206.292,-0.1200284,-0.7705537,-0.4928286,-1.34187,-0.7858685,0.436446
1206.308,-0.1210773,-0.767393,-0.486788,-1.333923,-0.7757745,0.4331186
1206.323,-0.1221221,-0.7642399,-0.4808366,-1.326065,-0.7658566,0.4298563
1206.337,-0.1221221,-0.7642399,-0.4808366,-1.326065,-0.7658566,0.4298563
1206.351,-0.1231963,-0.761001,-0.4746906,-1.317883,-0.7553493,0.4263442
1206.367,-0.1242821,-0.7577242,-0.4685421,-1.309687,-0.744847,0.4229007
1206.382,-0.1253692,-0.7544388,-0.4624434,-1.301546,-0.7345112,0.4195246
1206.397,-0.1253692,-0.7544388,-0.4624434,-1.301546,-0.7345112,0.4195246
1206.413,-0.1264885,-0.7510584,-0.4561517,-1.293065,-0.7235906,0.4159009
1206.426,-0.1276208,-0.7476351,-0.4498489,-1.284565,-0.7126804,0.412348
1206.441,-0.128755,-0.7442008,-0.4435909,-1.276122,-0.7019484,0.4088646
1206.456,-0.128755,-0.7442008,-0.4435909,-1.276122,-0.7019484,0.4088646
1206.47,-0.1298846,-0.7407752,-0.4374188,-1.267771,-0.691414,0.4054495
1206.485,-0.1310426,-0.7372655,-0.4311009,-1.259097,-0.6802937,0.4017875
1206.5,-0.1322114,-0.7337202,-0.4247778,-1.250419,-0.6691779,0.3981971
1206.515,-0.1322114,-0.7337202,-0.4247778,-1.250419,-0.6691779,0.3981971
1206.529,-0.1333805,-0.730169,-0.4184971,-1.241805,-0.6582458,0.3946769
1206.545,-0.1345441,-0.72663,-0.4122998,-1.23329,-0.6475199,0.3912258
1206.559,-0.1345441,-0.72663,-0.4122998,-1.23329,-0.6475199,0.3912258
1206.574,-0.1357352,-0.7230095,-0.4059849,-1.224449,-0.6362112,0.3875284
1206.589,-0.1369364,-0.7193556,-0.3996621,-1.21561,-0.6249027,0.3839033
1206.604,-0.1381374,-0.7156976,-0.3933748,-1.20684,-0.6137841,0.3803491
1206.619,-0.1381374,-0.7156976,-0.3933748,-1.20684,-0.6137841,0.3803491
1206.633,-0.1393688,-0.7119488,-0.386967,-1.197725,-0.6020951,0.3765509
1206.649,-0.1406117,-0.7081614,-0.3805399,-1.188608,-0.5904129,0.3728267
1206.663,-0.1418552,-0.7043672,-0.3741407,-1.17956,-0.5789318,0.3691755
1206.678,-0.1418552,-0.7043672,-0.3741407,-1.17956,-0.5789318,0.3691755
1206.692,-0.1430928,-0.7005859,-0.3678175,-1.170614,-0.5676777,0.3655958
1206.707,-0.1443572,-0.6967246,-0.3614292,-1.161339,-0.5558568,0.3617725
1206.722,-0.1456309,-0.6928318,-0.3550325,-1.152075,-0.5440311,0.3580238
1206.737,-0.1456309,-0.6928318,-0.3550325,-1.152075,-0.5440311,0.3580238
1206.751,-0.1469037,-0.6889371,-0.3486618,-1.142888,-0.5324066,0.3543485
1206.767,-0.1481698,-0.6850586,-0.3423634,-1.133808,-0.5210149,0.3507452
1206.781,-0.1494618,-0.6811026,-0.33603,-1.124397,-0.5090646,0.3468988
1206.796,-0.1494618,-0.6811026,-0.33603,-1.124397,-0.5090646,0.3468988
1206.81,-0.1507626,-0.6771169,-0.3296879,-1.115002,-0.4971035,0.3431274
1206.826,-0.152062,-0.673131,-0.3233642,-1.105686,-0.4853461,0.3394299
1206.841,-0.1533545,-0.6691626,-0.3171067,-1.096481,-0.4738281,0.3358049
1206.857,-0.1533545,-0.6691626,-0.3171067,-1.096481,-0.4738281,0.3358049
1206.872,-0.1546366,-0.6652224,-0.3109456,-1.087402,-0.4625432,0.332251
1206.886,-0.1559065,-0.661317,-0.3048952,-1.078457,-0.4514799,0.3287667
1206.9,-0.1559065,-0.661317,-0.3048952,-1.078457,-0.4514799,0.3287667
1206.914,-0.1571632,-0.65745,-0.2989601,-1.06965,-0.4406295,0.3253507
1206.929,-0.1584062,-0.6536237,-0.2931407,-1.060981,-0.4299855,0.3220017
1206.944,-0.1596352,-0.6498392,-0.287435,-1.052449,-0.4195435,0.3187183
1206.959,-0.1596352,-0.6498392,-0.287435,-1.052449,-0.4195435,0.3187183
1206.973,-0.1608502,-0.6460969,-0.2818406,-1.044053,-0.4092995,0.3154992
1206.989,-0.1620512,-0.642397,-0.2763546,-1.035791,-0.3992502,0.3123433
1207.003,-0.1632382,-0.6387394,-0.2709743,-1.027661,-0.3893924,0.3092492
1207.018,-0.1632382,-0.6387394,-0.2709743,-1.027661,-0.3893924,0.3092492
1207.032,-0.1644114,-0.6351239,-0.2656969,-1.019661,-0.379723,0.3062158
1207.048,-0.165571,-0.6315501,-0.2605199,-1.01179,-0.3702388,0.3032418
1207.063,-0.166717,-0.6280177,-0.2554405,-1.004045,-0.3609369,0.3003261
1207.078,-0.166717,-0.6280177,-0.2554405,-1.004045,-0.3609369,0.3003261
1207.092,-0.1678496,-0.6245263,-0.2504564,-0.9964238,-0.3518141,0.2974676
1207.109,-0.168969,-0.6210754,-0.2455651,-0.9889253,-0.3428676,0.2946651
1207.123,-0.1700753,-0.6176646,-0.2407643,-0.9815472,-0.3340943,0.2919176
1207.137,-0.1700753,-0.6176646,-0.2407643,-0.9815472,-0.3340943,0.2919176
1207.151,-0.1711687,-0.6142935,-0.2360517,-0.9742878,-0.3254912,0.2892239
1207.167,-0.1722492,-0.6109617,-0.231425,-0.9671451,-0.3170555,0.286583
1207.182,-0.1733171,-0.6076686,-0.2268821,-0.9601174,-0.3087843,0.2839939
1207.196,-0.1733171,-0.6076686,-0.2268821,-0.9601174,-0.3087843,0.2839939
1207.21,-0.1743726,-0.604414,-0.2224208,-0.9532028,-0.3006747,0.2814556
1207.226,-0.1754157,-0.6011972,-0.2180392,-0.9463996,-0.2927239,0.278967
1207.241,-0.1764465,-0.5980181,-0.2137352,-0.939706,-0.2849292,0.2765272
1207.256,-0.1764465,-0.5980181,-0.2137352,-0.939706,-0.2849292,0.2765272
1207.27,-0.1774654,-0.5948759,-0.2095069,-0.9331205,-0.2772876,0.2741352
1207.286,-0.1784723,-0.5917705,-0.2053523,-0.9266412,-0.2697966,0.2717902
1207.3,-0.1794674,-0.5887014,-0.2012697,-0.9202666,-0.2624535,0.2694911
1207.315,-0.1794674,-0.5887014,-0.2012697,-0.9202666,-0.2624535,0.2694911
1207.329,-0.1804509,-0.5856681,-0.1972572,-0.913995,-0.2552556,0.2672371
1207.346,-0.1814228,-0.5826703,-0.1933131,-0.9078249,-0.2482003,0.2650273
1207.36,-0.1814228,-0.5826703,-0.1933131,-0.9078249,-0.2482003,0.2650273
1207.374,-0.1823834,-0.5797075,-0.1894357,-0.9017546,-0.2412849,0.2628609
1207.389,-0.1833328,-0.5767794,-0.1856233,-0.8957826,-0.2345071,0.2607369
1207.404,-0.1842711,-0.5738855,-0.1818743,-0.8899074,-0.2278642,0.2586545
1207.419,-0.1842711,-0.5738855,-0.1818743,-0.8899074,-0.2278642,0.2586545
1207.433,-0.1851984,-0.5710255,-0.1781872,-0.8841274,-0.2213539,0.256613
1207.448,-0.1861148,-0.568199,-0.1745605,-0.8784413,-0.2149736,0.2546116
1207.463,-0.1870206,-0.5654056,-0.1709925,-0.8728476,-0.2087211,0.2526493
1207.478,-0.1870206,-0.5654056,-0.1709925,-0.8728476,-0.2087211,0.2526493
1207.492,-0.1879157,-0.562645,-0.167482,-0.8673447,-0.2025938,0.2507256
1207.507,-0.1888004,-0.5599167,-0.1640274,-0.8619314,-0.1965896,0.2488396
1207.522,-0.1896747,-0.5572203,-0.1606274,-0.8566062,-0.1907061,0.2469905
1207.537,-0.1896747,-0.5572203,-0.1606274,-0.8566062,-0.1907061,0.2469905
1207.551,-0.1905388,-0.5545557,-0.1572807,-0.8513678,-0.1849412,0.2451777
1207.568,-0.1913929,-0.5519222,-0.153986,-0.8462147,-0.1792925,0.2434005
1207.583,-0.1922369,-0.5493197,-0.150742,-0.8411458,-0.1737579,0.2416581
1207.598,-0.1922369,-0.5493197,-0.150742,-0.8411458,-0.1737579,0.2416581
1207.61,-0.1930711,-0.5467477,-0.1475475,-0.8361595,-0.1683354,0.2399499
1207.626,-0.1938955,-0.5442059,-0.1444013,-0.8312548,-0.1630227,0.2382752
1207.64,-0.1947103,-0.541694,-0.1413022,-0.8264303,-0.1578178,0.2366334
1207.655,-0.1947103,-0.541694,-0.1413022,-0.8264303,-0.1578178,0.2366334
1207.669,-0.1955156,-0.5392116,-0.1382491,-0.8216847,-0.1527188,0.2350237
1207.685,-0.1963115,-0.5367583,-0.1352409,-0.8170168,-0.1477235,0.2334456
1207.7,-0.1963115,-0.5367583,-0.1352409,-0.8170168,-0.1477235,0.2334456
1207.714,-0.1970981,-0.5343339,-0.1322765,-0.8124254,-0.1428301,0.2318985
1207.73,-0.1978755,-0.531938,-0.1293549,-0.8079094,-0.1380366,0.2303817
1207.744,-0.1986439,-0.5295702,-0.1264751,-0.8034675,-0.1333411,0.2288947
1207.759,-0.1986439,-0.5295702,-0.1264751,-0.8034675,-0.1333411,0.2288947
1207.773,-0.1994033,-0.5272303,-0.1236361,-0.7990985,-0.1287418,0.2274368
1207.789,-0.2001538,-0.524918,-0.1208369,-0.7948014,-0.1242369,0.2260075
1207.804,-0.2008955,-0.5226328,-0.1180765,-0.7905749,-0.1198244,0.2246062
1207.819,-0.2008955,-0.5226328,-0.1180765,-0.7905749,-0.1198244,0.2246062
1207.833,-0.2016287,-0.5203746,-0.1153542,-0.786418,-0.1155028,0.2232324
1207.848,-0.2023532,-0.5181429,-0.112669,-0.7823296,-0.1112702,0.2218856
1207.862,-0.2030693,-0.5159376,-0.1100201,-0.7783086,-0.1071249,0.2205652
1207.877,-0.2030693,-0.5159376,-0.1100201,-0.7783086,-0.1071249,0.2205652
1207.891,-0.2037771,-0.5137582,-0.1074065,-0.774354,-0.1030653,0.2192707
1207.907,-0.2044766,-0.5116045,-0.1048276,-0.7704647,-0.09908979,0.2180015
1207.922,-0.2051679,-0.5094761,-0.1022826,-0.7666396,-0.09519667,0.2167573
1207.936,-0.2051679,-0.5094761,-0.1022826,-0.7666396,-0.09519667,0.2167573
1207.951,-0.2058512,-0.5073729,-0.09977057,-0.7628778,-0.09138439,0.2155375
1207.966,-0.2065266,-0.5052944,-0.0972909,-0.7591782,-0.08765139,0.2143416
1207.981,-0.207194,-0.5032404,-0.09484284,-0.7555398,-0.08399616,0.2131691
1207.996,-0.207194,-0.5032404,-0.09484284,-0.7555398,-0.08399616,0.2131691
1208.01,-0.2078537,-0.5012107,-0.09242568,-0.7519618,-0.0804172,0.2120196
1208.025,-0.2085058,-0.4992049,-0.09003876,-0.7484431,-0.07691304,0.2108927
1208.042,-0.2091502,-0.4972228,-0.08768141,-0.7449827,-0.07348223,0.2097879
1208.056,-0.2091502,-0.4972228,-0.08768141,-0.7449827,-0.07348223,0.2097879
1208.069,-0.2097871,-0.4952641,-0.08535299,-0.7415798,-0.07012336,0.2087048
1208.084,-0.2104166,-0.4933284,-0.08305288,-0.7382335,-0.06683503,0.2076429
1208.099,-0.2104166,-0.4933284,-0.08305288,-0.7382335,-0.06683503,0.2076429
1208.113,-0.2110388,-0.4914156,-0.08078047,-0.7349429,-0.06361589,0.2066018
1208.129,-0.2116538,-0.4895255,-0.07853517,-0.7317069,-0.06046459,0.2055812
1208.143,-0.2122615,-0.4876576,-0.07631642,-0.7285249,-0.05737982,0.2045805
1208.158,-0.2122615,-0.4876576,-0.07631642,-0.7285249,-0.05737982,0.2045805
1208.172,-0.2128623,-0.4858118,-0.07412364,-0.7253959,-0.05436029,0.2035995
1208.188,-0.213456,-0.4839878,-0.07195632,-0.722319,-0.05140472,0.2026378
1208.203,-0.2140428,-0.4821853,-0.06981393,-0.7192935,-0.04851189,0.2016949
1208.217,-0.2140428,-0.4821853,-0.06981393,-0.7192935,-0.04851189,0.2016949
1208.231,-0.2146228,-0.4804041,-0.06769596,-0.7163185,-0.04568057,0.2007705
1208.247,-0.2151961,-0.478644,-0.06560192,-0.7133932,-0.04290956,0.1998642
1208.262,-0.2157627,-0.4769047,-0.06353133,-0.7105168,-0.04019768,0.1989757
1208.277,-0.2157627,-0.4769047,-0.06353133,-0.7105168,-0.04019768,0.1989757
1208.292,-0.2163227,-0.4751859,-0.06148373,-0.7076885,-0.03754378,0.1981046
1208.306,-0.2168762,-0.4734875,-0.05945867,-0.7049075,-0.03494675,0.1972506
1208.321,-0.2174233,-0.4718091,-0.0574557,-0.7021731,-0.03240545,0.1964134
1208.336,-0.2174233,-0.4718091,-0.0574557,-0.7021731,-0.03240545,0.1964134
1208.35,-0.217964,-0.4701506,-0.05547442,-0.6994845,-0.0299188,0.1955926
1208.365,-0.2184984,-0.4685117,-0.05351439,-0.6968411,-0.02748574,0.1947878
1208.38,-0.2190266,-0.4668922,-0.05157524,-0.6942419,-0.02510521,0.1939989
