JMolnar6/NonAnthroHands_User_Study/HandsLoggerWithURDF/tempdata/PID 0 (test)/files/Reachy_PID0_JointMotion_gesture_5_1.csv
Time,r_shoulder,r_shoulder_x,r_upper_arm,r_forearm,r_wrist,r_wrist2hand,
352.2646,0.04500343,-0.3270011,0.4528561,-2.148581,-0.5209681,-0.02002838
352.2794,0.04500343,-0.3270011,0.4528561,-2.148581,-0.5209681,-0.02002838
352.2933,0.04500343,-0.3270011,0.4529843,-2.148576,-0.5210952,-0.02002833
352.3077,0.04500343,-0.3270011,0.453111,-2.148571,-0.5212195,-0.02002827
352.3221,0.04500343,-0.3270011,0.4532363,-2.148565,-0.521341,-0.02002822
352.337,0.04500343,-0.3270011,0.4532363,-2.148565,-0.521341,-0.02002822
352.3509,0.04500343,-0.3270011,0.4533602,-2.14856,-0.5214598,-0.02002817
352.3663,0.04500343,-0.3270011,0.4534827,-2.148555,-0.5215759,-0.02002812
352.381,0.04500343,-0.3270011,0.4536038,-2.14855,-0.5216894,-0.02002807
352.3956,0.04500343,-0.3270011,0.4536038,-2.14855,-0.5216894,-0.02002807
352.4098,0.04500343,-0.3270011,0.4537235,-2.148544,-0.5218003,-0.02002802
352.4254,0.04500343,-0.3270011,0.4538419,-2.148539,-0.5219087,-0.02002797
352.44,0.04500343,-0.3270011,0.4539589,-2.148534,-0.5220147,-0.02002792
352.4548,0.04500343,-0.3270011,0.4539589,-2.148534,-0.5220147,-0.02002792
352.4692,0.04500343,-0.3270011,0.4540746,-2.148529,-0.5221183,-0.02002787
352.4847,0.04500343,-0.3270011,0.4541889,-2.148524,-0.5222195,-0.02002782
352.4998,0.04500343,-0.3270011,0.4541889,-2.148524,-0.5222195,-0.02002782
352.5131,0.04500343,-0.3270011,0.454302,-2.148519,-0.5223185,-0.02002777
352.5294,0.04500343,-0.3270011,0.4544137,-2.148514,-0.5224152,-0.02002773
352.5434,0.04500343,-0.3270011,0.4545241,-2.148509,-0.5225098,-0.02002768
352.558,0.04500343,-0.3270011,0.4545241,-2.148509,-0.5225098,-0.02002768
352.572,0.04500343,-0.3270011,0.4546332,-2.148504,-0.5226021,-0.02002763
352.5872,0.04500343,-0.3270011,0.4547411,-2.148499,-0.5226924,-0.02002758
352.6019,0.04500343,-0.3270011,0.4548477,-2.148494,-0.5227807,-0.02002753
352.6168,0.04500343,-0.3270011,0.4548477,-2.148494,-0.5227807,-0.02002753
352.6307,0.04500343,-0.3270011,0.454953,-2.148489,-0.5228668,-0.02002748
352.6461,0.04500343,-0.3270011,0.4550571,-2.148484,-0.5229511,-0.02002744
352.6606,0.04500343,-0.3270011,0.45516,-2.148479,-0.5230334,-0.02002739
352.6756,0.04500343,-0.3270011,0.45516,-2.148479,-0.5230334,-0.02002739
352.6897,0.04500343,-0.3270011,0.4552617,-2.148474,-0.5231138,-0.02002734
352.7053,0.04500343,-0.3270011,0.4553622,-2.148469,-0.5231923,-0.0200273
352.7199,0.04500343,-0.3270011,0.4553622,-2.148469,-0.5231923,-0.0200273
352.7341,0.04500343,-0.3270011,0.4554614,-2.148464,-0.5232691,-0.02002725
352.7495,0.04500343,-0.3270011,0.4555596,-2.148459,-0.5233441,-0.0200272
352.764,0.04500343,-0.3270011,0.4556565,-2.148454,-0.5234174,-0.02002716
352.7798,0.04500343,-0.3270011,0.4556565,-2.148454,-0.5234174,-0.02002716
352.7938,0.04500343,-0.3270011,0.4557523,-2.148449,-0.5234889,-0.02002711
352.8085,0.04500343,-0.3270011,0.4558469,-2.148444,-0.5235589,-0.02002706
352.8231,0.04500343,-0.3270011,0.4559404,-2.14844,-0.5236272,-0.02002702
352.8376,0.04500343,-0.3270011,0.4559404,-2.14844,-0.5236272,-0.02002702
352.8516,0.04500343,-0.3270011,0.4560327,-2.148435,-0.5236939,-0.02002697
352.8672,0.04500343,-0.3270011,0.456124,-2.14843,-0.5237591,-0.02002693
352.8817,0.04500343,-0.3270011,0.4562141,-2.148425,-0.5238228,-0.02002688
352.897,0.04500343,-0.3270011,0.4562141,-2.148425,-0.5238228,-0.02002688
352.9105,0.04500343,-0.3270011,0.4563032,-2.148421,-0.523885,-0.02002684
352.9261,0.04500343,-0.3270011,0.4563912,-2.148416,-0.5239457,-0.02002679
352.941,0.04500343,-0.3270011,0.4564781,-2.148411,-0.524005,-0.02002675
352.9557,0.04500343,-0.3270011,0.4564781,-2.148411,-0.524005,-0.02002675
352.9699,0.04500343,-0.3270011,0.4565639,-2.148406,-0.5240629,-0.02002671
352.9851,0.04500343,-0.3270011,0.4566487,-2.148402,-0.5241195,-0.02002666
353.0005,0.04500343,-0.3270011,0.4567325,-2.148397,-0.5241747,-0.02002662
353.0146,0.04500343,-0.3270011,0.4567325,-2.148397,-0.5241747,-0.02002662
353.0307,0.04500343,-0.3270011,0.4568153,-2.148393,-0.5242287,-0.02002657
353.0452,0.04500343,-0.3270011,0.456897,-2.148388,-0.5242814,-0.02002653
353.0586,0.04500343,-0.3270011,0.456897,-2.148388,-0.5242814,-0.02002653
353.0728,0.04500343,-0.3270011,0.4569778,-2.148384,-0.5243328,-0.02002648
353.0882,0.04500343,-0.3270011,0.4570575,-2.148379,-0.5243831,-0.02002644
353.1027,0.04500343,-0.3270011,0.4571363,-2.148375,-0.5244321,-0.0200264
353.1174,0.04500343,-0.3270011,0.4571363,-2.148375,-0.5244321,-0.0200264
353.1314,0.04500343,-0.3270011,0.4572141,-2.14837,-0.52448,-0.02002637
353.1468,0.04500343,-0.3270011,0.4572909,-2.148365,-0.5245267,-0.02002632
353.1614,0.04500343,-0.3270011,0.4573668,-2.148361,-0.5245723,-0.02002628
353.1761,0.04500343,-0.3270011,0.4573668,-2.148361,-0.5245723,-0.02002628
353.1901,0.04500343,-0.3270011,0.4574417,-2.148357,-0.5246168,-0.02002624
353.2057,0.04500343,-0.3270011,0.4575157,-2.148353,-0.5246603,-0.0200262
353.2205,0.04500343,-0.3270011,0.4575888,-2.148348,-0.5247027,-0.02002616
353.2354,0.04500343,-0.3270011,0.4575888,-2.148348,-0.5247027,-0.02002616
353.2494,0.04500343,-0.3270011,0.4576609,-2.148344,-0.5247442,-0.02002612
353.27,0.04500343,-0.3270011,0.4577322,-2.14834,-0.5247846,-0.02002608
353.2798,0.04500343,-0.3270011,0.4577322,-2.14834,-0.5247846,-0.02002608
353.2954,0.04500342,-0.3270011,0.4568958,-2.148361,-0.5270797,-0.02002523
353.3097,0.04500341,-0.3270011,0.4561889,-2.1484,-0.5297364,-0.02002577
353.3248,0.04500341,-0.3270011,0.4556872,-2.14844,-0.5323321,-0.02002624
353.3382,0.04500341,-0.3270011,0.4556872,-2.14844,-0.5323321,-0.02002624
353.3523,0.04500341,-0.3270011,0.4562176,-2.14845,-0.5325799,-0.02002737
353.3678,0.04500342,-0.3270011,0.4566858,-2.148437,-0.5323879,-0.02002702
353.3822,0.04500342,-0.3270011,0.4569847,-2.148418,-0.5321942,-0.02002669
353.3969,0.04500342,-0.3270011,0.4569847,-2.148418,-0.5321942,-0.02002669
353.411,0.04500342,-0.3270011,0.4571793,-2.148402,-0.5320399,-0.02002649
353.4265,0.04500343,-0.3270011,0.458228,-2.148363,-0.5296579,-0.02002719
353.4413,0.04500343,-0.3270011,0.4591217,-2.148308,-0.5269265,-0.02002655
353.456,0.04500343,-0.3270011,0.4591217,-2.148308,-0.5269265,-0.02002655
353.4702,0.04500343,-0.3270011,0.4597966,-2.148253,-0.5242625,-0.02002599
353.4857,0.04500344,-0.3270011,0.4603384,-2.148204,-0.5216957,-0.02002559
353.5006,0.04500344,-0.327001,0.4617147,-2.148135,-0.5169505,-0.0200261
353.5151,0.04500344,-0.327001,0.4617147,-2.148135,-0.5169505,-0.0200261
353.5291,0.04500345,-0.327001,0.4629194,-2.14805,-0.5119058,-0.02002528
353.5459,0.04500346,-0.327001,0.4638916,-2.147967,-0.5069755,-0.02002455
353.5603,0.04500346,-0.327001,0.4647186,-2.14789,-0.5021876,-0.02002398
353.5743,0.04500346,-0.327001,0.4647186,-2.14789,-0.5021876,-0.02002398
353.5878,0.04500347,-0.327001,0.4663686,-2.147796,-0.4952616,-0.0200243
353.6032,0.04500348,-0.327001,0.4678335,-2.147685,-0.4880817,-0.02002332
353.6179,0.04500348,-0.327001,0.4678335,-2.147685,-0.4880817,-0.02002332
353.6321,0.04500349,-0.327001,0.4690546,-2.147577,-0.4810596,-0.02002242
353.6475,0.04500351,-0.3270009,0.4710268,-2.147451,-0.4719571,-0.02002246
353.6622,0.04500352,-0.3270009,0.4727692,-2.147312,-0.4626602,-0.02002127
353.6768,0.04500352,-0.3270009,0.4727692,-2.147312,-0.4626602,-0.02002127
353.691,0.04500353,-0.3270009,0.474242,-2.147177,-0.4535716,-0.0200202
353.7067,0.04500354,-0.3270009,0.4755425,-2.147052,-0.4447115,-0.02001931
353.7212,0.04500355,-0.3270009,0.4776437,-2.146913,-0.4337846,-0.02001925
353.7358,0.04500355,-0.3270009,0.4776437,-2.146913,-0.4337846,-0.02001925
353.75,0.04500357,-0.3270008,0.4795324,-2.146761,-0.4226908,-0.02001798
353.7654,0.04500358,-0.3270008,0.4811563,-2.146613,-0.411836,-0.0200168
353.7799,0.04500358,-0.3270008,0.4811563,-2.146613,-0.411836,-0.0200168
353.794,0.0450036,-0.3270008,0.4835133,-2.146452,-0.3989648,-0.0200165
353.8105,0.04500361,-0.3270007,0.4856156,-2.14628,-0.3859825,-0.02001508
353.8246,0.04500363,-0.3270007,0.4874298,-2.146115,-0.3732851,-0.02001379
353.8391,0.04500363,-0.3270007,0.4874298,-2.146115,-0.3732851,-0.02001379
353.8528,0.04500364,-0.3270007,0.4890562,-2.145963,-0.3608884,-0.02001268
353.8684,0.04500366,-0.3270006,0.4914682,-2.145802,-0.3464806,-0.02001231
353.8828,0.04500367,-0.3270006,0.4936442,-2.145632,-0.3319851,-0.02001089
353.8977,0.04500367,-0.3270006,0.4936442,-2.145632,-0.3319851,-0.02001089
353.9116,0.04500369,-0.3270006,0.4955393,-2.145468,-0.3178002,-0.0200096
353.927,0.0450037,-0.3270006,0.4972476,-2.145318,-0.3039428,-0.02000847
353.9419,0.04500373,-0.3270005,0.4997395,-2.145162,-0.2880937,-0.02000801
353.9566,0.04500373,-0.3270005,0.4997395,-2.145162,-0.2880937,-0.02000801
353.9708,0.04500375,-0.3270005,0.5019867,-2.144998,-0.2721909,-0.02000664
353.9861,0.04500376,-0.3270005,0.5039482,-2.144843,-0.2566291,-0.0200054
354.0011,0.04500378,-0.3270004,0.5057194,-2.144703,-0.2414226,-0.02000433
354.0161,0.04500378,-0.3270004,0.5057194,-2.144703,-0.2414226,-0.02000433
354.0299,0.0450038,-0.3270004,0.5082707,-2.14456,-0.2242433,-0.02000383
354.045,0.04500382,-0.3270004,0.5105691,-2.144412,-0.2070428,-0.02000261
354.0606,0.04500384,-0.3270003,0.5125777,-2.144275,-0.1902115,-0.02000153
354.0755,0.04500384,-0.3270003,0.5125777,-2.144275,-0.1902115,-0.02000153
354.0887,0.04500386,-0.3270003,0.5153,-2.144139,-0.1714544,-0.02000098
354.1041,0.04500388,-0.3270003,0.5177313,-2.144002,-0.1527253,-0.01999991
354.1185,0.04500388,-0.3270003,0.5177313,-2.144002,-0.1527253,-0.01999991
354.1325,0.0450039,-0.3270003,0.5198542,-2.143879,-0.1344044,-0.019999
354.1479,0.04500392,-0.3270002,0.5217745,-2.143775,-0.1164977,-0.01999827
354.1627,0.04500395,-0.3270002,0.5244656,-2.143676,-0.09666227,-0.01999791
354.1775,0.04500395,-0.3270002,0.5244656,-2.143676,-0.09666227,-0.01999791
354.1913,0.04500397,-0.3270002,0.5268897,-2.143579,-0.07686788,-0.01999724
354.2072,0.04500399,-0.3270001,0.529017,-2.143497,-0.05749825,-0.01999673
354.2216,0.04500401,-0.3270001,0.5309468,-2.143433,-0.03856119,-0.01999638
354.2366,0.04500401,-0.3270001,0.5309468,-2.143433,-0.03856119,-0.01999638
354.2505,0.04500404,-0.3270001,0.5336489,-2.143379,-0.01771139,-0.01999625
354.2657,0.04500406,-0.3270001,0.536083,-2.143331,0.003074568,-0.01999607
354.2805,0.04500408,-0.327,0.5382203,-2.143298,0.02341499,-0.01999606
354.2953,0.04500408,-0.327,0.5382203,-2.143298,0.02341499,-0.01999606
354.3092,0.04500411,-0.327,0.5410662,-2.143277,0.04562028,-0.01999616
354.3255,0.04500414,-0.327,0.5436118,-2.143267,0.06772,-0.01999646
354.3401,0.04500416,-0.3269999,0.5458456,-2.143274,0.08934097,-0.0199969
354.3539,0.04500416,-0.3269999,0.5458456,-2.143274,0.08934097,-0.0199969
354.3681,0.04500419,-0.3269999,0.5478745,-2.1433,0.1104811,-0.01999746
354.3832,0.04500422,-0.3269999,0.5506707,-2.143343,0.1334877,-0.01999795
354.3978,0.04500422,-0.3269999,0.5506707,-2.143343,0.1334877,-0.01999795
354.4119,0.04500424,-0.3269998,0.5531975,-2.143399,0.1563864,-0.01999892
354.4275,0.04500427,-0.3269998,0.5554265,-2.143472,0.1787972,-0.02000001
354.442,0.04500429,-0.3269998,0.5574572,-2.143564,0.2007143,-0.02000117
354.4569,0.04500429,-0.3269998,0.5574572,-2.143564,0.2007143,-0.02000117
354.471,0.04500432,-0.3269998,0.5602578,-2.143676,0.2244779,-0.02000209
354.4869,0.04500435,-0.3269997,0.5627946,-2.143802,0.2481224,-0.02000375
354.5014,0.04500438,-0.3269997,0.5650362,-2.143945,0.2712658,-0.02000549
354.516,0.04500438,-0.3269997,0.5650362,-2.143945,0.2712658,-0.02000549
354.5302,0.04500441,-0.3269997,0.5679847,-2.144109,0.2962045,-0.02000682
354.5457,0.04500444,-0.3269996,0.5706425,-2.14429,0.3209914,-0.02000904
354.5604,0.04500446,-0.3269996,0.5729914,-2.144487,0.3452496,-0.02001129
354.576,0.04500446,-0.3269996,0.5729914,-2.144487,0.3452496,-0.02001129
354.5901,0.04500449,-0.3269996,0.5751351,-2.1447,0.3689748,-0.02001351
354.6046,0.04500452,-0.3269995,0.5771402,-2.144928,0.3921992,-0.02001573
354.6191,0.04500452,-0.3269995,0.5771402,-2.144928,0.3921992,-0.02001573
354.6332,0.04500454,-0.3269995,0.57904,-2.145169,0.4149473,-0.02001797
354.6484,0.04500456,-0.3269995,0.5808511,-2.145422,0.4372357,-0.02002025
354.6631,0.04500458,-0.3269995,0.5825818,-2.145687,0.4590769,-0.02002255
354.6779,0.04500458,-0.3269995,0.5825818,-2.145687,0.4590769,-0.02002255
354.692,0.0450046,-0.3269995,0.583334,-2.145951,0.4782045,-0.02002554
354.7076,0.04500461,-0.3269994,0.5841537,-2.146215,0.49656,-0.02002733
354.7223,0.04500463,-0.3269994,0.5851071,-2.146484,0.5145633,-0.02002918
354.7372,0.04500463,-0.3269994,0.5851071,-2.146484,0.5145633,-0.02002918
354.7515,0.04500464,-0.3269994,0.5852107,-2.146748,0.5299829,-0.02003189
354.7668,0.04500465,-0.3269994,0.5854455,-2.147006,0.5447233,-0.02003339
354.7813,0.04500466,-0.3269994,0.5858523,-2.147266,0.5591935,-0.02003498
354.796,0.04500466,-0.3269994,0.5858523,-2.147266,0.5591935,-0.02003498
354.8104,0.04500467,-0.3269994,0.5863382,-2.147533,0.5734228,-0.02003671
354.8267,0.04500467,-0.3269994,0.5859384,-2.147789,0.5851415,-0.02003926
354.8412,0.04500468,-0.3269994,0.5856515,-2.148033,0.5962348,-0.02004053
354.8549,0.04500468,-0.3269994,0.5856515,-2.148033,0.5962348,-0.02004053
354.8692,0.04500469,-0.3269994,0.5855383,-2.148275,0.6071208,-0.02004184
354.8842,0.0450047,-0.3269994,0.5855144,-2.14852,0.6178338,-0.02004327
354.8991,0.0450047,-0.3269994,0.5855144,-2.14852,0.6178338,-0.02004327
354.9131,0.0450047,-0.3269994,0.584618,-2.148752,0.6261142,-0.02004555
354.9285,0.0450047,-0.3269994,0.5838429,-2.148967,0.6338302,-0.02004651
354.9432,0.0450047,-0.3269994,0.5832548,-2.149178,0.641403,-0.02004752
354.9583,0.0450047,-0.3269994,0.5832548,-2.149178,0.641403,-0.02004752
354.9727,0.0450047,-0.3269994,0.5818683,-2.149374,0.6466271,-0.02004944
354.9879,0.04500469,-0.3269994,0.5806453,-2.149551,0.6513571,-0.0200501
355.0026,0.04500469,-0.3269994,0.5796373,-2.149724,0.6560087,-0.02005083
355.0175,0.04500469,-0.3269994,0.5796373,-2.149724,0.6560087,-0.02005083
355.0315,0.04500469,-0.3269994,0.5787537,-2.1499,0.6606134,-0.0200517
355.0471,0.04500468,-0.3269994,0.5770282,-2.150061,0.6629184,-0.02005343
355.0616,0.04500468,-0.3269994,0.5754467,-2.150201,0.6647704,-0.02005386
355.0772,0.04500468,-0.3269994,0.5754467,-2.150201,0.6647704,-0.02005386
355.0915,0.04500468,-0.3269994,0.5740787,-2.150335,0.6665922,-0.02005434
355.1059,0.04500467,-0.3269994,0.5728417,-2.150471,0.6684192,-0.02005495
355.1205,0.04500466,-0.3269994,0.5707725,-2.150592,0.6680023,-0.02005642
355.1352,0.04500466,-0.3269994,0.5707725,-2.150592,0.6680023,-0.02005642
355.1491,0.04500465,-0.3269994,0.5688576,-2.15069,0.6671833,-0.0200566
355.1645,0.04500465,-0.3269994,0.5671678,-2.150782,0.6663856,-0.02005682
355.1823,0.04500464,-0.3269994,0.5656212,-2.150876,0.6656444,-0.02005718
355.1939,0.04500464,-0.3269994,0.5656212,-2.150876,0.6656444,-0.02005718
355.208,0.04500462,-0.3269995,0.5632539,-2.150956,0.6627102,-0.02005841
355.2235,0.04500461,-0.3269995,0.5610526,-2.151011,0.659423,-0.02005835
355.2384,0.04500461,-0.3269995,0.5610526,-2.151011,0.659423,-0.02005835
355.2524,0.0450046,-0.3269995,0.5590883,-2.151061,0.6562055,-0.02005834
355.2681,0.04500459,-0.3269995,0.556375,-2.151096,0.6508582,-0.02005926
355.2825,0.04500457,-0.3269995,0.5538722,-2.151107,0.6452196,-0.02005894
355.2974,0.04500457,-0.3269995,0.5538722,-2.151107,0.6452196,-0.02005894
355.3115,0.04500456,-0.3269996,0.5516336,-2.151114,0.6397048,-0.0200587
355.3279,0.04500455,-0.3269996,0.5495678,-2.151125,0.6343431,-0.02005861
355.3426,0.04500453,-0.3269996,0.546705,-2.151125,0.6268765,-0.02005939
355.3562,0.04500453,-0.3269996,0.546705,-2.151125,0.6268765,-0.02005939
355.3716,0.04500452,-0.3269996,0.5440344,-2.151101,0.6191494,-0.02005888
355.3857,0.0450045,-0.3269997,0.5416236,-2.151071,0.6115812,-0.02005843
355.4003,0.04500449,-0.3269997,0.5393881,-2.151046,0.6042032,-0.02005812
355.4152,0.04500449,-0.3269997,0.5393881,-2.151046,0.6042032,-0.02005812
355.4291,0.04500447,-0.3269997,0.5363608,-2.151011,0.5947531,-0.02005868
355.4445,0.04500445,-0.3269998,0.5335365,-2.150951,0.5850843,-0.02005795
355.4594,0.04500445,-0.3269998,0.5335365,-2.150951,0.5850843,-0.02005795
355.4736,0.04500444,-0.3269998,0.5309811,-2.150886,0.575614,-0.02005728
355.4893,0.04500442,-0.3269998,0.5277034,-2.150811,0.564124,-0.02005753
355.5039,0.0450044,-0.3269998,0.5246732,-2.150713,0.5524726,-0.02005655
355.5187,0.0450044,-0.3269998,0.5246732,-2.150713,0.5524726,-0.02005655
355.5327,0.04500438,-0.3269999,0.5219369,-2.150613,0.5410678,-0.02005565
355.5486,0.04500436,-0.3269999,0.5193993,-2.15052,0.529933,-0.02005491
355.5627,0.04500434,-0.3269999,0.5160877,-2.150421,0.5167888,-0.02005501
355.5786,0.04500434,-0.3269999,0.5160877,-2.150421,0.5167888,-0.02005501
355.5926,0.04500432,-0.327,0.5130047,-2.1503,0.5035082,-0.02005386
355.6072,0.0450043,-0.327,0.5102089,-2.150177,0.4905019,-0.02005278
355.6219,0.04500428,-0.327,0.5076112,-2.150061,0.4777945,-0.02005184
355.6368,0.04500428,-0.327,0.5076112,-2.150061,0.4777945,-0.02005184
355.6558,0.04500426,-0.3270001,0.504241,-2.149941,0.4630984,-0.02005169
355.6657,0.04500423,-0.3270001,0.5011094,-2.1498,0.4483022,-0.02005036
355.6805,0.04500422,-0.3270001,0.4982712,-2.149658,0.4338131,-0.02004911
355.6953,0.04500422,-0.3270001,0.4982712,-2.149658,0.4338131,-0.02004911
355.7096,0.04500419,-0.3270001,0.494728,-2.149513,0.4173811,-0.02004868
355.725,0.04500417,-0.3270002,0.491466,-2.149349,0.4009024,-0.02004717
355.7398,0.04500417,-0.3270002,0.491466,-2.149349,0.4009024,-0.02004717
355.7539,0.04500414,-0.3270002,0.4885193,-2.149188,0.3847736,-0.02004578
355.7694,0.04500413,-0.3270002,0.4857875,-2.149037,0.3690102,-0.02004454
355.7842,0.0450041,-0.3270003,0.4822946,-2.14889,0.3513035,-0.02004399
355.7991,0.0450041,-0.3270003,0.4822946,-2.14889,0.3513035,-0.02004399
355.8128,0.04500408,-0.3270003,0.4790624,-2.148726,0.3335693,-0.02004245
355.8292,0.04500405,-0.3270003,0.476136,-2.148565,0.3162065,-0.02004102
355.8428,0.04500404,-0.3270003,0.4734204,-2.148415,0.2992314,-0.02003974
355.8588,0.04500404,-0.3270003,0.4734204,-2.148415,0.2992314,-0.02003974
355.8716,0.04500402,-0.3270004,0.4708512,-2.148278,0.2826175,-0.02003855
355.8871,0.045004,-0.3270004,0.4683948,-2.148153,0.266344,-0.02003741
355.9018,0.04500398,-0.3270004,0.4660345,-2.148038,0.2503972,-0.02003632
355.9163,0.04500398,-0.3270004,0.4660345,-2.148038,0.2503972,-0.02003632
355.9304,0.04500396,-0.3270005,0.4637617,-2.147932,0.2347676,-0.02003526
355.946,0.04500394,-0.3270005,0.4615713,-2.147833,0.2194478,-0.02003423
355.9608,0.04500392,-0.3270005,0.4594597,-2.147743,0.2044313,-0.02003324
355.9756,0.04500392,-0.3270005,0.4594597,-2.147743,0.2044313,-0.02003324
355.9897,0.04500391,-0.3270006,0.4574241,-2.147659,0.1897118,-0.02003228
356.0052,0.04500389,-0.3270006,0.4554621,-2.147581,0.1752837,-0.02003136
356.02,0.04500389,-0.3270006,0.4554621,-2.147581,0.1752837,-0.02003136
356.0339,0.04500388,-0.3270006,0.4535713,-2.14751,0.1611412,-0.02003047
356.0496,0.04500386,-0.3270006,0.4517495,-2.147445,0.1472789,-0.02002962
356.0639,0.04500385,-0.3270007,0.4499948,-2.147386,0.1336913,-0.0200288
356.0797,0.04500385,-0.3270007,0.4499948,-2.147386,0.1336913,-0.0200288
356.0941,0.04500384,-0.3270007,0.448305,-2.147332,0.1203732,-0.02002802
356.1082,0.04500382,-0.3270007,0.4466783,-2.147283,0.1073192,-0.02002727
356.123,0.04500381,-0.3270008,0.4451127,-2.14724,0.09452429,-0.02002657
356.1376,0.04500381,-0.3270008,0.4451127,-2.14724,0.09452429,-0.02002657
356.1516,0.04500379,-0.3270008,0.4436066,-2.147201,0.08198342,-0.0200259
356.1672,0.04500378,-0.3270008,0.442158,-2.147166,0.06969165,-0.02002526
356.1816,0.04500376,-0.3270009,0.4407653,-2.147136,0.05764414,-0.02002466
356.1964,0.04500376,-0.3270009,0.4407653,-2.147136,0.05764414,-0.02002466
356.2104,0.04500375,-0.3270009,0.439427,-2.14711,0.04583612,-0.0200241
356.2262,0.04500374,-0.3270009,0.4381413,-2.147088,0.03426294,-0.02002357
356.2408,0.04500373,-0.3270009,0.4369068,-2.14707,0.02292,-0.02002308
356.2555,0.04500373,-0.3270009,0.4369068,-2.14707,0.02292,-0.02002308
356.2699,0.04500372,-0.327001,0.4357219,-2.147055,0.0118028,-0.02002261
356.285,0.0450037,-0.327001,0.4345852,-2.147043,0.0009069433,-0.02002217
356.3,0.04500369,-0.327001,0.4334954,-2.147035,-0.009771912,-0.02002177
356.3144,0.04500369,-0.327001,0.4334954,-2.147035,-0.009771912,-0.02002177
356.3306,0.04500368,-0.3270011,0.432451,-2.14703,-0.02023802,-0.0200214
356.344,0.04500367,-0.3270011,0.4314507,-2.147027,-0.03049554,-0.02002106
356.3588,0.04500367,-0.3270011,0.4314507,-2.147027,-0.03049554,-0.02002106
356.3728,0.04500366,-0.3270011,0.4304933,-2.147027,-0.04054858,-0.02002075
356.3879,0.04500365,-0.3270011,0.4295776,-2.147029,-0.05040114,-0.02002047
356.4027,0.04500364,-0.3270011,0.4287022,-2.147034,-0.06005715,-0.02002021
356.4175,0.04500364,-0.3270011,0.4287022,-2.147034,-0.06005715,-0.02002021
356.4317,0.04500363,-0.3270011,0.4278661,-2.147041,-0.06952049,-0.02001998
356.447,0.04500362,-0.3270011,0.4270682,-2.14705,-0.07879494,-0.02001977
356.4616,0.0450036,-0.3270011,0.4263072,-2.147061,-0.08788422,-0.02001959
356.4766,0.0450036,-0.3270011,0.4263072,-2.147061,-0.08788422,-0.02001959
356.4906,0.04500359,-0.3270011,0.4255822,-2.147073,-0.09679196,-0.02001943
356.5061,0.04500359,-0.3270011,0.4248922,-2.147088,-0.1055218,-0.02001929
356.5205,0.04500358,-0.3270011,0.424236,-2.147103,-0.1140771,-0.02001917
356.5355,0.04500358,-0.3270011,0.424236,-2.147103,-0.1140771,-0.02001917
356.5519,0.04500357,-0.3270011,0.4236127,-2.14712,-0.1224614,-0.02001907
356.5649,0.04500356,-0.3270011,0.4230215,-2.147139,-0.1306781,-0.020019
356.5806,0.04500356,-0.3270011,0.4224612,-2.147159,-0.1387305,-0.02001894
356.5953,0.04500356,-0.3270011,0.4224612,-2.147159,-0.1387305,-0.02001894
356.6093,0.04500355,-0.3270011,0.4219311,-2.14718,-0.1466218,-0.0200189
356.6237,0.04500354,-0.3270011,0.4214303,-2.147202,-0.1543552,-0.02001888
356.6385,0.04500354,-0.3270011,0.4214303,-2.147202,-0.1543552,-0.02001888
356.6525,0.04500353,-0.3270011,0.4209579,-2.147225,-0.1619338,-0.02001887
356.6681,0.04500353,-0.3270011,0.4205131,-2.147249,-0.1693607,-0.02001888
356.6826,0.04500352,-0.3270011,0.420095,-2.147273,-0.1766389,-0.0200189
356.6974,0.04500352,-0.3270011,0.420095,-2.147273,-0.1766389,-0.0200189
356.7115,0.04500351,-0.3270011,0.4197029,-2.147298,-0.1837713,-0.02001894
356.727,0.0450035,-0.3270011,0.4193361,-2.147324,-0.1907607,-0.02001898
356.7418,0.0450035,-0.3270011,0.4189937,-2.147351,-0.1976101,-0.02001904
356.7567,0.0450035,-0.3270011,0.4189937,-2.147351,-0.1976101,-0.02001904
356.7706,0.04500349,-0.3270011,0.418675,-2.147377,-0.2043222,-0.02001911
356.786,0.04500348,-0.3270011,0.4183794,-2.147405,-0.2108998,-0.02001919
356.8011,0.04500347,-0.3270011,0.4181061,-2.147433,-0.2173454,-0.02001928
356.8154,0.04500347,-0.3270011,0.4181061,-2.147433,-0.2173454,-0.02001928
356.8316,0.04500347,-0.3270011,0.4178546,-2.147461,-0.2236617,-0.02001939
356.8458,0.04500346,-0.3270011,0.417624,-2.147489,-0.2298512,-0.0200195
356.8596,0.04500346,-0.3270011,0.417624,-2.147489,-0.2298512,-0.0200195
356.8735,0.04500345,-0.3270011,0.4174139,-2.147518,-0.2359166,-0.02001962
356.889,0.04500344,-0.3270011,0.4172235,-2.147546,-0.2418601,-0.02001974
356.9036,0.04500344,-0.3270011,0.4170523,-2.147575,-0.2476843,-0.02001988
356.9184,0.04500344,-0.3270011,0.4170523,-2.147575,-0.2476843,-0.02001988
356.9324,0.04500343,-0.3270011,0.4168996,-2.147604,-0.2533916,-0.02002002
356.9478,0.04500343,-0.3270011,0.416765,-2.147633,-0.2589841,-0.02002017
356.9626,0.04500342,-0.3270011,0.4166478,-2.147662,-0.2644643,-0.02002032
356.9774,0.04500342,-0.3270011,0.4166478,-2.147662,-0.2644643,-0.02002032
356.9916,0.04500342,-0.3270011,0.4165474,-2.147691,-0.2698343,-0.02002048
357.0071,0.04500341,-0.3270011,0.4164635,-2.14772,-0.2750963,-0.02002065
357.0219,0.04500341,-0.3270011,0.4163954,-2.147749,-0.2802525,-0.02002082
357.0367,0.04500341,-0.3270011,0.4163954,-2.147749,-0.2802525,-0.02002082
357.0511,0.04500341,-0.3270011,0.4163427,-2.147778,-0.2853049,-0.020021
357.066,0.0450034,-0.3270011,0.4163048,-2.147806,-0.2902557,-0.02002117
357.0818,0.0450034,-0.3270011,0.4162813,-2.147835,-0.2951069,-0.02002135
357.0965,0.0450034,-0.3270011,0.4162813,-2.147835,-0.2951069,-0.02002135
357.1106,0.0450034,-0.3270011,0.4162716,-2.147863,-0.2998603,-0.02002154
357.1248,0.04500339,-0.3270011,0.4162754,-2.147891,-0.3045181,-0.02002171
357.1399,0.04500339,-0.3270011,0.4162754,-2.147891,-0.3045181,-0.02002171
357.1535,0.04500339,-0.3270011,0.4162923,-2.147918,-0.309082,-0.0200219
357.1691,0.04500338,-0.3270011,0.4163217,-2.147946,-0.3135539,-0.02002208
357.1838,0.04500338,-0.3270011,0.4163632,-2.147973,-0.3179357,-0.02002227
357.1985,0.04500338,-0.3270011,0.4163632,-2.147973,-0.3179357,-0.02002227
357.2125,0.04500338,-0.3270011,0.4164165,-2.148,-0.3222292,-0.02002246
357.2281,0.04500337,-0.3270011,0.4164811,-2.148026,-0.326436,-0.02002265
357.2427,0.04500337,-0.3270011,0.4165567,-2.148053,-0.3305581,-0.02002284
357.2575,0.04500337,-0.3270011,0.4165567,-2.148053,-0.3305581,-0.02002284
357.2717,0.04500337,-0.3270011,0.4166428,-2.148079,-0.3345969,-0.02002303
357.2874,0.04500336,-0.3270011,0.4167392,-2.148104,-0.3385542,-0.02002322
357.3021,0.04500336,-0.3270011,0.4168453,-2.14813,-0.3424316,-0.02002341
357.3166,0.04500336,-0.3270011,0.4168453,-2.14813,-0.3424316,-0.02002341
357.3329,0.04500335,-0.3270011,0.416961,-2.148155,-0.3462307,-0.0200236
357.3471,0.04500335,-0.3270011,0.4170857,-2.148179,-0.3499531,-0.02002379
357.3623,0.04500335,-0.3270011,0.4172193,-2.148203,-0.3536002,-0.02002398
357.3755,0.04500335,-0.3270011,0.4172193,-2.148203,-0.3536002,-0.02002398
357.3896,0.04500334,-0.3270011,0.4173613,-2.148227,-0.3571736,-0.02002417
357.4048,0.04500334,-0.3270011,0.4175115,-2.148251,-0.3606747,-0.02002436
357.4197,0.04500334,-0.3270011,0.4175115,-2.148251,-0.3606747,-0.02002436
357.4337,0.04500334,-0.3270011,0.4176695,-2.148273,-0.364105,-0.02002454
357.4492,0.04500333,-0.3270011,0.4178351,-2.148296,-0.3674659,-0.02002472
357.4636,0.04500333,-0.3270011,0.4180079,-2.148318,-0.3707588,-0.0200249
357.4787,0.04500333,-0.3270011,0.4180079,-2.148318,-0.3707588,-0.0200249
357.4928,0.04500332,-0.3270011,0.4181877,-2.14834,-0.373985,-0.02002509
357.5083,0.04500332,-0.3270011,0.4183742,-2.148361,-0.3771459,-0.02002526
357.5231,0.04500332,-0.3270011,0.4185671,-2.148382,-0.3802427,-0.02002544
357.5379,0.04500332,-0.3270011,0.4185671,-2.148382,-0.3802427,-0.02002544
357.552,0.04500331,-0.3270011,0.4187661,-2.148403,-0.3832768,-0.02002562
357.5674,0.04500331,-0.3270011,0.418971,-2.148423,-0.3862494,-0.0200258
357.5831,0.04500331,-0.3270011,0.4191816,-2.148442,-0.3891617,-0.02002597
357.5978,0.04500331,-0.3270011,0.4191816,-2.148442,-0.3891617,-0.02002597
357.6118,0.0450033,-0.3270011,0.4193975,-2.148462,-0.3920149,-0.02002614
357.6261,0.0450033,-0.3270011,0.4196186,-2.14848,-0.3948102,-0.0200263
357.6409,0.04500329,-0.3270011,0.4198447,-2.148499,-0.3975488,-0.02002647
357.6555,0.04500329,-0.3270011,0.4198447,-2.148499,-0.3975488,-0.02002647
357.6698,0.04500329,-0.3270011,0.4200754,-2.148517,-0.4002317,-0.02002663
