JMolnar6/NonAnthroHands_User_Study/HandsLoggerWithURDF/tempdata/PID 0 (test)/files/Reachy_PID0_JointMotion_gesture_8_5.csv
Time,r_shoulder,r_shoulder_x,r_upper_arm,r_forearm,r_wrist,r_wrist2hand,
744.2723,0.04491263,-0.3283851,0.3957297,-0.5180895,-0.3653359,-0.02001894
744.2875,0.04491297,-0.3283709,0.3965313,-0.5180833,-0.3655081,-0.0200185
744.303,0.04491331,-0.3283568,0.3973245,-0.5180771,-0.3656789,-0.02001807
744.3177,0.04491331,-0.3283568,0.3973245,-0.5180771,-0.3656789,-0.02001807
744.3306,0.04491365,-0.3283429,0.3981094,-0.5180708,-0.3658483,-0.02001764
744.346,0.04491398,-0.3283292,0.3988863,-0.5180646,-0.3660163,-0.02001721
744.3608,0.04491432,-0.3283157,0.399655,-0.5180583,-0.3661828,-0.02001678
744.3754,0.04491432,-0.3283157,0.399655,-0.5180583,-0.3661828,-0.02001678
744.3893,0.04491466,-0.3283023,0.4004157,-0.518052,-0.366348,-0.02001636
744.4047,0.04491499,-0.3282891,0.4011686,-0.5180458,-0.3665118,-0.02001594
744.4194,0.04491499,-0.3282891,0.4011686,-0.5180458,-0.3665118,-0.02001594
744.4333,0.04491532,-0.328276,0.4019136,-0.5180396,-0.3666742,-0.02001552
744.449,0.04491565,-0.3282631,0.4026508,-0.5180334,-0.3668352,-0.02001511
744.4636,0.04491598,-0.3282503,0.4033803,-0.5180272,-0.3669949,-0.0200147
744.4784,0.04491598,-0.3282503,0.4033803,-0.5180272,-0.3669949,-0.0200147
744.4925,0.04491631,-0.3282377,0.4041023,-0.518021,-0.3671532,-0.0200143
744.5081,0.04491664,-0.3282253,0.4048167,-0.5180148,-0.3673102,-0.0200139
744.5225,0.04491696,-0.328213,0.4055237,-0.5180086,-0.3674658,-0.02001349
744.5373,0.04491696,-0.328213,0.4055237,-0.5180086,-0.3674658,-0.02001349
744.5511,0.04491729,-0.3282008,0.4062233,-0.5180025,-0.3676201,-0.0200131
744.5678,0.04491761,-0.3281888,0.4069156,-0.5179963,-0.3677731,-0.0200127
744.5812,0.04491793,-0.3281769,0.4076007,-0.5179901,-0.3679247,-0.02001231
744.596,0.04491793,-0.3281769,0.4076007,-0.5179901,-0.3679247,-0.02001231
744.6102,0.04491825,-0.3281652,0.4082786,-0.5179839,-0.3680751,-0.02001192
744.6254,0.04491857,-0.3281536,0.4089495,-0.5179778,-0.3682241,-0.02001153
744.6399,0.04491857,-0.3281536,0.4089495,-0.5179778,-0.3682241,-0.02001153
744.6537,0.04491889,-0.3281422,0.4096133,-0.5179716,-0.3683719,-0.02001115
744.6694,0.0449192,-0.3281309,0.4102703,-0.5179655,-0.3685184,-0.02001077
744.6838,0.04491952,-0.3281197,0.4109203,-0.5179594,-0.3686636,-0.02001039
744.6985,0.04491952,-0.3281197,0.4109203,-0.5179594,-0.3686636,-0.02001039
744.7127,0.04491983,-0.3281086,0.4115636,-0.5179533,-0.3688076,-0.02001002
744.7282,0.04492015,-0.3280977,0.4122001,-0.5179472,-0.3689503,-0.02000965
744.7429,0.04492046,-0.3280869,0.41283,-0.5179411,-0.3690917,-0.02000928
744.7579,0.04492046,-0.3280869,0.41283,-0.5179411,-0.3690917,-0.02000928
744.7717,0.04492077,-0.3280763,0.4134533,-0.517935,-0.369232,-0.02000891
744.7871,0.04492108,-0.3280658,0.41407,-0.517929,-0.369371,-0.02000855
744.8017,0.04492139,-0.3280554,0.4146803,-0.517923,-0.3695087,-0.02000819
744.8165,0.04492139,-0.3280554,0.4146803,-0.517923,-0.3695087,-0.02000819
744.8326,0.04492169,-0.3280451,0.4152842,-0.517917,-0.3696453,-0.02000783
744.8458,0.044922,-0.3280349,0.4158818,-0.517911,-0.3697807,-0.02000748
744.8605,0.0449223,-0.3280249,0.4164732,-0.517905,-0.3699149,-0.02000712
744.8754,0.0449223,-0.3280249,0.4164732,-0.517905,-0.3699149,-0.02000712
744.8892,0.04492261,-0.328015,0.4170583,-0.517899,-0.3700478,-0.02000677
744.9045,0.04492291,-0.3280052,0.4176373,-0.5178931,-0.3701797,-0.02000643
744.9189,0.04492291,-0.3280052,0.4176373,-0.5178931,-0.3701797,-0.02000643
744.9329,0.04492321,-0.3279955,0.4182102,-0.5178872,-0.3703103,-0.02000608
744.95,0.04492351,-0.3279859,0.4187771,-0.5178813,-0.3704398,-0.02000574
744.9631,0.0449238,-0.3279765,0.4193381,-0.5178754,-0.3705681,-0.0200054
744.9777,0.0449238,-0.3279765,0.4193381,-0.5178754,-0.3705681,-0.0200054
744.9918,0.0449241,-0.3279672,0.4198932,-0.5178695,-0.3706953,-0.02000507
745.0076,0.0449244,-0.327958,0.4204424,-0.5178637,-0.3708214,-0.02000473
745.022,0.04492469,-0.3279488,0.4209859,-0.5178579,-0.3709463,-0.0200044
745.0369,0.04492469,-0.3279488,0.4209859,-0.5178579,-0.3709463,-0.0200044
745.0507,0.04492499,-0.3279398,0.4215237,-0.5178521,-0.3710701,-0.02000407
745.0662,0.04492528,-0.327931,0.4220558,-0.5178463,-0.3711928,-0.02000375
745.0809,0.04492557,-0.3279222,0.4225823,-0.5178406,-0.3713144,-0.02000342
745.0967,0.04492557,-0.3279222,0.4225823,-0.5178406,-0.3713144,-0.02000342
745.1107,0.04492586,-0.3279135,0.4231033,-0.5178349,-0.3714349,-0.02000311
745.125,0.04492615,-0.3279049,0.4236189,-0.5178292,-0.3715543,-0.02000279
745.1396,0.04492615,-0.3279049,0.4236189,-0.5178292,-0.3715543,-0.02000279
745.1535,0.04492644,-0.3278964,0.4241289,-0.5178235,-0.3716726,-0.02000248
745.1687,0.04492673,-0.3278881,0.4246337,-0.5178179,-0.3717898,-0.02000216
745.1833,0.04492701,-0.3278798,0.4251331,-0.5178123,-0.371906,-0.02000185
745.1981,0.04492701,-0.3278798,0.4251331,-0.5178123,-0.371906,-0.02000185
745.2122,0.0449273,-0.3278716,0.4256273,-0.5178066,-0.3720211,-0.02000155
745.2276,0.04492758,-0.3278635,0.4261162,-0.517801,-0.3721352,-0.02000124
745.2422,0.04492786,-0.3278556,0.4266,-0.5177955,-0.3722483,-0.02000094
745.2571,0.04492786,-0.3278556,0.4266,-0.5177955,-0.3722483,-0.02000094
745.2709,0.04492814,-0.3278477,0.4270788,-0.51779,-0.3723603,-0.02000064
745.2865,0.04492842,-0.3278399,0.4275524,-0.5177845,-0.3724713,-0.02000034
745.3027,0.04492871,-0.3278322,0.428167,-0.5190107,-0.3727767,-0.0200036
745.3159,0.04492871,-0.3278322,0.428167,-0.5190107,-0.3727767,-0.0200036
745.3299,0.04492901,-0.3278246,0.4287646,-0.5209351,-0.3730938,-0.02000532
745.3453,0.04492929,-0.3278171,0.4293135,-0.5231731,-0.3733708,-0.02000641
745.361,0.04492958,-0.3278097,0.4298235,-0.525541,-0.3736087,-0.02000722
745.376,0.04492958,-0.3278097,0.4298235,-0.525541,-0.3736087,-0.02000722
745.3889,0.04492984,-0.3278023,0.4301655,-0.5267192,-0.3736244,-0.02000445
745.4041,0.04493011,-0.3277951,0.4305055,-0.5271993,-0.3736093,-0.0200031
745.4186,0.04493011,-0.3277951,0.4305055,-0.5271993,-0.3736093,-0.0200031
745.4326,0.04493038,-0.3277879,0.4308798,-0.5273461,-0.3736205,-0.02000233
745.4482,0.04493064,-0.3277808,0.4311378,-0.5261021,-0.3734668,-0.01999835
745.4628,0.04493089,-0.3277738,0.4314206,-0.5240847,-0.3733196,-0.01999594
745.4774,0.04493089,-0.3277738,0.4314206,-0.5240847,-0.3733196,-0.01999594
745.4915,0.04493115,-0.3277669,0.4317499,-0.5217189,-0.3732216,-0.01999417
745.507,0.04493142,-0.3277601,0.432111,-0.5192077,-0.3731668,-0.01999267
745.5216,0.04493167,-0.3277533,0.4323417,-0.5154163,-0.3729458,-0.01998775
745.5366,0.04493167,-0.3277533,0.4323417,-0.5154163,-0.3729458,-0.01998775
745.5504,0.04493191,-0.3277466,0.4325859,-0.5109251,-0.3727276,-0.01998439
745.5659,0.04493216,-0.32774,0.4328706,-0.5061405,-0.3725574,-0.01998168
745.5806,0.04493242,-0.3277335,0.4331843,-0.5012565,-0.3724312,-0.01997924
745.5955,0.04493242,-0.3277335,0.4331843,-0.5012565,-0.3724312,-0.01997924
745.6096,0.04493266,-0.3277271,0.4333611,-0.4951342,-0.3721366,-0.01997312
745.6257,0.0449329,-0.3277207,0.4335486,-0.4883507,-0.3718446,-0.01996864
745.6397,0.0449329,-0.3277207,0.4335486,-0.4883507,-0.3718446,-0.01996864
745.6533,0.04493314,-0.3277144,0.4337768,-0.4813111,-0.3716028,-0.01996482
745.6687,0.04493339,-0.3277082,0.4340168,-0.4740637,-0.3713839,-0.01996078
745.6832,0.04493363,-0.3277021,0.4342736,-0.4667626,-0.3711972,-0.01995705
745.698,0.04493363,-0.3277021,0.4342736,-0.4667626,-0.3711972,-0.01995705
745.7119,0.04493387,-0.3276961,0.4345419,-0.4594964,-0.3710388,-0.01995342
745.7274,0.04493411,-0.3276901,0.4348153,-0.4523065,-0.3709019,-0.01994983
745.7421,0.04493435,-0.3276842,0.4350898,-0.445212,-0.3707813,-0.01994624
745.7568,0.04493435,-0.3276842,0.4350898,-0.445212,-0.3707813,-0.01994624
745.7712,0.0449346,-0.3276784,0.4353634,-0.438221,-0.3706734,-0.01994263
745.7862,0.04493484,-0.3276727,0.4356352,-0.4313366,-0.3705764,-0.01993899
745.8011,0.04493507,-0.327667,0.4359052,-0.4245593,-0.3704892,-0.01993532
745.8157,0.04493507,-0.327667,0.4359052,-0.4245593,-0.3704892,-0.01993532
745.8299,0.04493531,-0.3276614,0.4361736,-0.4178886,-0.3704109,-0.01993163
745.8452,0.04493555,-0.3276559,0.4364408,-0.4113232,-0.3703415,-0.01992789
745.8605,0.04493579,-0.3276504,0.4367071,-0.4048619,-0.3702806,-0.01992412
745.8748,0.04493579,-0.3276504,0.4367071,-0.4048619,-0.3702806,-0.01992412
745.8908,0.04493602,-0.327645,0.4369728,-0.3985029,-0.3702281,-0.01992032
745.9041,0.04493626,-0.3276397,0.4372381,-0.3922448,-0.3701839,-0.01991646
745.9186,0.04493626,-0.3276397,0.4372381,-0.3922448,-0.3701839,-0.01991646
745.9328,0.04493649,-0.3276345,0.4375034,-0.3860859,-0.3701479,-0.01991257
745.948,0.04493673,-0.3276293,0.4377688,-0.3800248,-0.37012,-0.01990863
745.9625,0.04493696,-0.3276241,0.4380346,-0.3740598,-0.3701,-0.01990464
745.9772,0.04493696,-0.3276241,0.4380346,-0.3740598,-0.3701,-0.01990464
745.9911,0.04493719,-0.3276191,0.4383008,-0.3681895,-0.3700879,-0.0199006
746.0067,0.04493742,-0.3276141,0.4385675,-0.3624123,-0.3700836,-0.01989651
746.0213,0.04493766,-0.3276091,0.4388351,-0.3567268,-0.370087,-0.01989237
746.036,0.04493766,-0.3276091,0.4388351,-0.3567268,-0.370087,-0.01989237
746.05,0.04493789,-0.3276042,0.4391035,-0.3511315,-0.370098,-0.01988818
746.0655,0.04493811,-0.3275994,0.4393729,-0.345625,-0.3701165,-0.01988392
746.0803,0.04493834,-0.3275946,0.4396434,-0.3402059,-0.3701424,-0.01987961
746.0951,0.04493834,-0.3275946,0.4396434,-0.3402059,-0.3701424,-0.01987961
746.1093,0.04493857,-0.3275899,0.4399151,-0.3348728,-0.3701757,-0.01987523
746.1246,0.0449388,-0.3275853,0.4401881,-0.3296244,-0.3702162,-0.01987079
746.1391,0.0449388,-0.3275853,0.4401881,-0.3296244,-0.3702162,-0.01987079
746.1555,0.04493902,-0.3275807,0.4404625,-0.3244592,-0.3702639,-0.01986628
746.1689,0.04493925,-0.3275762,0.4407384,-0.319376,-0.3703187,-0.01986171
746.1833,0.04493947,-0.3275717,0.441016,-0.3143734,-0.3703804,-0.01985706
746.1978,0.04493947,-0.3275717,0.441016,-0.3143734,-0.3703804,-0.01985706
746.2119,0.04493969,-0.3275673,0.4412952,-0.3094503,-0.3704492,-0.01985234
746.2272,0.04493992,-0.3275629,0.4415762,-0.3046053,-0.3705247,-0.01984755
746.2419,0.04494014,-0.3275586,0.4418591,-0.2998372,-0.3706071,-0.01984268
746.2571,0.04494014,-0.3275586,0.4418591,-0.2998372,-0.3706071,-0.01984268
746.2704,0.04494036,-0.3275543,0.4421439,-0.2951447,-0.3706962,-0.01983773
746.2858,0.04494058,-0.3275501,0.4424308,-0.2905268,-0.3707919,-0.01983271
746.3008,0.0449408,-0.327546,0.4427198,-0.2859821,-0.3708943,-0.01982759
746.3154,0.0449408,-0.327546,0.4427198,-0.2859821,-0.3708943,-0.01982759
746.3297,0.04494102,-0.3275419,0.4430109,-0.2815096,-0.3710032,-0.01982239
746.3449,0.04494123,-0.3275378,0.4433044,-0.2771081,-0.3711185,-0.0198171
746.3598,0.04494123,-0.3275378,0.4433044,-0.2771081,-0.3711185,-0.0198171
746.374,0.04494145,-0.3275338,0.4436002,-0.2727764,-0.3712402,-0.01981172
746.3892,0.04494166,-0.3275299,0.4438984,-0.2685135,-0.3713683,-0.01980624
746.4041,0.04494188,-0.327526,0.4441991,-0.2643183,-0.3715027,-0.01980067
746.4196,0.04494188,-0.327526,0.4441991,-0.2643183,-0.3715027,-0.01980067
746.4338,0.0449421,-0.3275221,0.4445023,-0.2601897,-0.3716433,-0.019795
746.448,0.04494231,-0.3275183,0.4448082,-0.2561266,-0.3717901,-0.01978923
746.4627,0.04494252,-0.3275145,0.4451167,-0.2521279,-0.371943,-0.01978335
746.4776,0.04494252,-0.3275145,0.4451167,-0.2521279,-0.371943,-0.01978335
746.4914,0.04494273,-0.3275108,0.445428,-0.2481928,-0.3721019,-0.01977737
746.5069,0.04494295,-0.3275071,0.4457421,-0.2443202,-0.3722669,-0.01977127
746.5213,0.04494316,-0.3275035,0.446059,-0.240509,-0.3724379,-0.01976507
746.5361,0.04494316,-0.3275035,0.446059,-0.240509,-0.3724379,-0.01976507
746.5502,0.04494337,-0.3274999,0.4463789,-0.2367583,-0.3726148,-0.01975875
746.5657,0.04494357,-0.3274963,0.4467017,-0.2330672,-0.3727975,-0.01975231
746.5807,0.04494378,-0.3274928,0.4470275,-0.2294347,-0.3729861,-0.01974575
746.5953,0.04494378,-0.3274928,0.4470275,-0.2294347,-0.3729861,-0.01974575
746.6096,0.04494399,-0.3274893,0.4473563,-0.2258598,-0.3731804,-0.01973906
746.625,0.0449442,-0.3274859,0.4476882,-0.2223417,-0.3733805,-0.01973225
746.6397,0.0449442,-0.3274859,0.4476882,-0.2223417,-0.3733805,-0.01973225
746.654,0.04494441,-0.3274826,0.4480233,-0.2188795,-0.3735862,-0.01972531
746.67,0.04494461,-0.3274792,0.4483615,-0.2154723,-0.3737976,-0.01971824
746.6839,0.04494482,-0.3274759,0.4487029,-0.2121191,-0.3740145,-0.01971102
746.6986,0.04494482,-0.3274759,0.4487029,-0.2121191,-0.3740145,-0.01971102
746.7125,0.04494502,-0.3274727,0.4490476,-0.2088192,-0.3742369,-0.01970367
746.7279,0.04494523,-0.3274694,0.4493955,-0.2055717,-0.3744648,-0.01969618
746.7426,0.04494543,-0.3274662,0.4497467,-0.2023758,-0.3746981,-0.01968855
746.7572,0.04494543,-0.3274662,0.4497467,-0.2023758,-0.3746981,-0.01968855
746.7713,0.04494563,-0.3274631,0.4501012,-0.1992306,-0.3749368,-0.01968076
746.7868,0.04494583,-0.32746,0.450459,-0.1961353,-0.3751809,-0.01967283
746.8013,0.04494603,-0.3274569,0.4508202,-0.1930893,-0.3754302,-0.01966475
746.8192,0.04494603,-0.3274569,0.4508202,-0.1930893,-0.3754302,-0.01966475
746.8318,0.04494623,-0.3274539,0.4511847,-0.1900916,-0.3756847,-0.0196565
746.8459,0.04494643,-0.3274509,0.4515527,-0.1871415,-0.3759444,-0.0196481
746.8608,0.04494663,-0.3274479,0.451924,-0.1842382,-0.3762091,-0.01963952
746.8758,0.04494663,-0.3274479,0.451924,-0.1842382,-0.3762091,-0.01963952
746.8897,0.04494682,-0.327445,0.4522987,-0.1813811,-0.376479,-0.01963079
746.9051,0.04494702,-0.3274421,0.4526768,-0.1785693,-0.3767538,-0.01962189
746.9208,0.04494722,-0.3274392,0.4530582,-0.1758023,-0.3770336,-0.01961281
746.9344,0.04494722,-0.3274392,0.4530582,-0.1758023,-0.3770336,-0.01961281
746.9485,0.04494741,-0.3274364,0.4534431,-0.1730791,-0.3773182,-0.01960355
746.9639,0.04494761,-0.3274336,0.4538313,-0.1703993,-0.3776076,-0.01959412
746.9785,0.04494761,-0.3274336,0.4538313,-0.1703993,-0.3776076,-0.01959412
746.9924,0.0449478,-0.3274309,0.4542228,-0.167762,-0.3779018,-0.0195845
747.0079,0.04494799,-0.3274282,0.4546176,-0.1651666,-0.3782006,-0.0195747
747.0226,0.04494819,-0.3274255,0.4550158,-0.1626124,-0.378504,-0.01956471
747.0374,0.04494819,-0.3274255,0.4550158,-0.1626124,-0.378504,-0.01956471
747.0511,0.04494838,-0.3274228,0.4554172,-0.1600988,-0.378812,-0.01955453
747.0669,0.04494857,-0.3274202,0.4558219,-0.1576251,-0.3791244,-0.01954415
747.0814,0.04494876,-0.3274176,0.4562298,-0.1551908,-0.3794411,-0.01953358
747.0963,0.04494876,-0.3274176,0.4562298,-0.1551908,-0.3794411,-0.01953358
747.1104,0.04494895,-0.327415,0.4566409,-0.1527951,-0.3797621,-0.0195228
747.1257,0.04494914,-0.3274125,0.4570551,-0.1504374,-0.3800874,-0.01951183
747.1407,0.04494933,-0.32741,0.4575389,-0.1482601,-0.3804856,-0.01950562
747.1553,0.04494933,-0.32741,0.4575389,-0.1482601,-0.3804856,-0.01950562
747.1715,0.04494952,-0.3274075,0.4580259,-0.1462038,-0.3808894,-0.01949722
747.1855,0.0449497,-0.3274051,0.4585036,-0.144221,-0.3812854,-0.01948779
747.1993,0.0449497,-0.3274051,0.4585036,-0.144221,-0.3812854,-0.01948779
747.2136,0.0449499,-0.3274027,0.4595659,-0.1435019,-0.3822862,-0.0195236
747.2286,0.0449501,-0.3274003,0.4606101,-0.1435392,-0.3832816,-0.01954046
747.2433,0.04495029,-0.3273979,0.4615349,-0.1439283,-0.3841629,-0.01954924
747.2578,0.04495029,-0.3273979,0.4615349,-0.1439283,-0.3841629,-0.01954924
747.2719,0.04495048,-0.3273956,0.4623564,-0.1444785,-0.3849421,-0.01955453
747.2876,0.04495068,-0.3273933,0.4637043,-0.1463128,-0.3862666,-0.01960466
747.3019,0.04495088,-0.3273911,0.4649737,-0.1488925,-0.387524,-0.0196343
747.3167,0.04495088,-0.3273911,0.4649737,-0.1488925,-0.387524,-0.0196343
747.3306,0.04495108,-0.3273888,0.4660857,-0.1517976,-0.3886279,-0.01965499
747.3461,0.04495127,-0.3273866,0.4670688,-0.1548305,-0.389603,-0.01967151
747.3608,0.04495148,-0.3273844,0.4685227,-0.159114,-0.3910678,-0.01972786
747.3757,0.04495148,-0.3273844,0.4685227,-0.159114,-0.3910678,-0.01972786
747.3896,0.04495168,-0.3273823,0.4698737,-0.164104,-0.3924414,-0.01976424
747.4052,0.04495187,-0.3273802,0.4710515,-0.1693815,-0.3936458,-0.01979147
747.42,0.04495207,-0.3273781,0.4720859,-0.1747495,-0.3947072,-0.01981398
747.4355,0.04495207,-0.3273781,0.4720859,-0.1747495,-0.3947072,-0.01981398
747.4495,0.04495227,-0.327376,0.4735154,-0.1813353,-0.3961846,-0.01986828
747.4639,0.04495248,-0.327374,0.4748312,-0.1885883,-0.3975617,-0.01990473
747.4786,0.04495248,-0.327374,0.4748312,-0.1885883,-0.3975617,-0.01990473
747.4926,0.04495268,-0.327372,0.4759682,-0.1960921,-0.3987653,-0.01993262
747.5081,0.04495286,-0.32737,0.4764284,-0.2022113,-0.3992653,-0.01992222
747.5224,0.04495304,-0.3273681,0.476799,-0.2074586,-0.3996564,-0.01992407
747.537,0.04495304,-0.3273681,0.476799,-0.2074586,-0.3996564,-0.01992407
747.551,0.04495323,-0.3273661,0.4771983,-0.2122553,-0.4000667,-0.01993028
747.5664,0.04495341,-0.3273642,0.4776274,-0.216801,-0.4005027,-0.01993786
747.5812,0.0449536,-0.3273623,0.478067,-0.2211911,-0.4009478,-0.01994563
747.5959,0.0449536,-0.3273623,0.478067,-0.2211911,-0.4009478,-0.01994563
747.6102,0.04495378,-0.3273604,0.4785007,-0.2254716,-0.4013871,-0.01995315
747.6256,0.04495396,-0.3273585,0.4789186,-0.229665,-0.401811,-0.01996026
747.6404,0.04495414,-0.3273567,0.4793155,-0.2337827,-0.4022146,-0.01996692
747.6551,0.04495414,-0.3273567,0.4793155,-0.2337827,-0.4022146,-0.01996692
747.6689,0.04495422,-0.3273549,0.4796894,-0.2378305,-0.4025958,-0.01997311
747.6841,0.04495426,-0.3273531,0.4800395,-0.2418121,-0.4029536,-0.01997888
747.7003,0.04495429,-0.3273513,0.4803662,-0.2457294,-0.4032883,-0.01998423
747.7148,0.04495429,-0.3273513,0.4803662,-0.2457294,-0.4032883,-0.01998423
747.7278,0.04422691,-0.3273511,0.4816604,-0.2491785,-0.4044285,-0.019988
747.7432,0.04304489,-0.327351,0.4832221,-0.2524491,-0.4057547,-0.01999129
747.7578,0.04304489,-0.327351,0.4832221,-0.2524491,-0.4057547,-0.01999129
747.7718,0.04158173,-0.3273509,0.4847908,-0.2556564,-0.4070492,-0.01999435
747.787,0.0399478,-0.3273506,0.4862809,-0.2588392,-0.4082495,-0.01999724
747.8016,0.03748494,-0.3273515,0.4886312,-0.2616006,-0.4101484,-0.01999887
747.8162,0.03748494,-0.3273515,0.4886312,-0.2616006,-0.4101484,-0.01999887
747.8304,0.03451083,-0.3273522,0.4911736,-0.2642259,-0.4121644,-0.02000016
747.846,0.03122753,-0.3273526,0.493666,-0.2668234,-0.4141009,-0.02000136
747.8605,0.02776343,-0.3273526,0.4960346,-0.2694255,-0.4159079,-0.0200025
747.8755,0.02776343,-0.3273526,0.4960346,-0.2694255,-0.4159079,-0.0200025
747.8895,0.02347177,-0.3273537,0.4992074,-0.271632,-0.4183717,-0.02000248
747.9048,0.01867743,-0.3273545,0.5025371,-0.2737232,-0.4209307,-0.02000223
747.9197,0.01867743,-0.3273545,0.5025371,-0.2737232,-0.4209307,-0.02000223
747.9337,0.01358693,-0.3273548,0.5057912,-0.275804,-0.4233962,-0.02000194
747.9492,0.007603088,-0.3273558,0.509833,-0.2775037,-0.4265032,-0.02000059
747.965,0.001082321,-0.3273563,0.5140036,-0.2791098,-0.4296827,-0.01999906
747.9785,0.001082321,-0.3273563,0.5140036,-0.2791098,-0.4296827,-0.01999906
747.9924,-0.005748902,-0.327356,0.5180697,-0.2807277,-0.432747,-0.01999755
748.0081,-0.01274681,-0.3273552,0.5219642,-0.2823856,-0.4356522,-0.01999606
748.0224,-0.02054861,-0.3273552,0.5266149,-0.2836847,-0.4391903,-0.01999351
748.037,-0.02054861,-0.3273552,0.5266149,-0.2836847,-0.4391903,-0.01999351
748.051,-0.02882342,-0.3273546,0.5313842,-0.2848987,-0.4428068,-0.01999079
748.0662,-0.03736112,-0.3273532,0.5360456,-0.2861291,-0.4463162,-0.01998811
748.0808,-0.04602842,-0.3273512,0.5405326,-0.2874041,-0.4496728,-0.01998548
748.0957,-0.04602842,-0.3273512,0.5405326,-0.2874041,-0.4496728,-0.01998548
748.1098,-0.05546928,-0.3273501,0.5457801,-0.2883298,-0.4536776,-0.01998178
748.1251,-0.06535719,-0.3273481,0.5511428,-0.2891782,-0.4577661,-0.01997792
748.14,-0.07548487,-0.3273454,0.5563918,-0.2900507,-0.4617492,-0.01997413
748.1547,-0.07548487,-0.3273454,0.5563918,-0.2900507,-0.4617492,-0.01997413
748.1689,-0.08644928,-0.3273432,0.5624131,-0.2905857,-0.4663908,-0.01996926
748.1843,-0.09789406,-0.3273399,0.5685352,-0.2910621,-0.4711046,-0.01996428
748.1991,-0.09789406,-0.3273399,0.5685352,-0.2910621,-0.4711046,-0.01996428
748.2128,-0.109593,-0.3273347,0.5745213,-0.2915814,-0.4756946,-0.0199594
748.2294,-0.1214028,-0.3273274,0.5803052,-0.2921708,-0.4801145,-0.01995462
748.2432,-0.1339611,-0.327321,0.586859,-0.2924443,-0.485208,-0.01994869
748.2584,-0.1339611,-0.327321,0.586859,-0.2924443,-0.485208,-0.01994869
748.2719,-0.1469377,-0.3273129,0.5935138,-0.2926655,-0.4903845,-0.01994263
748.287,-0.1601228,-0.3273025,0.6000352,-0.2929322,-0.4954472,-0.01993669
748.3016,-0.173384,-0.3272901,0.6063562,-0.2932712,-0.5003467,-0.01993085
748.3165,-0.173384,-0.3272901,0.6063562,-0.2932712,-0.5003467,-0.01993085
748.3304,-0.1873656,-0.3272786,0.613473,-0.2933044,-0.5059528,-0.01992378
748.3458,-0.2017418,-0.3272653,0.6206954,-0.2932915,-0.511652,-0.0199166
748.3605,-0.2163059,-0.3272497,0.6277821,-0.2933302,-0.5172392,-0.01990954
748.3757,-0.2163059,-0.3272497,0.6277821,-0.2933302,-0.5172392,-0.01990954
748.3895,-0.2316554,-0.3272345,0.6356903,-0.2930752,-0.5235562,-0.01990124
748.4052,-0.2474346,-0.3272168,0.6436941,-0.2927921,-0.5299573,-0.01989286
748.4197,-0.2474346,-0.3272168,0.6436941,-0.2927921,-0.5299573,-0.01989286
748.4339,-0.2634178,-0.3271963,0.651544,-0.2925787,-0.5362306,-0.01988463
748.4495,-0.2794622,-0.3271733,0.6591715,-0.2924605,-0.5423249,-0.01987654
748.464,-0.2962062,-0.3271509,0.6676347,-0.2920712,-0.5491769,-0.01986705
748.4799,-0.2962062,-0.3271509,0.6676347,-0.2920712,-0.5491769,-0.01986705
748.494,-0.3133201,-0.3271264,0.6762012,-0.2916597,-0.5561285,-0.01985747
748.5085,-0.3305947,-0.3270992,0.6846179,-0.2913192,-0.5629612,-0.01984805
748.523,-0.347898,-0.3270699,0.692814,-0.291075,-0.5696198,-0.01983879
748.5377,-0.347898,-0.3270699,0.692814,-0.291075,-0.5696198,-0.01983879
748.5516,-0.365875,-0.3270415,0.7018861,-0.290571,-0.5770813,-0.01982803
748.5671,-0.3842005,-0.3270111,0.7110692,-0.2900509,-0.5846537,-0.01981721
748.5819,-0.4026682,-0.3269781,0.7200994,-0.2896065,-0.5921065,-0.01980658
748.5967,-0.4026682,-0.3269781,0.7200994,-0.2896065,-0.5921065,-0.01980658
748.6108,-0.4218763,-0.3269455,0.73004,-0.2889165,-0.6003936,-0.01979443
748.6262,-0.4414693,-0.3269101,0.7400819,-0.2882279,-0.6087821,-0.01978227
748.6409,-0.4612222,-0.3268715,0.7499509,-0.2876327,-0.6170323,-0.01977035
748.6558,-0.4612222,-0.3268715,0.7499509,-0.2876327,-0.6170323,-0.01977035
748.6699,-0.4809929,-0.3268304,0.7595728,-0.2871546,-0.6250856,-0.01975864
748.6854,-0.50142,-0.3267901,0.7701293,-0.2864555,-0.6340086,-0.01974524
748.7003,-0.5221744,-0.3267475,0.7807955,-0.285764,-0.6430475,-0.01973183
748.7148,-0.5221744,-0.3267475,0.7807955,-0.285764,-0.6430475,-0.01973183
748.7311,-0.5430474,-0.3267022,0.79129,-0.2851664,-0.6519529,-0.01971869
748.7445,-0.5639076,-0.3266548,0.8015344,-0.2846862,-0.6606603,-0.01970581
748.7593,-0.5639076,-0.3266548,0.8015344,-0.2846862,-0.6606603,-0.01970581
748.7732,-0.5854005,-0.3266085,0.8127595,-0.2839993,-0.6702873,-0.01969116
748.7885,-0.6072012,-0.3265602,0.8240985,-0.283326,-0.6800372,-0.01967654
748.8031,-0.629104,-0.3265093,0.8352562,-0.2827509,-0.6896453,-0.01966229
748.8177,-0.629104,-0.3265093,0.8352562,-0.2827509,-0.6896453,-0.01966229
748.832,-0.6512002,-0.3264571,0.8465378,-0.2822027,-0.699395,-0.01964774
748.8474,-0.6733253,-0.3264033,0.8576574,-0.2817474,-0.7090262,-0.01963341
748.8621,-0.695376,-0.3263485,0.8685291,-0.2814035,-0.7184641,-0.01961941
748.8773,-0.695376,-0.3263485,0.8685291,-0.2814035,-0.7184641,-0.01961941
748.8915,-0.7172874,-0.3262932,0.8791365,-0.2811698,-0.7276967,-0.0196057
748.9083,-0.7390196,-0.3262383,0.8894849,-0.2810381,-0.7367303,-0.01959229
748.9214,-0.7605482,-0.3261843,0.8995834,-0.2809994,-0.7455741,-0.0195792
748.9362,-0.7605482,-0.3261843,0.8995834,-0.2809994,-0.7455741,-0.0195792
748.9503,-0.7818586,-0.3261315,0.9094387,-0.2810453,-0.7542338,-0.01956642
748.9686,-0.8029428,-0.3260804,0.9190556,-0.2811689,-0.762713,-0.019554
748.9819,-0.8237966,-0.326031,0.9284365,-0.2813644,-0.771013,-0.01954195
748.9955,-0.8237966,-0.326031,0.9284365,-0.2813644,-0.771013,-0.01954195
749.0098,-0.8444183,-0.3259835,0.9375819,-0.2816271,-0.779133,-0.01953031
749.025,-0.8648078,-0.3259379,0.9464912,-0.2819531,-0.787071,-0.01951907
749.0397,-0.8648078,-0.3259379,0.9464912,-0.2819531,-0.787071,-0.01951907
749.0538,-0.8849662,-0.3258943,0.9551637,-0.2823389,-0.7948251,-0.01950826
749.0692,-0.9048949,-0.3258526,0.9635977,-0.2827814,-0.8023927,-0.01949788
749.0839,-0.924596,-0.3258128,0.971792,-0.2832779,-0.8097711,-0.01948793
749.0988,-0.924596,-0.3258128,0.971792,-0.2832779,-0.8097711,-0.01948793
749.113,-0.9440715,-0.3257749,0.979745,-0.2838258,-0.8169578,-0.01947843
749.1287,-0.9633238,-0.3257389,0.9874555,-0.2844224,-0.8239504,-0.01946938
749.1434,-0.9823553,-0.3257047,0.9949225,-0.2850655,-0.8307468,-0.01946076
749.1583,-0.9823553,-0.3257047,0.9949225,-0.2850655,-0.8307468,-0.01946076
749.1724,-1.001168,-0.3256722,1.002145,-0.2857527,-0.8373452,-0.01945257
749.1878,-1.019765,-0.3256415,1.009123,-0.2864818,-0.843744,-0.01944481
749.2047,-1.038149,-0.3256124,1.015856,-0.2872506,-0.8499421,-0.01943748
749.2185,-1.038149,-0.3256124,1.015856,-0.2872506,-0.8499421,-0.01943748
749.2314,-1.056321,-0.3255849,1.022343,-0.2880569,-0.8559387,-0.01943058
749.247,-1.074285,-0.325559,1.028586,-0.2888987,-0.861733,-0.01942409
749.2616,-1.092042,-0.3255346,1.034586,-0.2897739,-0.8673248,-0.01941801
749.2766,-1.092042,-0.3255346,1.034586,-0.2897739,-0.8673248,-0.01941801
749.2906,-1.109595,-0.3255117,1.040342,-0.2906806,-0.872714,-0.01941234
749.3066,-1.126947,-0.3254902,1.045856,-0.2916169,-0.8779011,-0.01940705
749.3208,-1.144099,-0.3254701,1.051131,-0.2925809,-0.8828863,-0.01940214
749.3354,-1.144099,-0.3254701,1.051131,-0.2925809,-0.8828863,-0.01940214
749.3499,-1.161054,-0.3254513,1.056166,-0.2935707,-0.8876705,-0.0193976
749.3652,-1.177815,-0.3254338,1.060965,-0.2945846,-0.8922545,-0.01939342
749.3802,-1.194382,-0.3254176,1.065528,-0.2956209,-0.8966396,-0.01938958
749.395,-1.194382,-0.3254176,1.065528,-0.2956209,-0.8966396,-0.01938958
749.4092,-1.21076,-0.3254026,1.06986,-0.296678,-0.9008272,-0.01938609
749.4248,-1.226728,-0.3253881,1.073532,-0.2978229,-0.9044191,-0.01938355
749.4405,-1.242372,-0.3253751,1.076862,-0.2990059,-0.907712,-0.01938137
749.4553,-1.242372,-0.3253751,1.076862,-0.2990059,-0.907712,-0.01938137
749.4682,-1.257747,-0.3253637,1.079964,-0.3002044,-0.9108121,-0.01937942
749.4836,-1.272888,-0.3253541,1.082875,-0.3014093,-0.9137516,-0.01937772
749.4984,-1.272888,-0.3253541,1.082875,-0.3014093,-0.9137516,-0.01937772
749.5123,-1.287092,-0.3253437,1.084201,-0.3028385,-0.915229,-0.01937823
749.5277,-1.300645,-0.3253355,1.08497,-0.3043377,-0.916209,-0.01937913
749.5428,-1.313734,-0.3253303,1.085546,-0.3058392,-0.9170312,-0.01938005
749.5574,-1.313734,-0.3253303,1.085546,-0.3058392,-0.9170312,-0.01938005
749.5715,-1.325747,-0.3253258,1.084655,-0.307538,-0.9165008,-0.01938291
749.587,-1.337034,-0.3253241,1.08333,-0.309277,-0.9155871,-0.019386
749.6017,-1.347817,-0.3253245,1.081921,-0.3109901,-0.9146141,-0.01938904
749.6166,-1.347817,-0.3253245,1.081921,-0.3109901,-0.9146141,-0.01938904
749.6307,-1.358238,-0.3253262,1.080519,-0.3126568,-0.9136635,-0.01939202
749.6464,-1.367659,-0.3253274,1.077776,-0.3144985,-0.9114718,-0.01939677
749.6608,-1.376413,-0.3253297,1.074663,-0.3163674,-0.9089505,-0.01940174
749.6757,-1.376413,-0.3253297,1.074663,-0.3163674,-0.9089505,-0.01940174
749.6919,-1.384709,-0.3253336,1.071513,-0.318203,-0.906409,-0.01940656
749.7053,-1.392683,-0.3253396,1.068415,-0.3199873,-0.9039264,-0.0194112
749.72,-1.399694,-0.3253454,1.064055,-0.3219457,-0.9002732,-0.01941745
749.7344,-1.399694,-0.3253454,1.064055,-0.3219457,-0.9002732,-0.01941745
749.7487,-1.406069,-0.3253529,1.05938,-0.3239281,-0.896338,-0.01942382
749.7639,-1.412017,-0.3253628,1.054717,-0.3258731,-0.8924236,-0.01942995
749.7786,-1.412017,-0.3253628,1.054717,-0.3258731,-0.8924236,-0.01942995
749.7927,-1.416944,-0.3253725,1.048868,-0.3279938,-0.8874092,-0.01943752
749.8082,-1.421207,-0.3253838,1.042784,-0.3301302,-0.882184,-0.0194451
749.8228,-1.425036,-0.325397,1.036784,-0.332219,-0.8770454,-0.01945238
749.8376,-1.425036,-0.325397,1.036784,-0.332219,-0.8770454,-0.01945238
749.8516,-1.428575,-0.325412,1.030945,-0.3342416,-0.8720636,-0.01945932
749.8671,-1.431189,-0.3254259,1.024024,-0.3364395,-0.8660766,-0.01946758
749.8817,-1.43321,-0.3254403,1.016909,-0.3386541,-0.8599146,-0.01947585
749.8967,-1.43321,-0.3254403,1.016909,-0.3386541,-0.8599146,-0.01947585
749.9106,-1.434849,-0.3254555,1.009903,-0.3408223,-0.8538597,-0.0194838
749.926,-1.436241,-0.3254714,1.003082,-0.3429252,-0.8479815,-0.01949138
749.942,-1.436744,-0.3254855,0.9952543,-0.3452142,-0.8411674,-0.01950017
749.9556,-1.436744,-0.3254855,0.9952543,-0.3452142,-0.8411674,-0.01950017
749.9697,-1.436685,-0.3254991,0.9872768,-0.3475222,-0.834218,-0.01950893
749.9847,-1.436274,-0.3255126,0.9794431,-0.3497834,-0.8274057,-0.01951733
749.9994,-1.436274,-0.3255126,0.9794431,-0.3497834,-0.8274057,-0.01951733
750.0135,-1.434915,-0.3255239,0.9706766,-0.3522386,-0.8197279,-0.01952681
750.0287,-1.432965,-0.325534,0.9618298,-0.3547081,-0.8119782,-0.01953618
750.0433,-1.430651,-0.3255436,0.9531892,-0.3571224,-0.8044227,-0.01954515
750.058,-1.430651,-0.3255436,0.9531892,-0.3571224,-0.8044227,-0.01954515
750.072,-1.428117,-0.3255527,0.9448205,-0.3594617,-0.7971227,-0.01955368
750.0875,-1.424729,-0.3255592,0.9356151,-0.3619997,-0.7890483,-0.01956318
750.1022,-1.420816,-0.3255639,0.92636,-0.3645552,-0.7809296,-0.01957258
750.1166,-1.420816,-0.3255639,0.92636,-0.3645552,-0.7809296,-0.01957258
750.1304,-1.41659,-0.3255675,0.917323,-0.3670578,-0.7730154,-0.01958159
750.146,-1.412184,-0.3255703,0.908568,-0.3694869,-0.7653651,-0.01959017
750.1609,-1.406956,-0.3255711,0.8990433,-0.3721288,-0.7570049,-0.01959963
750.1756,-1.406956,-0.3255711,0.8990433,-0.3721288,-0.7570049,-0.01959963
750.1895,-1.401233,-0.3255711,0.8895003,-0.3747922,-0.7486296,-0.01960896
750.2068,-1.395221,-0.3255703,0.8801957,-0.3774025,-0.7404768,-0.0196179
750.2205,-1.389054,-0.3255692,0.8711908,-0.3799376,-0.7326037,-0.0196264
750.2343,-1.389054,-0.3255692,0.8711908,-0.3799376,-0.7326037,-0.0196264
750.2482,-1.382086,-0.3255655,0.8614866,-0.3826957,-0.7240885,-0.0196357
750.2634,-1.374644,-0.3255598,0.8517962,-0.3854758,-0.7155877,-0.01964488
750.278,-1.374644,-0.3255598,0.8517962,-0.3854758,-0.7155877,-0.01964488
750.292,-1.366934,-0.3255526,0.842364,-0.3882003,-0.7073269,-0.01965366
750.3076,-1.358361,-0.3255422,0.8322975,-0.3911552,-0.6984859,-0.01966314
750.3219,-1.34928,-0.3255291,0.8223,-0.3941251,-0.6897098,-0.01967245
750.3367,-1.34928,-0.3255291,0.8223,-0.3941251,-0.6897098,-0.01967245
750.3506,-1.339917,-0.325514,0.8126064,-0.3970289,-0.6812155,-0.01968134
750.3661,-1.330417,-0.3254977,0.8032667,-0.3998437,-0.6730499,-0.01968976
750.3811,-1.320142,-0.3254781,0.7933691,-0.4028916,-0.6643786,-0.0196988
750.3955,-1.320142,-0.3254781,0.7933691,-0.4028916,-0.6643786,-0.0196988
750.4097,-1.309422,-0.3254559,0.7835531,-0.4059563,-0.655785,-0.01970768
750.4252,-1.298467,-0.3254318,0.7740357,-0.408956,-0.647468,-0.01971616
750.4402,-1.287411,-0.3254063,0.7648647,-0.411867,-0.6394721,-0.01972421
750.4545,-1.287411,-0.3254063,0.7648647,-0.411867,-0.6394721,-0.01972421
750.4684,-1.275609,-0.3253778,0.7551833,-0.4150224,-0.6310176,-0.01973282
750.4849,-1.263386,-0.3253465,0.7455957,-0.4181962,-0.6226519,-0.01974126
750.4989,-1.263386,-0.3253465,0.7455957,-0.4181962,-0.6226519,-0.01974126
750.5127,-1.250951,-0.3253132,0.7363083,-0.4213028,-0.6145634,-0.01974933
750.5279,-1.237706,-0.3252762,0.7265611,-0.4246594,-0.606064,-0.01975788
750.5425,-1.224007,-0.3252359,0.716948,-0.4280258,-0.5976897,-0.01976625
750.5571,-1.224007,-0.3252359,0.716948,-0.4280258,-0.5976897,-0.01976625
750.5712,-1.21008,-0.325193,0.7076668,-0.4313126,-0.5896204,-0.01977422
750.5864,-1.196067,-0.3251485,0.6987571,-0.4344952,-0.5818931,-0.01978175
750.6011,-1.181331,-0.3251007,0.6894449,-0.4379276,-0.573812,-0.0197897
750.6157,-1.181331,-0.3251007,0.6894449,-0.4379276,-0.573812,-0.0197897
750.6299,-1.166202,-0.3250499,0.680267,-0.4413704,-0.5658568,-0.01979748
750.6452,-1.15089,-0.3249968,0.671405,-0.4447342,-0.5581911,-0.0198049
750.66,-1.135525,-0.3249424,0.6628968,-0.4479937,-0.55085,-0.01981192
750.6748,-1.135525,-0.3249424,0.6628968,-0.4479937,-0.55085,-0.01981192
750.6888,-1.119464,-0.3248849,0.6540182,-0.4515117,-0.5431872,-0.01981931
750.7042,-1.103033,-0.3248246,0.6452745,-0.4550405,-0.5356503,-0.01982654
750.719,-1.103033,-0.3248246,0.6452745,-0.4550405,-0.5356503,-0.01982654
750.7329,-1.086437,-0.3247621,0.636838,-0.4584876,-0.5283932,-0.01983343
750.7497,-1.069079,-0.3246959,0.6280686,-0.4621964,-0.5208492,-0.01984065
750.763,-1.051314,-0.3246261,0.6194623,-0.4659056,-0.513455,-0.01984768
750.7778,-1.051314,-0.3246261,0.6194623,-0.4659056,-0.513455,-0.01984768
750.7918,-1.033369,-0.3245536,0.6111841,-0.4695196,-0.5063578,-0.01985437
750.8071,-1.015384,-0.3244794,0.6032651,-0.4730124,-0.4995863,-0.01986068
750.8217,-0.9967216,-0.3244022,0.5950537,-0.4767637,-0.4925683,-0.01986726
750.8362,-0.9967216,-0.3244022,0.5950537,-0.4767637,-0.4925683,-0.01986726
750.8502,-0.9777117,-0.3243219,0.5869967,-0.4805158,-0.4856924,-0.01987367
750.8655,-0.9585626,-0.3242393,0.5792456,-0.4841736,-0.4790918,-0.01987978
750.8804,-0.939406,-0.3241554,0.5718305,-0.4877106,-0.4727938,-0.01988555
750.8951,-0.939406,-0.3241554,0.5718305,-0.4877106,-0.4727938,-0.01988555
750.9091,-0.9195971,-0.3240691,0.5641418,-0.491513,-0.4662683,-0.01989156
750.9246,-0.8994607,-0.3239799,0.5566003,-0.4953165,-0.459877,-0.01989742
750.9393,-0.8994607,-0.3239799,0.5566003,-0.4953165,-0.459877,-0.01989742
750.9533,-0.8792027,-0.3238886,0.5493501,-0.4990232,-0.4537454,-0.019903
750.9692,-0.8582252,-0.323794,0.5418523,-0.5029968,-0.4474095,-0.01990878
750.9835,-0.8368829,-0.3236957,0.5345209,-0.5069603,-0.4412228,-0.01991441
750.9991,-0.8368829,-0.3236957,0.5345209,-0.5069603,-0.4412228,-0.01991441
751.0141,-0.8154005,-0.3235947,0.5274943,-0.510813,-0.4353052,-0.01991976
751.0284,-0.7939198,-0.3234923,0.5207974,-0.5145286,-0.4296795,-0.01992479
751.0421,-0.7718024,-0.3233872,0.51388,-0.5185062,-0.4238766,-0.01992999
751.0565,-0.7718024,-0.3233872,0.51388,-0.5185062,-0.4238766,-0.01992999
751.0705,-0.7493771,-0.3232793,0.5071157,-0.5224745,-0.4182106,-0.01993505
751.0857,-0.726852,-0.3231693,0.5006316,-0.5263343,-0.4127899,-0.01993987
751.1002,-0.7043584,-0.3230583,0.4944524,-0.5300584,-0.4076363,-0.0199444
751.115,-0.7043584,-0.3230583,0.4944524,-0.5300584,-0.4076363,-0.0199444
751.1292,-0.681251,-0.3229454,0.4880619,-0.5340505,-0.4023151,-0.01994909
751.1443,-0.6578545,-0.3228299,0.4818134,-0.5380343,-0.3971189,-0.01995365
751.1591,-0.6578545,-0.3228299,0.4818134,-0.5380343,-0.3971189,-0.01995365
751.173,-0.634374,-0.3227127,0.4758283,-0.541908,-0.3921503,-0.01995798
751.1885,-0.6103833,-0.322593,0.4697635,-0.5459542,-0.3871239,-0.01996236
751.203,-0.5861722,-0.3224709,0.4638825,-0.5499528,-0.3822566,-0.01996659
751.2177,-0.5861722,-0.3224709,0.4638825,-0.5499528,-0.3822566,-0.01996659
751.2318,-0.5619237,-0.3223472,0.4582697,-0.5538267,-0.3776191,-0.01997058
751.2473,-0.5377533,-0.3222234,0.4529356,-0.5575579,-0.373221,-0.01997435
751.2619,-0.513733,-0.3221005,0.4478647,-0.5611508,-0.3690496,-0.0199779
751.2766,-0.513733,-0.3221005,0.4478647,-0.5611508,-0.3690496,-0.0199779
751.2928,-0.4899078,-0.3219798,0.4430351,-0.5646158,-0.3650859,-0.01998125
751.3072,-0.4663051,-0.3218621,0.438426,-0.5679637,-0.3613117,-0.01998442
751.3206,-0.4429412,-0.321748,0.4340197,-0.5712039,-0.3577112,-0.01998742
751.3353,-0.4429412,-0.321748,0.4340197,-0.5712039,-0.3577112,-0.01998742
751.3491,-0.4198255,-0.3216381,0.4298019,-0.5743434,-0.3542714,-0.01999028
751.3644,-0.3969627,-0.3215326,0.425761,-0.577388,-0.3509814,-0.019993
751.3794,-0.3969627,-0.3215326,0.425761,-0.577388,-0.3509814,-0.019993
751.3931,-0.3743548,-0.3214316,0.4218873,-0.5803419,-0.3478324,-0.0199956
751.4084,-0.3520021,-0.3213354,0.4181727,-0.5832084,-0.3448166,-0.01999808
751.423,-0.3299035,-0.3212438,0.4146099,-0.5859903,-0.3419274,-0.02000046
751.4377,-0.3299035,-0.3212438,0.4146099,-0.5859903,-0.3419274,-0.02000046
751.4521,-0.3080575,-0.3211569,0.4111927,-0.5886899,-0.3391589,-0.02000272
751.467,-0.2864617,-0.3210746,0.4079153,-0.5913091,-0.3365057,-0.02000488
751.4818,-0.2714878,-0.3210174,0.4083337,-0.5901802,-0.3368139,-0.02000454
751.4967,-0.2714878,-0.3210174,0.4083337,-0.5901802,-0.3368139,-0.02000454
751.5107,-0.260742,-0.3209937,0.4098369,-0.5879241,-0.3380416,-0.02000338
751.5261,-0.252702,-0.3209966,0.4114014,-0.5855659,-0.339353,-0.02000216
751.5406,-0.2463986,-0.3210173,0.4127024,-0.583445,-0.3404639,-0.02000115
751.5566,-0.2463986,-0.3210173,0.4127024,-0.583445,-0.3404639,-0.02000115
751.5704,-0.2412144,-0.3210509,0.4136964,-0.5816252,-0.3413247,-0.0200004
751.5847,-0.2367563,-0.321093,0.4144334,-0.5800719,-0.3419677,-0.01999986
751.5992,-0.2367563,-0.321093,0.4144334,-0.5800719,-0.3419677,-0.01999986
751.6135,-0.2327738,-0.3211407,0.414981,-0.5787264,-0.3424453,-0.01999947
751.6288,-0.2291073,-0.3211919,0.417973,-0.5775155,-0.346309,-0.02000472
751.6432,-0.225655,-0.3212451,0.4216044,-0.5763869,-0.3516284,-0.020006
751.6579,-0.225655,-0.3212451,0.4216044,-0.5763869,-0.3516284,-0.020006
751.6718,-0.2223519,-0.3212995,0.4250818,-0.5753176,-0.3573419,-0.02000595
751.6871,-0.2191564,-0.3213544,0.4282255,-0.574295,-0.363066,-0.02000556
751.7017,-0.2160421,-0.3214095,0.4299439,-0.5733179,-0.3671763,-0.02000263
751.7164,-0.2160421,-0.3214095,0.4299439,-0.5733179,-0.3671763,-0.02000263
751.7303,-0.2129919,-0.3214645,0.4310946,-0.5723812,-0.370486,-0.02000158
751.7456,-0.2099947,-0.3215193,0.4320951,-0.5714756,-0.3734656,-0.02000121
751.7604,-0.2070434,-0.3215737,0.4330807,-0.5705916,-0.3762999,-0.02000106
751.7753,-0.2070434,-0.3215737,0.4330807,-0.5705916,-0.3762999,-0.02000106
751.7892,-0.2041333,-0.3216277,0.4329765,-0.5697315,-0.3775654,-0.01999836
751.8044,-0.2012613,-0.3216812,0.4325693,-0.5688964,-0.3781196,-0.01999751
751.819,-0.2012613,-0.3216812,0.4325693,-0.5688964,-0.3781196,-0.01999751
751.8353,-0.1984253,-0.3217343,0.4322053,-0.56808,-0.3784346,-0.01999727
751.8495,-0.1956237,-0.3217869,0.4308572,-0.5672842,-0.3771961,-0.01999457
751.8631,-0.1928556,-0.3218391,0.4293042,-0.5665114,-0.3752925,-0.01999374
751.8778,-0.1928556,-0.3218391,0.4293042,-0.5665114,-0.3752925,-0.01999374
751.8918,-0.19012,-0.3218907,0.4278748,-0.565755,-0.3732025,-0.01999351
751.9071,-0.1874164,-0.3219419,0.4266329,-0.5650078,-0.3711015,-0.01999342
751.9218,-0.1847442,-0.3219925,0.4244508,-0.5642743,-0.3675599,-0.01999072
751.9361,-0.1847442,-0.3219925,0.4244508,-0.5642743,-0.3675599,-0.01999072
751.9501,-0.1821028,-0.3220427,0.4220764,-0.5635608,-0.3634168,-0.01998985
751.9655,-0.179492,-0.3220924,0.4198332,-0.5628617,-0.3591327,-0.01998957
751.9802,-0.1769112,-0.3221417,0.4177877,-0.5621705,-0.3548765,-0.01998945
751.9951,-0.1769112,-0.3221417,0.4177877,-0.5621705,-0.3548765,-0.01998945
752.0092,-0.1743602,-0.3221904,0.4148142,-0.5614912,-0.3492182,-0.01998678
752.0244,-0.1718385,-0.3222387,0.4116639,-0.5608311,-0.3429953,-0.01998592
752.0393,-0.1718385,-0.3222387,0.4116639,-0.5608311,-0.3429953,-0.01998592
752.0532,-0.1693459,-0.3222865,0.4086633,-0.5601845,-0.3366677,-0.01998566
752.0688,-0.1668818,-0.3223338,0.4047682,-0.5595519,-0.3289184,-0.01998307
752.0836,-0.1644462,-0.3223807,0.4007503,-0.5589389,-0.3206271,-0.01998228
752.0984,-0.1644462,-0.3223807,0.4007503,-0.5589389,-0.3206271,-0.01998228
752.1141,-0.1620385,-0.3224271,0.3969347,-0.5583382,-0.3122675,-0.01998209
752.1274,-0.1596585,-0.3224731,0.3933827,-0.5577417,-0.3040115,-0.01998205
752.1422,-0.1573059,-0.3225186,0.3889563,-0.5571519,-0.294426,-0.01997971
752.1569,-0.1573059,-0.3225186,0.3889563,-0.5571519,-0.294426,-0.01997971
752.1708,-0.1549803,-0.3225636,0.3844063,-0.5565773,-0.2843494,-0.01997902
752.186,-0.1526815,-0.3226083,0.3800569,-0.5560119,-0.27424,-0.0199789
752.2007,-0.1504091,-0.3226525,0.3759733,-0.5554485,-0.2642643,-0.01997893
752.2154,-0.1504091,-0.3226525,0.3759733,-0.5554485,-0.2642643,-0.01997893
752.2293,-0.1481628,-0.3226962,0.3710184,-0.5548889,-0.2529851,-0.01997689
752.2446,-0.1459424,-0.3227395,0.3659502,-0.554342,-0.2412435,-0.01997637
752.2594,-0.1459424,-0.3227395,0.3659502,-0.554342,-0.2412435,-0.01997637
752.2734,-0.1437474,-0.3227824,0.3610965,-0.5538018,-0.2294987,-0.01997636
752.2892,-0.1415778,-0.3228249,0.3554008,-0.5532663,-0.2164244,-0.01997461
752.3036,-0.139433,-0.3228669,0.349643,-0.5527422,-0.2029056,-0.01997426
752.3184,-0.139433,-0.3228669,0.349643,-0.5527422,-0.2029056,-0.01997426
752.3323,-0.1373129,-0.3229086,0.3441493,-0.5522225,-0.1894157,-0.01997437
752.3481,-0.1352172,-0.3229498,0.3389789,-0.5516995,-0.1761239,-0.01997462
752.3628,-0.1331456,-0.3229906,0.3329809,-0.5511724,-0.1615869,-0.01997337
752.3787,-0.1331456,-0.3229906,0.3329809,-0.5511724,-0.1615869,-0.01997337
752.3925,-0.1310979,-0.323031,0.3269145,-0.5506507,-0.1466497,-0.01997325
752.4072,-0.1290736,-0.323071,0.3211051,-0.5501291,-0.1317712,-0.01997349
752.4214,-0.1270727,-0.3231106,0.315616,-0.5496014,-0.1171154,-0.01997384
752.436,-0.1270727,-0.3231106,0.315616,-0.5496014,-0.1171154,-0.01997384
752.45,-0.1250947,-0.3231498,0.3092973,-0.5490658,-0.1012358,-0.01997316
752.4652,-0.1231395,-0.3231886,0.3029147,-0.5485317,-0.08497968,-0.01997328
752.4799,-0.1231395,-0.3231886,0.3029147,-0.5485317,-0.08497968,-0.01997328
752.4942,-0.1212068,-0.323227,0.296797,-0.5479945,-0.06880645,-0.01997365
752.5094,-0.1192963,-0.323265,0.2898767,-0.5474488,-0.05138282,-0.01997343
752.524,-0.1174077,-0.3233027,0.282939,-0.5469022,-0.03359796,-0.01997373
752.5387,-0.1174077,-0.3233027,0.282939,-0.5469022,-0.03359796,-0.01997373
752.5525,-0.1155409,-0.32334,0.2763105,-0.5463494,-0.01592478,-0.01997419
752.5679,-0.1136956,-0.3233769,0.2700484,-0.5457851,0.001469992,-0.01997468
752.5828,-0.1118715,-0.3234134,0.2629938,-0.5452046,0.02003182,-0.01997512
752.5974,-0.1118715,-0.3234134,0.2629938,-0.5452046,0.02003182,-0.01997512
752.6117,-0.1100683,-0.3234496,0.2559074,-0.5446174,0.03891532,-0.01997565
752.6269,-0.1082859,-0.3234853,0.2491145,-0.5440202,0.05766309,-0.01997616
752.6425,-0.106524,-0.3235208,0.2426769,-0.5434095,0.07611308,-0.01997665
752.6574,-0.106524,-0.3235208,0.2426769,-0.5434095,0.07611308,-0.01997665
752.6702,-0.1047823,-0.3235559,0.2354425,-0.5427794,0.09570643,-0.01997774
752.6854,-0.1030607,-0.3235906,0.2281723,-0.5421392,0.1156019,-0.01997844
752.7001,-0.1013589,-0.3236249,0.221194,-0.5414869,0.1353431,-0.01997896
752.7145,-0.1013589,-0.3236249,0.221194,-0.5414869,0.1353431,-0.01997896
752.7286,-0.09967665,-0.3236589,0.213443,-0.5408139,0.1562515,-0.01998051
752.744,-0.09801376,-0.3236926,0.205695,-0.5401288,0.1774498,-0.01998131
752.7586,-0.09801376,-0.3236926,0.205695,-0.5401288,0.1774498,-0.01998131
752.7726,-0.09636999,-0.3237259,0.198275,-0.5394298,0.1984699,-0.01998178
752.788,-0.09474512,-0.3237589,0.1912411,-0.5387154,0.2191463,-0.01998214
752.8027,-0.09313894,-0.3237916,0.183445,-0.537977,0.2409008,-0.01998422
752.8175,-0.09313894,-0.3237916,0.183445,-0.537977,0.2409008,-0.01998422
752.8315,-0.09155124,-0.3238239,0.1756291,-0.5372237,0.2629095,-0.01998509
752.8469,-0.08998179,-0.3238559,0.1681157,-0.5364557,0.2847226,-0.01998547
752.8616,-0.0884304,-0.3238876,0.1609691,-0.5356733,0.306179,-0.01998567
752.8766,-0.0884304,-0.3238876,0.1609691,-0.5356733,0.306179,-0.01998567
752.8907,-0.08689686,-0.3239189,0.1530562,-0.534867,0.3286839,-0.01998818
752.908,-0.08538096,-0.3239499,0.1451107,-0.5340456,0.3514281,-0.01998905
752.9217,-0.08388249,-0.3239806,0.1374564,-0.5332106,0.3739658,-0.01998928
752.9351,-0.08388249,-0.3239806,0.1374564,-0.5332106,0.3739658,-0.01998928
752.9493,-0.08240125,-0.324011,0.1301616,-0.532364,0.3961355,-0.01998929
752.9645,-0.08093706,-0.3240411,0.1232119,-0.5315074,0.417887,-0.0199892
752.9791,-0.08093706,-0.3240411,0.1232119,-0.5315074,0.417887,-0.0199892
752.993,-0.07948971,-0.3240708,0.1165723,-0.5306427,0.4392119,-0.01998907
753.0086,-0.078059,-0.3241003,0.110209,-0.5297719,0.4601164,-0.0199889
753.0233,-0.07664476,-0.3241295,0.1051891,-0.5289095,0.4791939,-0.0199856
753.038,-0.07664476,-0.3241295,0.1051891,-0.5289095,0.4791939,-0.0199856
753.0518,-0.07524678,-0.3241584,0.1007526,-0.5280535,0.4972217,-0.01998434
753.0673,-0.07386488,-0.324187,0.09652958,-0.527203,0.5146511,-0.0199838
753.0836,-0.07249889,-0.3242152,0.09240633,-0.5263565,0.5316638,-0.01998346
753.0972,-0.07249889,-0.3242152,0.09240633,-0.5263565,0.5316638,-0.01998346
753.111,-0.0711486,-0.3242432,0.08944505,-0.5255268,0.5469356,-0.01997984
753.1264,-0.06981385,-0.324271,0.08693194,-0.5247132,0.5612419,-0.01997836
753.1411,-0.06849446,-0.3242984,0.08452848,-0.5239128,0.5750296,-0.01997761
753.1561,-0.06849446,-0.3242984,0.08452848,-0.5239128,0.5750296,-0.01997761
753.1724,-0.06719024,-0.3243255,0.08321805,-0.5231355,0.5870945,-0.01997373
753.1854,-0.06590103,-0.3243524,0.08228372,-0.5223809,0.5982396,-0.01997207
753.2,-0.06462665,-0.324379,0.08139314,-0.5216435,0.6089221,-0.01997117
753.2148,-0.06462665,-0.324379,0.08139314,-0.5216435,0.6089221,-0.01997117
753.2288,-0.06336693,-0.3244053,0.08046097,-0.5209178,0.6193244,-0.01997047
753.2443,-0.0621217,-0.3244314,0.08055643,-0.5202144,0.6281475,-0.01996644
753.2589,-0.0621217,-0.3244314,0.08055643,-0.5202144,0.6281475,-0.01996644
753.2729,-0.0608908,-0.3244571,0.08100535,-0.5195361,0.6361361,-0.01996457
753.2883,-0.05967406,-0.3244826,0.08148441,-0.5188772,0.6437252,-0.01996348
753.303,-0.05847132,-0.3245079,0.0819061,-0.5182315,0.6510899,-0.01996261
753.318,-0.05847132,-0.3245079,0.0819061,-0.5182315,0.6510899,-0.01996261
753.3318,-0.05728242,-0.3245329,0.08332991,-0.5176091,0.6569403,-0.01995844
753.3476,-0.0561072,-0.3245576,0.08508717,-0.517014,0.66201,-0.01995644
753.3622,-0.0549455,-0.324582,0.08685317,-0.5164397,0.6667302,-0.01995522
753.3774,-0.0549455,-0.324582,0.08685317,-0.5164397,0.6667302,-0.01995522
753.3914,-0.05379717,-0.3246062,0.08959798,-0.5158931,0.6699239,-0.0199509
753.4068,-0.05266206,-0.3246302,0.09263103,-0.5153767,0.6723623,-0.01994881
753.4221,-0.05154001,-0.3246539,0.09562398,-0.5148821,0.6744913,-0.01994753
753.4362,-0.05154001,-0.3246539,0.09562398,-0.5148821,0.6744913,-0.01994753
753.4506,-0.05043086,-0.3246773,0.09848885,-0.5144005,0.6764913,-0.0199465
753.4654,-0.04933449,-0.3247005,0.1022825,-0.5139407,0.6770846,-0.01994218
753.48,-0.04825072,-0.3247235,0.1063475,-0.5135089,0.6769937,-0.01994004
753.4948,-0.04825072,-0.3247235,0.1063475,-0.5135089,0.6769937,-0.01994004
753.5089,-0.04717943,-0.3247462,0.1103625,-0.5130975,0.676645,-0.01993868
753.5242,-0.04612048,-0.3247687,0.1142379,-0.5126982,0.6762115,-0.0199376
753.539,-0.04612048,-0.3247687,0.1142379,-0.5126982,0.6762115,-0.0199376
753.5529,-0.0450737,-0.3247909,0.1190272,-0.5123196,0.6744152,-0.01993323
753.5685,-0.04403898,-0.3248129,0.1240706,-0.5119689,0.6719756,-0.01993105
753.5831,-0.04301616,-0.3248346,0.1290443,-0.5116384,0.6693178,-0.01992967
753.5978,-0.04301616,-0.3248346,0.1290443,-0.5116384,0.6693178,-0.01992967
753.6121,-0.04200512,-0.3248562,0.1349166,-0.5113329,0.6652694,-0.01992518
753.6274,-0.04100571,-0.3248775,0.141,-0.5110576,0.6605936,-0.01992295
753.6424,-0.0400178,-0.3248986,0.146966,-0.5108025,0.655732,-0.01992154
753.6569,-0.0400178,-0.3248986,0.146966,-0.5108025,0.655732,-0.01992154
753.673,-0.03904127,-0.3249194,0.1527255,-0.5105572,0.650863,-0.01992044
753.6875,-0.03807597,-0.3249401,0.1593397,-0.5103292,0.644706,-0.019916
753.701,-0.03712179,-0.3249605,0.1661484,-0.5101275,0.6379828,-0.01991378
753.7157,-0.03712179,-0.3249605,0.1661484,-0.5101275,0.6379828,-0.01991378
753.7296,-0.03617859,-0.3249807,0.1728296,-0.5099436,0.6311178,-0.0199124
753.7451,-0.03524624,-0.3250007,0.1792943,-0.5097678,0.6242817,-0.01991133
753.7597,-0.03524624,-0.3250007,0.1792943,-0.5097678,0.6242817,-0.01991133
753.7738,-0.03432463,-0.3250205,0.1866056,-0.5096076,0.6161858,-0.01990691
753.7892,-0.03341363,-0.32504,0.1940956,-0.509473,0.6075556,-0.01990475
753.8039,-0.03251312,-0.3250594,0.2014391,-0.509355,0.5988163,-0.01990344
753.8185,-0.03251312,-0.3250594,0.2014391,-0.509355,0.5988163,-0.01990344
753.8328,-0.03162297,-0.3250785,0.2096178,-0.5092573,0.5887795,-0.01989897
753.8483,-0.03074307,-0.3250975,0.2179323,-0.5091869,0.5782185,-0.01989685
753.8631,-0.0298733,-0.3251162,0.2260523,-0.5091326,0.5675765,-0.01989561
753.8779,-0.0298733,-0.3251162,0.2260523,-0.5091326,0.5675765,-0.01989561
753.8921,-0.02901354,-0.3251348,0.2338914,-0.5090829,0.557029,-0.01989471
753.9077,-0.02816368,-0.3251531,0.242529,-0.5090444,0.5452728,-0.01989047
753.9241,-0.0273236,-0.3251712,0.251288,-0.5090277,0.5330459,-0.01988854
753.9373,-0.0273236,-0.3251712,0.251288,-0.5090277,0.5330459,-0.01988854
753.9519,-0.0264932,-0.3251892,0.259844,-0.5090235,0.520776,-0.01988749
753.9662,-0.02567235,-0.3252069,0.268111,-0.5090213,0.5086317,-0.0198868
753.981,-0.02486096,-0.3252245,0.2771747,-0.5090277,0.4952956,-0.01988284
753.9955,-0.02486096,-0.3252245,0.2771747,-0.5090277,0.4952956,-0.01988284
754.0098,-0.02405891,-0.3252418,0.286346,-0.5090537,0.4815145,-0.01988118
754.0249,-0.0232661,-0.325259,0.2952966,-0.5090899,0.4677187,-0.01988042
754.0399,-0.0232661,-0.325259,0.2952966,-0.5090899,0.4677187,-0.01988042
754.0538,-0.02248241,-0.325276,0.3050333,-0.5091385,0.4526884,-0.01987669
754.0693,-0.02170775,-0.3252928,0.3148338,-0.5092069,0.437221,-0.01987528
754.0842,-0.02094201,-0.3253094,0.3243657,-0.5092837,0.4217649,-0.01987477
754.099,-0.02094201,-0.3253094,0.3243657,-0.5092837,0.4217649,-0.01987477
754.1132,-0.02018509,-0.3253259,0.3335477,-0.509357,0.4064931,-0.01987463
754.1287,-0.01943688,-0.3253421,0.3434874,-0.5094317,0.390066,-0.01987156
754.1436,-0.01869729,-0.3253582,0.3534818,-0.5095189,0.3732493,-0.01987065
754.1582,-0.01869729,-0.3253582,0.3534818,-0.5095189,0.3732493,-0.01987065
754.1747,-0.01796621,-0.3253742,0.3632031,-0.5096092,0.3564776,-0.01987059
754.1888,-0.01724355,-0.3253899,0.3725706,-0.5096922,0.3399173,-0.01987088
754.2029,-0.01652922,-0.3254055,0.3826994,-0.5097725,0.3222131,-0.01986859
754.2172,-0.01652922,-0.3254055,0.3826994,-0.5097725,0.3222131,-0.01986859
754.231,-0.01582312,-0.3254209,0.3928729,-0.509861,0.3041413,-0.01986827
754.2476,-0.01512514,-0.3254361,0.4027599,-0.5099487,0.2861399,-0.01986873
754.2614,-0.0144352,-0.3254512,0.4122798,-0.5100257,0.2683748,-0.01986952
754.2761,-0.0144352,-0.3254512,0.4122798,-0.5100257,0.2683748,-0.01986952
754.2903,-0.0137532,-0.3254661,0.4188479,-0.5100647,0.2542023,-0.01987588
754.3056,-0.01307906,-0.3254808,0.4242443,-0.5100375,0.2418468,-0.01987878
754.3203,-0.01241267,-0.3254953,0.429341,-0.5099624,0.2302846,-0.01988054
754.3348,-0.01241267,-0.3254953,0.429341,-0.5099624,0.2302846,-0.01988054
754.3492,-0.01175397,-0.3255097,0.4344066,-0.50986,0.2191139,-0.019882
754.3647,-0.01110284,-0.325524,0.4394915,-0.5097436,0.2081837,-0.01988343
754.3795,-0.01110284,-0.325524,0.4394915,-0.5097436,0.2081837,-0.01988343
754.3936,-0.01045922,-0.3255381,0.4445768,-0.5096198,0.1974411,-0.01988493
754.4091,-0.009823008,-0.325552,0.4496296,-0.5094914,0.1868702,-0.01988649
754.4251,-0.009232705,-0.3381703,0.4640809,-0.5130416,0.1636948,-0.01990645
754.4391,-0.009232705,-0.3381703,0.4640809,-0.5130416,0.1636948,-0.01990645
754.4526,-0.008680573,-0.3584969,0.4784489,-0.5176451,0.1386941,-0.0199267
754.468,-0.008155994,-0.3834859,0.4904699,-0.5222136,0.1151134,-0.0199428
754.4828,-0.00765001,-0.4112403,0.5001739,-0.5263966,0.09354836,-0.01995471
754.4976,-0.00765001,-0.4112403,0.5001739,-0.5263966,0.09354836,-0.01995471
754.5116,-0.007153339,-0.4398235,0.507606,-0.5299159,0.07450359,-0.01996281
754.5273,-0.006663525,-0.4687911,0.5138336,-0.5330137,0.05701099,-0.01996856
754.542,-0.006179159,-0.4978668,0.5193762,-0.5358399,0.04056342,-0.01997264
754.5569,-0.006179159,-0.4978668,0.5193762,-0.5358399,0.04056342,-0.01997264
754.5712,-0.005695831,-0.5261177,0.5239909,-0.5382379,0.0255767,-0.01997518
754.5867,-0.005215418,-0.553733,0.5283078,-0.5404462,0.01130856,-0.01997671
754.6011,-0.00473887,-0.5808321,0.5325032,-0.5425651,-0.002509695,-0.0199774
754.6165,-0.00473887,-0.5808321,0.5325032,-0.5425651,-0.002509695,-0.0199774
754.6308,-0.004266645,-0.6074912,0.5365992,-0.5446339,-0.01596534,-0.0199773
754.6459,-0.003794382,-0.6329976,0.5401012,-0.5464135,-0.02841349,-0.01997659
754.6614,-0.003325119,-0.6576775,0.5434749,-0.5480945,-0.04042739,-0.01997533
754.6754,-0.003325119,-0.6576775,0.5434749,-0.5480945,-0.04042739,-0.01997533
754.6896,-0.002860172,-0.6817365,0.5468141,-0.5497449,-0.05217777,-0.01997351
754.7049,-0.002400025,-0.7053043,0.5501022,-0.5513833,-0.06369554,-0.01997114
754.7197,-0.002400025,-0.7053043,0.5501022,-0.5513833,-0.06369554,-0.01997114
754.7336,-0.001939401,-0.7277015,0.5528445,-0.5527539,-0.07432143,-0.01996867
754.7493,-0.001481839,-0.749275,0.5554876,-0.5540419,-0.08459722,-0.01996589
754.7643,-0.001028739,-0.7702431,0.5581188,-0.5553114,-0.09467646,-0.01996271
754.7786,-0.001028739,-0.7702431,0.5581188,-0.5553114,-0.09467646,-0.01996271
754.7928,-0.0005745963,-0.7899818,0.5602713,-0.55632,-0.1039417,-0.01995973
754.8084,-0.000123359,-0.8088725,0.562378,-0.5572585,-0.1129282,-0.01995655
754.8232,0.0003234687,-0.8271551,0.5645134,-0.5581908,-0.1217788,-0.01995306
754.838,0.0003234687,-0.8271551,0.5645134,-0.5581908,-0.1217788,-0.01995306
754.8521,0.0007654409,-0.8449802,0.5666509,-0.559131,-0.1305063,-0.01994924
754.8677,0.001209154,-0.8616815,0.5683092,-0.559816,-0.1384614,-0.01994591
754.8824,0.001650509,-0.8776139,0.569918,-0.5604323,-0.1461635,-0.01994252
754.8985,0.001650509,-0.8776139,0.569918,-0.5604323,-0.1461635,-0.01994252
754.9124,0.002087912,-0.8930004,0.5715572,-0.561043,-0.1537537,-0.0199389
754.9268,0.002520845,-0.907981,0.5732075,-0.5616633,-0.1612473,-0.01993502
754.9417,0.002956407,-0.9218823,0.5743982,-0.5620294,-0.1680051,-0.01993188
754.9562,0.002956407,-0.9218823,0.5743982,-0.5620294,-0.1680051,-0.01993188
754.9704,0.003390278,-0.9350553,0.5755569,-0.5623302,-0.1745433,-0.01992876
754.9857,0.003820714,-0.9477198,0.576763,-0.56263,-0.1810012,-0.01992545
755.0006,0.004247077,-0.9600141,0.5779973,-0.5629442,-0.1873936,-0.01992192
755.0154,0.004247077,-0.9600141,0.5779973,-0.5629442,-0.1873936,-0.01992192
755.0295,0.004676836,-0.9712632,0.5787925,-0.5630087,-0.1930854,-0.01991931
755.0451,0.005105581,-0.9818172,0.579573,-0.5630134,-0.1985893,-0.01991678
755.0597,0.005105581,-0.9818172,0.579573,-0.5630134,-0.1985893,-0.01991678
755.074,0.00553143,-0.9918954,0.5804164,-0.563023,-0.2040421,-0.01991407
755.09,0.005961523,-1.000873,0.5808713,-0.5627902,-0.208842,-0.01991236
755.1044,0.006391301,-1.009133,0.5813529,-0.5625101,-0.213502,-0.0199107
755.1189,0.006391301,-1.009133,0.5813529,-0.5625101,-0.213502,-0.0199107
755.1348,0.006818695,-1.016913,0.5819275,-0.5622475,-0.2181522,-0.01990885
755.1492,0.007242752,-1.024363,0.5825672,-0.5620164,-0.222799,-0.01990677
755.1652,0.007671236,-1.030814,0.5827987,-0.5615508,-0.2268034,-0.01990582
755.1779,0.007671236,-1.030814,0.5827987,-0.5615508,-0.2268034,-0.01990582
755.1923,0.008099916,-1.036621,0.5830417,-0.5610403,-0.2306724,-0.01990497
755.2082,0.008526683,-1.042006,0.5833711,-0.5605485,-0.2345384,-0.01990394
755.2226,0.008950429,-1.047107,0.5837659,-0.5600901,-0.238412,-0.0199027
755.2374,0.008950429,-1.047107,0.5837659,-0.5600901,-0.238412,-0.0199027
755.2516,0.009378956,-1.051248,0.583755,-0.5594,-0.2416555,-0.01990269
755.2671,0.009808208,-1.05478,0.5837623,-0.5586687,-0.2447796,-0.01990279
755.282,0.01023596,-1.057922,0.5838644,-0.5579605,-0.2479178,-0.01990271
755.297,0.01023596,-1.057922,0.5838644,-0.5579605,-0.2479178,-0.01990271
755.3113,0.01066942,-1.060047,0.5836023,-0.5570278,-0.2504615,-0.01990386
755.3268,0.01110442,-1.061538,0.5833942,-0.556066,-0.2529251,-0.01990508
755.3416,0.0115385,-1.062633,0.5833071,-0.5551391,-0.2554369,-0.01990606
755.3587,0.0115385,-1.062633,0.5833071,-0.5551391,-0.2554369,-0.01990606
755.3716,0.01197007,-1.063479,0.5833129,-0.5542608,-0.2580018,-0.01990676
755.3859,0.0124066,-1.063412,0.5829306,-0.5531679,-0.259975,-0.01990878
755.4008,0.01284399,-1.06278,0.5825804,-0.5520461,-0.2618609,-0.0199109
755.4155,0.01284399,-1.06278,0.5825804,-0.5520461,-0.2618609,-0.0199109
755.4296,0.01327618,-1.061804,0.5823448,-0.550958,-0.2637957,-0.01991278
755.4449,0.01370096,-1.06062,0.5822033,-0.5499182,-0.2657896,-0.0199144
755.4599,0.01370096,-1.06062,0.5822033,-0.5499182,-0.2657896,-0.0199144
755.4741,0.01412641,-1.058553,0.5816674,-0.5486637,-0.2671892,-0.0199174
755.4897,0.01454457,-1.055952,0.5811761,-0.5473827,-0.2685161,-0.0199205
755.5043,0.01495301,-1.053035,0.5808077,-0.5461386,-0.2699051,-0.01992334
755.519,0.01495301,-1.053035,0.5808077,-0.5461386,-0.2699051,-0.01992334
755.5334,0.0153602,-1.049175,0.5800819,-0.5446869,-0.2707283,-0.01992754
755.5489,0.01575853,-1.044753,0.5794343,-0.5432196,-0.2715133,-0.01993177
755.5637,0.01614616,-1.040006,0.5789338,-0.5418004,-0.2723901,-0.01993567
755.5786,0.01614616,-1.040006,0.5789338,-0.5418004,-0.2723901,-0.01993567
755.5947,0.01652363,-1.035079,0.5785499,-0.5404434,-0.2733625,-0.01993922
755.6082,0.01690045,-1.029302,0.577772,-0.5388863,-0.273757,-0.0199442
755.6229,0.01726941,-1.023029,0.5770481,-0.5373144,-0.274103,-0.01994923
755.6376,0.01726941,-1.023029,0.5770481,-0.5373144,-0.274103,-0.01994923
755.6515,0.01762881,-1.016479,0.5764579,-0.5357901,-0.2745361,-0.01995395
755.6667,0.01797915,-1.009788,0.5759789,-0.5343279,-0.2750654,-0.01995833
755.6816,0.01832965,-1.002278,0.5750948,-0.5326676,-0.2750111,-0.01996418
755.6963,0.01832965,-1.002278,0.5750948,-0.5326676,-0.2750111,-0.01996418
755.7105,0.01867305,-0.9942984,0.5742643,-0.5309942,-0.2749123,-0.01997008
755.726,0.01900767,-0.9860656,0.5735713,-0.5293707,-0.2749086,-0.01997565
755.7408,0.01933398,-0.9777138,0.5729942,-0.5278117,-0.2750102,-0.01998085
755.7558,0.01933398,-0.9777138,0.5729942,-0.5278117,-0.2750102,-0.01998085
755.7698,0.01966086,-0.9685637,0.5720056,-0.5260588,-0.2745269,-0.01998754
755.7853,0.01998121,-0.9589643,0.5710729,-0.524296,-0.274006,-0.01999427
755.8002,0.02029341,-0.9491314,0.5702825,-0.5225861,-0.2735894,-0.02000064
755.8148,0.02029341,-0.9491314,0.5702825,-0.5225861,-0.2735894,-0.02000064
755.8312,0.02060546,-0.9384365,0.5691144,-0.5206885,-0.2726112,-0.02000845
755.8455,0.02091039,-0.9272599,0.5680356,-0.5187912,-0.2716272,-0.02001621
755.8592,0.02091039,-0.9272599,0.5680356,-0.5187912,-0.2716272,-0.02001621
755.8732,0.02120684,-0.9158368,0.5671235,-0.5169567,-0.2707753,-0.02002353
755.8887,0.0214955,-0.9043125,0.5663486,-0.5151988,-0.2700605,-0.02003039
755.9033,0.0217776,-0.8927769,0.5656669,-0.513514,-0.2694552,-0.02003686
755.918,0.0217776,-0.8927769,0.5656669,-0.513514,-0.2694552,-0.02003686
755.9321,0.02205425,-0.8812853,0.5650439,-0.5118943,-0.2689312,-0.02004302
755.9476,0.02232636,-0.8698714,0.5644573,-0.5103316,-0.2684673,-0.02004892
755.9622,0.02259457,-0.858556,0.5638944,-0.5088193,-0.2680493,-0.02005462
755.9772,0.02259457,-0.858556,0.5638944,-0.5088193,-0.2680493,-0.02005462
755.9915,0.02285259,-0.8481129,0.5638719,-0.5076053,-0.268369,-0.02005822
756.0071,0.02310753,-0.838252,0.5638614,-0.5064979,-0.2688239,-0.02006136
756.0217,0.02336166,-0.8287929,0.5637464,-0.5054251,-0.2692416,-0.0200645
756.0366,0.02336166,-0.8287929,0.5637464,-0.5054251,-0.2692416,-0.0200645
756.0507,0.02360886,-0.8203848,0.5640628,-0.5046169,-0.2703006,-0.0200658
756.066,0.02385498,-0.8126603,0.5643132,-0.5038811,-0.2714128,-0.02006686
756.0818,0.02410158,-0.8053909,0.564409,-0.5031511,-0.2724265,-0.02006811
756.0958,0.02410158,-0.8053909,0.564409,-0.5031511,-0.2724265,-0.02006811
756.1099,0.02434856,-0.7984339,0.5643761,-0.5024097,-0.2733309,-0.02006959
756.1251,0.02458912,-0.7924621,0.5647931,-0.5019108,-0.2748617,-0.02006925
756.14,0.0248281,-0.787123,0.5651629,-0.5014718,-0.2764427,-0.02006868
756.1546,0.0248281,-0.787123,0.5651629,-0.5014718,-0.2764427,-0.02006868
756.1686,0.02506687,-0.7821972,0.5653894,-0.50103,-0.277922,-0.02006831
756.1842,0.02530547,-0.777548,0.5654918,-0.5005702,-0.2792859,-0.0200682
756.1989,0.02530547,-0.777548,0.5654918,-0.5005702,-0.2792859,-0.0200682
756.213,0.02553741,-0.7738516,0.5660468,-0.500347,-0.2812705,-0.02006625
756.2287,0.02576716,-0.7707583,0.5665529,-0.5001771,-0.2832966,-0.02006408
756.2434,0.02599616,-0.7680503,0.5669106,-0.4999984,-0.28521,-0.02006214
756.2582,0.02599616,-0.7680503,0.5669106,-0.4999984,-0.28521,-0.02006214
756.2725,0.02621863,-0.7663535,0.5676751,-0.500049,-0.2877092,-0.02005841
756.288,0.02643891,-0.7652871,0.5683509,-0.5001409,-0.2902116,-0.02005455
756.3026,0.02665844,-0.7646139,0.5688484,-0.5002117,-0.292568,-0.02005102
756.3184,0.02665844,-0.7646139,0.5688484,-0.5002117,-0.292568,-0.02005102
756.3326,0.02687743,-0.764186,0.5691941,-0.5002477,-0.2947697,-0.02004786
756.3472,0.02708974,-0.7646704,0.5699677,-0.5005051,-0.2975534,-0.02004286
756.3617,0.02729844,-0.7657159,0.5706765,-0.5008012,-0.3003491,-0.02003771
756.3765,0.02729844,-0.7657159,0.5706765,-0.5008012,-0.3003491,-0.02003771
756.3906,0.02750435,-0.7671025,0.5712226,-0.5010748,-0.3030042,-0.02003286
756.4061,0.02770789,-0.7686931,0.5716242,-0.501312,-0.3055049,-0.02002839
756.4208,0.0279033,-0.7711642,0.5724544,-0.5017697,-0.3085831,-0.02002203
756.4355,0.0279033,-0.7711642,0.5724544,-0.5017697,-0.3085831,-0.02002203
756.4497,0.02809373,-0.7741671,0.573217,-0.5022628,-0.3116654,-0.02001552
756.4651,0.02828089,-0.7774846,0.5738122,-0.50273,-0.3145976,-0.02000935
756.48,0.02846564,-0.7809812,0.574257,-0.5031571,-0.317365,-0.02000359
756.4951,0.02846564,-0.7809812,0.574257,-0.5031571,-0.317365,-0.02000359
756.5093,0.02864235,-0.7853345,0.5751206,-0.5038014,-0.3206947,-0.01999591
756.5246,0.02881457,-0.7901967,0.5759098,-0.504477,-0.3240167,-0.01998811
756.5395,0.02881457,-0.7901967,0.5759098,-0.504477,-0.3240167,-0.01998811
756.5557,0.02898412,-0.7953511,0.5765256,-0.5051224,-0.3271774,-0.01998069
756.5692,0.02914566,-0.8014247,0.5775112,-0.5059792,-0.3308625,-0.01997141
756.5837,0.02930321,-0.8080382,0.5783824,-0.5068567,-0.3345011,-0.01996211
756.5985,0.02930321,-0.8080382,0.5783824,-0.5068567,-0.3345011,-0.01996211
756.6125,0.02945872,-0.8149555,0.5790515,-0.5076936,-0.3379459,-0.01995328
756.6281,0.02961299,-0.8220294,0.5795454,-0.508477,-0.341189,-0.01994501
756.6428,0.0297599,-0.8299298,0.5804294,-0.5094669,-0.3449524,-0.01993483
756.658,0.0297599,-0.8299298,0.5804294,-0.5094669,-0.3449524,-0.01993483
756.6715,0.02990353,-0.8383055,0.581223,-0.5104771,-0.3486782,-0.01992459
756.6873,0.03004575,-0.8469371,0.5818317,-0.5114472,-0.3522177,-0.01991483
756.7018,0.03018724,-0.855688,0.5822753,-0.5123639,-0.3555588,-0.01990562
756.7167,0.03018724,-0.855688,0.5822753,-0.5123639,-0.3555588,-0.01990562
756.7308,0.03032146,-0.8652353,0.5831068,-0.5134867,-0.3594124,-0.01989448
756.7466,0.03045289,-0.8752318,0.5838481,-0.5146281,-0.3632235,-0.01988329
756.7613,0.03058345,-0.8854612,0.5844041,-0.5157272,-0.3668431,-0.01987262
756.7761,0.03058345,-0.8854612,0.5844041,-0.5157272,-0.3668431,-0.01987262
756.7913,0.03070678,-0.8965503,0.5853003,-0.5170273,-0.3709387,-0.01986008
756.8058,0.03082663,-0.9081202,0.5860689,-0.5183356,-0.3749552,-0.01984764
756.8203,0.0309443,-0.9199344,0.5866272,-0.519591,-0.37875,-0.01983581
756.8351,0.0309443,-0.9199344,0.5866272,-0.519591,-0.37875,-0.01983581
756.8492,0.03106046,-0.931846,0.5870035,-0.5207815,-0.382317,-0.01982465
756.8646,0.03116811,-0.944526,0.5877419,-0.5221687,-0.3863575,-0.01981161
756.8793,0.03116811,-0.944526,0.5877419,-0.5221687,-0.3863575,-0.01981161
756.8936,0.03127028,-0.9576221,0.5883803,-0.5235637,-0.3903303,-0.01979863
756.9092,0.03136877,-0.9709154,0.5888296,-0.5249066,-0.3940924,-0.01978626
756.9238,0.03146471,-0.9842702,0.5891106,-0.5261854,-0.3976335,-0.01977456
756.9387,0.03146471,-0.9842702,0.5891106,-0.5261854,-0.3976335,-0.01977456
756.9528,0.03155097,-0.9983647,0.5897531,-0.527661,-0.4016424,-0.01976096
756.9683,0.03163064,-1.012851,0.5902987,-0.529143,-0.4055814,-0.01974745
756.9832,0.03170569,-1.027512,0.5906584,-0.5305712,-0.4093078,-0.01973457
756.998,0.03170569,-1.027512,0.5906584,-0.5305712,-0.4093078,-0.01973457
757.0122,0.03176926,-1.042977,0.5913344,-0.5321909,-0.4134669,-0.01971988
757.0287,0.03182456,-1.058866,0.5918796,-0.5338072,-0.4175222,-0.0197054
757.0425,0.0318738,-1.074943,0.5922169,-0.53536,-0.4213377,-0.01969167
757.0575,0.0318738,-1.074943,0.5922169,-0.53536,-0.4213377,-0.01969167
757.0712,0.03191867,-1.091064,0.5923752,-0.5368387,-0.4249094,-0.01967875
757.0867,0.03195165,-1.1079,0.5928733,-0.5385058,-0.4289142,-0.019664
757.1014,0.03197712,-1.125099,0.5932682,-0.5401705,-0.432829,-0.01964944
757.1161,0.03197712,-1.125099,0.5932682,-0.5401705,-0.432829,-0.01964944
757.1303,0.03200091,-1.142443,0.5934725,-0.5417748,-0.4365156,-0.01963562
757.1457,0.03202441,-1.159797,0.5935093,-0.5433072,-0.4399669,-0.0196226
757.1609,0.03204353,-1.177841,0.5938781,-0.5450305,-0.4438452,-0.01960777
757.1754,0.03204353,-1.177841,0.5938781,-0.5450305,-0.4438452,-0.01960777
757.1895,0.03206275,-1.196227,0.5941409,-0.5467524,-0.4476321,-0.01959313
757.205,0.03208269,-1.214741,0.594218,-0.5484127,-0.4511928,-0.01957925
757.2202,0.03210329,-1.233249,0.5941325,-0.5499995,-0.4545195,-0.01956619
757.2347,0.03210329,-1.233249,0.5941325,-0.5499995,-0.4545195,-0.01956619
757.2488,0.03211959,-1.252433,0.5943736,-0.5517748,-0.4582644,-0.01955134
757.2652,0.03213614,-1.271944,0.5945097,-0.5535461,-0.461915,-0.01953673
757.2805,0.03215353,-1.291569,0.5944631,-0.5552534,-0.4653382,-0.01952291
757.2941,0.03215353,-1.291569,0.5944631,-0.5552534,-0.4653382,-0.01952291
757.3081,0.03216679,-1.311929,0.5946943,-0.5571413,-0.4691402,-0.01950745
757.3233,0.03218051,-1.332649,0.5947884,-0.5590151,-0.4728154,-0.01949234
757.3379,0.03218051,-1.332649,0.5947884,-0.5590151,-0.4728154,-0.01949234
757.3519,0.03219525,-1.353495,0.594681,-0.5608162,-0.4762397,-0.01947814
757.3676,0.03221084,-1.374326,0.5944045,-0.5625345,-0.479413,-0.01946487
757.3821,0.03236029,-1.382448,0.5868188,-0.5599103,-0.4722686,-0.01949398
757.3969,0.03236029,-1.382448,0.5868188,-0.5599103,-0.4722686,-0.01949398
757.4112,0.03260246,-1.382726,0.5792739,-0.5562718,-0.4634653,-0.01953042
757.4266,0.03287759,-1.378167,0.5734432,-0.5526877,-0.4555499,-0.01956374
757.4415,0.03313931,-1.370656,0.5692534,-0.54944,-0.4489618,-0.01959199
757.4566,0.03313931,-1.370656,0.5692534,-0.54944,-0.4489618,-0.01959199
757.4706,0.03337076,-1.361366,0.5662255,-0.5465496,-0.4434981,-0.01961586
757.4857,0.03357286,-1.351024,0.5639136,-0.5439618,-0.4388439,-0.01963647
757.5015,0.03375227,-1.34008,0.5620068,-0.5416116,-0.4347365,-0.01965484
757.5154,0.03375227,-1.34008,0.5620068,-0.5416116,-0.4347365,-0.01965484
757.5295,0.03391575,-1.328813,0.5677879,-0.5310041,-0.4375869,-0.03467062
757.545,0.03406847,-1.317398,0.5710977,-0.523502,-0.4385678,-0.04939167
757.5594,0.03406847,-1.317398,0.5710977,-0.523502,-0.4385678,-0.04939167
757.5737,0.03421398,-1.305941,0.5731489,-0.5175942,-0.4385572,-0.06382407
757.5891,0.03435462,-1.29451,0.5745919,-0.5125387,-0.4380606,-0.0779735
757.6038,0.03449188,-1.283144,0.573997,-0.5098367,-0.4357743,-0.08852023
757.6188,0.03449188,-1.283144,0.573997,-0.5098367,-0.4357743,-0.08852023
757.6326,0.03462669,-1.271869,0.5738967,-0.5067813,-0.4339283,-0.09886003
757.6483,0.03475964,-1.2607,0.5740473,-0.5036067,-0.4323389,-0.1089969
757.6628,0.03489107,-1.249646,0.5743206,-0.5004253,-0.4309044,-0.118935
757.6779,0.03489107,-1.249646,0.5743206,-0.5004253,-0.4309044,-0.118935
757.6919,0.03502119,-1.238712,0.5728767,-0.4991686,-0.4279718,-0.125345
757.7076,0.03515013,-1.2279,0.5720916,-0.4973235,-0.4256497,-0.1316292
757.722,0.03527797,-1.217211,0.5716261,-0.4952284,-0.4236622,-0.13779
757.738,0.03527797,-1.217211,0.5716261,-0.4952284,-0.4236622,-0.13779
757.7521,0.03540475,-1.206645,0.5695468,-0.4949319,-0.4202719,-0.1404968
757.7667,0.03553047,-1.196203,0.5681745,-0.4939679,-0.4175431,-0.1431504
757.7813,0.03565514,-1.185882,0.5671463,-0.4927026,-0.4151751,-0.1457517
757.796,0.03565514,-1.185882,0.5671463,-0.4927026,-0.4151751,-0.1457517
757.8101,0.03577878,-1.175682,0.5662836,-0.491314,-0.4130118,-0.1483019
757.8257,0.03590135,-1.165602,0.5637661,-0.4917814,-0.4094035,-0.1474689
757.8403,0.03602285,-1.155641,0.5619238,-0.4915899,-0.4064245,-0.146652
757.855,0.03602285,-1.155641,0.5619238,-0.4915899,-0.4064245,-0.146652
757.8691,0.03614327,-1.145797,0.560419,-0.4910889,-0.4037944,-0.145851
757.8847,0.0362626,-1.136069,0.5590848,-0.4904484,-0.4013671,-0.1450655
757.8996,0.0362626,-1.136069,0.5590848,-0.4904484,-0.4013671,-0.1450655
757.9137,0.03638082,-1.126455,0.5561494,-0.4916538,-0.3975367,-0.1409623
757.9293,0.03649792,-1.116955,0.5538917,-0.4921762,-0.3943333,-0.1369392
757.9443,0.0366139,-1.107567,0.5519804,-0.4923663,-0.3914822,-0.1329949
757.959,0.0366139,-1.107567,0.5519804,-0.4923663,-0.3914822,-0.1329949
757.9753,0.03672874,-1.09829,0.5486056,-0.4943054,-0.3873516,-0.1257947
757.9895,0.03684242,-1.089122,0.545947,-0.4954979,-0.3838835,-0.1187354
758.0034,0.03695495,-1.080063,0.5436587,-0.4963169,-0.3807898,-0.1118143
758.018,0.03695495,-1.080063,0.5436587,-0.4963169,-0.3807898,-0.1118143
758.032,0.03706632,-1.07111,0.5415704,-0.4969444,-0.3779209,-0.1050288
758.0475,0.03717651,-1.062263,0.5380236,-0.49939,-0.3737773,-0.09504302
758.0621,0.03728552,-1.053521,0.5351477,-0.501105,-0.3702498,-0.08525287
758.077,0.03728552,-1.053521,0.5351477,-0.501105,-0.3702498,-0.08525287
758.0912,0.03739335,-1.044882,0.5326288,-0.5024447,-0.3670786,-0.07565449
758.107,0.03749999,-1.036345,0.5303108,-0.5035831,-0.364128,-0.06624413
758.1213,0.03760543,-1.027909,0.5266169,-0.506536,-0.3599767,-0.05368502
758.136,0.03760543,-1.027909,0.5266169,-0.506536,-0.3599767,-0.05368502
758.1503,0.03770967,-1.019572,0.5235791,-0.5087394,-0.3564235,-0.041372
758.1656,0.03781271,-1.011335,0.5208967,-0.5105499,-0.3532211,-0.02930019
758.1808,0.03791456,-1.003194,0.5184203,-0.512142,-0.3502401,-0.01746491
758.1954,0.03791456,-1.003194,0.5184203,-0.512142,-0.3502401,-0.01746491
758.2095,0.03801521,-0.9951501,0.5146545,-0.515542,-0.3461388,-0.002528417
758.2258,0.03811464,-0.9872012,0.5115262,-0.5181733,-0.3426145,0.0121154
758.2397,0.03811464,-0.9872012,0.5115262,-0.5181733,-0.3426145,0.0121154
758.2537,0.03821288,-0.9793463,0.5087485,-0.5203944,-0.3394333,0.02647226
758.269,0.03830993,-0.9715843,0.5058558,-0.522844,-0.3361839,0.04133988
758.2836,0.03840578,-0.9639143,0.5032229,-0.5249836,-0.3331932,0.05591613
758.2984,0.03840578,-0.9639143,0.5032229,-0.5249836,-0.3331932,0.05591613
758.3124,0.03850044,-0.956335,0.5007555,-0.526937,-0.3303797,0.07020672
758.3279,0.03859391,-0.9488455,0.4984069,-0.528765,-0.3277,0.08421725
758.3429,0.0386862,-0.9414447,0.4961543,-0.5304983,-0.3251309,0.09795319
758.3575,0.0386862,-0.9414447,0.4961543,-0.5304983,-0.3251309,0.09795319
758.3716,0.03877731,-0.9341315,0.4939863,-0.5321524,-0.3226597,0.1114199
758.387,0.03886725,-0.926905,0.4918969,-0.533736,-0.3202786,0.1246227
758.4015,0.03895601,-0.9197641,0.4898822,-0.5352538,-0.3179828,0.1375667
758.4167,0.03895601,-0.9197641,0.4898822,-0.5352538,-0.3179828,0.1375667
758.4305,0.03904362,-0.9127078,0.4882337,-0.5362428,-0.316029,0.149465
758.4459,0.03913007,-0.9057352,0.486545,-0.537335,-0.3140625,0.16113
758.4626,0.03921537,-0.8988452,0.4848686,-0.538451,-0.3121229,0.1725665
758.4767,0.03921537,-0.8988452,0.4848686,-0.538451,-0.3121229,0.1725665
758.4908,0.03929954,-0.8920369,0.4844376,-0.5375868,-0.3112982,0.1804455
758.505,0.03938258,-0.8853094,0.4836106,-0.5373802,-0.3101629,0.1881701
758.5196,0.03938258,-0.8853094,0.4836106,-0.5373802,-0.3101629,0.1881701
758.5335,0.0394645,-0.8786616,0.4826126,-0.5374801,-0.3088902,0.1957433
758.5489,0.03954529,-0.8720927,0.4815571,-0.5377157,-0.3075724,0.203168
758.5635,0.03962499,-0.8656018,0.4816895,-0.5360355,-0.3073103,0.207114
758.5783,0.03962499,-0.8656018,0.4816895,-0.5360355,-0.3073103,0.207114
758.5925,0.03970358,-0.8591878,0.4814098,-0.5350598,-0.3067171,0.2109826
758.608,0.03978109,-0.85285,0.4809442,-0.5344254,-0.3059694,0.2147754
758.6226,0.0398575,-0.8465874,0.4804064,-0.5339559,-0.305161,0.2184938
758.6375,0.0398575,-0.8465874,0.4804064,-0.5339559,-0.305161,0.2184938
758.6514,0.03993286,-0.8403991,0.4810393,-0.5315949,-0.3053934,0.2188061
758.6669,0.04000715,-0.8342844,0.4812502,-0.5299634,-0.3052849,0.2191124
758.6817,0.04008039,-0.8282422,0.4812637,-0.5286966,-0.3050114,0.2194126
758.6964,0.04008039,-0.8282422,0.4812637,-0.5286966,-0.3050114,0.2194126
758.7108,0.04015259,-0.8222717,0.4823911,-0.5256464,-0.3057308,0.2163737
758.727,0.04022377,-0.8163722,0.48306,-0.5233893,-0.3060746,0.2133943
758.7413,0.04029392,-0.8105427,0.4835091,-0.5215381,-0.3062313,0.2104734
758.7557,0.04029392,-0.8105427,0.4835091,-0.5215381,-0.3062313,0.2104734
758.7695,0.04036306,-0.8047825,0.4838582,-0.5199043,-0.3063011,0.2076098
758.7848,0.0404312,-0.7990907,0.485388,-0.5164256,-0.3074264,0.201469
758.7993,0.0404312,-0.7990907,0.485388,-0.5164256,-0.3074264,0.201469
758.8135,0.04049836,-0.7934666,0.4864694,-0.513719,-0.308185,0.1954487
758.8288,0.04056454,-0.7879093,0.4873305,-0.5114173,-0.3087573,0.1895464
758.8438,0.04062974,-0.782418,0.4880864,-0.5093414,-0.3092395,0.1837598
758.8583,0.04062974,-0.782418,0.4880864,-0.5093414,-0.3092395,0.1837598
758.8726,0.040694,-0.776992,0.4900518,-0.5054355,-0.3108093,0.1747535
758.8879,0.04075732,-0.7716305,0.491552,-0.5023158,-0.3119966,0.1659237
758.9025,0.0408197,-0.7663327,0.4928199,-0.4996163,-0.3129865,0.157267
758.9175,0.0408197,-0.7663327,0.4928199,-0.4996163,-0.3129865,0.157267
758.9315,0.04088116,-0.761098,0.4952706,-0.4951926,-0.3150454,0.1454469
758.947,0.04094172,-0.7559254,0.4972132,-0.4916133,-0.3166801,0.1338585
758.9615,0.04100136,-0.7508144,0.4989004,-0.4884909,-0.3180937,0.1224972
758.9773,0.04100136,-0.7508144,0.4989004,-0.4884909,-0.3180937,0.1224972
758.9913,0.04106012,-0.7457641,0.5004596,-0.4856357,-0.3193938,0.1113587
759.0059,0.041118,-0.740774,0.5033136,-0.4809928,-0.3218686,0.09710541
759.0204,0.04117502,-0.7358432,0.5056624,-0.4771667,-0.3239194,0.08313154
759.0348,0.04117502,-0.7358432,0.5056624,-0.4771667,-0.3239194,0.08313154
759.0488,0.04123119,-0.730971,0.507754,-0.4737909,-0.325747,0.06943161
759.0641,0.0412865,-0.7261568,0.5097139,-0.4706854,-0.3274579,0.05600028
759.0789,0.0412865,-0.7261568,0.5097139,-0.4706854,-0.3274579,0.05600028
759.0928,0.04134098,-0.7213999,0.5130375,-0.4658099,-0.3304141,0.03950692
759.1083,0.04139465,-0.7166996,0.5158306,-0.461758,-0.3329208,0.02333692
759.1229,0.0414475,-0.7120552,0.5183516,-0.4581654,-0.3351895,0.007483914
759.1377,0.0414475,-0.7120552,0.5183516,-0.4581654,-0.3351895,0.007483914
759.1518,0.0414995,-0.7074661,0.5139385,-0.4636322,-0.3311078,0.006940841
759.1672,0.04155067,-0.7029315,0.5119357,-0.4662147,-0.3291147,0.006408688
759.1819,0.04160107,-0.698451,0.5110679,-0.4673924,-0.3281461,0.005887215
759.1967,0.04160107,-0.698451,0.5110679,-0.4673924,-0.3281461,0.005887215
759.2108,0.04165069,-0.6940237,0.5107312,-0.467889,-0.3276897,0.005376148
759.2261,0.04169957,-0.6896492,0.5106363,-0.4680581,-0.3274918,0.004875225
759.2418,0.04174771,-0.6853268,0.5106461,-0.4680718,-0.3274262,0.004384205
759.2556,0.04174771,-0.6853268,0.5106461,-0.4680718,-0.3274262,0.004384205
759.2697,0.04179512,-0.6810558,0.5106973,-0.4680142,-0.32743,0.00390287
759.2847,0.0418418,-0.6768357,0.510762,-0.4679258,-0.3274727,0.003431023
759.2997,0.0418418,-0.6768357,0.510762,-0.4679258,-0.3274727,0.003431023
759.3134,0.04188776,-0.6726658,0.5108304,-0.4678268,-0.327536,0.002968458
759.3287,0.04193303,-0.6685455,0.5108997,-0.4677265,-0.3276147,0.002515006
759.3434,0.04197759,-0.6644744,0.510969,-0.4676291,-0.3277065,0.002070484
759.3583,0.04197759,-0.6644744,0.510969,-0.4676291,-0.3277065,0.002070484
759.3723,0.04202148,-0.6604517,0.5108991,-0.4674983,-0.3281142,0.001635694
759.3876,0.04206469,-0.6564769,0.5105745,-0.4673545,-0.3286425,0.001209746
759.4035,0.04210723,-0.6525494,0.5100113,-0.4672118,-0.3291905,0.0007922096
759.4172,0.04210723,-0.6525494,0.5100113,-0.4672118,-0.3291905,0.0007922096
759.431,0.04214912,-0.6486687,0.5092603,-0.4670765,-0.3297255,0.0003828461
759.4465,0.04219037,-0.6448342,0.5082345,-0.4669123,-0.3305448,-1.753317E-05
759.4615,0.04223098,-0.6410455,0.5068598,-0.466739,-0.3314556,-0.0004098101
759.4762,0.04223098,-0.6410455,0.5068598,-0.466739,-0.3314556,-0.0004098101
759.4901,0.04227097,-0.6373018,0.5051832,-0.4665702,-0.3323614,-0.0007943801
759.5065,0.04231034,-0.6336027,0.5032772,-0.4664114,-0.3332337,-0.001171465
759.5203,0.0423491,-0.6299477,0.5010718,-0.4662257,-0.3343734,-0.001540212
759.5347,0.0423491,-0.6299477,0.5010718,-0.4662257,-0.3343734,-0.001540212
759.5488,0.04238727,-0.6263363,0.4985032,-0.4660323,-0.3355903,-0.001901494
759.5641,0.04242484,-0.6227679,0.4956253,-0.4658446,-0.3367898,-0.002255694
759.5787,0.04242484,-0.6227679,0.4956253,-0.4658446,-0.3367898,-0.002255694
759.5929,0.04246184,-0.619242,0.4923796,-0.4656289,-0.3382489,-0.002602002
759.6082,0.04249826,-0.6157581,0.4887199,-0.4654061,-0.3397708,-0.002941306
759.6227,0.04253413,-0.6123157,0.4847157,-0.4651903,-0.3412603,-0.003273987
759.6376,0.04253413,-0.6123157,0.4847157,-0.4651903,-0.3412603,-0.003273987
759.6514,0.04256944,-0.6089143,0.480457,-0.4649871,-0.3426913,-0.003600234
759.6671,0.0426042,-0.6055535,0.4758881,-0.4647585,-0.3443666,-0.00391914
759.6818,0.04263843,-0.6022328,0.4709541,-0.4645236,-0.3460989,-0.004231576
759.697,0.04263843,-0.6022328,0.4709541,-0.4645236,-0.3460989,-0.004231576
759.7105,0.04267213,-0.5989516,0.4657145,-0.4642957,-0.3477956,-0.004537909
759.726,0.0427053,-0.5957095,0.4602501,-0.4640805,-0.349431,-0.004838313
759.7407,0.04273797,-0.5925061,0.4544997,-0.4638393,-0.3513063,-0.005131859
759.7553,0.04273797,-0.5925061,0.4544997,-0.4638393,-0.3513063,-0.005131859
759.7708,0.04277013,-0.5893407,0.4484038,-0.4635913,-0.3532343,-0.005419428
759.7848,0.0428018,-0.5862132,0.442018,-0.4633503,-0.3551222,-0.005701381
759.7996,0.0428018,-0.5862132,0.442018,-0.4633503,-0.3551222,-0.005701381
759.8136,0.04283297,-0.5831229,0.435288,-0.4630813,-0.3572459,-0.005976819
759.829,0.04286367,-0.5800695,0.4281686,-0.4628054,-0.3594112,-0.006246652
759.8441,0.04289389,-0.5770524,0.4207292,-0.4625374,-0.3615241,-0.006511237
759.8591,0.04289389,-0.5770524,0.4207292,-0.4625374,-0.3615241,-0.006511237
759.8724,0.04292365,-0.5740713,0.4130588,-0.4622832,-0.3635593,-0.006770734
759.8877,0.04295294,-0.5711258,0.4051043,-0.4620031,-0.3658169,-0.007024152
759.9025,0.04298179,-0.5682154,0.3968118,-0.4617167,-0.3681127,-0.007272389
759.9161,0.04298179,-0.5682154,0.3968118,-0.4617167,-0.3681127,-0.007272389
759.9293,0.04301019,-0.5653396,0.3882394,-0.461438,-0.3703555,-0.007515789
759.9439,0.04303815,-0.5624982,0.3794669,-0.461173,-0.3725198,-0.007754514
759.9582,0.04303815,-0.5624982,0.3794669,-0.461173,-0.3725198,-0.007754514
759.9716,0.04306569,-0.5596905,0.3704352,-0.4608811,-0.3749038,-0.007987541
759.9868,0.04309279,-0.5569164,0.3610857,-0.4605823,-0.3773236,-0.008215779
760.0009,0.04311949,-0.5541754,0.3514727,-0.4602909,-0.3796878,-0.008439574
760.0153,0.04311949,-0.5541754,0.3514727,-0.4602909,-0.3796878,-0.008439574
760.0292,0.04314577,-0.551467,0.3415436,-0.4599704,-0.3822688,-0.008657941
760.0445,0.04317164,-0.5487909,0.3312539,-0.4596426,-0.3848761,-0.008871831
760.0587,0.04317164,-0.5487909,0.3312539,-0.4596426,-0.3848761,-0.008871831
760.0726,0.04319712,-0.5461468,0.3206711,-0.459323,-0.3874169,-0.009081576
760.0878,0.04322221,-0.5435341,0.3098824,-0.4590181,-0.3898662,-0.009287314
760.1023,0.04324691,-0.5409526,0.2988369,-0.4586862,-0.39252,-0.009487974
760.1191,0.04324691,-0.5409526,0.2988369,-0.4586862,-0.39252,-0.009487974
760.1328,0.04327123,-0.5384019,0.2874815,-0.4583476,-0.395198,-0.009684497
760.1473,0.04329518,-0.5358816,0.2758729,-0.4580171,-0.3978104,-0.009877206
760.1609,0.04331876,-0.5333913,0.2640892,-0.4577011,-0.4003321,-0.01006624
760.1758,0.04331876,-0.5333913,0.2640892,-0.4577011,-0.4003321,-0.01006624
760.1896,0.04334198,-0.5309308,0.2520732,-0.457357,-0.4030565,-0.01025049
760.205,0.04336485,-0.5284995,0.2397676,-0.4570055,-0.4058042,-0.01043093
760.2197,0.04336485,-0.5284995,0.2397676,-0.4570055,-0.4058042,-0.01043093
760.2338,0.04338736,-0.5260973,0.227225,-0.4566619,-0.4084853,-0.01060786
760.2493,0.04340953,-0.5237237,0.2145204,-0.4563326,-0.4110743,-0.01078144
760.2637,0.04343136,-0.5213785,0.2017214,-0.4560198,-0.4135696,-0.01095171
760.2787,0.04343136,-0.5213785,0.2017214,-0.4560198,-0.4135696,-0.01095171
760.293,0.04345286,-0.5190611,0.1888809,-0.4557235,-0.415977,-0.01111875
760.3082,0.04347403,-0.5167714,0.1760381,-0.455443,-0.4183041,-0.01128257
760.3227,0.04349487,-0.5145091,0.1632206,-0.4551772,-0.4205574,-0.01144323
760.3376,0.04349487,-0.5145091,0.1632206,-0.4551772,-0.4205574,-0.01144323
760.3517,0.04351539,-0.5122737,0.1504475,-0.4549251,-0.4227427,-0.01160079
760.3694,0.0435356,-0.5100649,0.1377317,-0.4546859,-0.4248642,-0.0117553
760.384,0.0435555,-0.5078825,0.1250819,-0.4544588,-0.4269255,-0.01190681
760.3976,0.0435555,-0.5078825,0.1250819,-0.4544588,-0.4269255,-0.01190681
760.4119,0.0435751,-0.5057261,0.1125037,-0.4542433,-0.4289293,-0.01205536
760.4263,0.04359439,-0.5035954,0.1000008,-0.4540389,-0.430878,-0.01220104
760.4409,0.0436134,-0.5014902,0.08757541,-0.453845,-0.4327735,-0.01234387
760.4555,0.0436134,-0.5014902,0.08757541,-0.453845,-0.4327735,-0.01234387
760.4696,0.04363211,-0.49941,0.07522879,-0.4536614,-0.4346174,-0.01248393
760.485,0.04365053,-0.4973547,0.06296162,-0.4534876,-0.4364113,-0.01262127
760.4998,0.04365053,-0.4973547,0.06296162,-0.4534876,-0.4364113,-0.01262127
760.5138,0.04366868,-0.4953239,0.05077409,-0.4533234,-0.4381563,-0.01275594
760.5293,0.04368655,-0.4933172,0.03866615,-0.4531685,-0.4398538,-0.01288799
760.5443,0.04370414,-0.4913346,0.02663753,-0.4530226,-0.441505,-0.01301748
760.5587,0.04370414,-0.4913346,0.02663753,-0.4530226,-0.441505,-0.01301748
760.5729,0.04372147,-0.4893756,0.01468785,-0.4528855,-0.4431108,-0.01314445
760.5883,0.04373853,-0.4874399,0.002816651,-0.4527569,-0.4446723,-0.01326896
760.6031,0.04375533,-0.4855273,-0.008976583,-0.4526367,-0.4461905,-0.01339105
760.6179,0.04375533,-0.4855273,-0.008976583,-0.4526367,-0.4461905,-0.01339105
760.6339,0.04377188,-0.4836376,-0.0206924,-0.4525244,-0.4476664,-0.01351078
760.6484,0.04378818,-0.4817703,-0.03233137,-0.45242,-0.4491009,-0.01362818
760.6619,0.04380422,-0.4799254,-0.04389406,-0.4523232,-0.4504949,-0.01374331
760.6769,0.04380422,-0.4799254,-0.04389406,-0.4523232,-0.4504949,-0.01374331
760.691,0.04382003,-0.4781024,-0.05538102,-0.4522338,-0.4518492,-0.01385621
760.7065,0.04383559,-0.4763013,-0.06679282,-0.4521516,-0.4531648,-0.01396693
760.7209,0.04385092,-0.4745215,-0.07813001,-0.4520763,-0.4544423,-0.0140755
760.7365,0.04385092,-0.4745215,-0.07813001,-0.4520763,-0.4544423,-0.0140755
760.7499,0.04386601,-0.4727631,-0.08939315,-0.4520079,-0.4556827,-0.01418198
760.7655,0.04388087,-0.4710256,-0.1005827,-0.4519461,-0.4568868,-0.01428641
760.7802,0.04389551,-0.4693088,-0.1116994,-0.4518906,-0.4580552,-0.01438882
760.7948,0.04389551,-0.4693088,-0.1116994,-0.4518906,-0.4580552,-0.01438882
760.8091,0.04390993,-0.4676124,-0.1227435,-0.4518414,-0.4591888,-0.01448925
760.825,0.04392412,-0.4659364,-0.1337157,-0.4517982,-0.4602882,-0.01458775
760.8401,0.0439381,-0.4642803,-0.1446165,-0.4517608,-0.4613542,-0.01468435
760.8546,0.0439381,-0.4642803,-0.1446165,-0.4517608,-0.4613542,-0.01468435
760.8706,0.04395187,-0.462644,-0.1554463,-0.4517291,-0.4623874,-0.01477909
760.8848,0.04396543,-0.4610271,-0.1662057,-0.4517029,-0.4633886,-0.01487201
760.8988,0.04396543,-0.4610271,-0.1662057,-0.4517029,-0.4633886,-0.01487201
760.913,0.04397879,-0.4594296,-0.176895,-0.4516821,-0.4643584,-0.01496315
760.9282,0.04399194,-0.4578512,-0.1875149,-0.4516664,-0.4652973,-0.01505253
760.9429,0.04400489,-0.4562915,-0.1980657,-0.4516557,-0.4662062,-0.0151402
760.9578,0.04400489,-0.4562915,-0.1980657,-0.4516557,-0.4662062,-0.0151402
760.9719,0.04401765,-0.4547505,-0.2085479,-0.4516499,-0.4670855,-0.01522618
760.9874,0.04403021,-0.4532279,-0.218962,-0.4516487,-0.4679359,-0.01531053
761.002,0.04404258,-0.4517234,-0.2293084,-0.4516522,-0.4687579,-0.01539325
761.0167,0.04404258,-0.4517234,-0.2293084,-0.4516522,-0.4687579,-0.01539325
761.0308,0.04405477,-0.4502369,-0.2395875,-0.45166,-0.4695522,-0.01547439
761.0461,0.04406676,-0.448768,-0.2497997,-0.4516721,-0.4703193,-0.01555399
761.0609,0.04407858,-0.4473168,-0.2599455,-0.4516883,-0.4710597,-0.01563206
761.0757,0.04407858,-0.4473168,-0.2599455,-0.4516883,-0.4710597,-0.01563206
761.0897,0.04409022,-0.4458828,-0.2700253,-0.4517085,-0.471774,-0.01570864
761.1049,0.04410168,-0.4444659,-0.2800394,-0.4517325,-0.4724626,-0.01578376
761.1196,0.04410168,-0.4444659,-0.2800394,-0.4517325,-0.4724626,-0.01578376
761.1356,0.04411297,-0.443066,-0.2899883,-0.4517603,-0.4731262,-0.01585745
761.149,0.04412409,-0.4416827,-0.2998724,-0.4517917,-0.4737651,-0.01592973
761.1638,0.04413504,-0.440316,-0.309692,-0.4518266,-0.4743799,-0.01600065
761.1782,0.04413504,-0.440316,-0.309692,-0.4518266,-0.4743799,-0.01600065
761.1924,0.04414582,-0.4389656,-0.3194476,-0.4518648,-0.4749711,-0.01607021
761.2081,0.04415644,-0.4376312,-0.3291395,-0.4519062,-0.4755391,-0.01613846
761.2228,0.0441669,-0.4363128,-0.3387681,-0.4519508,-0.4760844,-0.0162054
761.2374,0.0441669,-0.4363128,-0.3387681,-0.4519508,-0.4760844,-0.0162054
761.2515,0.04417721,-0.4350101,-0.3483338,-0.4519984,-0.4766074,-0.01627108
761.2668,0.04418736,-0.433723,-0.3578369,-0.4520489,-0.4771085,-0.01633551
761.2816,0.04419735,-0.4324512,-0.3672778,-0.4521022,-0.4775883,-0.01639872
761.2966,0.04419735,-0.4324512,-0.3672778,-0.4521022,-0.4775883,-0.01639872
761.3106,0.04420719,-0.4311946,-0.3766568,-0.4521582,-0.478047,-0.01646075
761.3258,0.04421689,-0.4299529,-0.3859743,-0.4522168,-0.4784852,-0.0165216
761.3406,0.04422643,-0.4287261,-0.3952307,-0.4522779,-0.4789032,-0.0165813
761.3555,0.04422643,-0.4287261,-0.3952307,-0.4522779,-0.4789032,-0.0165813
761.3694,0.04423584,-0.427514,-0.4044262,-0.4523414,-0.4793015,-0.01663988
761.3857,0.0442451,-0.4263163,-0.4135612,-0.4524073,-0.4796802,-0.01669735
761.3994,0.0442451,-0.4263163,-0.4135612,-0.4524073,-0.4796802,-0.01669735
761.4136,0.04425422,-0.4251328,-0.4226361,-0.4524753,-0.48004,-0.01675374
761.4291,0.0442632,-0.4239635,-0.4316511,-0.4525455,-0.4803811,-0.01680908
761.4436,0.04427205,-0.4228082,-0.4406066,-0.4526178,-0.480704,-0.01686337
761.4584,0.04427205,-0.4228082,-0.4406066,-0.4526178,-0.480704,-0.01686337
761.4727,0.04428076,-0.4216667,-0.449503,-0.452692,-0.4810089,-0.01691665
761.4881,0.04428935,-0.4205387,-0.4583405,-0.4527681,-0.4812962,-0.01696892
761.5042,0.0442978,-0.4194242,-0.4671194,-0.4528461,-0.4815663,-0.01702023
761.5173,0.0442978,-0.4194242,-0.4671194,-0.4528461,-0.4815663,-0.01702023
761.5316,0.04430613,-0.418323,-0.4758402,-0.4529257,-0.4818195,-0.01707057
761.5469,0.04431432,-0.417235,-0.484503,-0.4530071,-0.4820561,-0.01711998
761.5615,0.0443224,-0.4161599,-0.4931082,-0.45309,-0.4822764,-0.01716846
761.5765,0.0443224,-0.4161599,-0.4931082,-0.45309,-0.4822764,-0.01716846
761.5905,0.04433035,-0.4150977,-0.5016562,-0.4531745,-0.4824808,-0.01721604
761.6059,0.04433819,-0.4140481,-0.5101472,-0.4532604,-0.4826695,-0.01726273
761.6205,0.0443459,-0.4130111,-0.5185814,-0.4533477,-0.482843,-0.01730856
761.6362,0.0443459,-0.4130111,-0.5185814,-0.4533477,-0.482843,-0.01730856
761.6503,0.0443535,-0.4119864,-0.5269593,-0.4534363,-0.4830014,-0.01735354
761.6646,0.04436099,-0.410974,-0.5352811,-0.4535262,-0.483145,-0.01739769
761.6794,0.04436099,-0.410974,-0.5352811,-0.4535262,-0.483145,-0.01739769
761.6934,0.04436836,-0.4099737,-0.543547,-0.4536172,-0.4832743,-0.01744101
761.7089,0.04437562,-0.4089852,-0.5517575,-0.4537095,-0.4833893,-0.01748354
761.7236,0.04438277,-0.4080086,-0.5599128,-0.4538028,-0.4834905,-0.01752528
761.7384,0.04438277,-0.4080086,-0.5599128,-0.4538028,-0.4834905,-0.01752528
761.7524,0.04438982,-0.4070436,-0.5680131,-0.4538971,-0.4835781,-0.01756626
761.768,0.04439675,-0.4060902,-0.5760589,-0.4539925,-0.4836523,-0.01760647
761.7826,0.04440359,-0.4051481,-0.5840502,-0.4540887,-0.4837135,-0.01764595
761.7972,0.04440359,-0.4051481,-0.5840502,-0.4540887,-0.4837135,-0.01764595
761.8114,0.04441031,-0.4042172,-0.5919876,-0.4541859,-0.4837618,-0.0176847
761.8268,0.04441694,-0.4032975,-0.599871,-0.4542838,-0.4837976,-0.01772274
761.8415,0.04442347,-0.4023888,-0.6077011,-0.4543826,-0.4838211,-0.01776008
761.8565,0.04442347,-0.4023888,-0.6077011,-0.4543826,-0.4838211,-0.01776008
761.8702,0.0444299,-0.4014908,-0.6154779,-0.454482,-0.4838324,-0.01779674
761.8853,0.04443623,-0.4006037,-0.6232017,-0.4545822,-0.483832,-0.01783273
761.9011,0.04444247,-0.399727,-0.6308728,-0.454683,-0.48382,-0.01786807
761.915,0.04444247,-0.399727,-0.6308728,-0.454683,-0.48382,-0.01786807
761.9288,0.04444861,-0.3988609,-0.6384915,-0.4547845,-0.4837967,-0.01790275
761.9443,0.04445466,-0.3980051,-0.6460581,-0.4548864,-0.4837621,-0.01793681
761.959,0.04445466,-0.3980051,-0.6460581,-0.4548864,-0.4837621,-0.01793681
761.973,0.04446062,-0.3971595,-0.6535729,-0.454989,-0.4837168,-0.01797025
761.9883,0.04446649,-0.396324,-0.6610361,-0.455092,-0.4836607,-0.01800308
762.003,0.04447227,-0.3954984,-0.6684479,-0.4551954,-0.4835942,-0.01803532
762.0179,0.04447227,-0.3954984,-0.6684479,-0.4551954,-0.4835942,-0.01803532
762.0319,0.04447796,-0.3946827,-0.6758087,-0.4552993,-0.4835174,-0.01806698
762.0476,0.04448357,-0.3938768,-0.6831186,-0.4554035,-0.4834306,-0.01809806
762.062,0.04448909,-0.3930804,-0.6903781,-0.4555081,-0.483334,-0.01812859
762.0769,0.04448909,-0.3930804,-0.6903781,-0.4555081,-0.483334,-0.01812859
762.0909,0.04449453,-0.3922936,-0.6975873,-0.455613,-0.4832277,-0.01815856
762.1064,0.04449989,-0.3915161,-0.7047465,-0.4557182,-0.4831121,-0.018188
762.121,0.04450516,-0.3907479,-0.7118559,-0.4558237,-0.4829872,-0.0182169
762.1355,0.04450516,-0.3907479,-0.7118559,-0.4558237,-0.4829872,-0.0182169
762.1519,0.04451036,-0.3899889,-0.7189159,-0.4559293,-0.4828533,-0.01824529
762.1652,0.04451548,-0.389239,-0.7259266,-0.4560352,-0.4827104,-0.01827317
762.1798,0.04451548,-0.389239,-0.7259266,-0.4560352,-0.4827104,-0.01827317
762.194,0.04452052,-0.388498,-0.7328882,-0.4561413,-0.4825588,-0.01830055
762.2096,0.04452548,-0.3877658,-0.739801,-0.4562475,-0.4823987,-0.01832744
762.2242,0.04453037,-0.3870424,-0.7466652,-0.4563538,-0.4822304,-0.01835386
762.2388,0.04453037,-0.3870424,-0.7466652,-0.4563538,-0.4822304,-0.01835386
762.2531,0.04453518,-0.3863276,-0.7533593,-0.4565111,-0.4817623,-0.0183812
762.2691,0.04453992,-0.3856214,-0.7597735,-0.4566951,-0.4811746,-0.01840833
762.2831,0.04454459,-0.3849235,-0.765918,-0.4568874,-0.4805639,-0.01843497
762.298,0.04454459,-0.3849235,-0.765918,-0.4568874,-0.4805639,-0.01843497
762.3122,0.04454918,-0.384234,-0.7717143,-0.4571301,-0.4796712,-0.01846246
762.3276,0.0445537,-0.3835528,-0.7770983,-0.4573957,-0.478685,-0.01848964
762.3426,0.04455816,-0.3828796,-0.7821184,-0.4576646,-0.4777015,-0.01851627
762.3574,0.04455816,-0.3828796,-0.7821184,-0.4576646,-0.4777015,-0.01851627
762.3711,0.04456255,-0.3822145,-0.786848,-0.4579285,-0.4767506,-0.0185423
762.3867,0.04456687,-0.3815573,-0.7912319,-0.4582353,-0.4755429,-0.01856913
762.4019,0.04457112,-0.380908,-0.795213,-0.4585602,-0.4742562,-0.01859565
762.416,0.04457112,-0.380908,-0.795213,-0.4585602,-0.4742562,-0.01859565
762.4301,0.0445753,-0.3802664,-0.7988414,-0.4588854,-0.4729822,-0.01862161
762.4456,0.04457943,-0.3796325,-0.8021901,-0.4592035,-0.4717487,-0.01864698
762.4603,0.04458348,-0.3790061,-0.8052024,-0.4595624,-0.4702636,-0.01867313
762.4749,0.04458348,-0.3790061,-0.8052024,-0.4595624,-0.4702636,-0.01867313
762.4891,0.04458748,-0.3783872,-0.8078194,-0.4599376,-0.468706,-0.01869899
762.5044,0.04459142,-0.3777757,-0.8100905,-0.4603116,-0.4671679,-0.0187243
762.5192,0.04459142,-0.3777757,-0.8100905,-0.4603116,-0.4671679,-0.0187243
762.5331,0.04459529,-0.3771715,-0.8119644,-0.460727,-0.4653795,-0.01875039
762.5488,0.0445991,-0.3765745,-0.8133948,-0.4611571,-0.463529,-0.01877614
762.5634,0.04460285,-0.3759846,-0.8144448,-0.4615837,-0.4617106,-0.01880131
762.5782,0.04460285,-0.3759846,-0.8144448,-0.4615837,-0.4617106,-0.01880131
762.5922,0.04460654,-0.3754018,-0.8151984,-0.4619991,-0.4599517,-0.01882586
762.6082,0.04461018,-0.374826,-0.8156057,-0.4624509,-0.4579547,-0.01885117
762.6223,0.04461376,-0.374257,-0.815612,-0.462915,-0.4559006,-0.01887616
762.6368,0.04461376,-0.374257,-0.815612,-0.462915,-0.4559006,-0.01887616
762.6529,0.04461728,-0.3736947,-0.8152712,-0.4633741,-0.4538817,-0.0189006
762.6672,0.04462075,-0.3731393,-0.81466,-0.4638212,-0.4519253,-0.01892442
762.681,0.04462416,-0.3725904,-0.8137219,-0.4643036,-0.4497312,-0.018949
762.6957,0.04462416,-0.3725904,-0.8137219,-0.4643036,-0.4497312,-0.018949
762.7098,0.04462752,-0.3720481,-0.8123963,-0.464797,-0.4474834,-0.01897328
762.7254,0.04463083,-0.3715122,-0.8107346,-0.4652845,-0.4452753,-0.018997
762.7397,0.04463083,-0.3715122,-0.8107346,-0.4652845,-0.4452753,-0.018997
762.754,0.04463408,-0.3709828,-0.8086849,-0.4658079,-0.4428292,-0.01902146
762.7693,0.04463728,-0.3704597,-0.8061993,-0.466341,-0.4403389,-0.01904557
762.7842,0.04464043,-0.3699428,-0.8033425,-0.466866,-0.4379003,-0.01906911
762.7988,0.04464043,-0.3699428,-0.8033425,-0.466866,-0.4379003,-0.01906911
762.8131,0.04464353,-0.3694321,-0.8002011,-0.4673758,-0.4355408,-0.01909202
762.8285,0.04464657,-0.3689274,-0.7967244,-0.4679168,-0.4329533,-0.01911563
762.8432,0.04464957,-0.3684289,-0.7928548,-0.4684653,-0.4303252,-0.01913893
762.858,0.04464957,-0.3684289,-0.7928548,-0.4684653,-0.4303252,-0.01913893
762.8718,0.04465252,-0.3679362,-0.7886482,-0.4690048,-0.427751,-0.01916166
762.8872,0.04465543,-0.3674495,-0.7841835,-0.4695285,-0.4252577,-0.01918378
762.9041,0.04465828,-0.3669685,-0.779403,-0.4700823,-0.4225352,-0.01920659
762.9174,0.04465828,-0.3669685,-0.779403,-0.4700823,-0.4225352,-0.01920659
762.9316,0.04466109,-0.3664933,-0.7742433,-0.4706427,-0.4197746,-0.0192291
762.9459,0.04466386,-0.3660238,-0.7687575,-0.4711933,-0.4170715,-0.01925105
762.9606,0.04466658,-0.3655598,-0.7630234,-0.4717276,-0.4144537,-0.0192724
762.9756,0.04466658,-0.3655598,-0.7630234,-0.4717276,-0.4144537,-0.0192724
762.9894,0.04466925,-0.3651015,-0.756981,-0.4722906,-0.4116075,-0.01929441
763.0047,0.04467188,-0.3646486,-0.7505647,-0.472859,-0.408727,-0.01931613
763.0195,0.04467188,-0.3646486,-0.7505647,-0.472859,-0.408727,-0.01931613
763.0336,0.04467447,-0.364201,-0.7438276,-0.4734167,-0.4059089,-0.01933729
763.0505,0.04467702,-0.3637589,-0.7366872,-0.4742211,-0.402905,-0.01935997
763.0642,0.04467952,-0.363322,-0.7291256,-0.4751526,-0.3998781,-0.01938194
763.0786,0.04467952,-0.363322,-0.7291256,-0.4751526,-0.3998781,-0.01938194
763.0925,0.04468198,-0.3628903,-0.7212162,-0.476127,-0.3969148,-0.01940316
763.1081,0.0446844,-0.3624638,-0.7130456,-0.4771053,-0.3940417,-0.01942368
763.1226,0.04468678,-0.3620424,-0.7046893,-0.4780707,-0.3912621,-0.01944355
763.1373,0.04468678,-0.3620424,-0.7046893,-0.4780707,-0.3912621,-0.01944355
763.1512,0.04468913,-0.361626,-0.6962066,-0.4790162,-0.3885713,-0.01946284
763.1677,0.04469143,-0.3612146,-0.6876414,-0.4799397,-0.3859624,-0.01948156
763.1826,0.0446937,-0.3608081,-0.6790255,-0.4808408,-0.3834294,-0.01949976
763.196,0.0446937,-0.3608081,-0.6790255,-0.4808408,-0.3834294,-0.01949976
763.2101,0.04469592,-0.3604065,-0.6703814,-0.48172,-0.3809671,-0.01951747
763.2256,0.04469812,-0.3600096,-0.6617253,-0.4825781,-0.3785714,-0.01953471
763.2402,0.04470027,-0.3596175,-0.6530686,-0.4834158,-0.3762389,-0.0195515
763.2548,0.04470027,-0.3596175,-0.6530686,-0.4834158,-0.3762389,-0.0195515
763.2687,0.04470239,-0.3592301,-0.6444193,-0.4842338,-0.3739673,-0.01956786
763.2859,0.04470447,-0.3588473,-0.6357834,-0.4850327,-0.3717546,-0.01958378
763.2991,0.04470447,-0.3588473,-0.6357834,-0.4850327,-0.3717546,-0.01958378
763.3129,0.04470652,-0.358469,-0.6271652,-0.4858131,-0.3695989,-0.0195993
763.3285,0.04470854,-0.3580953,-0.6185681,-0.4865756,-0.367499,-0.01961441
763.3433,0.04471052,-0.3577261,-0.6099945,-0.4873206,-0.3654536,-0.01962913
763.3578,0.04471052,-0.3577261,-0.6099945,-0.4873206,-0.3654536,-0.01962913
763.372,0.04471247,-0.3573612,-0.6014467,-0.4880485,-0.3634616,-0.01964347
763.3875,0.04471438,-0.3570007,-0.5929264,-0.4887597,-0.361522,-0.01965745
763.4019,0.04471627,-0.3566446,-0.5844349,-0.4894548,-0.3596338,-0.01967105
763.4167,0.04471627,-0.3566446,-0.5844349,-0.4894548,-0.3596338,-0.01967105
