JMolnar6/NonAnthroHands_User_Study/HandsLoggerWithURDF/tempdata/PID 0 (test)/files/Reachy_PID0_JointMotion_gesture_9_1.csv
Time,r_shoulder,r_shoulder_x,r_upper_arm,r_forearm,r_wrist,r_wrist2hand,
800.8536,-0.01389587,-0.9055806,-1.561913,-2.106867,0.3750403,-0.09234834
800.8699,-0.01389557,-0.9055817,-1.561914,-2.106869,0.3750402,-0.09234834
800.8834,-0.01389528,-0.9055827,-1.561914,-2.10687,0.3750402,-0.09234833
800.8984,-0.01389528,-0.9055827,-1.561914,-2.10687,0.3750402,-0.09234833
800.9122,-0.01389498,-0.9055838,-1.561914,-2.106872,0.3750401,-0.09234833
800.9276,-0.01389468,-0.9055849,-1.561914,-2.106873,0.3750401,-0.09234832
800.9423,-0.01389439,-0.9055859,-1.561915,-2.106874,0.37504,-0.09234831
800.957,-0.01389439,-0.9055859,-1.561915,-2.106874,0.37504,-0.09234831
800.9712,-0.0138941,-0.905587,-1.561915,-2.106876,0.3750399,-0.09234831
800.9861,-0.0138938,-0.9055881,-1.561915,-2.106877,0.3750399,-0.09234831
801.0007,-0.01389351,-0.9055892,-1.561915,-2.106879,0.3750398,-0.09234831
801.0157,-0.01389351,-0.9055892,-1.561915,-2.106879,0.3750398,-0.09234831
801.0298,-0.01389322,-0.9055902,-1.561916,-2.10688,0.3750398,-0.09234831
801.0452,-0.01389293,-0.9055912,-1.561916,-2.106882,0.3750397,-0.0923483
801.0598,-0.01389293,-0.9055912,-1.561916,-2.106882,0.3750397,-0.0923483
801.0739,-0.01389265,-0.9055922,-1.561916,-2.106883,0.3750396,-0.09234829
801.0895,-0.01389236,-0.9055932,-1.561916,-2.106884,0.3750396,-0.09234829
801.1041,-0.01389207,-0.9055942,-1.561916,-2.106885,0.3750395,-0.09234829
801.1206,-0.01389179,-0.9055952,-1.561917,-2.106887,0.3750395,-0.09234829
801.1342,-0.01389179,-0.9055952,-1.561917,-2.106887,0.3750395,-0.09234829
801.1484,-0.01389151,-0.9055963,-1.561917,-2.106888,0.3750394,-0.09234829
801.1628,-0.01389122,-0.9055973,-1.561917,-2.106889,0.3750393,-0.09234829
801.1767,-0.01389122,-0.9055973,-1.561917,-2.106889,0.3750393,-0.09234829
801.1912,-0.01389094,-0.9055983,-1.561917,-2.10689,0.3750393,-0.09234829
801.2067,-0.01389066,-0.9055993,-1.561918,-2.106891,0.3750392,-0.09234828
801.2211,-0.01389038,-0.9056003,-1.561918,-2.106893,0.3750392,-0.09234828
801.2358,-0.01389038,-0.9056003,-1.561918,-2.106893,0.3750392,-0.09234828
801.2499,-0.01389011,-0.9056013,-1.561918,-2.106894,0.3750391,-0.09234828
801.2652,-0.01388983,-0.9056023,-1.561918,-2.106895,0.3750391,-0.09234828
801.2803,-0.01388955,-0.9056033,-1.561919,-2.106896,0.3750391,-0.09234828
801.2948,-0.01388955,-0.9056033,-1.561919,-2.106896,0.3750391,-0.09234828
801.3089,-0.01388928,-0.9056044,-1.561919,-2.106897,0.375039,-0.09234828
801.3243,-0.013889,-0.9056054,-1.561919,-2.106899,0.375039,-0.09234828
801.3391,-0.013889,-0.9056054,-1.561919,-2.106899,0.375039,-0.09234828
801.3531,-0.01388873,-0.9056063,-1.561919,-2.1069,0.375039,-0.09234828
801.3685,-0.01388846,-0.9056073,-1.56192,-2.106901,0.375039,-0.09234828
801.3853,-0.01388819,-0.9056082,-1.56192,-2.106902,0.3750389,-0.09234828
801.3988,-0.01388819,-0.9056082,-1.56192,-2.106902,0.3750389,-0.09234828
801.4131,-0.01388792,-0.9056092,-1.56192,-2.106903,0.3750389,-0.09234828
801.4275,-0.01388765,-0.9056101,-1.56192,-2.106904,0.3750389,-0.09234828
801.442,-0.01388738,-0.9056111,-1.56192,-2.106905,0.3750388,-0.09234828
801.4566,-0.01388738,-0.9056111,-1.56192,-2.106905,0.3750388,-0.09234828
801.4704,-0.01388712,-0.9056121,-1.56192,-2.106905,0.3750388,-0.09234828
801.4858,-0.01388685,-0.905613,-1.56192,-2.106906,0.3750388,-0.09234828
801.5005,-0.01388659,-0.905614,-1.56192,-2.106907,0.3750387,-0.09234828
801.5152,-0.01388659,-0.905614,-1.56192,-2.106907,0.3750387,-0.09234828
801.5293,-0.01388633,-0.9056149,-1.561921,-2.106908,0.3750387,-0.09234828
801.5448,-0.01388606,-0.9056159,-1.561921,-2.106909,0.3750387,-0.09234828
801.5596,-0.01388606,-0.9056159,-1.561921,-2.106909,0.3750387,-0.09234828
801.5757,-0.0138858,-0.9056168,-1.561921,-2.10691,0.3750387,-0.09234828
801.5894,-0.01388554,-0.9056178,-1.561921,-2.106911,0.3750386,-0.09234828
801.6038,-0.01388528,-0.9056187,-1.561921,-2.106912,0.3750386,-0.09234828
801.6183,-0.01388528,-0.9056187,-1.561921,-2.106912,0.3750386,-0.09234828
801.6326,-0.01388502,-0.9056197,-1.561921,-2.106913,0.3750386,-0.09234828
801.6492,-0.01388477,-0.9056206,-1.561921,-2.106914,0.3750385,-0.09234828
801.6627,-0.01388451,-0.9056216,-1.561921,-2.106915,0.3750385,-0.09234828
801.6775,-0.01388451,-0.9056216,-1.561921,-2.106915,0.3750385,-0.09234828
801.6915,-0.01388426,-0.9056225,-1.561921,-2.106916,0.3750385,-0.09234828
801.7068,-0.013884,-0.9056234,-1.561922,-2.106917,0.3750384,-0.09234828
801.7212,-0.01388375,-0.9056243,-1.561922,-2.106918,0.3750384,-0.09234828
801.7358,-0.01388375,-0.9056243,-1.561922,-2.106918,0.3750384,-0.09234828
801.7499,-0.0138835,-0.9056252,-1.561922,-2.106918,0.3750384,-0.09234828
801.7653,-0.01388324,-0.9056261,-1.561922,-2.106919,0.3750384,-0.09234828
801.78,-0.01388324,-0.9056261,-1.561922,-2.106919,0.3750384,-0.09234828
801.7939,-0.01388299,-0.905627,-1.561922,-2.10692,0.3750383,-0.09234828
801.8095,-0.01388274,-0.9056278,-1.561922,-2.10692,0.3750383,-0.09234828
801.8242,-0.0138825,-0.9056287,-1.561922,-2.106921,0.3750383,-0.09234828
801.8387,-0.0138825,-0.9056287,-1.561922,-2.106921,0.3750383,-0.09234828
801.8528,-0.01388225,-0.9056296,-1.561922,-2.106922,0.3750382,-0.09234828
801.8685,-0.013882,-0.9056305,-1.561923,-2.106923,0.3750382,-0.09234828
801.884,-0.01388164,-0.9057004,-1.561403,-2.107516,0.376388,-0.09221901
801.8978,-0.01388164,-0.9057004,-1.561403,-2.107516,0.376388,-0.09221901
801.9139,-0.01388118,-0.9058127,-1.56097,-2.108395,0.3779678,-0.09209272
801.9283,-0.01388066,-0.9059505,-1.560657,-2.109404,0.3795167,-0.09196883
801.9421,-0.01388009,-0.9061036,-1.560415,-2.110468,0.3810113,-0.09184726
801.9569,-0.01388009,-0.9061036,-1.560415,-2.110468,0.3810113,-0.09184726
801.9705,-0.01387962,-0.906196,-1.560733,-2.110957,0.381116,-0.09185728
801.9858,-0.01387923,-0.9062506,-1.560986,-2.111162,0.3809513,-0.09186663
802.0002,-0.01387889,-0.9062816,-1.56113,-2.111228,0.3807856,-0.09187587
802.0151,-0.01387889,-0.9062816,-1.56113,-2.111228,0.3807856,-0.09187587
802.0293,-0.01387872,-0.9062305,-1.561733,-2.110634,0.3793012,-0.09201427
802.0446,-0.01387867,-0.906129,-1.562218,-2.109722,0.3776008,-0.09214957
802.0591,-0.01387867,-0.906129,-1.562218,-2.109722,0.3776008,-0.09214957
802.0733,-0.0138787,-0.9059968,-1.562566,-2.108665,0.3759404,-0.09228233
802.0891,-0.01387877,-0.9058463,-1.562833,-2.107546,0.3743399,-0.09241261
802.1035,-0.013879,-0.9056158,-1.563578,-2.105813,0.3714384,-0.09266966
802.1182,-0.013879,-0.9056158,-1.563578,-2.105813,0.3714384,-0.09266966
802.1322,-0.01387934,-0.905337,-1.56421,-2.103793,0.368346,-0.09292128
802.1479,-0.01387977,-0.9050297,-1.564703,-2.101649,0.3653187,-0.09316808
802.1626,-0.01388024,-0.9047061,-1.565112,-2.099463,0.3623763,-0.09341016
802.1785,-0.01388024,-0.9047061,-1.565112,-2.099463,0.3623763,-0.09341016
802.1926,-0.01388086,-0.9043046,-1.565986,-2.096682,0.3581481,-0.09377682
802.207,-0.01388161,-0.9038569,-1.566734,-2.093629,0.3537623,-0.09413594
802.2216,-0.01388243,-0.9033826,-1.567336,-2.09047,0.3494696,-0.09448814
802.236,-0.01388243,-0.9033826,-1.567336,-2.09047,0.3494696,-0.09448814
802.2504,-0.01388343,-0.9028248,-1.568355,-2.086693,0.3439166,-0.09496281
802.2653,-0.01388456,-0.9022178,-1.569216,-2.082641,0.3382487,-0.09542789
802.2802,-0.01388577,-0.9015833,-1.569917,-2.078489,0.332706,-0.09588398
802.2949,-0.01388577,-0.9015833,-1.569917,-2.078489,0.332706,-0.09588398
802.3091,-0.01388705,-0.9009346,-1.570518,-2.074321,0.3272987,-0.09633126
802.3244,-0.01388849,-0.9002108,-1.571472,-2.069582,0.3205385,-0.09689896
802.339,-0.01388849,-0.9002108,-1.571472,-2.069582,0.3205385,-0.09689896
802.353,-0.01389026,-0.8994439,-1.571966,-2.064582,0.3134485,-0.09745476
802.369,-0.01389231,-0.8986537,-1.571944,-2.059493,0.3064394,-0.09799967
802.3833,-0.0138946,-0.8978528,-1.571615,-2.05441,0.299682,-0.0985342
802.3982,-0.0138946,-0.8978528,-1.571615,-2.05441,0.299682,-0.0985342
802.4123,-0.01389724,-0.8969796,-1.571704,-2.048793,0.291804,-0.0991879
802.4296,-0.01390026,-0.8960656,-1.571645,-2.042954,0.2838674,-0.09982855
802.4435,-0.01390358,-0.8951306,-1.571453,-2.037055,0.276123,-0.1004568
802.4569,-0.01390358,-0.8951306,-1.571453,-2.037055,0.276123,-0.1004568
802.4709,-0.01390732,-0.8941174,-1.571701,-2.030591,0.267177,-0.1012022
802.4862,-0.01391148,-0.8930606,-1.571744,-2.023893,0.2581541,-0.1019328
802.5007,-0.01391598,-0.8919816,-1.571588,-2.017134,0.2493288,-0.1026492
802.5156,-0.01391598,-0.8919816,-1.571588,-2.017134,0.2493288,-0.1026492
802.5295,-0.01392074,-0.8908937,-1.571357,-2.010403,0.240757,-0.1033517
802.5449,-0.01392588,-0.8897359,-1.571596,-2.003155,0.2309696,-0.1041699
802.5597,-0.01392588,-0.8897359,-1.571596,-2.003155,0.2309696,-0.1041699
802.5737,-0.01393139,-0.8885401,-1.571649,-1.995703,0.2211384,-0.1049719
802.5891,-0.0139372,-0.8873263,-1.571515,-1.988211,0.2115173,-0.1057582
802.6037,-0.01394325,-0.8861068,-1.571309,-1.98076,0.2021556,-0.1065293
802.6184,-0.01394325,-0.8861068,-1.571309,-1.98076,0.2021556,-0.1065293
802.6325,-0.01394966,-0.8848199,-1.571537,-1.972805,0.1915575,-0.1074147
802.6481,-0.01395642,-0.8834972,-1.571566,-1.96466,0.1809664,-0.1082827
802.6626,-0.01396347,-0.8821583,-1.571419,-1.956486,0.1706132,-0.1091337
802.6775,-0.01396347,-0.8821583,-1.571419,-1.956486,0.1706132,-0.1091337
802.6936,-0.01397093,-0.8807461,-1.571601,-1.947781,0.1590292,-0.1100975
802.708,-0.01397878,-0.8792951,-1.571551,-1.938882,0.1475259,-0.1110423
802.7215,-0.01398696,-0.8778265,-1.57135,-1.929956,0.1363073,-0.1119688
802.736,-0.01398696,-0.8778265,-1.57135,-1.929956,0.1363073,-0.1119688
802.7501,-0.01399537,-0.8763536,-1.571129,-1.921087,0.1253883,-0.1128772
802.7654,-0.01400414,-0.8748155,-1.571315,-1.911734,0.1132099,-0.1138971
802.78,-0.01401327,-0.8732439,-1.571318,-1.902213,0.101133,-0.1148971
802.7946,-0.01401327,-0.8732439,-1.571318,-1.902213,0.101133,-0.1148971
802.8088,-0.01402268,-0.8716588,-1.571182,-1.892681,0.08932953,-0.1158776
802.824,-0.0140323,-0.8700724,-1.571011,-1.883217,0.07781661,-0.1168389
802.8391,-0.0140323,-0.8700724,-1.571011,-1.883217,0.07781661,-0.1168389
802.8527,-0.0140321,-0.8684229,-1.571182,-1.873279,0.06502479,-0.1179106
802.8681,-0.01402805,-0.866742,-1.571161,-1.863183,0.05239031,-0.1189615
802.8829,-0.0140219,-0.8650492,-1.571019,-1.853086,0.04004848,-0.1199917
802.8976,-0.0140219,-0.8650492,-1.571019,-1.853086,0.04004848,-0.1199917
802.9118,-0.01401488,-0.8632874,-1.571125,-1.842487,0.02644668,-0.1211312
802.9271,-0.0140076,-0.861491,-1.571045,-1.831722,0.01306697,-0.1222483
802.9419,-0.01400035,-0.8596812,-1.570876,-1.820954,7.164665E-06,-0.1233436
802.9587,-0.01400035,-0.8596812,-1.570876,-1.820954,7.164665E-06,-0.1233436
802.972,-0.01399324,-0.8578714,-1.570715,-1.810263,-0.0127408,-0.1244173
802.986,-0.01398655,-0.8560002,-1.570826,-1.799114,-0.026768,-0.1255994
803.0006,-0.01398034,-0.8540996,-1.57079,-1.787822,-0.04055297,-0.1267583
803.0153,-0.01398034,-0.8540996,-1.57079,-1.787822,-0.04055297,-0.1267583
803.0293,-0.01397457,-0.8521894,-1.570674,-1.776543,-0.05402832,-0.1278945
803.0446,-0.01396917,-0.8502818,-1.570549,-1.76535,-0.067197,-0.1290083
803.0595,-0.01396917,-0.8502818,-1.570549,-1.76535,-0.067197,-0.1290083
803.0733,-0.01396433,-0.848315,-1.570624,-1.753707,-0.08163839,-0.1302296
803.0887,-0.01396002,-0.8463205,-1.570574,-1.741929,-0.09580126,-0.131427
803.1033,-0.01395617,-0.8443179,-1.570465,-1.730169,-0.1096493,-0.1326009
803.1182,-0.01395617,-0.8443179,-1.570465,-1.730169,-0.1096493,-0.1326009
803.1322,-0.01395294,-0.8422498,-1.570488,-1.717929,-0.1247443,-0.133881
803.1477,-0.01395029,-0.8401507,-1.570408,-1.705542,-0.1395277,-0.1351359
803.1627,-0.01394814,-0.8380418,-1.570295,-1.69317,-0.153984,-0.1363662
803.1778,-0.01394814,-0.8380418,-1.570295,-1.69317,-0.153984,-0.1363662
803.1915,-0.01394638,-0.8359362,-1.570196,-1.680892,-0.1681248,-0.1375722
803.2069,-0.01394516,-0.833773,-1.570203,-1.668173,-0.1835051,-0.1388838
803.2225,-0.01394424,-0.8315837,-1.57014,-1.65533,-0.1985663,-0.1401696
803.2361,-0.01394424,-0.8315837,-1.57014,-1.65533,-0.1985663,-0.1401696
803.2503,-0.01394351,-0.8293882,-1.570027,-1.642517,-0.2133148,-0.1414301
803.2656,-0.01394288,-0.8271987,-1.569876,-1.629809,-0.2277591,-0.1426658
803.2805,-0.01394247,-0.8249534,-1.569721,-1.616668,-0.2434258,-0.1440064
803.2949,-0.01394247,-0.8249534,-1.569721,-1.616668,-0.2434258,-0.1440064
803.3091,-0.01394223,-0.8226837,-1.569504,-1.603409,-0.2587702,-0.1453206
803.3246,-0.0139421,-0.8204091,-1.569243,-1.590185,-0.2738002,-0.146609
803.3392,-0.0139421,-0.8204091,-1.569243,-1.590185,-0.2738002,-0.146609
803.3554,-0.0139422,-0.8180724,-1.56894,-1.576496,-0.2900279,-0.1480011
803.3688,-0.01394247,-0.8157079,-1.568588,-1.562675,-0.3059292,-0.1493658
803.3837,-0.01394287,-0.8133367,-1.568201,-1.548886,-0.3215096,-0.1507037
803.3983,-0.01394287,-0.8133367,-1.568201,-1.548886,-0.3215096,-0.1507037
803.4124,-0.01394335,-0.810972,-1.567785,-1.53521,-0.3367756,-0.1520153
803.4281,-0.01394405,-0.8085527,-1.567285,-1.521105,-0.3532209,-0.15343
803.4428,-0.01394491,-0.8061104,-1.566763,-1.506891,-0.3693459,-0.1548169
803.4575,-0.01394491,-0.8061104,-1.566763,-1.506891,-0.3693459,-0.1548169
803.4736,-0.01394589,-0.803665,-1.566218,-1.492724,-0.3851523,-0.1561766
803.4869,-0.01394695,-0.8012285,-1.565653,-1.478678,-0.4006448,-0.1575095
803.5016,-0.01394822,-0.7987391,-1.564959,-1.464208,-0.4173023,-0.1589449
803.5163,-0.01394822,-0.7987391,-1.564959,-1.464208,-0.4173023,-0.1589449
803.5302,-0.01394966,-0.7962282,-1.564265,-1.449632,-0.433645,-0.1603522
803.5457,-0.01395132,-0.7937154,-1.563559,-1.435109,-0.4496714,-0.1617319
803.5604,-0.01395325,-0.7912125,-1.562838,-1.420712,-0.4653847,-0.1630844
803.5753,-0.01395325,-0.7912125,-1.562838,-1.420712,-0.4653847,-0.1630844
803.5891,-0.0139557,-0.7886577,-1.561941,-1.405893,-0.4822529,-0.1645389
803.6046,-0.01395864,-0.7860823,-1.561063,-1.390971,-0.4988109,-0.165965
803.6192,-0.01395864,-0.7860823,-1.561063,-1.390971,-0.4988109,-0.165965
803.6335,-0.013962,-0.7835057,-1.560184,-1.376106,-0.5150552,-0.1673631
803.649,-0.01396598,-0.7808707,-1.559091,-1.360783,-0.5324453,-0.1688621
803.6637,-0.01397051,-0.7782113,-1.558033,-1.345345,-0.5495229,-0.1703319
803.6786,-0.01397051,-0.7782113,-1.558033,-1.345345,-0.5495229,-0.1703319
803.6927,-0.01397552,-0.7755488,-1.556979,-1.329961,-0.5662826,-0.1717729
803.7084,-0.0139809,-0.7728963,-1.555917,-1.314715,-0.5827252,-0.1731855
803.7239,-0.01398687,-0.7701925,-1.5548,-1.29962,-0.5988612,-0.1746997
803.7376,-0.01398687,-0.7701925,-1.5548,-1.29962,-0.5988612,-0.1746997
803.7516,-0.01399334,-0.7674692,-1.553683,-1.284753,-0.6146842,-0.1761841
803.7671,-0.01400024,-0.7647461,-1.55256,-1.270098,-0.6302033,-0.1776393
803.7816,-0.01400748,-0.7620352,-1.551427,-1.255648,-0.645426,-0.1790659
803.7964,-0.01400748,-0.7620352,-1.551427,-1.255648,-0.645426,-0.1790659
803.8105,-0.01401459,-0.759344,-1.550283,-1.241402,-0.660359,-0.1804644
803.826,-0.01402169,-0.756677,-1.549127,-1.227356,-0.6750085,-0.1818354
803.8406,-0.01402882,-0.7540368,-1.547962,-1.213509,-0.68938,-0.1831794
803.8555,-0.01402882,-0.7540368,-1.547962,-1.213509,-0.68938,-0.1831794
803.8694,-0.01403578,-0.7514944,-1.546839,-1.199879,-0.7034668,-0.1843677
803.8849,-0.01404259,-0.7490236,-1.54569,-1.186412,-0.7172949,-0.1855327
803.8998,-0.01404259,-0.7490236,-1.54569,-1.186412,-0.7172949,-0.1855327
803.914,-0.01404929,-0.7466081,-1.544525,-1.173129,-0.7308638,-0.1866748
803.9294,-0.01405592,-0.7442375,-1.543349,-1.160037,-0.744176,-0.1877945
803.9443,-0.01406229,-0.7419746,-1.542605,-1.147745,-0.7557904,-0.1887645
803.9611,-0.01406843,-0.7397882,-1.541744,-1.135941,-0.7671324,-0.1897149
803.9748,-0.01406843,-0.7397882,-1.541744,-1.135941,-0.7671324,-0.1897149
803.9887,-0.01407438,-0.7376587,-1.540821,-1.124454,-0.7782444,-0.1906465
804.0029,-0.01408021,-0.7355741,-1.539866,-1.113205,-0.7891378,-0.1915596
804.0179,-0.01408021,-0.7355741,-1.539866,-1.113205,-0.7891378,-0.1915596
804.0318,-0.01408573,-0.7335956,-1.539385,-1.102767,-0.7984,-0.1923272
804.0472,-0.01409097,-0.7316915,-1.538783,-1.09281,-0.807403,-0.1930792
804.062,-0.014096,-0.7298419,-1.538107,-1.083152,-0.8162198,-0.1938162
804.0768,-0.014096,-0.7298419,-1.538107,-1.083152,-0.8162198,-0.1938162
804.0909,-0.01410064,-0.7281034,-1.537914,-1.074322,-0.8234683,-0.1944111
804.1063,-0.01410494,-0.7264413,-1.537591,-1.06597,-0.8304697,-0.1949937
804.121,-0.01410899,-0.7248338,-1.537182,-1.057904,-0.8373233,-0.1955647
804.1356,-0.01410899,-0.7248338,-1.537182,-1.057904,-0.8373233,-0.1955647
804.1499,-0.01411285,-0.7232673,-1.53673,-1.050033,-0.8440426,-0.1961243
804.1655,-0.01411635,-0.7218022,-1.536804,-1.042932,-0.849274,-0.1965453
804.1804,-0.01411952,-0.7204063,-1.536765,-1.036269,-0.854265,-0.1969577
804.1948,-0.01411952,-0.7204063,-1.536765,-1.036269,-0.854265,-0.1969577
804.2112,-0.01412246,-0.7190594,-1.536637,-1.02986,-0.8591459,-0.1973616
804.2247,-0.01412522,-0.7177488,-1.53646,-1.023618,-0.8639329,-0.1977575
804.2395,-0.01412522,-0.7177488,-1.53646,-1.023618,-0.8639329,-0.1977575
804.2532,-0.01412762,-0.7165357,-1.536824,-1.018121,-0.8673044,-0.1980181
804.2686,-0.0141297,-0.7153882,-1.537082,-1.013038,-0.870443,-0.1982732
804.2834,-0.01413153,-0.7142864,-1.537241,-1.008185,-0.8735049,-0.1985229
804.2981,-0.01413153,-0.7142864,-1.537241,-1.008185,-0.8735049,-0.1985229
804.3123,-0.01413295,-0.7132869,-1.537917,-1.004093,-0.8752041,-0.1986401
804.3276,-0.01413399,-0.7123551,-1.538471,-1.000412,-0.8766867,-0.1987545
804.3425,-0.01413476,-0.7114693,-1.538908,-0.9969475,-0.8781232,-0.1988663
804.3574,-0.01413476,-0.7114693,-1.538908,-0.9969475,-0.8781232,-0.1988663
804.3715,-0.01413533,-0.7106158,-1.539275,-0.9936088,-0.8795353,-0.1989758
804.3871,-0.01413566,-0.7098553,-1.540184,-0.9909715,-0.8796389,-0.1989556
804.4015,-0.01413586,-0.7091557,-1.540985,-0.9887079,-0.8795415,-0.1989353
804.417,-0.01413586,-0.7091557,-1.540985,-0.9887079,-0.8795415,-0.1989353
804.4307,-0.01413597,-0.7084967,-1.541667,-0.9866313,-0.8794253,-0.1989151
804.446,-0.01413606,-0.7078659,-1.542273,-0.9846555,-0.8793145,-0.1988952
804.4617,-0.01413596,-0.7073244,-1.543419,-0.9833579,-0.8779345,-0.198748
804.4756,-0.01413596,-0.7073244,-1.543419,-0.9833579,-0.8779345,-0.198748
804.4899,-0.01413576,-0.7068406,-1.544453,-0.9824126,-0.8763732,-0.1986034
804.5049,-0.01413549,-0.7063946,-1.545358,-0.9816334,-0.8748195,-0.1984612
804.5195,-0.01413549,-0.7063946,-1.545358,-0.9816334,-0.8748195,-0.1984612
804.5336,-0.01413503,-0.7060431,-1.546766,-0.9815506,-0.8720226,-0.1981941
804.5491,-0.01413438,-0.7057515,-1.548033,-0.981818,-0.8690705,-0.1979318
804.5639,-0.01413353,-0.7054983,-1.549151,-0.9822397,-0.8661531,-0.1976742
804.5786,-0.01413353,-0.7054983,-1.549151,-0.9822397,-0.8661531,-0.1976742
804.5928,-0.01413251,-0.7052698,-1.550166,-0.9827254,-0.8632946,-0.1974215
804.6084,-0.01413112,-0.7051269,-1.551705,-0.9838507,-0.8592137,-0.1970462
804.6229,-0.0141294,-0.7050376,-1.553105,-0.9852904,-0.8550047,-0.1966777
804.6378,-0.0141294,-0.7050376,-1.553105,-0.9852904,-0.8550047,-0.1966777
804.6522,-0.01412741,-0.7049816,-1.554355,-0.9868582,-0.850854,-0.1963161
804.6675,-0.01412524,-0.7049465,-1.555498,-0.9884681,-0.8467844,-0.1959614
804.6822,-0.01412267,-0.7049931,-1.557158,-0.9906974,-0.8414994,-0.195486
804.698,-0.01412267,-0.7049931,-1.557158,-0.9906974,-0.8414994,-0.195486
804.7122,-0.01411977,-0.7050899,-1.558665,-0.9932222,-0.836118,-0.1950194
804.7267,-0.0141166,-0.7052172,-1.560011,-0.9958568,-0.8308191,-0.1945616
804.7413,-0.01411326,-0.7053628,-1.561244,-0.9985159,-0.8256226,-0.1941126
804.756,-0.01411326,-0.7053628,-1.561244,-0.9985159,-0.8256226,-0.1941126
804.7701,-0.01411858,-0.7055884,-1.562968,-1.001777,-0.819201,-0.1935447
804.7852,-0.01412901,-0.7058623,-1.564511,-1.005316,-0.812722,-0.1929874
804.7999,-0.01412901,-0.7058623,-1.564511,-1.005316,-0.812722,-0.1929874
804.8142,-0.0141424,-0.7061648,-1.565879,-1.008947,-0.8063514,-0.1924406
804.8295,-0.01415723,-0.7065529,-1.567705,-1.013199,-0.7987655,-0.1917767
804.8445,-0.01417273,-0.706992,-1.569323,-1.017729,-0.7911581,-0.1911253
804.8586,-0.01417273,-0.706992,-1.569323,-1.017729,-0.7911581,-0.1911253
804.8732,-0.01418847,-0.7074607,-1.570754,-1.022342,-0.7836825,-0.1904862
804.8887,-0.01420423,-0.7079455,-1.571933,-1.026968,-0.7762315,-0.1898599
804.9037,-0.01421965,-0.7085074,-1.573217,-1.032201,-0.7673146,-0.189119
804.9183,-0.01421965,-0.7085074,-1.573217,-1.032201,-0.7673146,-0.189119
804.9323,-0.01423466,-0.7091143,-1.573705,-1.037723,-0.758216,-0.1883929
804.9489,-0.01424926,-0.7097462,-1.573495,-1.043319,-0.7492912,-0.1876805
804.9627,-0.01426349,-0.7103909,-1.572917,-1.048874,-0.7406846,-0.1869813
804.9775,-0.01426349,-0.7103909,-1.572917,-1.048874,-0.7406846,-0.1869813
804.9916,-0.01427716,-0.7111097,-1.572847,-1.054942,-0.7310141,-0.1861673
805.007,-0.01429027,-0.7118711,-1.572651,-1.061219,-0.7214274,-0.1853687
805.0215,-0.01430291,-0.7126553,-1.572388,-1.067531,-0.7120522,-0.1845852
805.0364,-0.01430291,-0.7126553,-1.572388,-1.067531,-0.7120522,-0.1845852
805.0505,-0.01431491,-0.7135194,-1.572677,-1.074403,-0.7014734,-0.1836889
805.0659,-0.01432631,-0.7144289,-1.572732,-1.081513,-0.6909307,-0.18281
805.0807,-0.01433721,-0.7153624,-1.572574,-1.088667,-0.6805841,-0.1819478
805.0956,-0.01433721,-0.7153624,-1.572574,-1.088667,-0.6805841,-0.1819478
805.11,-0.01434767,-0.7163064,-1.572315,-1.09577,-0.6704808,-0.181102
805.1252,-0.01435756,-0.7173221,-1.572567,-1.103384,-0.6591675,-0.1801446
805.1404,-0.0143669,-0.7183774,-1.572572,-1.111203,-0.6479527,-0.1792057
805.1551,-0.0143669,-0.7183774,-1.572572,-1.111203,-0.6479527,-0.1792057
805.1691,-0.01437577,-0.7194524,-1.572386,-1.119044,-0.636962,-0.1782847
805.1855,-0.01438425,-0.7205348,-1.572126,-1.126818,-0.6262281,-0.1773812
805.1992,-0.01438425,-0.7205348,-1.572126,-1.126818,-0.6262281,-0.1773812
805.2134,-0.01439218,-0.7216861,-1.572361,-1.135088,-0.6142684,-0.1763672
805.2288,-0.01439959,-0.7228749,-1.572351,-1.143549,-0.6024522,-0.1753727
805.2434,-0.01440656,-0.7240813,-1.572167,-1.15202,-0.5908751,-0.1743972
805.2581,-0.01440656,-0.7240813,-1.572167,-1.15202,-0.5908751,-0.1743972
805.2723,-0.01441294,-0.7253627,-1.572365,-1.161016,-0.5780717,-0.1733124
805.2878,-0.01441876,-0.7266844,-1.572282,-1.170204,-0.5654614,-0.1722483
805.3026,-0.01442412,-0.7280251,-1.572038,-1.179395,-0.5531204,-0.1712046
805.3173,-0.01442412,-0.7280251,-1.572038,-1.179395,-0.5531204,-0.1712046
805.3315,-0.0144291,-0.7293716,-1.571768,-1.188501,-0.5410612,-0.1701808
805.347,-0.01443354,-0.7307849,-1.57195,-1.198079,-0.5277736,-0.1690485
805.3618,-0.01443749,-0.732233,-1.571915,-1.207822,-0.5146976,-0.167938
805.3768,-0.01443749,-0.732233,-1.571915,-1.207822,-0.5146976,-0.167938
805.3922,-0.01444101,-0.7336962,-1.571744,-1.217556,-0.5018849,-0.1668488
805.4061,-0.01444419,-0.7351621,-1.571537,-1.227198,-0.4893467,-0.1657805
805.4218,-0.01444687,-0.7366924,-1.571709,-1.237302,-0.4755772,-0.1646045
805.4368,-0.01444687,-0.7366924,-1.571709,-1.237302,-0.4755772,-0.1646045
805.45,-0.01444908,-0.7382556,-1.571662,-1.247561,-0.4620426,-0.1634512
805.4651,-0.01445089,-0.739832,-1.57149,-1.257803,-0.448779,-0.16232
805.4797,-0.01445089,-0.739832,-1.57149,-1.257803,-0.448779,-0.16232
805.4937,-0.01445215,-0.7414789,-1.571607,-1.268535,-0.4342951,-0.1610821
805.5093,-0.01445291,-0.7431619,-1.571505,-1.279426,-0.4200712,-0.1598681
805.5239,-0.01445341,-0.7448595,-1.571306,-1.290297,-0.4061321,-0.1586773
805.5386,-0.01445341,-0.7448595,-1.571306,-1.290297,-0.4061321,-0.1586773
805.5526,-0.01445378,-0.7465585,-1.571109,-1.301063,-0.3924771,-0.1575095
805.5685,-0.01445395,-0.7483202,-1.571227,-1.312275,-0.3775998,-0.1562357
805.5829,-0.01445398,-0.7501126,-1.571175,-1.323621,-0.3629876,-0.1549864
805.5977,-0.01445398,-0.7501126,-1.571175,-1.323621,-0.3629876,-0.1549864
805.6119,-0.01445392,-0.7519159,-1.571034,-1.334937,-0.3486565,-0.1537613
805.6275,-0.01445379,-0.7537178,-1.57088,-1.346142,-0.3346062,-0.1525598
805.6424,-0.01445348,-0.7555801,-1.570976,-1.357786,-0.319333,-0.1512529
805.6569,-0.01445348,-0.7555801,-1.570976,-1.357786,-0.319333,-0.1512529
805.6729,-0.01445304,-0.7574713,-1.570916,-1.369556,-0.3043356,-0.1499713
805.6874,-0.01445251,-0.7593718,-1.570781,-1.381289,-0.2896221,-0.1487145
805.701,-0.01445192,-0.7612696,-1.570644,-1.39291,-0.2751899,-0.147482
805.7158,-0.01445192,-0.7612696,-1.570644,-1.39291,-0.2751899,-0.147482
805.7297,-0.01445113,-0.7631574,-1.570538,-1.404383,-0.2610313,-0.1462733
805.745,-0.01445027,-0.7650304,-1.570467,-1.415694,-0.2471414,-0.1450882
805.7598,-0.01445027,-0.7650304,-1.570467,-1.415694,-0.2471414,-0.1450882
805.7739,-0.01444936,-0.7668859,-1.57042,-1.426839,-0.2335147,-0.1439261
805.7892,-0.01444858,-0.7686531,-1.570243,-1.437238,-0.2216493,-0.1429157
805.8038,-0.01444787,-0.7703578,-1.570202,-1.447192,-0.2100181,-0.1419251
805.8188,-0.01444787,-0.7703578,-1.570202,-1.447192,-0.2100181,-0.1419251
805.8329,-0.01444721,-0.7720163,-1.570225,-1.456854,-0.1986127,-0.1409539
805.8483,-0.01444656,-0.7736388,-1.570246,-1.466299,-0.187427,-0.1400017
805.8635,-0.01444606,-0.7751626,-1.570146,-1.474989,-0.177964,-0.1391972
805.8784,-0.01444606,-0.7751626,-1.570146,-1.474989,-0.177964,-0.1391972
805.8922,-0.01444566,-0.7766187,-1.570109,-1.483245,-0.1686897,-0.1384085
805.9075,-0.01444531,-0.7780263,-1.570082,-1.491224,-0.1595969,-0.1376353
805.9233,-0.01444499,-0.7793979,-1.570053,-1.499007,-0.1506799,-0.1368772
805.937,-0.01444499,-0.7793979,-1.570053,-1.499007,-0.1506799,-0.1368772
805.9509,-0.01444482,-0.7806717,-1.569938,-1.506059,-0.1434472,-0.1362631
805.9665,-0.01444476,-0.7818795,-1.569857,-1.512701,-0.1363613,-0.1356611
805.981,-0.01444475,-0.7830411,-1.569787,-1.519091,-0.1294151,-0.1350709
805.9955,-0.01444475,-0.7830411,-1.569787,-1.519091,-0.1294151,-0.1350709
806.0098,-0.01444491,-0.7840996,-1.569658,-1.524734,-0.1241204,-0.1346215
806.0251,-0.01444519,-0.7850899,-1.569561,-1.529971,-0.1189349,-0.1341809
806.0399,-0.01444519,-0.7850899,-1.569561,-1.529971,-0.1189349,-0.1341809
806.0538,-0.01444553,-0.7860336,-1.569474,-1.534967,-0.1138527,-0.133749
806.0694,-0.01444591,-0.7869443,-1.569392,-1.539807,-0.10887,-0.1333255
806.0841,-0.01444644,-0.7877612,-1.569268,-1.543958,-0.1055045,-0.1330396
806.0991,-0.01444644,-0.7877612,-1.569268,-1.543958,-0.1055045,-0.1330396
806.1129,-0.01444709,-0.7885166,-1.569166,-1.547743,-0.1022096,-0.1327593
806.1285,-0.01444779,-0.7892308,-1.569074,-1.551319,-0.098981,-0.1324845
806.1436,-0.01444852,-0.7899162,-1.568985,-1.554764,-0.09581607,-0.1322151
806.1581,-0.01444852,-0.7899162,-1.568985,-1.554764,-0.09581607,-0.1322151
806.1743,-0.01444942,-0.7905114,-1.56887,-1.557544,-0.09423641,-0.1320803
806.1886,-0.01445043,-0.7910485,-1.568771,-1.559981,-0.09269168,-0.1319481
806.202,-0.01445163,-0.7915471,-1.568679,-1.562229,-0.09117896,-0.1318185
806.2169,-0.01445163,-0.7915471,-1.568679,-1.562229,-0.09117896,-0.1318185
806.231,-0.0144532,-0.7919505,-1.56857,-1.563792,-0.09122141,-0.1318207
806.2462,-0.01445511,-0.7922934,-1.568474,-1.56501,-0.09126673,-0.1318229
806.2609,-0.01445731,-0.7925973,-1.568384,-1.566047,-0.09131293,-0.1318251
806.2758,-0.01445731,-0.7925973,-1.568384,-1.566047,-0.09131293,-0.1318251
806.2898,-0.0144597,-0.7928758,-1.568298,-1.566987,-0.09135908,-0.1318272
806.3052,-0.01446246,-0.7930682,-1.568197,-1.567296,-0.0929301,-0.1319586
806.32,-0.01446555,-0.7932065,-1.568105,-1.567297,-0.09447334,-0.1320874
806.3347,-0.01446555,-0.7932065,-1.568105,-1.567297,-0.09447334,-0.1320874
806.3489,-0.0144689,-0.7933107,-1.568017,-1.567145,-0.0959878,-0.1322137
806.3643,-0.01447244,-0.7933936,-1.567931,-1.566916,-0.09747332,-0.1323376
806.3793,-0.01447244,-0.7933936,-1.567931,-1.566916,-0.09747332,-0.1323376
806.3932,-0.01447632,-0.7933935,-1.56783,-1.566077,-0.1004547,-0.1325882
806.4088,-0.01448054,-0.7933437,-1.567736,-1.564947,-0.1033804,-0.132834
806.4245,-0.01448502,-0.7932634,-1.567645,-1.56368,-0.1062501,-0.133075
806.4393,-0.01448502,-0.7932634,-1.567645,-1.56368,-0.1062501,-0.133075
806.4523,-0.0144899,-0.7930954,-1.567535,-1.56178,-0.1105873,-0.1334405
806.4676,-0.01449514,-0.792874,-1.567431,-1.559586,-0.1148423,-0.1337989
806.4822,-0.01450067,-0.7926205,-1.567329,-1.557261,-0.1190152,-0.1341502
806.4971,-0.01450067,-0.7926205,-1.567329,-1.557261,-0.1190152,-0.1341502
806.5111,-0.0145064,-0.7923485,-1.567229,-1.554888,-0.1231067,-0.1344947
806.5264,-0.01451248,-0.7919969,-1.5671,-1.551933,-0.1286381,-0.1349617
806.5412,-0.01451889,-0.7915978,-1.566978,-1.548717,-0.1340643,-0.1354195
806.5561,-0.01451889,-0.7915978,-1.566978,-1.548717,-0.1340643,-0.1354195
806.5703,-0.01452555,-0.7911711,-1.566859,-1.545395,-0.1393854,-0.1358684
806.5855,-0.01453238,-0.7907293,-1.56674,-1.542043,-0.1446026,-0.1363084
806.6003,-0.01453956,-0.790211,-1.566581,-1.538126,-0.1512334,-0.1368691
806.6152,-0.01453956,-0.790211,-1.566581,-1.538126,-0.1512334,-0.1368691
806.6292,-0.01454704,-0.7896476,-1.566432,-1.533963,-0.1577383,-0.1374188
806.6447,-0.01455477,-0.789059,-1.566286,-1.529708,-0.1641172,-0.1379577
806.6595,-0.01455477,-0.789059,-1.566286,-1.529708,-0.1641172,-0.1379577
806.6757,-0.01455361,-0.7883881,-1.56611,-1.524862,-0.1718817,-0.1386152
806.6889,-0.0145479,-0.7876694,-1.565956,-1.519764,-0.1795004,-0.1392599
806.7036,-0.01453954,-0.7869244,-1.565808,-1.514578,-0.1869721,-0.1398919
806.7181,-0.01453954,-0.7869244,-1.565808,-1.514578,-0.1869721,-0.1398919
806.7322,-0.0145297,-0.7861666,-1.565663,-1.509384,-0.194298,-0.1405116
806.7477,-0.01451934,-0.785335,-1.565447,-1.503649,-0.2029874,-0.1412482
806.7623,-0.01450887,-0.7844616,-1.565248,-1.497692,-0.211513,-0.1419705
806.7773,-0.01450887,-0.7844616,-1.565248,-1.497692,-0.211513,-0.1419705
806.7913,-0.01449849,-0.7835662,-1.565055,-1.491668,-0.2198741,-0.1426786
806.8067,-0.01448827,-0.7826614,-1.564863,-1.485653,-0.2280723,-0.1433728
806.8216,-0.01447851,-0.7816854,-1.564579,-1.47911,-0.2376113,-0.1441824
806.8362,-0.01447851,-0.7816854,-1.564579,-1.47911,-0.2376113,-0.1441824
806.8503,-0.01446921,-0.7806699,-1.564319,-1.472358,-0.2469718,-0.1449763
806.8659,-0.01446034,-0.7796346,-1.564069,-1.46555,-0.2561525,-0.1457546
806.8808,-0.01445184,-0.7785916,-1.563821,-1.458764,-0.2651547,-0.1465176
806.8956,-0.01445184,-0.7785916,-1.563821,-1.458764,-0.2651547,-0.1465176
806.9097,-0.01444389,-0.7774794,-1.563457,-1.451459,-0.2754769,-0.1473946
806.9261,-0.01443647,-0.7763293,-1.563126,-1.443955,-0.2856073,-0.1482545
806.9399,-0.01443647,-0.7763293,-1.563126,-1.443955,-0.2856073,-0.1482545
806.9539,-0.0144295,-0.775161,-1.562808,-1.436407,-0.2955442,-0.1490976
806.9699,-0.01442316,-0.7739175,-1.562356,-1.428311,-0.3067806,-0.1500531
806.9841,-0.0144174,-0.7726331,-1.561945,-1.420008,-0.3178098,-0.1509899
806.9985,-0.0144174,-0.7726331,-1.561945,-1.420008,-0.3178098,-0.1509899
807.0127,-0.01441212,-0.7713292,-1.56155,-1.411662,-0.3286292,-0.1519084
807.0281,-0.01440721,-0.7700191,-1.561162,-1.403355,-0.3392398,-0.1528088
807.043,-0.01440287,-0.7686417,-1.560607,-1.394544,-0.3511316,-0.1538204
807.0577,-0.01440287,-0.7686417,-1.560607,-1.394544,-0.3511316,-0.1538204
807.072,-0.01439906,-0.767229,-1.560101,-1.385553,-0.3628051,-0.1548123
807.0874,-0.01439567,-0.7658008,-1.559617,-1.376537,-0.3742577,-0.1557848
807.1019,-0.01439262,-0.7643694,-1.55914,-1.367576,-0.3854904,-0.1567382
807.117,-0.01439262,-0.7643694,-1.55914,-1.367576,-0.3854904,-0.1567382
807.1309,-0.01439011,-0.7628732,-1.558465,-1.35812,-0.3979894,-0.1578015
807.1463,-0.01438808,-0.7613437,-1.55785,-1.348491,-0.4102609,-0.1588442
807.162,-0.01438646,-0.7598004,-1.557261,-1.33885,-0.4223019,-0.1598664
807.177,-0.01438646,-0.7598004,-1.557261,-1.33885,-0.4223019,-0.1598664
807.1904,-0.01438543,-0.7581863,-1.556452,-1.328683,-0.4355947,-0.1609972
807.2055,-0.01438481,-0.7565357,-1.555715,-1.318335,-0.4486478,-0.162106
807.22,-0.01438441,-0.7548699,-1.555008,-1.307974,-0.4614577,-0.1631931
807.2346,-0.01438441,-0.7548699,-1.555008,-1.307974,-0.4614577,-0.1631931
807.2488,-0.0143841,-0.7532023,-1.554314,-1.297683,-0.4740249,-0.1642589
807.2642,-0.01438403,-0.7514716,-1.553352,-1.286908,-0.4878326,-0.1654321
807.2788,-0.01438403,-0.7514716,-1.553352,-1.286908,-0.4878326,-0.1654321
807.2931,-0.01438411,-0.7497098,-1.552471,-1.275975,-0.5013928,-0.1665826
807.3087,-0.01438429,-0.7479367,-1.551626,-1.265048,-0.514702,-0.1677106
807.3232,-0.01438454,-0.7461645,-1.550796,-1.254203,-0.527761,-0.1688165
807.338,-0.01438454,-0.7461645,-1.550796,-1.254203,-0.527761,-0.1688165
807.3521,-0.01438501,-0.7443315,-1.54965,-1.242882,-0.5420537,-0.1700289
807.3676,-0.01438563,-0.7424693,-1.548599,-1.231411,-0.5560929,-0.1712178
807.3824,-0.01438635,-0.7405973,-1.547589,-1.219954,-0.5698742,-0.1723835
807.3971,-0.01438635,-0.7405973,-1.547589,-1.219954,-0.5698742,-0.1723835
807.4133,-0.01438731,-0.7386584,-1.546235,-1.20799,-0.5848798,-0.1736544
807.4282,-0.01438854,-0.7366868,-1.544989,-1.195865,-0.5996231,-0.1749007
807.4416,-0.0143901,-0.734704,-1.543792,-1.183755,-0.6140967,-0.1761228
807.4562,-0.0143901,-0.734704,-1.543792,-1.183755,-0.6140967,-0.1761228
807.47,-0.01439193,-0.732723,-1.542614,-1.171743,-0.6283005,-0.1773208
807.4855,-0.01439428,-0.7306828,-1.541024,-1.159263,-0.6437142,-0.1786233
807.5002,-0.01439711,-0.7286151,-1.539548,-1.146647,-0.658866,-0.1799006
807.515,-0.01439711,-0.7286151,-1.539548,-1.146647,-0.658866,-0.1799006
807.5291,-0.01440032,-0.7265397,-1.538126,-1.134061,-0.6737384,-0.181153
807.5446,-0.01440385,-0.7244689,-1.536729,-1.121585,-0.6883308,-0.1823809
807.5594,-0.01440385,-0.7244689,-1.536729,-1.121585,-0.6883308,-0.1823809
807.5736,-0.01440793,-0.7223409,-1.535287,-1.109237,-0.7026626,-0.183714
807.5889,-0.01441248,-0.7201871,-1.533867,-1.097085,-0.7167091,-0.185021
807.6038,-0.01441741,-0.7180271,-1.532456,-1.085113,-0.7304804,-0.1863023
807.6188,-0.01441741,-0.7180271,-1.532456,-1.085113,-0.7304804,-0.1863023
807.6328,-0.01442224,-0.7158728,-1.531048,-1.073314,-0.7439833,-0.1875584
807.6481,-0.01442708,-0.7137317,-1.529642,-1.061687,-0.7572235,-0.1887899
807.6636,-0.01443195,-0.7116084,-1.528239,-1.050229,-0.7702057,-0.1899972
807.6777,-0.01443195,-0.7116084,-1.528239,-1.050229,-0.7702057,-0.1899972
807.6918,-0.01443689,-0.7095055,-1.526838,-1.038939,-0.7829343,-0.1911808
807.7072,-0.01444164,-0.707494,-1.525502,-1.027831,-0.7953898,-0.192212
807.7216,-0.01444622,-0.7055478,-1.524148,-1.016857,-0.8076149,-0.1932229
807.7361,-0.01444622,-0.7055478,-1.524148,-1.016857,-0.8076149,-0.1932229
807.7503,-0.01445066,-0.7036507,-1.522789,-1.006037,-0.8196054,-0.194214
807.7657,-0.01445502,-0.7017924,-1.521433,-0.995378,-0.8313617,-0.1951856
807.7806,-0.01445907,-0.7000356,-1.520667,-0.9854955,-0.8415754,-0.1960107
807.7952,-0.01445907,-0.7000356,-1.520667,-0.9854955,-0.8415754,-0.1960107
807.8095,-0.01446285,-0.6983493,-1.519829,-0.9760767,-0.8513961,-0.1968193
807.8251,-0.01446642,-0.6967141,-1.518906,-0.966947,-0.8610009,-0.1976117
807.8398,-0.01446642,-0.6967141,-1.518906,-0.966947,-0.8610009,-0.1976117
807.8538,-0.01446959,-0.695187,-1.518535,-0.95864,-0.8691518,-0.198261
807.8693,-0.01447241,-0.6937335,-1.518081,-0.9508062,-0.8769178,-0.1988971
807.8841,-0.01447498,-0.6923319,-1.517523,-0.9432527,-0.8845029,-0.1995204
807.8988,-0.01447498,-0.6923319,-1.517523,-0.9432527,-0.8845029,-0.1995204
807.914,-0.01447736,-0.6909686,-1.516904,-0.9358889,-0.8919408,-0.2001313
807.9286,-0.01447935,-0.6897044,-1.516864,-0.9292904,-0.8980278,-0.2006028
807.9433,-0.01448103,-0.688507,-1.516774,-0.9231265,-0.9037366,-0.2010646
807.9579,-0.01448103,-0.688507,-1.516774,-0.9231265,-0.9037366,-0.2010646
807.9719,-0.01448245,-0.6873561,-1.516585,-0.9172117,-0.9092944,-0.2015171
807.9872,-0.0144837,-0.6862392,-1.51633,-0.9114587,-0.9147444,-0.2019605
808.002,-0.01448457,-0.6852174,-1.516656,-0.906446,-0.9189273,-0.2022678
808.0172,-0.01448457,-0.6852174,-1.516656,-0.906446,-0.9189273,-0.2022678
808.031,-0.01448512,-0.6842591,-1.516946,-0.9018445,-0.9227452,-0.2025687
808.0463,-0.01448553,-0.6833441,-1.517133,-0.8974682,-0.9264396,-0.2028634
808.0609,-0.01448586,-0.68246,-1.517246,-0.89323,-0.9300615,-0.2031521
808.0759,-0.01448586,-0.68246,-1.517246,-0.89323,-0.9300615,-0.2031521
808.0901,-0.014486,-0.6816682,-1.517935,-0.8897091,-0.9324842,-0.2033078
808.1055,-0.01448603,-0.6809369,-1.518592,-0.8865772,-0.9345604,-0.20346
808.1202,-0.014486,-0.6802462,-1.519142,-0.8836479,-0.9365391,-0.2036089
808.1349,-0.014486,-0.6802462,-1.519142,-0.8836479,-0.9365391,-0.2036089
808.1517,-0.01448577,-0.679653,-1.520228,-0.8814536,-0.9373559,-0.2036274
808.1646,-0.01448543,-0.6791226,-1.521258,-0.8796453,-0.9378496,-0.2036451
808.1796,-0.01448543,-0.6791226,-1.521258,-0.8796453,-0.9378496,-0.2036451
808.1935,-0.01448502,-0.6786334,-1.522157,-0.8780267,-0.9382738,-0.203662
808.209,-0.01448457,-0.6781717,-1.522956,-0.876506,-0.9386871,-0.2036784
808.2238,-0.01448379,-0.6777984,-1.524308,-0.8756614,-0.9379901,-0.2035671
808.2385,-0.01448379,-0.6777984,-1.524308,-0.8756614,-0.9379901,-0.2035671
808.2524,-0.01448271,-0.6774814,-1.525618,-0.8751653,-0.9369941,-0.2034575
808.2681,-0.01448139,-0.6772004,-1.5268,-0.8748307,-0.9359523,-0.2033497
808.2828,-0.01447989,-0.6769431,-1.527877,-0.8745704,-0.9349245,-0.2032438
808.2976,-0.01447989,-0.6769431,-1.527877,-0.8745704,-0.9349245,-0.2032438
808.3116,-0.01447799,-0.6767707,-1.529503,-0.8749641,-0.9328123,-0.2030126
808.3275,-0.01447577,-0.6766515,-1.531077,-0.875686,-0.930426,-0.2027854
808.3422,-0.01447328,-0.6765658,-1.532512,-0.8765497,-0.9280185,-0.2025624
808.3571,-0.01447328,-0.6765658,-1.532512,-0.8765497,-0.9280185,-0.2025624
808.3712,-0.01447034,-0.6765696,-1.534454,-0.8780876,-0.9245336,-0.2022162
808.3875,-0.01446702,-0.6766288,-1.536305,-0.8799528,-0.9208015,-0.2018763
808.4012,-0.01446341,-0.6767219,-1.53799,-0.8819486,-0.9170758,-0.2015426
808.416,-0.01446341,-0.6767219,-1.53799,-0.8819486,-0.9170758,-0.2015426
808.4301,-0.0144596,-0.6768354,-1.539538,-0.8839839,-0.9134142,-0.2012152
808.4456,-0.01445538,-0.6770304,-1.54161,-0.8866361,-0.9086931,-0.2007667
808.4603,-0.01445083,-0.6772748,-1.543592,-0.8895804,-0.9037552,-0.2003266
808.475,-0.01445083,-0.6772748,-1.543592,-0.8895804,-0.9037552,-0.2003266
808.4891,-0.01444602,-0.6775485,-1.545406,-0.8926303,-0.8988482,-0.1998946
808.5045,-0.01444104,-0.6778392,-1.54708,-0.8956989,-0.8940257,-0.1994709
808.5196,-0.01444104,-0.6778392,-1.54708,-0.8956989,-0.8940257,-0.1994709
808.5334,-0.01443567,-0.6782083,-1.549273,-0.8993651,-0.8881381,-0.1989279
808.549,-0.01442999,-0.6786242,-1.551355,-0.9033058,-0.8820655,-0.1983952
808.5638,-0.01442406,-0.679067,-1.553256,-0.9073352,-0.8760504,-0.1978724
808.5788,-0.01442406,-0.679067,-1.553256,-0.9073352,-0.8760504,-0.1978724
808.5928,-0.01442669,-0.6795939,-1.555622,-0.9119847,-0.8689492,-0.1972322
808.6085,-0.01443437,-0.6801702,-1.557818,-0.9169095,-0.8616996,-0.1966039
808.6243,-0.01444501,-0.6807745,-1.5598,-0.9219138,-0.8545392,-0.1959875
808.639,-0.01444501,-0.6807745,-1.5598,-0.9219138,-0.8545392,-0.1959875
808.652,-0.01445732,-0.6813933,-1.561613,-0.9269069,-0.8475091,-0.1953828
808.6675,-0.0144703,-0.6820876,-1.563921,-0.9324639,-0.8393896,-0.1946624
808.6819,-0.01448351,-0.6828253,-1.566062,-0.9382632,-0.8311614,-0.1939556
808.697,-0.01448351,-0.6828253,-1.566062,-0.9382632,-0.8311614,-0.1939556
808.7109,-0.0144967,-0.6835865,-1.567996,-0.9441194,-0.8230463,-0.1932621
808.7263,-0.01450977,-0.6843589,-1.569765,-0.9499469,-0.8150784,-0.192582
808.7411,-0.01452242,-0.6852039,-1.572022,-0.9563217,-0.8059921,-0.1917874
808.7559,-0.01452242,-0.6852039,-1.572022,-0.9563217,-0.8059921,-0.1917874
808.7702,-0.01453463,-0.68609,-1.573752,-0.9629787,-0.796416,-0.1910096
808.7856,-0.01454643,-0.6869974,-1.574589,-0.9697424,-0.7866448,-0.1902476
808.8,-0.01455788,-0.687914,-1.57456,-0.976493,-0.776994,-0.1895004
808.8152,-0.01455788,-0.687914,-1.57456,-0.976493,-0.776994,-0.1895004
808.8295,-0.01456877,-0.6889013,-1.574565,-0.9837625,-0.766359,-0.1886395
808.8449,-0.01457913,-0.6899279,-1.574133,-0.9912209,-0.7558249,-0.1877947
808.8606,-0.01458905,-0.6909742,-1.573474,-0.9986752,-0.7456264,-0.1869654
808.8757,-0.01458905,-0.6909742,-1.573474,-0.9986752,-0.7456264,-0.1869654
808.8888,-0.01459833,-0.6920972,-1.573434,-1.006648,-0.7344289,-0.1860238
808.9039,-0.01460705,-0.6932625,-1.573312,-1.014821,-0.7232625,-0.1851002
808.9186,-0.01460705,-0.6932625,-1.573312,-1.014821,-0.7232625,-0.1851002
808.9326,-0.01461528,-0.6944486,-1.573088,-1.023011,-0.7123023,-0.1841941
808.9481,-0.01462312,-0.6956424,-1.572827,-1.031131,-0.7015866,-0.1833054
808.9629,-0.0146304,-0.6969048,-1.573157,-1.039747,-0.6897094,-0.1823059
808.9778,-0.0146304,-0.6969048,-1.573157,-1.039747,-0.6897094,-0.1823059
808.9916,-0.01463715,-0.6982038,-1.573249,-1.048559,-0.6778443,-0.1813259
809.0073,-0.01464347,-0.6995196,-1.573087,-1.057381,-0.6661886,-0.1803646
809.0218,-0.01464943,-0.70084,-1.572787,-1.06612,-0.6548063,-0.1794216
809.0366,-0.01464943,-0.70084,-1.572787,-1.06612,-0.6548063,-0.1794216
809.0506,-0.01465486,-0.7022265,-1.573008,-1.075338,-0.6422584,-0.1783687
809.0662,-0.01465979,-0.7036475,-1.572977,-1.084731,-0.6298155,-0.1773362
809.0811,-0.01466431,-0.7050835,-1.572745,-1.094118,-0.6176253,-0.1763234
809.0959,-0.01466431,-0.7050835,-1.572745,-1.094118,-0.6176253,-0.1763234
809.1122,-0.01466825,-0.7065917,-1.572947,-1.104012,-0.6042488,-0.1752019
809.1253,-0.01467167,-0.7081375,-1.572853,-1.114084,-0.591037,-0.174102
809.14,-0.01467464,-0.7096997,-1.572568,-1.124144,-0.5781114,-0.173023
809.1548,-0.01467464,-0.7096997,-1.572568,-1.124144,-0.5781114,-0.173023
809.1688,-0.01467726,-0.711265,-1.572238,-1.1341,-0.5654947,-0.1719645
809.1841,-0.01467937,-0.7128945,-1.572424,-1.144513,-0.5516747,-0.1707982
809.1989,-0.01467937,-0.7128945,-1.572424,-1.144513,-0.5516747,-0.1707982
809.2128,-0.014681,-0.7145563,-1.572382,-1.155078,-0.5380512,-0.1696544
809.2281,-0.01468223,-0.7162305,-1.572179,-1.165618,-0.5247061,-0.1685326
809.243,-0.01468315,-0.717905,-1.571927,-1.17605,-0.511658,-0.1674321
809.2579,-0.01468315,-0.717905,-1.571927,-1.17605,-0.511658,-0.1674321
809.2719,-0.01468365,-0.7196413,-1.572114,-1.186931,-0.4973915,-0.1662247
809.2874,-0.01468392,-0.7214081,-1.572059,-1.197955,-0.4833582,-0.1650404
809.3022,-0.01468409,-0.7231857,-1.571854,-1.208947,-0.4696143,-0.1638789
809.3171,-0.01468409,-0.7231857,-1.571854,-1.208947,-0.4696143,-0.1638789
809.3314,-0.01468404,-0.7250313,-1.571983,-1.220417,-0.4546614,-0.1626114
809.3465,-0.01468385,-0.7269106,-1.571864,-1.232033,-0.439977,-0.1613681
809.3622,-0.01468356,-0.7288023,-1.571625,-1.243616,-0.4255988,-0.1601487
809.3763,-0.01468356,-0.7288023,-1.571625,-1.243616,-0.4255988,-0.1601487
809.3902,-0.01468321,-0.7306931,-1.571384,-1.255079,-0.4115271,-0.1589527
809.4055,-0.01468267,-0.7326442,-1.571515,-1.266975,-0.3962421,-0.1576512
809.4202,-0.01468199,-0.7346237,-1.571455,-1.278995,-0.3812294,-0.1563749
809.4349,-0.01468199,-0.7346237,-1.571455,-1.278995,-0.3812294,-0.1563749
809.4492,-0.01468123,-0.736612,-1.571289,-1.290971,-0.3665132,-0.1551231
809.4644,-0.0146804,-0.7385966,-1.571106,-1.302824,-0.3520944,-0.1538954
809.4818,-0.0146794,-0.7405703,-1.570958,-1.31452,-0.3379624,-0.1526914
809.494,-0.0146794,-0.7405703,-1.570958,-1.31452,-0.3379624,-0.1526914
809.5083,-0.01467832,-0.7425283,-1.570856,-1.326044,-0.3241077,-0.1515108
809.5237,-0.01467713,-0.7444679,-1.570789,-1.337393,-0.3105212,-0.1503531
809.5384,-0.01467713,-0.7444679,-1.570789,-1.337393,-0.3105212,-0.1503531
809.5526,-0.01467585,-0.7463875,-1.57074,-1.348568,-0.2971963,-0.1492179
809.5682,-0.01467448,-0.748286,-1.570694,-1.359569,-0.2841275,-0.1481048
809.5829,-0.01467305,-0.7501631,-1.570646,-1.370399,-0.2713099,-0.1470134
809.5988,-0.01467305,-0.7501631,-1.570646,-1.370399,-0.2713099,-0.1470134
809.6129,-0.01467156,-0.7520185,-1.570596,-1.38106,-0.2587386,-0.1459432
809.6273,-0.01467002,-0.7538522,-1.570546,-1.391555,-0.2464085,-0.1448939
809.6422,-0.01466843,-0.7556643,-1.570499,-1.401887,-0.2343146,-0.143865
809.6567,-0.01466843,-0.7556643,-1.570499,-1.401887,-0.2343146,-0.143865
809.6707,-0.0146668,-0.757455,-1.570454,-1.412059,-0.222452,-0.1428561
809.686,-0.01466512,-0.7592244,-1.570414,-1.422074,-0.2108159,-0.141867
809.7011,-0.01466341,-0.7609727,-1.570376,-1.431935,-0.1994017,-0.1408971
809.7157,-0.01466341,-0.7609727,-1.570376,-1.431935,-0.1994017,-0.1408971
809.7299,-0.01466165,-0.7627003,-1.570341,-1.441645,-0.188205,-0.1399461
809.7454,-0.01465986,-0.7644072,-1.570308,-1.451206,-0.1772215,-0.1390137
809.7603,-0.01465803,-0.7660937,-1.570276,-1.460623,-0.1664469,-0.1380995
809.7751,-0.01465803,-0.7660937,-1.570276,-1.460623,-0.1664469,-0.1380995
809.7895,-0.01465617,-0.7677601,-1.570246,-1.469897,-0.1558771,-0.1372031
809.8046,-0.01465427,-0.7694066,-1.570218,-1.47903,-0.1455082,-0.1363242
809.8195,-0.01465427,-0.7694066,-1.570218,-1.47903,-0.1455082,-0.1363242
809.8358,-0.01465234,-0.7710335,-1.570192,-1.488027,-0.1353363,-0.1354626
809.8491,-0.01465038,-0.7726409,-1.570164,-1.496888,-0.1253575,-0.1346177
809.8639,-0.01464839,-0.7742291,-1.57012,-1.505617,-0.1155686,-0.1337894
809.8787,-0.01464839,-0.7742291,-1.57012,-1.505617,-0.1155686,-0.1337894
809.8928,-0.01464636,-0.7757984,-1.570059,-1.514216,-0.1059661,-0.1329773
809.9082,-0.01464431,-0.7773489,-1.569984,-1.522687,-0.0965464,-0.132181
809.9227,-0.01464222,-0.7788809,-1.569894,-1.531032,-0.08730604,-0.1314003
809.9377,-0.01464222,-0.7788809,-1.569894,-1.531032,-0.08730604,-0.1314003
809.9517,-0.01464011,-0.7803946,-1.569791,-1.539253,-0.07824168,-0.1306349
809.9672,-0.01463797,-0.7818902,-1.569676,-1.547353,-0.06935001,-0.1298845
809.982,-0.01463581,-0.783368,-1.56955,-1.555333,-0.0606278,-0.1291487
809.9969,-0.01463581,-0.783368,-1.56955,-1.555333,-0.0606278,-0.1291487
810.0111,-0.01463361,-0.7848281,-1.569413,-1.563196,-0.05207186,-0.1284274
810.0268,-0.01463139,-0.7862708,-1.569266,-1.570943,-0.04367909,-0.1277202
810.0416,-0.01462915,-0.7876962,-1.56911,-1.578577,-0.03544643,-0.1270268
810.0563,-0.01462915,-0.7876962,-1.56911,-1.578577,-0.03544643,-0.1270268
810.0725,-0.01462688,-0.7891046,-1.568946,-1.586099,-0.02737089,-0.126347
810.0858,-0.01462459,-0.7904962,-1.568775,-1.593511,-0.01944947,-0.1256806
810.1006,-0.01462228,-0.7918712,-1.568596,-1.600815,-0.0116793,-0.1250271
810.1155,-0.01462228,-0.7918712,-1.568596,-1.600815,-0.0116793,-0.1250271
810.1293,-0.01461994,-0.7932298,-1.568412,-1.608013,-0.00405754,-0.1243865
810.1448,-0.01461758,-0.7945721,-1.568222,-1.615106,0.003418563,-0.1237585
810.1596,-0.01461758,-0.7945721,-1.568222,-1.615106,0.003418563,-0.1237585
810.1738,-0.0146152,-0.7958984,-1.568026,-1.622097,0.01075173,-0.1231427
810.1892,-0.0146128,-0.7972089,-1.567826,-1.628986,0.01794461,-0.122539
810.2038,-0.01461038,-0.7985037,-1.567622,-1.635775,0.02499983,-0.1219471
810.2185,-0.01461038,-0.7985037,-1.567622,-1.635775,0.02499983,-0.1219471
810.2329,-0.01460795,-0.7997831,-1.567414,-1.642466,0.03191992,-0.1213669
810.2484,-0.01460549,-0.8010471,-1.567203,-1.649061,0.03870739,-0.120798
810.2633,-0.01460301,-0.8022961,-1.566989,-1.65556,0.04536472,-0.1202403
810.2783,-0.01460301,-0.8022961,-1.566989,-1.65556,0.04536472,-0.1202403
810.2924,-0.01460052,-0.8035302,-1.566773,-1.661966,0.0518943,-0.1196935
810.309,-0.01459801,-0.8047495,-1.566554,-1.66828,0.05829848,-0.1191574
810.3225,-0.01459549,-0.8059543,-1.566334,-1.674503,0.06457961,-0.1186319
810.3374,-0.01459549,-0.8059543,-1.566334,-1.674503,0.06457961,-0.1186319
810.3513,-0.01459295,-0.8071446,-1.566112,-1.680637,0.07073992,-0.1181166
810.3667,-0.01459039,-0.8083208,-1.565889,-1.686682,0.07678167,-0.1176115
810.3814,-0.01458782,-0.8094829,-1.565666,-1.692641,0.08270703,-0.1171163
810.3961,-0.01458782,-0.8094829,-1.565666,-1.692641,0.08270703,-0.1171163
810.4106,-0.01458524,-0.8106312,-1.565442,-1.698515,0.08851814,-0.1166307
810.4259,-0.01458265,-0.8117657,-1.565217,-1.704304,0.09421711,-0.1161547
810.4409,-0.01458004,-0.8128867,-1.564993,-1.710011,0.099806,-0.1156881
810.4555,-0.01458004,-0.8128867,-1.564993,-1.710011,0.099806,-0.1156881
810.4697,-0.01457742,-0.8139942,-1.564769,-1.715636,0.1052868,-0.1152306
810.485,-0.01457478,-0.8150886,-1.564545,-1.721181,0.1106616,-0.1147821
810.5002,-0.01457214,-0.8161699,-1.564322,-1.726646,0.1159322,-0.1143423
810.5149,-0.01457214,-0.8161699,-1.564322,-1.726646,0.1159322,-0.1143423
810.5289,-0.01456949,-0.8172383,-1.5641,-1.732034,0.1211007,-0.1139112
810.5454,-0.01456682,-0.818294,-1.563879,-1.737345,0.1261688,-0.1134886
810.5593,-0.01456682,-0.818294,-1.563879,-1.737345,0.1261688,-0.1134886
810.5735,-0.01456415,-0.819337,-1.563659,-1.74258,0.1311384,-0.1130743
810.5889,-0.01456147,-0.8203676,-1.563441,-1.74774,0.1360114,-0.1126681
810.6032,-0.01455878,-0.8213859,-1.563224,-1.752827,0.1407894,-0.1122698
810.6179,-0.01455878,-0.8213859,-1.563224,-1.752827,0.1407894,-0.1122698
810.6321,-0.01455608,-0.822392,-1.563009,-1.757841,0.1454744,-0.1118794
810.6478,-0.01455337,-0.8233861,-1.562795,-1.762784,0.1500679,-0.1114967
810.6622,-0.01455066,-0.8243683,-1.562584,-1.767657,0.1545717,-0.1111214
810.6771,-0.01455066,-0.8243683,-1.562584,-1.767657,0.1545717,-0.1111214
810.6914,-0.01454794,-0.8253388,-1.562375,-1.77246,0.1589875,-0.1107535
810.707,-0.01454522,-0.8262977,-1.562168,-1.777195,0.1633168,-0.1103929
810.7214,-0.01454249,-0.8272452,-1.561963,-1.781862,0.1675614,-0.1100393
810.7369,-0.01454249,-0.8272452,-1.561963,-1.781862,0.1675614,-0.1100393
810.7505,-0.01453975,-0.8281813,-1.561761,-1.786464,0.1717227,-0.1096926
810.7661,-0.01453701,-0.8291063,-1.561562,-1.791,0.1758023,-0.1093528
810.7807,-0.01453426,-0.8300202,-1.561365,-1.795471,0.1798017,-0.1090196
810.7965,-0.01453426,-0.8300202,-1.561365,-1.795471,0.1798017,-0.1090196
