JMolnar6/NonAnthroHands_User_Study/HandsLoggerWithURDF/tempdata/PID 0 (test)/files/Reachy_PID0_JointMotion_gesture_7_34.csv
Time,r_shoulder,r_shoulder_x,r_upper_arm,r_forearm,r_wrist,r_wrist2hand,
425.8158,-0.09804129,-1.441791E-08,NaN,-0.3270808,-1.352262E-07,NaN,0.4548902,5.108877E-08,NaN,-2.170135,1.329317E-05,-0.369575,-3.322151E-08,NaN,NaN,-0.05847668,3.026788E-10,-1.04409E-09,-1.136796E-07,1.436381E-09,-2.622604E-08
425.8297,-0.09839687,-1.441697E-08,NaN,-0.3270806,-1.352265E-07,NaN,0.4550363,5.165264E-08,NaN,-2.169917,1.329374E-05,-0.3694129,-3.339212E-08,NaN,NaN,-0.05772242,3.073354E-10,-4.750754E-09,-1.136816E-07,-3.33199E-09,-2.861022E-08
425.8462,-0.09802116,-1.441603E-08,NaN,-0.3270786,-1.352269E-07,NaN,0.4550197,5.221651E-08,NaN,-2.170086,1.329432E-05,-0.3692205,-3.356161E-08,NaN,NaN,-0.05698256,3.026788E-10,-2.850856E-09,-1.136836E-07,-2.139897E-09,-2.622604E-08
425.8596,-0.09802116,-1.441603E-08,NaN,-0.3270786,-1.352269E-07,NaN,0.4550197,5.221651E-08,NaN,-2.170086,1.329432E-05,-0.3692205,-3.356161E-08,NaN,NaN,-0.05698256,3.026788E-10,-2.850856E-09,-1.136836E-07,-2.139897E-09,-2.622604E-08
425.8737,-0.09718687,-1.44151E-08,NaN,-0.3270757,-1.352272E-07,NaN,0.4549221,5.278038E-08,NaN,-2.170369,1.329489E-05,-0.3690778,-3.373E-08,NaN,NaN,-0.05625724,3.073354E-10,-9.41407E-11,-1.136856E-07,-4.524083E-09,-2.861022E-08
425.8889,-0.09606753,-1.441416E-08,NaN,-0.3270726,-1.352275E-07,NaN,0.4548084,5.334426E-08,NaN,-2.170659,1.329547E-05,-0.3689649,-3.38973E-08,NaN,NaN,-0.05554622,3.11992E-10,1.209711E-09,-1.136875E-07,-9.292455E-09,-2.622604E-08
425.9037,-0.09477349,-1.441323E-08,NaN,-0.3270695,-1.352282E-07,NaN,0.4547061,5.390813E-08,NaN,-2.17092,1.329605E-05,-0.3688621,-3.406351E-08,NaN,NaN,-0.05484919,3.073354E-10,1.749878E-09,-1.136886E-07,-1.167664E-08,-2.861022E-08
425.9185,-0.09477349,-1.441323E-08,NaN,-0.3270695,-1.352282E-07,NaN,0.4547061,5.390813E-08,NaN,-2.17092,1.329605E-05,-0.3688621,-3.406351E-08,NaN,NaN,-0.05484919,3.073354E-10,1.749878E-09,-1.136886E-07,-1.167664E-08,-2.861022E-08
425.9324,-0.09410325,-1.441229E-08,NaN,-0.3270688,-1.352289E-07,NaN,0.4547837,5.4472E-08,NaN,-2.170756,1.329664E-05,-0.368792,-3.422865E-08,NaN,NaN,-0.05416623,2.980222E-10,-5.328173E-09,-1.136895E-07,-1.048455E-08,-2.622604E-08
425.9498,-0.09382832,-1.441135E-08,NaN,-0.3270688,-1.352296E-07,NaN,0.4549582,5.503587E-08,NaN,-2.170445,1.329722E-05,-0.3686716,-3.439272E-08,NaN,NaN,-0.05349663,2.887089E-10,-1.154941E-08,-1.136905E-07,-9.292455E-09,-2.861022E-08
425.9634,-0.09380327,-1.441042E-08,NaN,-0.327069,-1.352298E-07,NaN,0.4551609,5.559975E-08,NaN,-2.170099,1.329779E-05,-0.3685214,-3.455572E-08,NaN,NaN,-0.05284009,2.887089E-10,-1.683932E-08,-1.136923E-07,-1.167664E-08,-2.622604E-08
425.9772,-0.09380327,-1.441042E-08,NaN,-0.327069,-1.352298E-07,NaN,0.4551609,5.559975E-08,NaN,-2.170099,1.329779E-05,-0.3685214,-3.455572E-08,NaN,NaN,-0.05284009,2.887089E-10,-1.683932E-08,-1.136923E-07,-1.167664E-08,-2.622604E-08
425.9909,-0.09466276,-1.440948E-08,NaN,-0.3270711,-1.3523E-07,NaN,0.4555229,5.616362E-08,NaN,-2.169374,1.329836E-05,-0.3683915,-3.471766E-08,NaN,NaN,-0.05219678,2.887089E-10,-2.876025E-08,-1.136942E-07,-6.908269E-09,-2.861022E-08
426.0062,-0.09607522,-1.440855E-08,NaN,-0.3270739,-1.352303E-07,NaN,0.4559522,5.672749E-08,NaN,-2.168556,1.329894E-05,-0.3682134,-3.487855E-08,NaN,NaN,-0.05156602,2.887089E-10,-4.056942E-08,-1.136961E-07,-8.100361E-09,-2.622604E-08
426.0208,-0.09782972,-1.440761E-08,NaN,-0.3270766,-1.352306E-07,NaN,0.456383,5.729136E-08,NaN,-2.167752,1.329951E-05,-0.3680111,-3.503839E-08,NaN,NaN,-0.05094754,2.887089E-10,-5.275112E-08,-1.136981E-07,-6.908269E-09,-2.861022E-08
426.0355,-0.09782972,-1.440761E-08,NaN,-0.3270766,-1.352306E-07,NaN,0.456383,5.729136E-08,NaN,-2.167752,1.329951E-05,-0.3680111,-3.503839E-08,NaN,NaN,-0.05094754,2.887089E-10,-5.275112E-08,-1.136981E-07,-6.908269E-09,-2.861022E-08
426.0495,-0.09979209,-1.440667E-08,NaN,-0.3270788,-1.352309E-07,NaN,0.4567898,5.785524E-08,NaN,-2.166996,1.330008E-05,-0.367805,-3.51972E-08,NaN,NaN,-0.05034113,2.887089E-10,-6.105851E-08,-1.137E-07,-6.908269E-09,-2.622604E-08
426.067,-0.1026053,-1.440574E-08,NaN,-0.327083,-1.352312E-07,NaN,0.4573311,5.841911E-08,NaN,-2.165906,1.330066E-05,-0.3676317,-3.535497E-08,NaN,NaN,-0.04974698,2.840523E-10,-7.797134E-08,-1.137019E-07,-2.139897E-09,-2.861022E-08
426.0795,-0.1026053,-1.440574E-08,NaN,-0.327083,-1.352312E-07,NaN,0.4573311,5.841911E-08,NaN,-2.165906,1.330066E-05,-0.3676317,-3.535497E-08,NaN,NaN,-0.04974698,2.840523E-10,-7.797134E-08,-1.137019E-07,-2.139897E-09,-2.861022E-08
426.0934,-0.1059421,-1.44048E-08,NaN,-0.3270873,-1.352315E-07,NaN,0.4579264,5.898298E-08,NaN,-2.164747,1.330123E-05,-0.3674164,-3.551172E-08,NaN,NaN,-0.0491644,2.840523E-10,-9.186667E-08,-1.137039E-07,-4.524083E-09,-2.622604E-08
426.1087,-0.1095943,-1.440386E-08,NaN,-0.3270911,-1.352319E-07,NaN,0.458515,5.954685E-08,NaN,-2.16362,1.33018E-05,-0.3671805,-3.566745E-08,NaN,NaN,-0.04859316,2.887089E-10,-1.053522E-07,-1.137058E-07,-6.908269E-09,-2.861022E-08
426.1233,-0.1134297,-1.440292E-08,NaN,-0.3270939,-1.352322E-07,NaN,0.459074,6.011073E-08,NaN,-2.162553,1.330237E-05,-0.3669425,-3.582217E-08,NaN,NaN,-0.04803307,2.933656E-10,-1.181858E-07,-1.137077E-07,-5.716176E-09,-2.622604E-08
426.1382,-0.1134297,-1.440292E-08,NaN,-0.3270939,-1.352322E-07,NaN,0.459074,6.011073E-08,NaN,-2.162553,1.330237E-05,-0.3669425,-3.582217E-08,NaN,NaN,-0.04803307,2.933656E-10,-1.181858E-07,-1.137077E-07,-5.716176E-09,-2.622604E-08
426.1521,-0.1180926,-1.440199E-08,NaN,-0.3270983,-1.352325E-07,NaN,0.4597635,6.06746E-08,NaN,-2.161163,1.330294E-05,-0.3667356,-3.597589E-08,NaN,NaN,-0.0474843,2.980222E-10,-1.378181E-07,-1.137097E-07,-6.908269E-09,-2.861022E-08
426.1678,-0.1232566,-1.440105E-08,NaN,-0.3271022,-1.352328E-07,NaN,0.4605018,6.123847E-08,NaN,-2.159715,1.330351E-05,-0.3664871,-3.612861E-08,NaN,NaN,-0.04694621,3.026788E-10,-1.546006E-07,-1.137116E-07,-4.524083E-09,-2.622604E-08
426.1821,-0.1287141,-1.440011E-08,NaN,-0.327105,-1.352332E-07,NaN,0.4612287,6.180235E-08,NaN,-2.158307,1.330408E-05,-0.3662189,-3.628034E-08,NaN,NaN,-0.04641859,3.073354E-10,-1.706938E-07,-1.137135E-07,-6.908269E-09,-2.861022E-08
426.1972,-0.1287141,-1.440011E-08,NaN,-0.327105,-1.352332E-07,NaN,0.4612287,6.180235E-08,NaN,-2.158307,1.330408E-05,-0.3662189,-3.628034E-08,NaN,NaN,-0.04641859,3.073354E-10,-1.706938E-07,-1.137135E-07,-6.908269E-09,-2.861022E-08
426.2111,-0.1350618,-1.439918E-08,NaN,-0.3271088,-1.352335E-07,NaN,0.4620855,6.236622E-08,NaN,-2.156583,1.330464E-05,-0.3659727,-3.643108E-08,NaN,NaN,-0.04590162,3.11992E-10,-1.906055E-07,-1.137154E-07,-5.716176E-09,-2.622604E-08
426.2283,-0.1419429,-1.439824E-08,NaN,-0.3271115,-1.352338E-07,NaN,0.4629827,6.293009E-08,NaN,-2.154817,1.330521E-05,-0.3656833,-3.658084E-08,NaN,NaN,-0.04539469,3.166486E-10,-2.088408E-07,-1.137173E-07,2.442881E-10,-2.861022E-08
426.2419,-0.1491307,-1.43973E-08,NaN,-0.3271124,-1.352342E-07,NaN,0.4638585,6.349396E-08,NaN,-2.153109,1.330578E-05,-0.365376,-3.672963E-08,NaN,NaN,-0.04489761,3.213052E-10,-2.262006E-07,-1.137192E-07,-9.478047E-10,-2.622604E-08
426.2559,-0.1491307,-1.43973E-08,NaN,-0.3271124,-1.352342E-07,NaN,0.4638585,6.349396E-08,NaN,-2.153109,1.330578E-05,-0.365376,-3.672963E-08,NaN,NaN,-0.04489761,3.213052E-10,-2.262006E-07,-1.137192E-07,-9.478047E-10,-2.622604E-08
426.2695,-0.1564814,-1.439636E-08,NaN,-0.3271125,-1.352345E-07,NaN,0.4646913,6.405784E-08,NaN,-2.151488,1.330635E-05,-0.3650701,-3.687746E-08,NaN,NaN,-0.04441021,3.259618E-10,-2.432252E-07,-1.137211E-07,3.820567E-09,-2.861022E-08
426.2848,-0.164632,-1.439543E-08,NaN,-0.3271133,-1.352349E-07,NaN,0.4656444,6.462171E-08,NaN,-2.149566,1.330692E-05,-0.3647919,-3.702432E-08,NaN,NaN,-0.04393268,3.306184E-10,-2.661357E-07,-1.13723E-07,2.442884E-10,-2.622604E-08
426.2993,-0.164632,-1.439543E-08,NaN,-0.3271133,-1.352349E-07,NaN,0.4656444,6.462171E-08,NaN,-2.149566,1.330692E-05,-0.3647919,-3.702432E-08,NaN,NaN,-0.04393268,3.306184E-10,-2.661357E-07,-1.13723E-07,2.442884E-10,-2.622604E-08
426.3131,-0.1732516,-1.439449E-08,NaN,-0.3271134,-1.352352E-07,NaN,0.4666341,6.518558E-08,NaN,-2.147609,1.330749E-05,-0.3644743,-3.717024E-08,NaN,NaN,-0.04346442,3.306184E-10,-2.861033E-07,-1.137249E-07,-9.478045E-10,-2.861022E-08
426.3285,-0.1821302,-1.439355E-08,NaN,-0.3271126,-1.352356E-07,NaN,0.4676008,6.574945E-08,NaN,-2.145712,1.330806E-05,-0.3641407,-3.73152E-08,NaN,NaN,-0.04300525,3.35275E-10,-3.049533E-07,-1.137268E-07,1.436381E-09,-2.622604E-08
426.3432,-0.1911346,-1.439262E-08,NaN,-0.3271113,-1.352359E-07,NaN,0.4685236,6.631333E-08,NaN,-2.143903,1.330863E-05,-0.363809,-3.745923E-08,NaN,NaN,-0.04255502,3.399316E-10,-3.20525E-07,-1.137287E-07,3.820567E-09,-2.861022E-08
426.3579,-0.1911346,-1.439262E-08,NaN,-0.3271113,-1.352359E-07,NaN,0.4685236,6.631333E-08,NaN,-2.143903,1.330863E-05,-0.363809,-3.745923E-08,NaN,NaN,-0.04255502,3.399316E-10,-3.20525E-07,-1.137287E-07,3.820567E-09,-2.861022E-08
426.3717,-0.2009085,-1.439168E-08,NaN,-0.3271108,-1.352362E-07,NaN,0.4695665,6.68772E-08,NaN,-2.141799,1.33092E-05,-0.3635016,-3.760232E-08,NaN,NaN,-0.04211391,3.445882E-10,-3.418336E-07,-1.137306E-07,2.628474E-09,-2.622604E-08
426.3872,-0.2111257,-1.439074E-08,NaN,-0.3271095,-1.352366E-07,NaN,0.4706427,6.744107E-08,NaN,-2.139662,1.330976E-05,-0.363155,-3.774448E-08,NaN,NaN,-0.04168136,3.492449E-10,-3.612797E-07,-1.137324E-07,2.442884E-10,-2.861022E-08
426.4018,-0.2215789,-1.438981E-08,NaN,-0.3271073,-1.352369E-07,NaN,0.4716927,6.800494E-08,NaN,-2.137591,1.331033E-05,-0.3627937,-3.788572E-08,NaN,NaN,-0.04125719,3.539015E-10,-3.791611E-07,-1.137343E-07,1.436381E-09,-2.622604E-08
426.4164,-0.2215789,-1.438981E-08,NaN,-0.3271073,-1.352369E-07,NaN,0.4716927,6.800494E-08,NaN,-2.137591,1.331033E-05,-0.3627937,-3.788572E-08,NaN,NaN,-0.04125719,3.539015E-10,-3.791611E-07,-1.137343E-07,1.436381E-09,-2.622604E-08
426.4304,-0.2328649,-1.438887E-08,NaN,-0.3271058,-1.352373E-07,NaN,0.4728625,6.856882E-08,NaN,-2.13523,1.331091E-05,-0.362448,-3.802604E-08,NaN,NaN,-0.04084159,3.539015E-10,-4.015873E-07,-1.137362E-07,2.442884E-10,-2.861022E-08
426.4459,-0.2446276,-1.438793E-08,NaN,-0.3271031,-1.352376E-07,NaN,0.4740573,6.913269E-08,NaN,-2.13285,1.331148E-05,-0.3620628,-3.816545E-08,NaN,NaN,-0.04043403,3.539015E-10,-4.221509E-07,-1.13738E-07,2.442884E-10,-2.622604E-08
426.4604,-0.2566409,-1.438699E-08,NaN,-0.3270985,-1.35238E-07,NaN,0.475217,6.969656E-08,NaN,-2.130552,1.331205E-05,-0.3616645,-3.830396E-08,NaN,NaN,-0.04003437,3.539015E-10,-4.412989E-07,-1.137399E-07,5.01266E-09,-2.861022E-08
426.4753,-0.2566409,-1.438699E-08,NaN,-0.3270985,-1.35238E-07,NaN,0.475217,6.969656E-08,NaN,-2.130552,1.331205E-05,-0.3616645,-3.830396E-08,NaN,NaN,-0.04003437,3.539015E-10,-4.412989E-07,-1.137399E-07,5.01266E-09,-2.861022E-08
426.4892,-0.2687613,-1.438606E-08,NaN,-0.3270921,-1.352383E-07,NaN,0.4763218,7.026043E-08,NaN,-2.128362,1.331263E-05,-0.3612714,-3.844156E-08,NaN,NaN,-0.03964248,3.539015E-10,-4.589567E-07,-1.137417E-07,5.01266E-09,-2.622604E-08
426.5046,-0.2816266,-1.438512E-08,NaN,-0.3270864,-1.352387E-07,NaN,0.4775383,7.082431E-08,NaN,-2.125897,1.33132E-05,-0.3608992,-3.857827E-08,NaN,NaN,-0.03925852,3.539015E-10,-4.824261E-07,-1.137436E-07,1.436381E-09,-2.861022E-08
426.5201,-0.2949066,-1.438418E-08,NaN,-0.3270791,-1.35239E-07,NaN,0.4787772,7.138818E-08,NaN,-2.123416,1.331377E-05,-0.3604904,-3.87141E-08,NaN,NaN,-0.03888199,3.585581E-10,-5.045543E-07,-1.137454E-07,3.820567E-09,-2.622604E-08
426.534,-0.2949066,-1.438418E-08,NaN,-0.3270791,-1.35239E-07,NaN,0.4787772,7.138818E-08,NaN,-2.123416,1.331377E-05,-0.3604904,-3.87141E-08,NaN,NaN,-0.03888199,3.585581E-10,-5.045543E-07,-1.137454E-07,3.820567E-09,-2.622604E-08
426.5493,-0.3083917,-1.438325E-08,NaN,-0.3270695,-1.352394E-07,NaN,0.4799803,7.195205E-08,NaN,-2.121017,1.331433E-05,-0.3600706,-3.884904E-08,NaN,NaN,-0.03851275,3.632147E-10,-5.230318E-07,-1.137472E-07,2.628474E-09,-2.861022E-08
426.5631,-0.3219492,-1.438231E-08,NaN,-0.3270578,-1.352398E-07,NaN,0.4811286,7.251592E-08,NaN,-2.118728,1.33149E-05,-0.3596569,-3.898311E-08,NaN,NaN,-0.03815068,3.678713E-10,-5.425523E-07,-1.137491E-07,2.442884E-10,-2.622604E-08
426.5778,-0.3219492,-1.438231E-08,NaN,-0.3270578,-1.352398E-07,NaN,0.4811286,7.251592E-08,NaN,-2.118728,1.33149E-05,-0.3596569,-3.898311E-08,NaN,NaN,-0.03815068,3.678713E-10,-5.425523E-07,-1.137491E-07,2.442884E-10,-2.622604E-08
426.5914,-0.3362238,-1.438137E-08,NaN,-0.327047,-1.352401E-07,NaN,0.4823889,7.30798E-08,NaN,-2.116164,1.331547E-05,-0.3592605,-3.911631E-08,NaN,NaN,-0.03779594,3.725279E-10,-5.657981E-07,-1.137509E-07,-2.139897E-09,-2.861022E-08
426.6068,-0.3508896,-1.438044E-08,NaN,-0.3270344,-1.352405E-07,NaN,0.483669,7.364367E-08,NaN,-2.113588,1.331604E-05,-0.3588284,-3.924864E-08,NaN,NaN,-0.03744805,3.725279E-10,-5.859147E-07,-1.137527E-07,5.01266E-09,-2.622604E-08
426.6213,-0.3657399,-1.43795E-08,NaN,-0.3270195,-1.352408E-07,NaN,0.4849108,7.420754E-08,NaN,-2.111098,1.331661E-05,-0.3583872,-3.938012E-08,NaN,NaN,-0.03710689,3.771845E-10,-6.039451E-07,-1.137545E-07,7.396845E-09,-2.861022E-08
426.6362,-0.3657399,-1.43795E-08,NaN,-0.3270195,-1.352408E-07,NaN,0.4849108,7.420754E-08,NaN,-2.111098,1.331661E-05,-0.3583872,-3.938012E-08,NaN,NaN,-0.03710689,3.771845E-10,-6.039451E-07,-1.137545E-07,7.396845E-09,-2.861022E-08
426.6501,-0.3813723,-1.437856E-08,NaN,-0.3270049,-1.352412E-07,NaN,0.4862641,7.477141E-08,NaN,-2.108338,1.331718E-05,-0.3579554,-3.951073E-08,NaN,NaN,-0.03677263,3.818411E-10,-6.254027E-07,-1.137563E-07,5.01266E-09,-2.622604E-08
426.6655,-0.3974311,-1.437762E-08,NaN,-0.3269879,-1.352415E-07,NaN,0.4876289,7.533529E-08,NaN,-2.105578,1.331775E-05,-0.3574887,-3.964051E-08,NaN,NaN,-0.0364448,3.864977E-10,-6.468604E-07,-1.137581E-07,5.01266E-09,-2.861022E-08
426.6804,-0.4136906,-1.437669E-08,NaN,-0.326968,-1.352419E-07,NaN,0.4889471,7.589916E-08,NaN,-2.102919,1.331832E-05,-0.3570157,-3.976944E-08,NaN,NaN,-0.0361233,3.911543E-10,-6.634007E-07,-1.137599E-07,7.396845E-09,-2.622604E-08
426.6948,-0.4136906,-1.437669E-08,NaN,-0.326968,-1.352419E-07,NaN,0.4889471,7.589916E-08,NaN,-2.102919,1.331832E-05,-0.3570157,-3.976944E-08,NaN,NaN,-0.0361233,3.911543E-10,-6.634007E-07,-1.137599E-07,7.396845E-09,-2.622604E-08
426.7088,-0.4300082,-1.437575E-08,NaN,-0.3269455,-1.352422E-07,NaN,0.4902012,7.646303E-08,NaN,-2.100385,1.331889E-05,-0.356553,-3.989753E-08,NaN,NaN,-0.03580805,3.958109E-10,-6.787488E-07,-1.137617E-07,5.01266E-09,-2.861022E-08
426.7242,-0.4470221,-1.437481E-08,NaN,-0.3269237,-1.352426E-07,NaN,0.4915605,7.70269E-08,NaN,-2.097595,1.331946E-05,-0.3561035,-4.002479E-08,NaN,NaN,-0.03549917,4.004675E-10,-6.994615E-07,-1.137635E-07,8.588938E-09,-2.622604E-08
426.7389,-0.4470221,-1.437481E-08,NaN,-0.3269237,-1.352426E-07,NaN,0.4915605,7.70269E-08,NaN,-2.097595,1.331946E-05,-0.3561035,-4.002479E-08,NaN,NaN,-0.03549917,4.004675E-10,-6.994615E-07,-1.137635E-07,8.588938E-09,-2.622604E-08
426.7529,-0.4644027,-1.437388E-08,NaN,-0.3268998,-1.35243E-07,NaN,0.4929296,7.759078E-08,NaN,-2.094808,1.332003E-05,-0.3556224,-4.015123E-08,NaN,NaN,-0.03519624,4.051242E-10,-7.162998E-07,-1.137653E-07,7.396846E-09,-2.861022E-08
426.7685,-0.481941,-1.437294E-08,NaN,-0.3268732,-1.352434E-07,NaN,0.4942524,7.815465E-08,NaN,-2.09212,1.332061E-05,-0.3551371,-4.027684E-08,NaN,NaN,-0.03489916,4.004675E-10,-7.32691E-07,-1.137671E-07,6.204753E-09,-2.622604E-08
426.7829,-0.4995049,-1.4372E-08,NaN,-0.3268445,-1.352437E-07,NaN,0.4955122,7.871852E-08,NaN,-2.089557,1.332119E-05,-0.3546631,-4.040164E-08,NaN,NaN,-0.03460785,3.958109E-10,-7.510195E-07,-1.137689E-07,7.396846E-09,-2.861022E-08
426.7987,-0.4995049,-1.4372E-08,NaN,-0.3268445,-1.352437E-07,NaN,0.4955122,7.871852E-08,NaN,-2.089557,1.332119E-05,-0.3546631,-4.040164E-08,NaN,NaN,-0.03460785,3.958109E-10,-7.510195E-07,-1.137689E-07,7.396846E-09,-2.861022E-08
426.8127,-0.5177395,-1.437107E-08,NaN,-0.3268166,-1.352441E-07,NaN,0.4968782,7.928239E-08,NaN,-2.086738,1.332177E-05,-0.3541985,-4.052563E-08,NaN,NaN,-0.03432241,3.911543E-10,-7.693479E-07,-1.137706E-07,5.01266E-09,-2.622604E-08
426.827,-0.5363196,-1.437013E-08,NaN,-0.3267868,-1.352445E-07,NaN,0.498252,7.984627E-08,NaN,-2.083923,1.332236E-05,-0.3537039,-4.064881E-08,NaN,NaN,-0.03404247,3.864977E-10,-7.884213E-07,-1.137724E-07,1.335731E-08,-2.861022E-08
426.8414,-0.5550389,-1.436919E-08,NaN,-0.3267545,-1.352448E-07,NaN,0.4995781,8.041014E-08,NaN,-2.081208,1.332294E-05,-0.353207,-4.07712E-08,NaN,NaN,-0.03376793,3.818411E-10,-8.024284E-07,-1.137742E-07,1.57415E-08,-2.622604E-08
426.856,-0.5550389,-1.436919E-08,NaN,-0.3267545,-1.352448E-07,NaN,0.4995781,8.041014E-08,NaN,-2.081208,1.332294E-05,-0.353207,-4.07712E-08,NaN,NaN,-0.03376793,3.818411E-10,-8.024284E-07,-1.137742E-07,1.57415E-08,-2.622604E-08
426.8701,-0.5744956,-1.436825E-08,NaN,-0.3267224,-1.352451E-07,NaN,0.5010093,7.947042E-08,NaN,-2.078241,1.332351E-05,-0.352713,-3.947774E-08,NaN,NaN,-0.03349893,3.771845E-10,-8.23588E-07,-1.137719E-07,1.931777E-08,-2.622604E-08
426.8853,-0.5943344,-1.436732E-08,NaN,-0.3266876,-1.35244E-07,NaN,0.5024406,7.853382E-08,NaN,-2.075291,1.332408E-05,-0.3521907,-3.829723E-08,NaN,NaN,-0.03323508,3.771845E-10,-8.408734E-07,-1.137721E-07,1.335731E-08,-2.861022E-08
426.9,-0.5943344,-1.436732E-08,NaN,-0.3266876,-1.35244E-07,NaN,0.5024406,7.853382E-08,NaN,-2.075291,1.332408E-05,-0.3521907,-3.829723E-08,NaN,NaN,-0.03323508,3.771845E-10,-8.408734E-07,-1.137721E-07,1.335731E-08,-2.861022E-08
426.914,-0.6143302,-1.436638E-08,NaN,-0.3266496,-1.352429E-07,NaN,0.5038165,7.759723E-08,NaN,-2.072454,1.332464E-05,-0.3516694,-3.719872E-08,NaN,NaN,-0.03297633,3.818411E-10,-8.563706E-07,-1.137725E-07,1.57415E-08,-2.622604E-08
426.9296,-0.6343409,-1.436544E-08,NaN,-0.3266091,-1.352419E-07,NaN,0.5051219,7.666063E-08,NaN,-2.069757,1.33252E-05,-0.3511636,-3.616194E-08,NaN,NaN,-0.03272259,3.818411E-10,-8.659073E-07,-1.137731E-07,1.335731E-08,-2.861022E-08
426.9439,-0.6550053,-1.43645E-08,NaN,-0.3265694,-1.352409E-07,NaN,0.5065278,7.572404E-08,NaN,-2.06682,1.332576E-05,-0.3506633,-3.517198E-08,NaN,NaN,-0.03247397,3.864977E-10,-8.849808E-07,-1.137737E-07,1.57415E-08,-2.622604E-08
426.9585,-0.6550053,-1.43645E-08,NaN,-0.3265694,-1.352409E-07,NaN,0.5065278,7.572404E-08,NaN,-2.06682,1.332576E-05,-0.3506633,-3.517198E-08,NaN,NaN,-0.03247397,3.864977E-10,-8.849808E-07,-1.137737E-07,1.57415E-08,-2.622604E-08
426.9725,-0.6759941,-1.436357E-08,NaN,-0.3265275,-1.3524E-07,NaN,0.507933,7.478744E-08,NaN,-2.0639,1.332632E-05,-0.3501381,-3.42179E-08,NaN,NaN,-0.03223011,3.864977E-10,-8.992859E-07,-1.137743E-07,2.050987E-08,-2.861022E-08
426.9879,-0.6970989,-1.436263E-08,NaN,-0.3264828,-1.352392E-07,NaN,0.5092841,7.385085E-08,NaN,-2.061091,1.332688E-05,-0.3496155,-3.329164E-08,NaN,NaN,-0.03199096,3.818411E-10,-9.103128E-07,-1.13775E-07,1.693359E-08,-2.622604E-08
427.0025,-0.7181882,-1.436169E-08,NaN,-0.326436,-1.352384E-07,NaN,0.5105667,7.291425E-08,NaN,-2.05842,1.332745E-05,-0.3491093,-3.238728E-08,NaN,NaN,-0.03175643,3.818411E-10,-9.198495E-07,-1.137756E-07,1.574149E-08,-2.861022E-08
427.019,-0.7181882,-1.436169E-08,NaN,-0.326436,-1.352384E-07,NaN,0.5105667,7.291425E-08,NaN,-2.05842,1.332745E-05,-0.3491093,-3.238728E-08,NaN,NaN,-0.03175643,3.818411E-10,-9.198495E-07,-1.137756E-07,1.574149E-08,-2.861022E-08
427.0312,-0.7394002,-1.436075E-08,NaN,-0.3263887,-1.352375E-07,NaN,0.5118333,7.197766E-08,NaN,-2.055772,1.332801E-05,-0.3486174,-3.150045E-08,NaN,NaN,-0.03152652,3.864977E-10,-9.320685E-07,-1.137763E-07,1.693359E-08,-2.622604E-08
427.0471,-0.7606006,-1.435982E-08,NaN,-0.3263406,-1.352367E-07,NaN,0.5130563,7.104106E-08,NaN,-2.053217,1.332856E-05,-0.348132,-3.062794E-08,NaN,NaN,-0.03130106,3.911543E-10,-9.416052E-07,-1.137769E-07,2.170196E-08,-2.861022E-08
427.0612,-0.7817049,-1.435888E-08,NaN,-0.326292,-1.352359E-07,NaN,0.5142239,7.010447E-08,NaN,-2.050779,1.332914E-05,-0.3476606,-2.97674E-08,NaN,NaN,-0.03107998,3.864977E-10,-9.508439E-07,-1.137776E-07,2.170196E-08,-2.622604E-08
427.0769,-0.7817049,-1.435888E-08,NaN,-0.326292,-1.352359E-07,NaN,0.5142239,7.010447E-08,NaN,-2.050779,1.332914E-05,-0.3476606,-2.97674E-08,NaN,NaN,-0.03107998,3.864977E-10,-9.508439E-07,-1.137776E-07,2.170196E-08,-2.622604E-08
427.0906,-0.8026603,-1.435794E-08,NaN,-0.3262434,-1.352351E-07,NaN,0.5153356,6.916787E-08,NaN,-2.048458,1.332971E-05,-0.3472059,-2.891706E-08,NaN,NaN,-0.03086319,3.818411E-10,-9.568043E-07,-1.137783E-07,2.408614E-08,-2.861022E-08
427.105,-0.8234345,-1.435701E-08,NaN,-0.3261954,-1.352343E-07,NaN,0.5163943,6.823128E-08,NaN,-2.046249,1.333027E-05,-0.3467681,-2.807564E-08,NaN,NaN,-0.03065061,3.818411E-10,-9.624667E-07,-1.137789E-07,2.885452E-08,-2.622604E-08
427.1196,-0.8234345,-1.435701E-08,NaN,-0.3261954,-1.352343E-07,NaN,0.5163943,6.823128E-08,NaN,-2.046249,1.333027E-05,-0.3467681,-2.807564E-08,NaN,NaN,-0.03065061,3.818411E-10,-9.624667E-07,-1.137789E-07,2.885452E-08,-2.622604E-08
427.1334,-0.8440078,-1.435607E-08,NaN,-0.3261484,-1.352335E-07,NaN,0.5174039,6.729469E-08,NaN,-2.044145,1.333083E-05,-0.3463464,-2.724217E-08,NaN,NaN,-0.03044218,3.864977E-10,-9.681291E-07,-1.137796E-07,2.885452E-08,-2.861022E-08
427.1486,-0.8643686,-1.435513E-08,NaN,-0.3261027,-1.352327E-07,NaN,0.5183679,6.635809E-08,NaN,-2.04214,1.33314E-05,-0.3459398,-2.641594E-08,NaN,NaN,-0.03023781,3.911543E-10,-9.740896E-07,-1.137802E-07,2.885452E-08,-2.622604E-08
427.1632,-0.8845108,-1.43542E-08,NaN,-0.3260586,-1.352319E-07,NaN,0.5192893,6.54215E-08,NaN,-2.040229,1.333197E-05,-0.3455475,-2.559642E-08,NaN,NaN,-0.03003741,3.911543E-10,-9.7856E-07,-1.137808E-07,3.12387E-08,-2.861022E-08
427.1777,-0.8845108,-1.43542E-08,NaN,-0.3260586,-1.352319E-07,NaN,0.5192893,6.54215E-08,NaN,-2.040229,1.333197E-05,-0.3455475,-2.559642E-08,NaN,NaN,-0.03003741,3.911543E-10,-9.7856E-07,-1.137808E-07,3.12387E-08,-2.861022E-08
427.1915,-0.9044311,-1.435326E-08,NaN,-0.3260161,-1.352311E-07,NaN,0.5201703,6.44849E-08,NaN,-2.038406,1.333253E-05,-0.3451688,-2.478321E-08,NaN,NaN,-0.02984092,3.911543E-10,-9.818383E-07,-1.137814E-07,3.12387E-08,-2.622604E-08
427.2069,-0.9241288,-1.435232E-08,NaN,-0.3259754,-1.352302E-07,NaN,0.5210128,6.354831E-08,NaN,-2.036668,1.33331E-05,-0.3448032,-2.3976E-08,NaN,NaN,-0.02964826,3.911543E-10,-9.842225E-07,-1.137821E-07,2.885452E-08,-2.861022E-08
427.2216,-0.943604,-1.435138E-08,NaN,-0.3259365,-1.352294E-07,NaN,0.5218184,6.261171E-08,NaN,-2.035012,1.333366E-05,-0.3444503,-2.317457E-08,NaN,NaN,-0.02945935,3.911543E-10,-9.842225E-07,-1.137826E-07,2.647033E-08,-2.622604E-08
427.2363,-0.943604,-1.435138E-08,NaN,-0.3259365,-1.352294E-07,NaN,0.5218184,6.261171E-08,NaN,-2.035012,1.333366E-05,-0.3444503,-2.317457E-08,NaN,NaN,-0.02945935,3.911543E-10,-9.842225E-07,-1.137826E-07,2.647033E-08,-2.622604E-08
427.2501,-0.962858,-1.435045E-08,NaN,-0.3258993,-1.352286E-07,NaN,0.5225885,6.167512E-08,NaN,-2.033436,1.333421E-05,-0.3441096,-2.237873E-08,NaN,NaN,-0.02927412,3.958109E-10,-9.836265E-07,-1.137832E-07,3.12387E-08,-2.861022E-08
427.2656,-0.9818923,-1.434951E-08,NaN,-0.325864,-1.352277E-07,NaN,0.5233243,6.073852E-08,NaN,-2.031937,1.333477E-05,-0.343781,-2.158835E-08,NaN,NaN,-0.02909251,4.051242E-10,-9.824344E-07,-1.137838E-07,2.647033E-08,-2.622604E-08
427.2802,-1.000709,-1.434857E-08,NaN,-0.3258304,-1.352269E-07,NaN,0.5240268,5.980193E-08,NaN,-2.030513,1.333533E-05,-0.3434641,-2.080331E-08,NaN,NaN,-0.02891443,4.097808E-10,-9.812422E-07,-1.137844E-07,2.170196E-08,-2.861022E-08
427.296,-1.000709,-1.434857E-08,NaN,-0.3258304,-1.352269E-07,NaN,0.5240268,5.980193E-08,NaN,-2.030513,1.333533E-05,-0.3434641,-2.080331E-08,NaN,NaN,-0.02891443,4.097808E-10,-9.812422E-07,-1.137844E-07,2.170196E-08,-2.861022E-08
427.3089,-1.01931,-1.434764E-08,NaN,-0.3257985,-1.35226E-07,NaN,0.5246972,5.886533E-08,NaN,-2.029163,1.333589E-05,-0.3431588,-2.002352E-08,NaN,NaN,-0.02873982,4.19094E-10,-9.800501E-07,-1.137849E-07,1.931778E-08,-2.622604E-08
427.324,-1.037698,-1.43467E-08,NaN,-0.3257684,-1.352251E-07,NaN,0.5253364,5.792874E-08,NaN,-2.027883,1.333645E-05,-0.3428647,-1.92489E-08,NaN,NaN,-0.02856863,4.19094E-10,-9.764739E-07,-1.137854E-07,2.170196E-08,-2.861022E-08
427.3387,-1.037698,-1.43467E-08,NaN,-0.3257684,-1.352251E-07,NaN,0.5253364,5.792874E-08,NaN,-2.027883,1.333645E-05,-0.3428647,-1.92489E-08,NaN,NaN,-0.02856863,4.19094E-10,-9.764739E-07,-1.137854E-07,2.170196E-08,-2.861022E-08
427.3526,-1.055874,-1.434576E-08,NaN,-0.3257399,-1.352242E-07,NaN,0.5259454,5.699214E-08,NaN,-2.026674,1.333703E-05,-0.3425817,-1.84794E-08,NaN,NaN,-0.02840077,4.144374E-10,-9.746857E-07,-1.13786E-07,1.931778E-08,-2.622604E-08
427.369,-1.073842,-1.434482E-08,NaN,-0.3257129,-1.352234E-07,NaN,0.5265248,5.605555E-08,NaN,-2.025532,1.333759E-05,-0.3423096,-1.771495E-08,NaN,NaN,-0.02823618,4.19094E-10,-9.723015E-07,-1.137865E-07,1.931778E-08,-2.861022E-08
427.3837,-1.091604,-1.434389E-08,NaN,-0.3256876,-1.352225E-07,NaN,0.5270758,5.511895E-08,NaN,-2.024456,1.333815E-05,-0.342048,-1.695552E-08,NaN,NaN,-0.02807481,4.237506E-10,-9.66937E-07,-1.13787E-07,2.408615E-08,-2.622604E-08
427.3972,-1.091604,-1.434389E-08,NaN,-0.3256876,-1.352225E-07,NaN,0.5270758,5.511895E-08,NaN,-2.024456,1.333815E-05,-0.342048,-1.695552E-08,NaN,NaN,-0.02807481,4.237506E-10,-9.66937E-07,-1.13787E-07,2.408615E-08,-2.622604E-08
427.4111,-1.109162,-1.434295E-08,NaN,-0.3256637,-1.35222E-07,NaN,0.5275989,5.368703E-08,NaN,-2.023445,1.333871E-05,-0.341797,-1.566477E-08,NaN,NaN,-0.02791658,4.144374E-10,-9.615726E-07,-1.13784E-07,2.408615E-08,-2.622604E-08
427.4261,-1.126518,-1.434202E-08,NaN,-0.3256413,-1.352208E-07,NaN,0.5280951,5.212593E-08,NaN,-2.022497,1.333926E-05,-0.3415561,-1.421625E-08,NaN,NaN,-0.02776145,4.051242E-10,-9.579963E-07,-1.137804E-07,2.408615E-08,-2.622604E-08
427.4406,-1.143674,-1.434108E-08,NaN,-0.3256204,-1.352195E-07,NaN,0.528565,5.14547E-08,NaN,-2.021611,1.333981E-05,-0.3413252,-1.36347E-08,NaN,NaN,-0.02760934,3.911543E-10,-9.53228E-07,-1.137758E-07,1.454941E-08,-2.622604E-08
427.4552,-1.143674,-1.434108E-08,NaN,-0.3256204,-1.352195E-07,NaN,0.528565,5.14547E-08,NaN,-2.021611,1.333981E-05,-0.3413252,-1.36347E-08,NaN,NaN,-0.02760934,3.911543E-10,-9.53228E-07,-1.137758E-07,1.454941E-08,-2.622604E-08
427.469,-1.160634,-1.434014E-08,NaN,-0.3256007,-1.35218E-07,NaN,0.5290096,5.075692E-08,NaN,-2.020785,1.334035E-05,-0.3411041,-1.300829E-08,NaN,NaN,-0.0274602,3.818411E-10,-9.502477E-07,-1.13771E-07,7.396848E-09,-2.622604E-08
427.4842,-1.177398,-1.433921E-08,NaN,-0.3255825,-1.352163E-07,NaN,0.5294293,5.005517E-08,NaN,-2.020017,1.334089E-05,-0.3408927,-1.236327E-08,NaN,NaN,-0.02731397,3.725279E-10,-9.478636E-07,-1.137661E-07,7.396848E-09,-2.622604E-08
427.5,-1.19397,-1.433827E-08,NaN,-0.3255655,-1.352145E-07,NaN,0.529825,4.936239E-08,NaN,-2.019307,1.334143E-05,-0.3406906,-1.171549E-08,NaN,NaN,-0.02717059,3.585581E-10,-9.40711E-07,-1.137612E-07,9.781034E-09,-2.622604E-08
427.5135,-1.19397,-1.433827E-08,NaN,-0.3255655,-1.352145E-07,NaN,0.529825,4.936239E-08,NaN,-2.019307,1.334143E-05,-0.3406906,-1.171549E-08,NaN,NaN,-0.02717059,3.585581E-10,-9.40711E-07,-1.137612E-07,9.781034E-09,-2.622604E-08
427.5275,-1.210351,-1.433734E-08,NaN,-0.3255498,-1.352127E-07,NaN,0.5301973,4.868334E-08,NaN,-2.018653,1.334197E-05,-0.3404977,-1.107207E-08,NaN,NaN,-0.02703002,3.445882E-10,-9.341545E-07,-1.137563E-07,9.781034E-09,-2.622604E-08
427.5427,-1.226544,-1.43364E-08,NaN,-0.3255353,-1.352108E-07,NaN,0.5305469,4.802169E-08,NaN,-2.018053,1.334251E-05,-0.3403139,-1.043854E-08,NaN,NaN,-0.0268922,3.35275E-10,-9.27598E-07,-1.137513E-07,7.396848E-09,-2.622604E-08
427.5573,-1.226544,-1.43364E-08,NaN,-0.3255353,-1.352108E-07,NaN,0.5305469,4.802169E-08,NaN,-2.018053,1.334251E-05,-0.3403139,-1.043854E-08,NaN,NaN,-0.0268922,3.35275E-10,-9.27598E-07,-1.137513E-07,7.396848E-09,-2.622604E-08
427.5711,-1.242552,-1.433547E-08,NaN,-0.325522,-1.352089E-07,NaN,0.5308744,4.737856E-08,NaN,-2.017506,1.334303E-05,-0.3401388,-9.817541E-09,NaN,NaN,-0.02675707,3.306184E-10,-9.222336E-07,-1.137463E-07,7.396848E-09,-2.622604E-08
427.5864,-1.258375,-1.433453E-08,NaN,-0.3255098,-1.35207E-07,NaN,0.5311805,4.675392E-08,NaN,-2.017011,1.334356E-05,-0.3399723,-9.210226E-09,NaN,NaN,-0.02662457,3.259618E-10,-9.132929E-07,-1.137414E-07,9.781034E-09,-2.622604E-08
427.6011,-1.273795,-1.43336E-08,NaN,-0.325498,-1.352051E-07,NaN,0.5314147,4.614795E-08,NaN,-2.01668,1.334409E-05,-0.3398238,-8.617742E-09,NaN,NaN,-0.02649464,3.213052E-10,-9.079285E-07,-1.137365E-07,9.781034E-09,-2.622604E-08
427.6158,-1.273795,-1.43336E-08,NaN,-0.325498,-1.352051E-07,NaN,0.5314147,4.614795E-08,NaN,-2.01668,1.334409E-05,-0.3398238,-8.617742E-09,NaN,NaN,-0.02649464,3.213052E-10,-9.079285E-07,-1.137365E-07,9.781034E-09,-2.622604E-08
427.6297,-1.288897,-1.433266E-08,NaN,-0.3254875,-1.352032E-07,NaN,0.5316129,4.55596E-08,NaN,-2.016432,1.334461E-05,-0.3396942,-8.039795E-09,NaN,NaN,-0.02636725,3.166486E-10,-8.989878E-07,-1.137316E-07,1.454941E-08,-2.622604E-08
427.645,-1.303737,-1.433173E-08,NaN,-0.3254787,-1.352013E-07,NaN,0.5317919,4.498795E-08,NaN,-2.016233,1.334514E-05,-0.339575,-7.476099E-09,NaN,NaN,-0.02624237,3.11992E-10,-8.906432E-07,-1.137266E-07,1.216522E-08,-2.622604E-08
427.6591,-1.303737,-1.433173E-08,NaN,-0.3254787,-1.352013E-07,NaN,0.5317919,4.498795E-08,NaN,-2.016233,1.334514E-05,-0.339575,-7.476099E-09,NaN,NaN,-0.02624237,3.11992E-10,-8.906432E-07,-1.137266E-07,1.216522E-08,-2.622604E-08
427.6754,-1.317621,-1.433079E-08,NaN,-0.3254691,-1.351994E-07,NaN,0.5317894,4.443364E-08,NaN,-2.016447,1.334567E-05,-0.3394943,-6.927784E-09,NaN,NaN,-0.02611982,3.073354E-10,-8.787222E-07,-1.137218E-07,1.454941E-08,-2.622604E-08
427.6894,-1.330845,-1.432986E-08,NaN,-0.3254617,-1.351975E-07,NaN,0.5317223,4.389459E-08,NaN,-2.016805,1.334619E-05,-0.3394542,-6.393139E-09,NaN,NaN,-0.02599972,3.026788E-10,-8.685894E-07,-1.137169E-07,1.216522E-08,-2.622604E-08
427.7038,-1.343601,-1.432893E-08,NaN,-0.3254575,-1.351956E-07,NaN,0.5316441,4.33716E-08,NaN,-2.017202,1.334672E-05,-0.3394276,-5.873308E-09,NaN,NaN,-0.025882,2.980222E-10,-8.584566E-07,-1.13712E-07,1.454941E-08,-2.622604E-08
427.7176,-1.343601,-1.432893E-08,NaN,-0.3254575,-1.351956E-07,NaN,0.5316441,4.33716E-08,NaN,-2.017202,1.334672E-05,-0.3394276,-5.873308E-09,NaN,NaN,-0.025882,2.980222E-10,-8.584566E-07,-1.13712E-07,1.454941E-08,-2.622604E-08
427.7312,-1.356007,-1.432799E-08,NaN,-0.3254555,-1.351938E-07,NaN,0.5315704,4.286414E-08,NaN,-2.017602,1.334724E-05,-0.3394035,-5.367994E-09,NaN,NaN,-0.02576658,2.933656E-10,-8.471318E-07,-1.137072E-07,9.781034E-09,-2.622604E-08
427.7465,-1.367414,-1.432706E-08,NaN,-0.3254537,-1.351919E-07,NaN,0.5313343,4.237031E-08,NaN,-2.018374,1.334776E-05,-0.3394104,-4.875505E-09,NaN,NaN,-0.02565332,2.887089E-10,-8.328267E-07,-1.137024E-07,5.012662E-09,-2.622604E-08
427.7608,-1.378145,-1.432613E-08,NaN,-0.3254533,-1.3519E-07,NaN,0.5310495,4.189111E-08,NaN,-2.019257,1.334828E-05,-0.3394518,-4.397002E-09,NaN,NaN,-0.02554232,2.840523E-10,-8.215018E-07,-1.136976E-07,9.781034E-09,-2.622604E-08
427.7752,-1.378145,-1.432613E-08,NaN,-0.3254533,-1.3519E-07,NaN,0.5310495,4.189111E-08,NaN,-2.019257,1.334828E-05,-0.3394518,-4.397002E-09,NaN,NaN,-0.02554232,2.840523E-10,-8.215018E-07,-1.136976E-07,9.781034E-09,-2.622604E-08
427.7889,-1.388406,-1.43252E-08,NaN,-0.3254542,-1.351881E-07,NaN,0.530766,4.142614E-08,NaN,-2.020149,1.334881E-05,-0.3395015,-3.932209E-09,NaN,NaN,-0.02543352,2.793957E-10,-8.089849E-07,-1.136928E-07,2.628477E-09,-2.622604E-08
427.8039,-1.398329,-1.432426E-08,NaN,-0.3254561,-1.351863E-07,NaN,0.5304971,4.097503E-08,NaN,-2.021021,1.334934E-05,-0.3395495,-3.480864E-09,NaN,NaN,-0.02532685,2.747391E-10,-7.994481E-07,-1.13688E-07,2.442908E-10,-2.622604E-08
427.8185,-1.398329,-1.432426E-08,NaN,-0.3254561,-1.351863E-07,NaN,0.5304971,4.097503E-08,NaN,-2.021021,1.334934E-05,-0.3395495,-3.480864E-09,NaN,NaN,-0.02532685,2.747391E-10,-7.994481E-07,-1.13688E-07,2.442908E-10,-2.622604E-08
427.8322,-1.407268,-1.432333E-08,NaN,-0.3254574,-1.351844E-07,NaN,0.5300741,4.053601E-08,NaN,-2.022246,1.334987E-05,-0.339625,-3.041284E-09,NaN,NaN,-0.02522217,2.700825E-10,-7.863351E-07,-1.136833E-07,-2.139895E-09,-2.622604E-08
427.8476,-1.415553,-1.43224E-08,NaN,-0.3254597,-1.351826E-07,NaN,0.5296093,4.011021E-08,NaN,-2.023563,1.33504E-05,-0.3397326,-2.614656E-09,NaN,NaN,-0.02511958,2.654259E-10,-7.73222E-07,-1.136786E-07,2.442908E-10,-2.622604E-08
427.8624,-1.42339,-1.432147E-08,NaN,-0.3254632,-1.351807E-07,NaN,0.5291523,3.969732E-08,NaN,-2.024875,1.335093E-05,-0.3398465,-2.200721E-09,NaN,NaN,-0.02501902,2.607693E-10,-7.577248E-07,-1.136738E-07,-2.139895E-09,-2.622604E-08
427.8766,-1.42339,-1.432147E-08,NaN,-0.3254632,-1.351807E-07,NaN,0.5291523,3.969732E-08,NaN,-2.024875,1.335093E-05,-0.3398465,-2.200721E-09,NaN,NaN,-0.02501902,2.607693E-10,-7.577248E-07,-1.136738E-07,-2.139895E-09,-2.622604E-08
427.8902,-1.430185,-1.432054E-08,NaN,-0.3254662,-1.351789E-07,NaN,0.5285474,3.929703E-08,NaN,-2.026528,1.335147E-05,-0.3399866,-1.799234E-09,NaN,NaN,-0.02492033,2.561127E-10,-7.422276E-07,-1.136691E-07,-2.139895E-09,-2.622604E-08
427.9056,-1.436297,-1.431961E-08,NaN,-0.325471,-1.35177E-07,NaN,0.5279098,3.890768E-08,NaN,-2.028254,1.3352E-05,-0.3401569,-1.408539E-09,NaN,NaN,-0.02482362,2.514561E-10,-7.261343E-07,-1.136645E-07,2.442908E-10,-2.622604E-08
427.9202,-1.441952,-1.431868E-08,NaN,-0.3254784,-1.351752E-07,NaN,0.5272891,3.853043E-08,NaN,-2.029956,1.335253E-05,-0.3403308,-1.029836E-09,NaN,NaN,-0.02472883,2.467995E-10,-7.112332E-07,-1.136598E-07,2.628477E-09,-2.622604E-08
427.9347,-1.441952,-1.431868E-08,NaN,-0.3254784,-1.351752E-07,NaN,0.5272891,3.853043E-08,NaN,-2.029956,1.335253E-05,-0.3403308,-1.029836E-09,NaN,NaN,-0.02472883,2.467995E-10,-7.112332E-07,-1.136598E-07,2.628477E-09,-2.622604E-08
427.9486,-1.447297,-1.431775E-08,NaN,-0.325488,-1.351734E-07,NaN,0.5266972,3.816502E-08,NaN,-2.031605,1.335306E-05,-0.3404982,-6.628881E-10,NaN,NaN,-0.0246359,2.421429E-10,-6.987162E-07,-1.136551E-07,-2.139895E-09,-2.622604E-08
427.964,-1.451697,-1.431682E-08,NaN,-0.3254972,-1.351716E-07,NaN,0.5259635,3.780979E-08,NaN,-2.033575,1.335359E-05,-0.3406855,-3.060547E-10,NaN,NaN,-0.02454467,2.374863E-10,-6.802387E-07,-1.136505E-07,-6.908266E-09,-2.622604E-08
427.9799,-1.451697,-1.431682E-08,NaN,-0.3254972,-1.351716E-07,NaN,0.5259635,3.780979E-08,NaN,-2.033575,1.335359E-05,-0.3406855,-3.060547E-10,NaN,NaN,-0.02454467,2.374863E-10,-6.802387E-07,-1.136505E-07,-6.908266E-09,-2.622604E-08
427.992,-1.455483,-1.431589E-08,NaN,-0.3255075,-1.351697E-07,NaN,0.5251982,3.746595E-08,NaN,-2.035611,1.335412E-05,-0.3409019,3.945044E-11,NaN,NaN,-0.02445528,2.328296E-10,-6.641454E-07,-1.136459E-07,-2.139895E-09,-2.622604E-08
428.0074,-1.458867,-1.431496E-08,NaN,-0.3255194,-1.351679E-07,NaN,0.5244508,3.713325E-08,NaN,-2.037616,1.335465E-05,-0.3411216,3.738523E-10,NaN,NaN,-0.02436766,2.28173E-10,-6.480522E-07,-1.136413E-07,-4.524081E-09,-2.622604E-08
428.0237,-1.461985,-1.431403E-08,NaN,-0.3255326,-1.351661E-07,NaN,0.5237335,3.681002E-08,NaN,-2.039562,1.335519E-05,-0.3413343,6.988244E-10,NaN,NaN,-0.02428177,2.142032E-10,-6.325549E-07,-1.136367E-07,-6.908266E-09,-2.622604E-08
428.0372,-1.461985,-1.431403E-08,NaN,-0.3255326,-1.351661E-07,NaN,0.5237335,3.681002E-08,NaN,-2.039562,1.335519E-05,-0.3413343,6.988244E-10,NaN,NaN,-0.02428177,2.142032E-10,-6.325549E-07,-1.136367E-07,-6.908266E-09,-2.622604E-08
428.052,-1.464193,-1.43131E-08,NaN,-0.3255447,-1.351643E-07,NaN,0.5228761,3.649752E-08,NaN,-2.041824,1.335573E-05,-0.3415642,1.013092E-09,NaN,NaN,-0.02419743,2.002334E-10,-6.128854E-07,-1.136321E-07,-1.167664E-08,-2.622604E-08
428.0653,-1.46582,-1.431217E-08,NaN,-0.3255568,-1.351625E-07,NaN,0.5219886,3.619554E-08,NaN,-2.044144,1.335627E-05,-0.3418232,1.316863E-09,NaN,NaN,-0.02411479,1.862635E-10,-5.956001E-07,-1.136276E-07,-6.908267E-09,-2.622604E-08
428.0798,-1.46582,-1.431217E-08,NaN,-0.3255568,-1.351625E-07,NaN,0.5219886,3.619554E-08,NaN,-2.044144,1.335627E-05,-0.3418232,1.316863E-09,NaN,NaN,-0.02411479,1.862635E-10,-5.956001E-07,-1.136276E-07,-6.908267E-09,-2.622604E-08
428.0934,-1.467075,-1.431124E-08,NaN,-0.3255696,-1.351607E-07,NaN,0.5211214,3.590246E-08,NaN,-2.046425,1.335682E-05,-0.3420849,1.611756E-09,NaN,NaN,-0.0240338,1.676371E-10,-5.795068E-07,-1.13623E-07,-9.292453E-09,-2.622604E-08
428.1086,-1.467361,-1.431031E-08,NaN,-0.3255806,-1.35159E-07,NaN,0.5201182,3.561951E-08,NaN,-2.049016,1.335736E-05,-0.3423629,1.896534E-09,NaN,NaN,-0.02395426,1.490106E-10,-5.622215E-07,-1.136185E-07,-6.908267E-09,-2.622604E-08
428.1227,-1.46704,-1.430938E-08,NaN,-0.3255911,-1.351572E-07,NaN,0.5190921,3.534507E-08,NaN,-2.051647,1.335791E-05,-0.3426685,2.172807E-09,NaN,NaN,-0.02387632,1.303842E-10,-5.449361E-07,-1.13614E-07,-6.908267E-09,-2.622604E-08
428.1374,-1.46704,-1.430938E-08,NaN,-0.3255911,-1.351572E-07,NaN,0.5190921,3.534507E-08,NaN,-2.051647,1.335791E-05,-0.3426685,2.172807E-09,NaN,NaN,-0.02387632,1.303842E-10,-5.449361E-07,-1.13614E-07,-6.908267E-09,-2.622604E-08
428.151,-1.466336,-1.430845E-08,NaN,-0.3256016,-1.351554E-07,NaN,0.5180942,3.50804E-08,NaN,-2.054223,1.335845E-05,-0.3429746,2.439329E-09,NaN,NaN,-0.02379994,1.117577E-10,-5.270547E-07,-1.136095E-07,-4.524082E-09,-2.622604E-08
428.1662,-1.465396,-1.430752E-08,NaN,-0.3256122,-1.351536E-07,NaN,0.5171366,3.482529E-08,NaN,-2.056715,1.335899E-05,-0.3432703,2.696292E-09,NaN,NaN,-0.02372506,1.024445E-10,-5.097694E-07,-1.13605E-07,-6.908267E-09,-2.622604E-08
428.1808,-1.463582,-1.430659E-08,NaN,-0.3256206,-1.351519E-07,NaN,0.5160475,3.457814E-08,NaN,-2.059501,1.335952E-05,-0.3435749,2.9453E-09,NaN,NaN,-0.0236515,9.778789E-11,-4.895038E-07,-1.136006E-07,-4.524082E-09,-2.622604E-08
428.1953,-1.463582,-1.430659E-08,NaN,-0.3256206,-1.351519E-07,NaN,0.5160475,3.457814E-08,NaN,-2.059501,1.335952E-05,-0.3435749,2.9453E-09,NaN,NaN,-0.0236515,9.778789E-11,-4.895038E-07,-1.136006E-07,-4.524082E-09,-2.622604E-08
428.2093,-1.461226,-1.430567E-08,NaN,-0.3256278,-1.351501E-07,NaN,0.5149342,3.43388E-08,NaN,-2.062324,1.336006E-05,-0.3439071,3.186505E-09,NaN,NaN,-0.02357943,8.381805E-11,-4.686422E-07,-1.135961E-07,-4.524082E-09,-2.622604E-08
428.2242,-1.458539,-1.430474E-08,NaN,-0.3256343,-1.351483E-07,NaN,0.513848,3.410711E-08,NaN,-2.065088,1.33606E-05,-0.3442405,3.420061E-09,NaN,NaN,-0.02350879,6.984821E-11,-4.501647E-07,-1.135917E-07,-2.139896E-09,-2.622604E-08
428.2389,-1.458539,-1.430474E-08,NaN,-0.3256343,-1.351483E-07,NaN,0.513848,3.410711E-08,NaN,-2.065088,1.33606E-05,-0.3442405,3.420061E-09,NaN,NaN,-0.02350879,6.984821E-11,-4.501647E-07,-1.135917E-07,-2.139896E-09,-2.622604E-08
428.2527,-1.454926,-1.430381E-08,NaN,-0.3256379,-1.351466E-07,NaN,0.5126323,3.388435E-08,NaN,-2.068144,1.336114E-05,-0.3445823,3.6447E-09,NaN,NaN,-0.02343939,5.587837E-11,-4.293031E-07,-1.135873E-07,2.442899E-10,-2.622604E-08
428.2679,-1.450747,-1.430288E-08,NaN,-0.3256398,-1.351448E-07,NaN,0.5113977,3.36689E-08,NaN,-2.071223,1.336167E-05,-0.344951,3.862017E-09,NaN,NaN,-0.02337139,5.122176E-11,-4.078454E-07,-1.135829E-07,2.442899E-10,-2.622604E-08
428.2825,-1.446228,-1.430195E-08,NaN,-0.3256411,-1.351431E-07,NaN,0.5101964,3.346206E-08,NaN,-2.07423,1.336221E-05,-0.3453196,4.070741E-09,NaN,NaN,-0.02330474,4.190853E-11,-3.89368E-07,-1.135785E-07,5.012661E-09,-2.622604E-08
428.2968,-1.446228,-1.430195E-08,NaN,-0.3256411,-1.351431E-07,NaN,0.5101964,3.346206E-08,NaN,-2.07423,1.336221E-05,-0.3453196,4.070741E-09,NaN,NaN,-0.02330474,4.190853E-11,-3.89368E-07,-1.135785E-07,5.012661E-09,-2.622604E-08
428.3109,-1.441515,-1.430103E-08,NaN,-0.3256422,-1.351414E-07,NaN,0.5090415,3.326364E-08,NaN,-2.077136,1.336274E-05,-0.3456762,4.27104E-09,NaN,NaN,-0.02323942,3.259531E-11,-3.661222E-07,-1.135741E-07,2.442899E-10,-2.622604E-08
428.326,-1.435971,-1.43001E-08,NaN,-0.325642,-1.351396E-07,NaN,0.5077609,3.307207E-08,NaN,-2.080322,1.336328E-05,-0.3460334,4.464491E-09,NaN,NaN,-0.02317519,1.862547E-11,-3.434724E-07,-1.135698E-07,2.628476E-09,-2.622604E-08
428.3404,-1.429928,-1.429917E-08,NaN,-0.3256409,-1.351379E-07,NaN,0.506459,3.289707E-08,NaN,-2.083529,1.336382E-05,-0.3464181,4.641365E-09,NaN,NaN,-0.02311227,4.655631E-12,-3.214187E-07,-1.135655E-07,-2.139896E-09,-2.622604E-08
428.3549,-1.429928,-1.429917E-08,NaN,-0.3256409,-1.351379E-07,NaN,0.506459,3.289707E-08,NaN,-2.083529,1.336382E-05,-0.3464181,4.641365E-09,NaN,NaN,-0.02311227,4.655631E-12,-3.214187E-07,-1.135655E-07,-2.139896E-09,-2.622604E-08
428.3687,-1.423596,-1.429824E-08,NaN,-0.3256392,-1.351357E-07,NaN,0.5051885,3.25791E-08,NaN,-2.086662,1.336435E-05,-0.3468036,4.961227E-09,NaN,NaN,-0.0230506,4.655631E-12,-2.98769E-07,-1.135621E-07,2.442899E-10,-2.622604E-08
428.3861,-1.417108,-1.429732E-08,NaN,-0.3256371,-1.351337E-07,NaN,0.5039635,3.228863E-08,NaN,-2.089693,1.336488E-05,-0.3471775,5.253582E-09,NaN,NaN,-0.02299016,4.655631E-12,-2.773113E-07,-1.135588E-07,-4.524082E-09,-2.622604E-08
428.3995,-1.417108,-1.429732E-08,NaN,-0.3256371,-1.351337E-07,NaN,0.5039635,3.228863E-08,NaN,-2.089693,1.336488E-05,-0.3471775,5.253582E-09,NaN,NaN,-0.02299016,4.655631E-12,-2.773113E-07,-1.135588E-07,-4.524082E-09,-2.622604E-08
428.4132,-1.409822,-1.429639E-08,NaN,-0.3256324,-1.351316E-07,NaN,0.5026134,3.201669E-08,NaN,-2.093002,1.33654E-05,-0.3475477,5.52742E-09,NaN,NaN,-0.0229307,4.655631E-12,-2.528734E-07,-1.135556E-07,-2.139896E-09,-2.622604E-08
428.4272,-1.402064,-1.429546E-08,NaN,-0.3256256,-1.351296E-07,NaN,0.5012406,3.175725E-08,NaN,-2.096329,1.336593E-05,-0.3479462,5.788742E-09,NaN,NaN,-0.02287245,4.655631E-12,-2.290315E-07,-1.135524E-07,2.442899E-10,-2.622604E-08
428.4416,-1.394042,-1.429454E-08,NaN,-0.3256174,-1.351276E-07,NaN,0.4998994,3.150868E-08,NaN,-2.099578,1.336646E-05,-0.3483464,6.039204E-09,NaN,NaN,-0.02281537,4.655631E-12,-2.075738E-07,-1.135492E-07,2.628476E-09,-2.622604E-08
428.4573,-1.394042,-1.429454E-08,NaN,-0.3256174,-1.351276E-07,NaN,0.4998994,3.150868E-08,NaN,-2.099578,1.336646E-05,-0.3483464,6.039204E-09,NaN,NaN,-0.02281537,4.655631E-12,-2.075738E-07,-1.135492E-07,2.628476E-09,-2.622604E-08
428.47,-1.385158,-1.429361E-08,NaN,-0.3256058,-1.351257E-07,NaN,0.4984356,3.127077E-08,NaN,-2.103101,1.336699E-05,-0.3487423,6.279011E-09,NaN,NaN,-0.0227592,-9.818535E-16,-1.819438E-07,-1.13546E-07,7.396847E-09,-2.622604E-08
428.4847,-1.375771,-1.429268E-08,NaN,-0.3255916,-1.351237E-07,NaN,0.4969543,3.104048E-08,NaN,-2.106629,1.336751E-05,-0.3491663,6.5112E-09,NaN,NaN,-0.02270417,-9.818535E-16,-1.563138E-07,-1.135428E-07,7.396847E-09,-2.622604E-08
428.4994,-1.375771,-1.429268E-08,NaN,-0.3255916,-1.351237E-07,NaN,0.4969543,3.104048E-08,NaN,-2.106629,1.336751E-05,-0.3491663,6.5112E-09,NaN,NaN,-0.02270417,-9.818535E-16,-1.563138E-07,-1.135428E-07,7.396847E-09,-2.622604E-08
428.5133,-1.366105,-1.429176E-08,NaN,-0.3255753,-1.351218E-07,NaN,0.4955111,3.081907E-08,NaN,-2.110064,1.336804E-05,-0.3495907,6.734502E-09,NaN,NaN,-0.02265026,-9.818535E-16,-1.300878E-07,-1.135397E-07,7.396847E-09,-2.622604E-08
428.5285,-1.356305,-1.429083E-08,NaN,-0.3255577,-1.351198E-07,NaN,0.4941209,3.060496E-08,NaN,-2.113379,1.336857E-05,-0.3500018,6.950508E-09,NaN,NaN,-0.02259742,-4.657595E-12,-1.07438E-07,-1.135365E-07,2.628476E-09,-2.622604E-08
428.543,-1.345733,-1.428991E-08,NaN,-0.3255369,-1.351179E-07,NaN,0.4926129,3.0398E-08,NaN,-2.116956,1.33691E-05,-0.3503985,7.159357E-09,NaN,NaN,-0.02254537,-9.314207E-12,-7.823176E-08,-1.135334E-07,2.628476E-09,-2.622604E-08
428.5573,-1.345733,-1.428991E-08,NaN,-0.3255369,-1.351179E-07,NaN,0.4926129,3.0398E-08,NaN,-2.116956,1.33691E-05,-0.3503985,7.159357E-09,NaN,NaN,-0.02254537,-9.314207E-12,-7.823176E-08,-1.135334E-07,2.628476E-09,-2.622604E-08
428.5712,-1.33472,-1.428898E-08,NaN,-0.3255134,-1.351159E-07,NaN,0.4910845,3.019806E-08,NaN,-2.120537,1.336963E-05,-0.3508233,7.361191E-09,NaN,NaN,-0.02249438,-9.314207E-12,-5.200571E-08,-1.135303E-07,2.628476E-09,-2.622604E-08
428.5865,-1.323475,-1.428806E-08,NaN,-0.3254879,-1.35114E-07,NaN,0.4895913,3.0005E-08,NaN,-2.124025,1.337016E-05,-0.3512501,7.556144E-09,NaN,NaN,-0.02244443,-1.397082E-11,-2.518362E-08,-1.135272E-07,7.396847E-09,-2.622604E-08
428.6009,-1.312132,-1.428713E-08,NaN,-0.3254611,-1.351121E-07,NaN,0.4881496,2.981727E-08,NaN,-2.127393,1.337069E-05,-0.3516646,7.74577E-09,NaN,NaN,-0.02239546,-1.397082E-11,2.234511E-09,-1.135241E-07,9.781033E-09,-2.622604E-08
428.6154,-1.312132,-1.428713E-08,NaN,-0.3254611,-1.351121E-07,NaN,0.4881496,2.981727E-08,NaN,-2.127393,1.337069E-05,-0.3516646,7.74577E-09,NaN,NaN,-0.02239546,-1.397082E-11,2.234511E-09,-1.135241E-07,9.781033E-09,-2.622604E-08
428.6293,-1.300047,-1.428621E-08,NaN,-0.3254313,-1.351102E-07,NaN,0.4865902,2.963617E-08,NaN,-2.131024,1.337122E-05,-0.3520603,7.928758E-09,NaN,NaN,-0.0223472,-1.862743E-11,3.263288E-08,-1.13521E-07,9.781033E-09,-2.622604E-08
428.6445,-1.287545,-1.428528E-08,NaN,-0.3253987,-1.351083E-07,NaN,0.4850083,2.946159E-08,NaN,-2.134656,1.337175E-05,-0.352485,8.105236E-09,NaN,NaN,-0.02229992,-2.328404E-11,6.124311E-08,-1.135179E-07,1.216522E-08,-2.622604E-08
428.6588,-1.287545,-1.428528E-08,NaN,-0.3253987,-1.351083E-07,NaN,0.4850083,2.946159E-08,NaN,-2.134656,1.337175E-05,-0.352485,8.105236E-09,NaN,NaN,-0.02229992,-2.328404E-11,6.124311E-08,-1.135179E-07,1.216522E-08,-2.622604E-08
428.6727,-1.274833,-1.428436E-08,NaN,-0.325364,-1.351064E-07,NaN,0.4834611,2.929338E-08,NaN,-2.138194,1.337228E-05,-0.3529132,8.275332E-09,NaN,NaN,-0.0222536,-2.328404E-11,8.448892E-08,-1.135148E-07,1.931778E-08,-2.622604E-08
428.688,-1.261315,-1.428344E-08,NaN,-0.3253256,-1.351045E-07,NaN,0.4817977,2.913144E-08,NaN,-2.141991,1.337281E-05,-0.3533232,8.439169E-09,NaN,NaN,-0.02220793,-2.794066E-11,1.154833E-07,-1.135118E-07,1.216522E-08,-2.622604E-08
428.7026,-1.247345,-1.428251E-08,NaN,-0.3252839,-1.351026E-07,NaN,0.4801163,2.897563E-08,NaN,-2.145778,1.337334E-05,-0.3537625,8.596874E-09,NaN,NaN,-0.0221632,-3.725388E-11,1.470738E-07,-1.135087E-07,1.216522E-08,-2.622604E-08
428.7169,-1.247345,-1.428251E-08,NaN,-0.3252839,-1.351026E-07,NaN,0.4801163,2.897563E-08,NaN,-2.145778,1.337334E-05,-0.3537625,8.596874E-09,NaN,NaN,-0.0221632,-3.725388E-11,1.470738E-07,-1.135087E-07,1.216522E-08,-2.622604E-08
428.7307,-1.233151,-1.428159E-08,NaN,-0.3252396,-1.351007E-07,NaN,0.4784753,2.882441E-08,NaN,-2.149456,1.337387E-05,-0.3542045,8.749981E-09,NaN,NaN,-0.02211938,-4.191049E-11,1.780682E-07,-1.135057E-07,1.216522E-08,-2.622604E-08
428.748,-1.218874,-1.428066E-08,NaN,-0.3251936,-1.350988E-07,NaN,0.4768922,2.867913E-08,NaN,-2.152999,1.337441E-05,-0.3546335,8.897161E-09,NaN,NaN,-0.02207643,-5.122372E-11,2.066784E-07,-1.135027E-07,9.781033E-09,-2.622604E-08
428.7615,-1.203877,-1.427974E-08,NaN,-0.3251444,-1.35097E-07,NaN,0.475199,2.853965E-08,NaN,-2.156791,1.337494E-05,-0.3550328,9.038536E-09,NaN,NaN,-0.02203402,-5.588033E-11,2.40057E-07,-1.134997E-07,1.693359E-08,-2.622604E-08
428.7758,-1.203877,-1.427974E-08,NaN,-0.3251444,-1.35097E-07,NaN,0.475199,2.853965E-08,NaN,-2.156791,1.337494E-05,-0.3550328,9.038536E-09,NaN,NaN,-0.02203402,-5.588033E-11,2.40057E-07,-1.134997E-07,1.693359E-08,-2.622604E-08
428.7895,-1.18849,-1.427882E-08,NaN,-0.3250922,-1.350951E-07,NaN,0.4734845,2.840445E-08,NaN,-2.160573,1.337547E-05,-0.3554608,9.175629E-09,NaN,NaN,-0.02199249,-6.053694E-11,2.698594E-07,-1.134967E-07,1.931778E-08,-2.622604E-08
428.8037,-1.172922,-1.42779E-08,NaN,-0.3250377,-1.350932E-07,NaN,0.4718065,2.827482E-08,NaN,-2.164247,1.3376E-05,-0.3558934,9.307163E-09,NaN,NaN,-0.0219518,-6.519356E-11,3.008538E-07,-1.134937E-07,2.170196E-08,-2.622604E-08
428.8182,-1.172922,-1.42779E-08,NaN,-0.3250377,-1.350932E-07,NaN,0.4718065,2.827482E-08,NaN,-2.164247,1.3376E-05,-0.3558934,9.307163E-09,NaN,NaN,-0.0219518,-6.519356E-11,3.008538E-07,-1.134937E-07,2.170196E-08,-2.622604E-08
428.8321,-1.156577,-1.427697E-08,NaN,-0.3249793,-1.350914E-07,NaN,0.4700175,2.815069E-08,NaN,-2.168172,1.337654E-05,-0.3562985,9.433192E-09,NaN,NaN,-0.0219116,-7.450678E-11,3.378086E-07,-1.134907E-07,2.170196E-08,-2.622604E-08
428.847,-1.139812,-1.427605E-08,NaN,-0.3249174,-1.350895E-07,NaN,0.46821,2.803053E-08,NaN,-2.172077,1.337707E-05,-0.3567335,9.555245E-09,NaN,NaN,-0.02187224,-7.91634E-11,3.711872E-07,-1.134877E-07,2.408615E-08,-2.622604E-08
428.8615,-1.122853,-1.427513E-08,NaN,-0.3248526,-1.350877E-07,NaN,0.4664437,2.791569E-08,NaN,-2.175864,1.33776E-05,-0.3571733,9.671983E-09,NaN,NaN,-0.0218337,-8.382001E-11,4.06354E-07,-1.134848E-07,1.693359E-08,-2.622604E-08
428.876,-1.122853,-1.427513E-08,NaN,-0.3248526,-1.350877E-07,NaN,0.4664437,2.791569E-08,NaN,-2.175864,1.33776E-05,-0.3571733,9.671983E-09,NaN,NaN,-0.0218337,-8.382001E-11,4.06354E-07,-1.134848E-07,1.693359E-08,-2.622604E-08
428.89,-1.105843,-1.42742E-08,NaN,-0.3247861,-1.350858E-07,NaN,0.464738,2.780607E-08,NaN,-2.179506,1.337813E-05,-0.3576009,9.783507E-09,NaN,NaN,-0.02179592,-8.847663E-11,4.397326E-07,-1.134818E-07,1.931777E-08,-2.622604E-08
428.9051,-1.088144,-1.427328E-08,NaN,-0.3247165,-1.35084E-07,NaN,0.4629277,2.770154E-08,NaN,-2.18339,1.337866E-05,-0.3579888,9.889927E-09,NaN,NaN,-0.02175854,-9.313324E-11,4.743033E-07,-1.134789E-07,2.170196E-08,-2.622604E-08
428.9195,-1.088144,-1.427328E-08,NaN,-0.3247165,-1.35084E-07,NaN,0.4629277,2.770154E-08,NaN,-2.18339,1.337866E-05,-0.3579888,9.889927E-09,NaN,NaN,-0.02175854,-9.313324E-11,4.743033E-07,-1.134789E-07,2.170196E-08,-2.622604E-08
428.9348,-1.070085,-1.427236E-08,NaN,-0.3246438,-1.350822E-07,NaN,0.4610769,2.760062E-08,NaN,-2.186766,1.337919E-05,-0.358446,9.992752E-09,NaN,NaN,-0.02172139,-9.778986E-11,5.184107E-07,-1.13476E-07,2.170196E-08,-2.622604E-08
428.9488,-1.051876,-1.427144E-08,NaN,-0.3245688,-1.350803E-07,NaN,0.4592222,2.750463E-08,NaN,-2.188581,1.337973E-05,-0.3590071,1.009064E-08,NaN,NaN,-0.02168383,-1.024465E-10,5.845719E-07,-1.13473E-07,1.931777E-08,-2.622604E-08
428.9633,-1.033649,-1.427052E-08,NaN,-0.3244924,-1.350785E-07,NaN,0.4574183,2.741349E-08,NaN,-2.18893,1.338026E-05,-0.359595,1.018368E-08,NaN,NaN,-0.02164681,-1.071031E-10,6.566935E-07,-1.134701E-07,1.45494E-08,-2.622604E-08
428.9782,-1.033649,-1.427052E-08,NaN,-0.3244924,-1.350785E-07,NaN,0.4574183,2.741349E-08,NaN,-2.18893,1.338026E-05,-0.359595,1.018368E-08,NaN,NaN,-0.02164681,-1.071031E-10,6.566935E-07,-1.134701E-07,1.45494E-08,-2.622604E-08
428.9916,-1.014758,-1.426959E-08,NaN,-0.3244133,-1.350767E-07,NaN,0.4555243,2.732709E-08,NaN,-2.188799,1.338079E-05,-0.3601281,1.027198E-08,NaN,NaN,-0.02161049,-1.117597E-10,7.222586E-07,-1.134672E-07,1.931777E-08,-2.622604E-08
429.007,-0.9955299,-1.426867E-08,NaN,-0.3243314,-1.350749E-07,NaN,0.4536204,2.724393E-08,NaN,-2.188385,1.338132E-05,-0.3606721,1.035703E-08,NaN,NaN,-0.02157526,-1.164163E-10,7.812672E-07,-1.134644E-07,1.216522E-08,-2.622604E-08
429.0217,-0.9761691,-1.426775E-08,NaN,-0.3242473,-1.350731E-07,NaN,0.451766,2.716536E-08,NaN,-2.187913,1.338185E-05,-0.3612071,1.04375E-08,NaN,NaN,-0.02154109,-1.210729E-10,8.271628E-07,-1.134615E-07,1.693359E-08,-2.622604E-08
429.036,-0.9761691,-1.426775E-08,NaN,-0.3242473,-1.350731E-07,NaN,0.451766,2.716536E-08,NaN,-2.187913,1.338185E-05,-0.3612071,1.04375E-08,NaN,NaN,-0.02154109,-1.210729E-10,8.271628E-07,-1.134615E-07,1.693359E-08,-2.622604E-08
429.0501,-0.9560784,-1.426683E-08,NaN,-0.3241597,-1.350713E-07,NaN,0.4498162,2.709129E-08,NaN,-2.187916,1.338238E-05,-0.3616982,1.051347E-08,NaN,NaN,-0.0215075,-1.257295E-10,8.80211E-07,-1.134586E-07,2.408614E-08,-2.622604E-08
429.0654,-0.9356126,-1.426591E-08,NaN,-0.3240685,-1.350695E-07,NaN,0.4478522,2.702164E-08,NaN,-2.188029,1.338291E-05,-0.362229,1.058503E-08,NaN,NaN,-0.02147461,-1.303861E-10,9.302789E-07,-1.134558E-07,1.693359E-08,-2.622604E-08
429.0797,-0.9356126,-1.426591E-08,NaN,-0.3240685,-1.350695E-07,NaN,0.4478522,2.702164E-08,NaN,-2.188029,1.338291E-05,-0.362229,1.058503E-08,NaN,NaN,-0.02147461,-1.303861E-10,9.302789E-07,-1.134558E-07,1.693359E-08,-2.622604E-08
429.0958,-0.9149965,-1.426499E-08,NaN,-0.3239745,-1.350677E-07,NaN,0.4459367,2.695489E-08,NaN,-2.188068,1.338344E-05,-0.3627778,1.065367E-08,NaN,NaN,-0.0214424,-1.303861E-10,9.791547E-07,-1.134529E-07,1.693359E-08,-2.622604E-08
429.11,-0.8943722,-1.426407E-08,NaN,-0.3238789,-1.350659E-07,NaN,0.4440941,2.689241E-08,NaN,-2.187993,1.338397E-05,-0.3633218,1.071805E-08,NaN,NaN,-0.02141089,-1.350428E-10,1.026838E-06,-1.134501E-07,1.45494E-08,-2.622604E-08
429.1234,-0.8731011,-1.426315E-08,NaN,-0.3237806,-1.350642E-07,NaN,0.4421624,2.683412E-08,NaN,-2.188229,1.33845E-05,-0.3638279,1.077825E-08,NaN,NaN,-0.02137972,-1.350428E-10,1.073926E-06,-1.134472E-07,7.396844E-09,-2.622604E-08
429.1381,-0.8731011,-1.426315E-08,NaN,-0.3237806,-1.350642E-07,NaN,0.4421624,2.683412E-08,NaN,-2.188229,1.33845E-05,-0.3638279,1.077825E-08,NaN,NaN,-0.02137972,-1.350428E-10,1.073926E-06,-1.134472E-07,7.396844E-09,-2.622604E-08
429.152,-0.8515124,-1.426223E-08,NaN,-0.3236793,-1.350624E-07,NaN,0.4402176,2.677851E-08,NaN,-2.188416,1.338503E-05,-0.3643744,1.083575E-08,NaN,NaN,-0.02134915,-1.396994E-10,1.125782E-06,-1.134444E-07,1.216522E-08,-2.622604E-08
429.1671,-0.8298141,-1.426131E-08,NaN,-0.3235758,-1.350606E-07,NaN,0.4383209,2.672695E-08,NaN,-2.188429,1.338555E-05,-0.3649367,1.088921E-08,NaN,NaN,-0.02131923,-1.396994E-10,1.176446E-06,-1.134416E-07,1.45494E-08,-2.622604E-08
429.1817,-0.8081378,-1.426039E-08,NaN,-0.3234713,-1.350589E-07,NaN,0.4364966,2.667937E-08,NaN,-2.188291,1.338609E-05,-0.3654906,1.09387E-08,NaN,NaN,-0.02129001,-1.44356E-10,1.223534E-06,-1.134388E-07,1.216522E-08,-2.622604E-08
429.1963,-0.8081378,-1.426039E-08,NaN,-0.3234713,-1.350589E-07,NaN,0.4364966,2.667937E-08,NaN,-2.188291,1.338609E-05,-0.3654906,1.09387E-08,NaN,NaN,-0.02129001,-1.44356E-10,1.223534E-06,-1.134388E-07,1.216522E-08,-2.622604E-08
429.2103,-0.7858382,-1.425947E-08,NaN,-0.3233646,-1.350571E-07,NaN,0.4345823,2.663426E-08,NaN,-2.188473,1.338661E-05,-0.366005,1.098571E-08,NaN,NaN,-0.02126111,-1.44356E-10,1.270026E-06,-1.13436E-07,1.693359E-08,-2.622604E-08
429.2255,-0.76324,-1.425855E-08,NaN,-0.3232552,-1.350553E-07,NaN,0.4326546,2.659299E-08,NaN,-2.188627,1.338714E-05,-0.3665581,1.102887E-08,NaN,NaN,-0.02123279,-1.490126E-10,1.318305E-06,-1.134332E-07,1.931777E-08,-2.622604E-08
429.2403,-0.7405486,-1.425763E-08,NaN,-0.3231439,-1.350536E-07,NaN,0.4307747,2.65555E-08,NaN,-2.18863,1.338767E-05,-0.3671262,1.106827E-08,NaN,NaN,-0.02120509,-1.490126E-10,1.364201E-06,-1.134305E-07,1.693359E-08,-2.622604E-08
429.2548,-0.7405486,-1.425763E-08,NaN,-0.3231439,-1.350536E-07,NaN,0.4307747,2.65555E-08,NaN,-2.18863,1.338767E-05,-0.3671262,1.106827E-08,NaN,NaN,-0.02120509,-1.490126E-10,1.364201E-06,-1.134305E-07,1.693359E-08,-2.622604E-08
429.269,-0.7171657,-1.425671E-08,NaN,-0.3230295,-1.350518E-07,NaN,0.428801,2.652028E-08,NaN,-2.188887,1.33882E-05,-0.3676673,1.110539E-08,NaN,NaN,-0.02117766,-1.536692E-10,1.411289E-06,-1.134277E-07,1.931777E-08,-2.622604E-08
429.2843,-0.6934459,-1.425579E-08,NaN,-0.3229116,-1.350501E-07,NaN,0.426819,2.648871E-08,NaN,-2.18905,1.338873E-05,-0.3682493,1.113886E-08,NaN,NaN,-0.02115078,-1.583258E-10,1.460164E-06,-1.13425E-07,1.931777E-08,-2.622604E-08
429.2991,-0.6934459,-1.425579E-08,NaN,-0.3229116,-1.350501E-07,NaN,0.426819,2.648871E-08,NaN,-2.18905,1.338873E-05,-0.3682493,1.113886E-08,NaN,NaN,-0.02115078,-1.583258E-10,1.460164E-06,-1.13425E-07,1.931777E-08,-2.622604E-08
429.3133,-0.6696134,-1.425487E-08,NaN,-0.322791,-1.350484E-07,NaN,0.4248919,2.646072E-08,NaN,-2.189019,1.338926E-05,-0.3688441,1.116875E-08,NaN,NaN,-0.02112451,-1.629824E-10,1.504868E-06,-1.134222E-07,1.693359E-08,-2.622604E-08
429.3286,-0.6458097,-1.425396E-08,NaN,-0.3226691,-1.350467E-07,NaN,0.4230433,2.643482E-08,NaN,-2.188839,1.338979E-05,-0.3694269,1.119654E-08,NaN,NaN,-0.02109888,-1.629824E-10,1.547485E-06,-1.134195E-07,1.693359E-08,-2.622604E-08
429.3435,-0.6215681,-1.425304E-08,NaN,-0.3225456,-1.350449E-07,NaN,0.4211487,2.641098E-08,NaN,-2.1889,1.339032E-05,-0.3699741,1.122228E-08,NaN,NaN,-0.02107363,-1.629824E-10,1.588612E-06,-1.134168E-07,1.693359E-08,-2.622604E-08
429.3579,-0.6215681,-1.425304E-08,NaN,-0.3225456,-1.350449E-07,NaN,0.4211487,2.641098E-08,NaN,-2.1889,1.339032E-05,-0.3699741,1.122228E-08,NaN,NaN,-0.02107363,-1.629824E-10,1.588612E-06,-1.134168E-07,1.693359E-08,-2.622604E-08
429.3741,-0.5971527,-1.425212E-08,NaN,-0.3224203,-1.350432E-07,NaN,0.4192652,2.639057E-08,NaN,-2.188952,1.339084E-05,-0.3705435,1.12446E-08,NaN,NaN,-0.02104891,-1.629824E-10,1.629144E-06,-1.13414E-07,1.693359E-08,-2.622604E-08
429.3883,-0.5727299,-1.42512E-08,NaN,-0.3222941,-1.350415E-07,NaN,0.417437,2.63721E-08,NaN,-2.188906,1.339137E-05,-0.3711182,1.126496E-08,NaN,NaN,-0.02102475,-1.67639E-10,1.667291E-06,-1.134113E-07,1.216522E-08,-2.622604E-08
429.402,-0.5484049,-1.425028E-08,NaN,-0.3221683,-1.350398E-07,NaN,0.4156803,2.635695E-08,NaN,-2.18877,1.33919E-05,-0.3716814,1.128201E-08,NaN,NaN,-0.02100115,-1.67639E-10,1.706332E-06,-1.134086E-07,1.45494E-08,-2.622604E-08
429.4179,-0.5484049,-1.425028E-08,NaN,-0.3221683,-1.350398E-07,NaN,0.4156803,2.635695E-08,NaN,-2.18877,1.33919E-05,-0.3716814,1.128201E-08,NaN,NaN,-0.02100115,-1.67639E-10,1.706332E-06,-1.134086E-07,1.45494E-08,-2.622604E-08
429.4307,-0.5242431,-1.424937E-08,NaN,-0.3220438,-1.350381E-07,NaN,0.4139966,2.634365E-08,NaN,-2.188591,1.339243E-05,-0.3722256,1.129721E-08,NaN,NaN,-0.02097814,-1.722956E-10,1.741796E-06,-1.13406E-07,1.693359E-08,-2.622604E-08
429.4463,-0.5002851,-1.424845E-08,NaN,-0.3219219,-1.350364E-07,NaN,0.4123811,2.633357E-08,NaN,-2.188415,1.339296E-05,-0.3727496,1.130919E-08,NaN,NaN,-0.02095569,-1.722956E-10,1.774579E-06,-1.134033E-07,1.693359E-08,-2.622604E-08
429.4608,-0.4765557,-1.424753E-08,NaN,-0.3218031,-1.350347E-07,NaN,0.4108283,2.632664E-08,NaN,-2.188264,1.339349E-05,-0.3732551,1.131802E-08,NaN,NaN,-0.02093377,-1.722956E-10,1.804977E-06,-1.134006E-07,1.45494E-08,-2.622604E-08
429.4754,-0.4765557,-1.424753E-08,NaN,-0.3218031,-1.350347E-07,NaN,0.4108283,2.632664E-08,NaN,-2.188264,1.339349E-05,-0.3732551,1.131802E-08,NaN,NaN,-0.02093377,-1.722956E-10,1.804977E-06,-1.134006E-07,1.45494E-08,-2.622604E-08
429.4895,-0.4530695,-1.424661E-08,NaN,-0.3216882,-1.35033E-07,NaN,0.4093328,2.632139E-08,NaN,-2.188146,1.339401E-05,-0.3737445,1.132516E-08,NaN,NaN,-0.02091235,-1.722956E-10,1.832991E-06,-1.13398E-07,1.216522E-08,-2.622604E-08
429.505,-0.4298346,-1.42457E-08,NaN,-0.3215775,-1.350314E-07,NaN,0.4078908,2.631921E-08,NaN,-2.188051,1.339454E-05,-0.3742201,1.132924E-08,NaN,NaN,-0.02089141,-1.722956E-10,1.858323E-06,-1.133953E-07,9.781031E-09,-2.622604E-08
429.5196,-0.4298346,-1.42457E-08,NaN,-0.3215775,-1.350314E-07,NaN,0.4078908,2.631921E-08,NaN,-2.188051,1.339454E-05,-0.3742201,1.132924E-08,NaN,NaN,-0.02089141,-1.722956E-10,1.858323E-06,-1.133953E-07,9.781031E-09,-2.622604E-08
429.5338,-0.4068552,-1.424478E-08,NaN,-0.3214713,-1.350297E-07,NaN,0.4064993,2.632002E-08,NaN,-2.18797,1.339507E-05,-0.3746832,1.133032E-08,NaN,NaN,-0.02087094,-1.722956E-10,1.883357E-06,-1.133927E-07,7.396845E-09,-2.622604E-08
429.5494,-0.3841328,-1.424386E-08,NaN,-0.3213697,-1.35028E-07,NaN,0.4051559,2.632236E-08,NaN,-2.187893,1.339559E-05,-0.3751344,1.132988E-08,NaN,NaN,-0.02085092,-1.67639E-10,1.906901E-06,-1.1339E-07,9.781031E-09,-2.622604E-08
429.5642,-0.3616672,-1.424295E-08,NaN,-0.3212729,-1.350263E-07,NaN,0.403859,2.632762E-08,NaN,-2.187815,1.339611E-05,-0.375574,1.132652E-08,NaN,NaN,-0.02083133,-1.67639E-10,1.927763E-06,-1.133874E-07,9.781031E-09,-2.622604E-08
429.5788,-0.3616672,-1.424295E-08,NaN,-0.3212729,-1.350263E-07,NaN,0.403859,2.632762E-08,NaN,-2.187815,1.339611E-05,-0.375574,1.132652E-08,NaN,NaN,-0.02083133,-1.67639E-10,1.927763E-06,-1.133874E-07,9.781031E-09,-2.622604E-08
429.5927,-0.3394574,-1.424203E-08,NaN,-0.3211808,-1.350247E-07,NaN,0.402607,2.633431E-08,NaN,-2.187735,1.339663E-05,-0.3760022,1.132173E-08,NaN,NaN,-0.02081219,-1.629824E-10,1.94773E-06,-1.133848E-07,5.01266E-09,-2.622604E-08
429.6082,-0.3175015,-1.424111E-08,NaN,-0.3210933,-1.35023E-07,NaN,0.4013987,2.634383E-08,NaN,-2.187654,1.339715E-05,-0.376419,1.131411E-08,NaN,NaN,-0.02079347,-1.536692E-10,1.969784E-06,-1.133822E-07,7.396845E-09,-2.622604E-08
429.6226,-0.2957973,-1.42402E-08,NaN,-0.3210105,-1.350214E-07,NaN,0.4002328,2.63547E-08,NaN,-2.187572,1.339767E-05,-0.3768246,1.130513E-08,NaN,NaN,-0.02077517,-1.490126E-10,1.98543E-06,-1.133796E-07,9.781031E-09,-2.622604E-08
429.6385,-0.2957973,-1.42402E-08,NaN,-0.3210105,-1.350214E-07,NaN,0.4002328,2.63547E-08,NaN,-2.187572,1.339767E-05,-0.3768246,1.130513E-08,NaN,NaN,-0.02077517,-1.490126E-10,1.98543E-06,-1.133796E-07,9.781031E-09,-2.622604E-08
429.6525,-0.280716,-1.423928E-08,NaN,-0.3209527,-1.350197E-07,NaN,0.4005691,2.636832E-08,NaN,-2.184016,1.339819E-05,-0.3773199,1.129341E-08,NaN,NaN,-0.02076049,-1.396993E-10,1.945048E-06,-1.13377E-07,2.628474E-09,-2.622604E-08
429.6669,-0.2698641,-1.423837E-08,NaN,-0.3209285,-1.350181E-07,NaN,0.4016712,2.638322E-08,NaN,-2.180704,1.339871E-05,-0.3772653,1.128041E-08,NaN,NaN,-0.02074731,-1.350427E-10,1.878738E-06,-1.133745E-07,2.628474E-09,-2.622604E-08
429.6815,-0.2617192,-1.423745E-08,NaN,-0.3209313,-1.350164E-07,NaN,0.402926,2.640077E-08,NaN,-2.178614,1.339923E-05,-0.3769431,1.126474E-08,NaN,NaN,-0.02073423,-1.303861E-10,1.809596E-06,-1.133719E-07,2.628474E-09,-2.622604E-08
429.6961,-0.2617192,-1.423745E-08,NaN,-0.3209313,-1.350164E-07,NaN,0.402926,2.640077E-08,NaN,-2.178614,1.339923E-05,-0.3769431,1.126474E-08,NaN,NaN,-0.02073423,-1.303861E-10,1.809596E-06,-1.133719E-07,2.628474E-09,-2.622604E-08
429.7101,-0.255312,-1.423654E-08,NaN,-0.320952,-1.350148E-07,NaN,0.404071,2.642095E-08,NaN,-2.177352,1.339975E-05,-0.3765983,1.124646E-08,NaN,NaN,-0.02072065,-1.257295E-10,1.757293E-06,-1.133693E-07,2.442881E-10,-2.622604E-08
429.7253,-0.2500253,-1.423562E-08,NaN,-0.3209857,-1.350132E-07,NaN,0.4050644,2.644227E-08,NaN,-2.176644,1.340027E-05,-0.3762951,1.122704E-08,NaN,NaN,-0.02070701,-1.210729E-10,1.713484E-06,-1.133668E-07,2.442881E-10,-2.622604E-08
429.7403,-0.2454658,-1.423471E-08,NaN,-0.3210281,-1.350116E-07,NaN,0.4059278,2.646613E-08,NaN,-2.1763,1.340079E-05,-0.37604,1.120507E-08,NaN,NaN,-0.02069346,-1.164163E-10,1.675784E-06,-1.133642E-07,-2.139898E-09,-2.622604E-08
429.7549,-0.2454658,-1.423471E-08,NaN,-0.3210281,-1.350116E-07,NaN,0.4059278,2.646613E-08,NaN,-2.1763,1.340079E-05,-0.37604,1.120507E-08,NaN,NaN,-0.02069346,-1.164163E-10,1.675784E-06,-1.133642E-07,-2.139898E-09,-2.622604E-08
429.7691,-0.2413831,-1.423379E-08,NaN,-0.3210762,-1.350099E-07,NaN,0.4066935,2.649107E-08,NaN,-2.17619,1.340132E-05,-0.3758243,1.118203E-08,NaN,NaN,-0.02068009,-1.117597E-10,1.640915E-06,-1.133617E-07,2.628474E-09,-2.622604E-08
429.7845,-0.2376555,-1.423288E-08,NaN,-0.3337322,-1.350083E-07,NaN,0.4064502,2.651707E-08,NaN,-2.179333,1.340184E-05,-0.379472,1.115793E-08,NaN,NaN,-0.02067576,-1.117597E-10,1.488476E-06,-1.133592E-07,-6.908269E-09,-2.622604E-08
429.7991,-0.2376555,-1.423288E-08,NaN,-0.3337322,-1.350083E-07,NaN,0.4064502,2.651707E-08,NaN,-2.179333,1.340184E-05,-0.379472,1.115793E-08,NaN,NaN,-0.02067576,-1.117597E-10,1.488476E-06,-1.133592E-07,-6.908269E-09,-2.622604E-08
429.8133,-0.2342512,-1.423197E-08,NaN,-0.3540078,-1.350067E-07,NaN,0.4068947,2.654551E-08,NaN,-2.183338,1.340237E-05,-0.3828638,1.113138E-08,NaN,NaN,-0.02067013,-1.117597E-10,1.361742E-06,-1.133567E-07,-9.292455E-09,-2.622604E-08
429.8288,-0.2311023,-1.423105E-08,NaN,-0.3788465,-1.350051E-07,NaN,0.4077294,2.657636E-08,NaN,-2.186854,1.340289E-05,-0.3856881,1.110243E-08,NaN,NaN,-0.0206623,-1.071031E-10,1.275986E-06,-1.133542E-07,-6.908269E-09,-2.622604E-08
429.8434,-0.2281423,-1.423014E-08,NaN,-0.4063683,-1.350035E-07,NaN,0.4086414,2.660814E-08,NaN,-2.188598,1.340341E-05,-0.3881861,1.107254E-08,NaN,NaN,-0.02065219,-1.024464E-10,1.234188E-06,-1.133517E-07,-2.139898E-09,-2.622604E-08
429.8579,-0.2281423,-1.423014E-08,NaN,-0.4063683,-1.350035E-07,NaN,0.4086414,2.660814E-08,NaN,-2.188598,1.340341E-05,-0.3881861,1.107254E-08,NaN,NaN,-0.02065219,-1.024464E-10,1.234188E-06,-1.133517E-07,-2.139898E-09,-2.622604E-08
429.8721,-0.2253155,-1.422922E-08,NaN,-0.4346578,-1.350019E-07,NaN,0.409625,2.664085E-08,NaN,-2.188524,1.340393E-05,-0.3901818,1.104173E-08,NaN,NaN,-0.02064092,-9.778983E-11,1.207366E-06,-1.133492E-07,2.442881E-10,-2.622604E-08
429.8873,-0.2225812,-1.422831E-08,NaN,-0.4632935,-1.350003E-07,NaN,0.4105676,2.667587E-08,NaN,-2.187558,1.340445E-05,-0.3919471,1.10086E-08,NaN,NaN,-0.02063015,-9.313322E-11,1.176893E-06,-1.133467E-07,2.628474E-09,-2.622604E-08
429.9037,-0.2199136,-1.42274E-08,NaN,-0.4920131,-1.349988E-07,NaN,0.4114736,2.671175E-08,NaN,-2.186484,1.340498E-05,-0.3935417,1.097462E-08,NaN,NaN,-0.02062016,-9.313322E-11,1.14113E-06,-1.133442E-07,-2.139898E-09,-2.622604E-08
429.9167,-0.2199136,-1.42274E-08,NaN,-0.4920131,-1.349988E-07,NaN,0.4114736,2.671175E-08,NaN,-2.186484,1.340498E-05,-0.3935417,1.097462E-08,NaN,NaN,-0.02062016,-9.313322E-11,1.14113E-06,-1.133442E-07,-2.139898E-09,-2.622604E-08
429.9311,-0.2172932,-1.422649E-08,NaN,-0.5198923,-1.349972E-07,NaN,0.4124048,2.674848E-08,NaN,-2.185532,1.34055E-05,-0.3947645,1.093979E-08,NaN,NaN,-0.0206102,-8.84766E-11,1.099407E-06,-1.133418E-07,2.442881E-10,-2.622604E-08
429.9463,-0.2147078,-1.422557E-08,NaN,-0.5471299,-1.349956E-07,NaN,0.4132482,2.678744E-08,NaN,-2.184998,1.340603E-05,-0.3959111,1.090273E-08,NaN,NaN,-0.02060078,-8.84766E-11,1.05366E-06,-1.133393E-07,2.442881E-10,-2.622604E-08
429.9606,-0.2121516,-1.422466E-08,NaN,-0.5738496,-1.34994E-07,NaN,0.4140174,2.682718E-08,NaN,-2.184857,1.340655E-05,-0.3970386,1.086488E-08,NaN,NaN,-0.02059169,-8.381999E-11,1.008361E-06,-1.133369E-07,-4.524083E-09,-2.622604E-08
429.9756,-0.2121516,-1.422466E-08,NaN,-0.5738496,-1.34994E-07,NaN,0.4140174,2.682718E-08,NaN,-2.184857,1.340655E-05,-0.3970386,1.086488E-08,NaN,NaN,-0.02059169,-8.381999E-11,1.008361E-06,-1.133369E-07,-4.524083E-09,-2.622604E-08
429.9893,-0.209622,-1.422375E-08,NaN,-0.6001287,-1.349925E-07,NaN,0.414735,2.686769E-08,NaN,-2.184946,1.340708E-05,-0.3981558,1.082627E-08,NaN,NaN,-0.02058273,-8.381999E-11,9.599321E-07,-1.133344E-07,-1.048455E-08,-2.622604E-08
430.0048,-0.2071132,-1.422284E-08,NaN,-0.6252548,-1.349909E-07,NaN,0.4154802,2.691036E-08,NaN,-2.184906,1.34076E-05,-0.3990175,1.07855E-08,NaN,NaN,-0.02057326,-7.916337E-11,9.250634E-07,-1.13332E-07,-6.908269E-09,-2.622604E-08
430.0194,-0.2071132,-1.422284E-08,NaN,-0.6252548,-1.349909E-07,NaN,0.4154802,2.691036E-08,NaN,-2.184906,1.34076E-05,-0.3990175,1.07855E-08,NaN,NaN,-0.02057326,-7.916337E-11,9.250634E-07,-1.13332E-07,-6.908269E-09,-2.622604E-08
430.0336,-0.2046228,-1.422192E-08,NaN,-0.6495591,-1.349893E-07,NaN,0.4161609,2.695374E-08,NaN,-2.184844,1.340812E-05,-0.3998666,1.074401E-08,NaN,NaN,-0.02056404,-7.916337E-11,8.890026E-07,-1.133296E-07,-3.33199E-09,-2.622604E-08
430.049,-0.202151,-1.422101E-08,NaN,-0.6732481,-1.349878E-07,NaN,0.4168009,2.699923E-08,NaN,-2.184804,1.340865E-05,-0.4007204,1.070042E-08,NaN,NaN,-0.02055511,-7.916337E-11,8.511536E-07,-1.133272E-07,-3.33199E-09,-2.622604E-08
430.0637,-0.1996988,-1.42201E-08,NaN,-0.6964506,-1.349863E-07,NaN,0.4174219,2.704537E-08,NaN,-2.184788,1.340918E-05,-0.4015652,1.065618E-08,NaN,NaN,-0.02054639,-7.916337E-11,8.150928E-07,-1.133248E-07,-3.33199E-09,-2.622604E-08
430.0786,-0.1996988,-1.42201E-08,NaN,-0.6964506,-1.349863E-07,NaN,0.4174219,2.704537E-08,NaN,-2.184788,1.340918E-05,-0.4015652,1.065618E-08,NaN,NaN,-0.02054639,-7.916337E-11,8.150928E-07,-1.133248E-07,-3.33199E-09,-2.622604E-08
430.0923,-0.197262,-1.421919E-08,NaN,-0.7184861,-1.349847E-07,NaN,0.4180948,2.709357E-08,NaN,-2.184589,1.34097E-05,-0.4021493,1.060988E-08,NaN,NaN,-0.02053727,-7.916337E-11,7.852905E-07,-1.133224E-07,-3.33199E-09,-2.622604E-08
430.1078,-0.1948393,-1.421828E-08,NaN,-0.7397065,-1.349832E-07,NaN,0.4187176,2.714237E-08,NaN,-2.184408,1.341023E-05,-0.4027181,1.056298E-08,NaN,NaN,-0.02052849,-7.916337E-11,7.542961E-07,-1.1332E-07,-3.33199E-09,-2.622604E-08
430.1224,-0.192432,-1.421737E-08,NaN,-0.7603304,-1.349816E-07,NaN,0.4193067,2.719317E-08,NaN,-2.184315,1.341076E-05,-0.4032943,1.051407E-08,NaN,NaN,-0.02052003,-7.916337E-11,7.227057E-07,-1.133176E-07,2.442886E-10,-2.622604E-08
430.1374,-0.192432,-1.421737E-08,NaN,-0.7603304,-1.349816E-07,NaN,0.4193067,2.719317E-08,NaN,-2.184315,1.341076E-05,-0.4032943,1.051407E-08,NaN,NaN,-0.02052003,-7.916337E-11,7.227057E-07,-1.133176E-07,2.442886E-10,-2.622604E-08
430.1513,-0.1900359,-1.421646E-08,NaN,-0.7797326,-1.349801E-07,NaN,0.4199388,2.724452E-08,NaN,-2.184107,1.341128E-05,-0.4036289,1.046462E-08,NaN,NaN,-0.02051123,-7.916337E-11,6.973737E-07,-1.133152E-07,-9.478043E-10,-2.622604E-08
430.1677,-0.1876502,-1.421555E-08,NaN,-0.7982996,-1.349786E-07,NaN,0.4205169,2.729641E-08,NaN,-2.183959,1.34118E-05,-0.4039652,1.041463E-08,NaN,NaN,-0.02050276,-7.450675E-11,6.675714E-07,-1.133129E-07,-9.478043E-10,-2.622604E-08
430.1813,-0.1852765,-1.421463E-08,NaN,-0.8162709,-1.349771E-07,NaN,0.4210601,2.735024E-08,NaN,-2.183911,1.341233E-05,-0.4043229,1.03627E-08,NaN,NaN,-0.02049459,-7.450675E-11,6.353849E-07,-1.133105E-07,-3.33199E-09,-2.622604E-08
430.1963,-0.1852765,-1.421463E-08,NaN,-0.8162709,-1.349771E-07,NaN,0.4210601,2.735024E-08,NaN,-2.183911,1.341233E-05,-0.4043229,1.03627E-08,NaN,NaN,-0.02049459,-7.450675E-11,6.353849E-07,-1.133105E-07,-3.33199E-09,-2.622604E-08
430.21,-0.1829173,-1.421372E-08,NaN,-0.8337958,-1.349755E-07,NaN,0.4215878,2.740456E-08,NaN,-2.183934,1.341286E-05,-0.4046901,1.031028E-08,NaN,NaN,-0.02048661,-7.450675E-11,6.037944E-07,-1.133082E-07,-3.33199E-09,-2.622604E-08
430.2252,-0.1805683,-1.421281E-08,NaN,-0.8502055,-1.34974E-07,NaN,0.4221685,2.746078E-08,NaN,-2.183787,1.341338E-05,-0.4048163,1.025596E-08,NaN,NaN,-0.02047821,-7.450675E-11,5.823368E-07,-1.133059E-07,-4.524083E-09,-2.622604E-08
430.2397,-0.1805683,-1.421281E-08,NaN,-0.8502055,-1.34974E-07,NaN,0.4221685,2.746078E-08,NaN,-2.183787,1.341338E-05,-0.4048163,1.025596E-08,NaN,NaN,-0.02047821,-7.450675E-11,5.823368E-07,-1.133059E-07,-4.524083E-09,-2.622604E-08
430.2539,-0.1782282,-1.42119E-08,NaN,-0.8658605,-1.349725E-07,NaN,0.4227002,2.751744E-08,NaN,-2.183649,1.34139E-05,-0.4049452,1.02012E-08,NaN,NaN,-0.02047012,-6.985014E-11,5.608791E-07,-1.133035E-07,-4.524083E-09,-2.622604E-08
430.2693,-0.1758987,-1.421099E-08,NaN,-0.8809834,-1.34971E-07,NaN,0.4232003,2.757454E-08,NaN,-2.183585,1.341443E-05,-0.405097,1.0146E-08,NaN,NaN,-0.02046233,-6.985014E-11,5.364412E-07,-1.133012E-07,-6.312222E-09,-2.622604E-08
430.2839,-0.1735824,-1.421008E-08,NaN,-0.8957128,-1.349695E-07,NaN,0.423687,2.763347E-08,NaN,-2.183586,1.341496E-05,-0.4052608,1.008896E-08,NaN,NaN,-0.02045474,-6.985014E-11,5.114073E-07,-1.132989E-07,-3.928037E-09,-2.622604E-08
430.2988,-0.1735824,-1.421008E-08,NaN,-0.8957128,-1.349695E-07,NaN,0.423687,2.763347E-08,NaN,-2.183586,1.341496E-05,-0.4052608,1.008896E-08,NaN,NaN,-0.02045474,-6.985014E-11,5.114073E-07,-1.132989E-07,-3.928037E-09,-2.622604E-08
430.3127,-0.1712746,-1.420918E-08,NaN,-0.909373,-1.34968E-07,NaN,0.4242271,2.76928E-08,NaN,-2.183423,1.341548E-05,-0.4051878,1.003154E-08,NaN,NaN,-0.02044673,-6.985014E-11,4.959101E-07,-1.132966E-07,-3.33199E-09,-2.622604E-08
430.3283,-0.1689736,-1.420827E-08,NaN,-0.9223205,-1.349665E-07,NaN,0.4247181,2.775392E-08,NaN,-2.183281,1.341601E-05,-0.4051228,9.972315E-09,NaN,NaN,-0.02043904,-6.985014E-11,4.744524E-07,-1.132943E-07,-9.478045E-10,-2.622604E-08
430.343,-0.1666813,-1.420736E-08,NaN,-0.9347752,-1.349651E-07,NaN,0.4251772,2.781538E-08,NaN,-2.18322,1.341654E-05,-0.4050867,9.912746E-09,NaN,NaN,-0.02043164,-6.985014E-11,4.541868E-07,-1.13292E-07,-1.543851E-09,-2.622604E-08
430.3577,-0.1666813,-1.420736E-08,NaN,-0.9347752,-1.349651E-07,NaN,0.4251772,2.781538E-08,NaN,-2.18322,1.341654E-05,-0.4050867,9.912746E-09,NaN,NaN,-0.02043164,-6.985014E-11,4.541868E-07,-1.13292E-07,-1.543851E-09,-2.622604E-08
430.3717,-0.1643933,-1.420645E-08,NaN,-0.9461115,-1.349636E-07,NaN,0.4256804,2.787719E-08,NaN,-2.183035,1.341706E-05,-0.4048307,9.852834E-09,NaN,NaN,-0.02042388,-6.985014E-11,4.398817E-07,-1.132897E-07,-3.33199E-09,-2.622604E-08
430.3885,-0.1621082,-1.420554E-08,NaN,-0.9567167,-1.349621E-07,NaN,0.4261305,2.794075E-08,NaN,-2.182903,1.341759E-05,-0.4045963,9.791174E-09,NaN,NaN,-0.02041646,-6.985014E-11,4.220003E-07,-1.132874E-07,-3.928037E-09,-2.622604E-08
430.402,-0.1598287,-1.420463E-08,NaN,-0.9668294,-1.349606E-07,NaN,0.4265478,2.800461E-08,NaN,-2.182869,1.341812E-05,-0.4044017,9.729214E-09,NaN,NaN,-0.02040933,-6.985014E-11,4.029268E-07,-1.132852E-07,-5.716176E-09,-2.622604E-08
430.4166,-0.1598287,-1.420463E-08,NaN,-0.9668294,-1.349606E-07,NaN,0.4265478,2.800461E-08,NaN,-2.182869,1.341812E-05,-0.4044017,9.729214E-09,NaN,NaN,-0.02040933,-6.985014E-11,4.029268E-07,-1.132852E-07,-5.716176E-09,-2.622604E-08
430.4326,-0.1575587,-1.420372E-08,NaN,-0.9765971,-1.349592E-07,NaN,0.4269527,2.806876E-08,NaN,-2.182905,1.341864E-05,-0.4042337,9.66696E-09,NaN,NaN,-0.02040237,-6.985014E-11,3.844494E-07,-1.132829E-07,-2.735944E-09,-2.622604E-08
430.4464,-0.1552939,-1.420281E-08,NaN,-0.9853492,-1.349577E-07,NaN,0.4274116,2.813461E-08,NaN,-2.182769,1.341917E-05,-0.4038429,9.603005E-09,NaN,NaN,-0.02039498,-6.985014E-11,3.719324E-07,-1.132807E-07,-9.478046E-10,-2.622604E-08
430.4605,-0.1530321,-1.42019E-08,NaN,-0.9934458,-1.349562E-07,NaN,0.4278222,2.820071E-08,NaN,-2.182645,1.34197E-05,-0.4034725,9.538797E-09,NaN,NaN,-0.0203879,-6.985014E-11,3.582233E-07,-1.132784E-07,2.442883E-10,-2.622604E-08
430.4751,-0.1530321,-1.42019E-08,NaN,-0.9934458,-1.349562E-07,NaN,0.4278222,2.820071E-08,NaN,-2.182645,1.34197E-05,-0.4034725,9.538797E-09,NaN,NaN,-0.0203879,-6.985014E-11,3.582233E-07,-1.132784E-07,2.442883E-10,-2.622604E-08
430.489,-0.150776,-1.4201E-08,NaN,-1.001108,-1.349548E-07,NaN,0.4282023,2.826566E-08,NaN,-2.182595,1.342022E-05,-0.4031417,9.475747E-09,NaN,NaN,-0.0203811,-6.985014E-11,3.41534E-07,-1.132762E-07,2.442883E-10,-2.622604E-08
430.5043,-0.1485296,-1.420009E-08,NaN,-1.008473,-1.349533E-07,NaN,0.4285712,2.833228E-08,NaN,-2.182611,1.342075E-05,-0.4028386,9.411015E-09,NaN,NaN,-0.02037449,-6.985014E-11,3.278249E-07,-1.13274E-07,-2.139898E-09,-2.622604E-08
430.5191,-0.1485296,-1.420009E-08,NaN,-1.008473,-1.349533E-07,NaN,0.4285712,2.833228E-08,NaN,-2.182611,1.342075E-05,-0.4028386,9.411015E-09,NaN,NaN,-0.02037449,-6.985014E-11,3.278249E-07,-1.13274E-07,-2.139898E-09,-2.622604E-08
430.5332,-0.1462884,-1.419918E-08,NaN,-1.014862,-1.349519E-07,NaN,0.4289946,2.839915E-08,NaN,-2.18246,1.342128E-05,-0.4023155,9.346044E-09,NaN,NaN,-0.02036745,-6.985014E-11,3.176921E-07,-1.132718E-07,-2.139898E-09,-2.622604E-08
430.5486,-0.1440497,-1.419827E-08,NaN,-1.020632,-1.349505E-07,NaN,0.4293691,2.846767E-08,NaN,-2.18233,1.34218E-05,-0.4018165,9.279424E-09,NaN,NaN,-0.02036073,-6.985014E-11,3.087514E-07,-1.132695E-07,-4.822106E-09,-2.622604E-08
430.5633,-0.1418164,-1.419736E-08,NaN,-1.026,-1.34949E-07,NaN,0.429713,2.853639E-08,NaN,-2.182283,1.342233E-05,-0.4013613,9.2126E-09,NaN,NaN,-0.02035428,-6.985014E-11,2.944463E-07,-1.132673E-07,-6.014199E-09,-2.622604E-08
430.5781,-0.1418164,-1.419736E-08,NaN,-1.026,-1.34949E-07,NaN,0.429713,2.853639E-08,NaN,-2.182283,1.342233E-05,-0.4013613,9.2126E-09,NaN,NaN,-0.02035428,-6.985014E-11,2.944463E-07,-1.132673E-07,-6.014199E-09,-2.622604E-08
430.5921,-0.1395845,-1.419646E-08,NaN,-1.03034,-1.349482E-07,NaN,0.4301017,2.798278E-08,NaN,-2.182109,1.342287E-05,-0.4007021,9.768096E-09,NaN,NaN,-0.02034746,-7.916336E-11,2.872938E-07,-1.132656E-07,-7.206292E-09,-2.861022E-08
430.6076,-0.1373519,-1.419555E-08,NaN,-1.034038,-1.349471E-07,NaN,0.4304379,2.771115E-08,NaN,-2.181989,1.342341E-05,-0.4000793,1.000027E-08,NaN,NaN,-0.02034097,-7.450675E-11,2.819293E-07,-1.132662E-07,-1.048455E-08,-2.622604E-08
430.6222,-0.1351225,-1.419464E-08,NaN,-1.037332,-1.349462E-07,NaN,0.4307422,2.743952E-08,NaN,-2.181948,1.342395E-05,-0.3995115,1.02022E-08,NaN,NaN,-0.02033474,-6.985013E-11,2.676242E-07,-1.132679E-07,-9.8885E-09,-2.861022E-08
430.6369,-0.1351225,-1.419464E-08,NaN,-1.037332,-1.349462E-07,NaN,0.4307422,2.743952E-08,NaN,-2.181948,1.342395E-05,-0.3995115,1.02022E-08,NaN,NaN,-0.02033474,-6.985013E-11,2.676242E-07,-1.132679E-07,-9.8885E-09,-2.861022E-08
430.6509,-0.1329014,-1.419374E-08,NaN,-1.040365,-1.349456E-07,NaN,0.4310367,2.716788E-08,NaN,-2.18196,1.342449E-05,-0.3989832,1.038171E-08,NaN,NaN,-0.02032866,-6.519352E-11,2.586835E-07,-1.132699E-07,-1.108059E-08,-2.622604E-08
430.6665,-0.1306849,-1.419283E-08,NaN,-1.042467,-1.349452E-07,NaN,0.4313881,2.689625E-08,NaN,-2.181806,1.342502E-05,-0.3982436,1.054455E-08,NaN,NaN,-0.02032217,-5.588029E-11,2.51531E-07,-1.13272E-07,-1.167664E-08,-2.861022E-08
430.681,-0.1284704,-1.419192E-08,NaN,-1.043996,-1.34945E-07,NaN,0.4316902,2.662462E-08,NaN,-2.181623,1.342556E-05,-0.3975413,1.069495E-08,NaN,NaN,-0.02031591,-4.656707E-11,2.437824E-07,-1.132742E-07,-1.048455E-08,-2.622604E-08
430.6968,-0.1284704,-1.419192E-08,NaN,-1.043996,-1.34945E-07,NaN,0.4316902,2.662462E-08,NaN,-2.181623,1.342556E-05,-0.3975413,1.069495E-08,NaN,NaN,-0.02031591,-4.656707E-11,2.437824E-07,-1.132742E-07,-1.048455E-08,-2.622604E-08
430.7108,-0.1262615,-1.419102E-08,NaN,-1.045173,-1.349448E-07,NaN,0.4319627,2.635299E-08,NaN,-2.181455,1.34261E-05,-0.3968937,1.0836E-08,NaN,NaN,-0.02030989,-3.259723E-11,2.39014E-07,-1.132764E-07,-1.108059E-08,-2.861022E-08
430.7251,-0.1240629,-1.419011E-08,NaN,-1.046131,-1.349447E-07,NaN,0.4322272,2.608136E-08,NaN,-2.181311,1.342665E-05,-0.3962848,1.097E-08,NaN,NaN,-0.02030405,-2.794062E-11,2.306694E-07,-1.132787E-07,-8.994431E-09,-2.622604E-08
430.7399,-0.1240629,-1.419011E-08,NaN,-1.046131,-1.349447E-07,NaN,0.4322272,2.608136E-08,NaN,-2.181311,1.342665E-05,-0.3962848,1.097E-08,NaN,NaN,-0.02030405,-2.794062E-11,2.306694E-07,-1.132787E-07,-8.994431E-09,-2.622604E-08
430.7537,-0.1218709,-1.41892E-08,NaN,-1.046191,-1.349446E-07,NaN,0.4325489,2.580973E-08,NaN,-2.18099,1.342719E-05,-0.3954661,1.109862E-08,NaN,NaN,-0.02029781,-9.314167E-12,2.288812E-07,-1.13281E-07,-9.590478E-09,-2.861022E-08
430.7689,-0.1196827,-1.418829E-08,NaN,-1.045711,-1.349445E-07,NaN,0.4328212,2.553809E-08,NaN,-2.180636,1.342773E-05,-0.3946881,1.122309E-08,NaN,NaN,-0.0202918,4.655671E-12,2.253049E-07,-1.132833E-07,-8.398385E-09,-2.622604E-08
430.7838,-0.1175165,-1.418739E-08,NaN,-1.044906,-1.349445E-07,NaN,0.4330746,2.526646E-08,NaN,-2.180293,1.342829E-05,-0.3939638,1.134432E-08,NaN,NaN,-0.02028603,9.312284E-12,2.199405E-07,-1.132856E-07,-7.504315E-09,-2.861022E-08
430.7984,-0.1175165,-1.418739E-08,NaN,-1.044906,-1.349445E-07,NaN,0.4330746,2.526646E-08,NaN,-2.180293,1.342829E-05,-0.3939638,1.134432E-08,NaN,NaN,-0.02028603,9.312284E-12,2.199405E-07,-1.132856E-07,-7.504315E-09,-2.861022E-08
430.8127,-0.1153729,-1.418648E-08,NaN,-1.043146,-1.349454E-07,NaN,0.4333845,2.542953E-08,NaN,-2.179775,1.342884E-05,-0.3930438,1.106165E-08,NaN,NaN,-0.02027989,9.312284E-12,2.235168E-07,-1.132851E-07,-7.206292E-09,-2.622604E-08
430.8279,-0.1132726,-1.418558E-08,NaN,-1.040817,-1.349459E-07,NaN,0.4336649,2.551281E-08,NaN,-2.179222,1.34294E-05,-0.3921677,1.088305E-08,NaN,NaN,-0.02027399,4.655671E-12,2.229208E-07,-1.132843E-07,-4.524083E-09,-2.861022E-08
430.8428,-0.1112195,-1.418467E-08,NaN,-1.038154,-1.349463E-07,NaN,0.4339328,2.556565E-08,NaN,-2.178686,1.342996E-05,-0.3913493,1.075432E-08,NaN,NaN,-0.02026832,4.655671E-12,2.223247E-07,-1.132832E-07,-7.355304E-09,-2.622604E-08
430.8586,-0.1112195,-1.418467E-08,NaN,-1.038154,-1.349463E-07,NaN,0.4339328,2.556565E-08,NaN,-2.178686,1.342996E-05,-0.3913493,1.075432E-08,NaN,NaN,-0.02026832,4.655671E-12,2.223247E-07,-1.132832E-07,-7.355304E-09,-2.622604E-08
430.8715,-0.1092105,-1.418376E-08,NaN,-1.035301,-1.349465E-07,NaN,0.4342017,2.560485E-08,NaN,-2.178182,1.343051E-05,-0.3905731,1.065478E-08,NaN,NaN,-0.02026283,4.655671E-12,2.205366E-07,-1.132821E-07,-5.716176E-09,-2.861022E-08
430.887,-0.1072328,-1.418286E-08,NaN,-1.031583,-1.349467E-07,NaN,0.4345285,2.564057E-08,NaN,-2.177509,1.343107E-05,-0.3895964,1.057115E-08,NaN,NaN,-0.02025695,-9.419548E-16,2.241129E-07,-1.13281E-07,-5.12013E-09,-2.622604E-08
430.9016,-0.1052994,-1.418195E-08,NaN,-1.027357,-1.349468E-07,NaN,0.4348212,2.567627E-08,NaN,-2.176805,1.343163E-05,-0.3886625,1.049749E-08,NaN,NaN,-0.02025128,-4.657555E-12,2.26497E-07,-1.132798E-07,-3.630014E-09,-2.861022E-08
430.9165,-0.1052994,-1.418195E-08,NaN,-1.027357,-1.349468E-07,NaN,0.4348212,2.567627E-08,NaN,-2.176805,1.343163E-05,-0.3886625,1.049749E-08,NaN,NaN,-0.02025128,-4.657555E-12,2.26497E-07,-1.132798E-07,-3.630014E-09,-2.861022E-08
430.9304,-0.1034104,-1.418105E-08,NaN,-1.022843,-1.349469E-07,NaN,0.4350953,2.571297E-08,NaN,-2.176122,1.343219E-05,-0.3877878,1.043079E-08,NaN,NaN,-0.02024585,-9.314167E-12,2.270931E-07,-1.132786E-07,-4.971118E-09,-2.622604E-08
430.9478,-0.1015614,-1.418014E-08,NaN,-1.018173,-1.349469E-07,NaN,0.4353656,2.575345E-08,NaN,-2.175472,1.343274E-05,-0.386958,1.036669E-08,NaN,NaN,-0.02024059,-9.314167E-12,2.25901E-07,-1.132774E-07,-2.735944E-09,-2.861022E-08
430.9614,-0.09973946,-1.417923E-08,NaN,-1.012666,-1.349466E-07,NaN,0.4356888,2.564294E-08,NaN,-2.174657,1.343328E-05,-0.3859336,1.045866E-08,NaN,NaN,-0.02023494,4.655671E-12,2.318614E-07,-1.132772E-07,-2.437921E-09,-2.622604E-08
430.9753,-0.09973946,-1.417923E-08,NaN,-1.012666,-1.349466E-07,NaN,0.4356888,2.564294E-08,NaN,-2.174657,1.343328E-05,-0.3859336,1.045866E-08,NaN,NaN,-0.02023494,4.655671E-12,2.318614E-07,-1.132772E-07,-2.437921E-09,-2.622604E-08
430.989,-0.09795666,-1.417833E-08,NaN,-1.006676,-1.349462E-07,NaN,0.4359748,2.555817E-08,NaN,-2.173814,1.343385E-05,-0.3849557,1.052898E-08,NaN,NaN,-0.02022952,4.655671E-12,2.354377E-07,-1.13277E-07,-2.437921E-09,-2.861022E-08
431.0043,-0.09621313,-1.417742E-08,NaN,-1.000418,-1.349459E-07,NaN,0.4362403,2.548802E-08,NaN,-2.172995,1.343441E-05,-0.3840399,1.058793E-08,NaN,NaN,-0.02022433,1.39689E-11,2.366298E-07,-1.132768E-07,-1.39484E-09,-2.622604E-08
431.0188,-0.09621313,-1.417742E-08,NaN,-1.000418,-1.349459E-07,NaN,0.4362403,2.548802E-08,NaN,-2.172995,1.343441E-05,-0.3840399,1.058793E-08,NaN,NaN,-0.02022433,1.39689E-11,2.366298E-07,-1.132768E-07,-1.39484E-09,-2.622604E-08
431.033,-0.09449697,-1.417652E-08,NaN,-0.9932624,-1.349457E-07,NaN,0.4365506,2.5426E-08,NaN,-2.172014,1.343497E-05,-0.3829468,1.064137E-08,NaN,NaN,-0.02021881,2.328212E-11,2.443784E-07,-1.132767E-07,-1.39484E-09,-2.861022E-08
431.0484,-0.09281945,-1.417561E-08,NaN,-0.9855928,-1.349455E-07,NaN,0.4368216,2.537004E-08,NaN,-2.171014,1.343553E-05,-0.3819105,1.069082E-08,NaN,NaN,-0.02021353,2.793873E-11,2.497428E-07,-1.132766E-07,-2.586932E-09,-2.622604E-08
431.063,-0.09117993,-1.417471E-08,NaN,-0.9776437,-1.349452E-07,NaN,0.4370718,2.531826E-08,NaN,-2.170046,1.343609E-05,-0.380943,1.073777E-08,NaN,NaN,-0.02020848,3.259535E-11,2.545112E-07,-1.132764E-07,-4.375072E-09,-2.861022E-08
431.0778,-0.09117993,-1.417471E-08,NaN,-0.9776437,-1.349452E-07,NaN,0.4370718,2.531826E-08,NaN,-2.170046,1.343609E-05,-0.380943,1.073777E-08,NaN,NaN,-0.02020848,3.259535E-11,2.545112E-07,-1.132764E-07,-4.375072E-09,-2.861022E-08
431.0916,-0.08957401,-1.41738E-08,NaN,-0.9695582,-1.34945E-07,NaN,0.4373168,2.527028E-08,NaN,-2.169122,1.343666E-05,-0.3800279,1.078226E-08,NaN,NaN,-0.0202036,3.725196E-11,2.580875E-07,-1.132763E-07,-3.182979E-09,-2.622604E-08
431.1072,-0.08798924,-1.417289E-08,NaN,-0.960662,-1.349448E-07,NaN,0.4376104,2.522436E-08,NaN,-2.168043,1.343722E-05,-0.378932,1.082576E-08,NaN,NaN,-0.02019837,4.190857E-11,2.676242E-07,-1.132762E-07,-4.971118E-09,-2.861022E-08
431.1218,-0.08643632,-1.417199E-08,NaN,-0.9513116,-1.349445E-07,NaN,0.4378655,2.518168E-08,NaN,-2.166946,1.343779E-05,-0.37789,1.086687E-08,NaN,NaN,-0.02019337,4.656518E-11,2.712005E-07,-1.132761E-07,-3.481002E-09,-2.622604E-08
431.1366,-0.08643632,-1.417199E-08,NaN,-0.9513116,-1.349445E-07,NaN,0.4378655,2.518168E-08,NaN,-2.166946,1.343779E-05,-0.37789,1.086687E-08,NaN,NaN,-0.02019337,4.656518E-11,2.712005E-07,-1.132761E-07,-3.481002E-09,-2.622604E-08
431.1507,-0.08491523,-1.417108E-08,NaN,-0.9417246,-1.349443E-07,NaN,0.4380991,2.514062E-08,NaN,-2.165881,1.343835E-05,-0.3769155,1.090704E-08,NaN,NaN,-0.0201886,5.122179E-11,2.717966E-07,-1.13276E-07,-2.027467E-10,-2.861022E-08
431.1661,-0.08342256,-1.417018E-08,NaN,-0.9320342,-1.349441E-07,NaN,0.4383265,2.510102E-08,NaN,-2.164861,1.343892E-05,-0.3759937,1.09463E-08,NaN,NaN,-0.02018399,5.587841E-11,2.753728E-07,-1.132759E-07,-7.987931E-10,-2.622604E-08
431.1811,-0.08194715,-1.416927E-08,NaN,-0.9215601,-1.349439E-07,NaN,0.4385996,2.506276E-08,NaN,-2.163686,1.343949E-05,-0.3748965,1.098467E-08,NaN,NaN,-0.02017904,6.053502E-11,2.837175E-07,-1.132758E-07,3.932997E-10,-2.861022E-08
431.1954,-0.08194715,-1.416927E-08,NaN,-0.9215601,-1.349439E-07,NaN,0.4385996,2.506276E-08,NaN,-2.163686,1.343949E-05,-0.3748965,1.098467E-08,NaN,NaN,-0.02017904,6.053502E-11,2.837175E-07,-1.132758E-07,3.932997E-10,-2.861022E-08
431.2096,-0.08049928,-1.416836E-08,NaN,-0.9106543,-1.349437E-07,NaN,0.4388334,2.502573E-08,NaN,-2.162494,1.344007E-05,-0.3738552,1.102215E-08,NaN,NaN,-0.02017431,6.053502E-11,2.896779E-07,-1.132757E-07,3.075509E-09,-2.622604E-08
431.2259,-0.0790793,-1.416746E-08,NaN,-0.8995321,-1.349435E-07,NaN,0.4390455,2.498984E-08,NaN,-2.161336,1.344065E-05,-0.3728826,1.105877E-08,NaN,NaN,-0.02016981,6.053502E-11,2.956384E-07,-1.132756E-07,4.267601E-09,-2.861022E-08
431.2395,-0.0790793,-1.416746E-08,NaN,-0.8995321,-1.349435E-07,NaN,0.4390455,2.498984E-08,NaN,-2.161336,1.344065E-05,-0.3728826,1.105877E-08,NaN,NaN,-0.02016981,6.053502E-11,2.956384E-07,-1.132756E-07,4.267601E-09,-2.861022E-08
431.2536,-0.07768435,-1.416655E-08,NaN,-0.8883251,-1.349433E-07,NaN,0.439251,2.495502E-08,NaN,-2.160226,1.344122E-05,-0.371964,1.109455E-08,NaN,NaN,-0.02016547,6.053502E-11,2.980226E-07,-1.132754E-07,3.373532E-09,-2.622604E-08
431.2691,-0.07631117,-1.416564E-08,NaN,-0.8771141,-1.349431E-07,NaN,0.4394559,2.492121E-08,NaN,-2.159163,1.34418E-05,-0.3710876,1.112949E-08,NaN,NaN,-0.02016126,6.053502E-11,3.021949E-07,-1.132753E-07,3.969578E-09,-2.861022E-08
431.2834,-0.07495701,-1.416474E-08,NaN,-0.8659484,-1.349428E-07,NaN,0.4396616,2.488836E-08,NaN,-2.158141,1.344238E-05,-0.3702462,1.116362E-08,NaN,NaN,-0.02015717,6.053502E-11,3.057712E-07,-1.132752E-07,4.565624E-09,-2.622604E-08
431.2982,-0.07495701,-1.416474E-08,NaN,-0.8659484,-1.349428E-07,NaN,0.4396616,2.488836E-08,NaN,-2.158141,1.344238E-05,-0.3702462,1.116362E-08,NaN,NaN,-0.02015717,6.053502E-11,3.057712E-07,-1.132752E-07,4.565624E-09,-2.622604E-08
431.3123,-0.07361978,-1.416383E-08,NaN,-0.8548581,-1.349426E-07,NaN,0.4398676,2.485783E-08,NaN,-2.157157,1.344295E-05,-0.3694358,1.119554E-08,NaN,NaN,-0.02015318,6.984825E-11,3.099435E-07,-1.132751E-07,5.161671E-09,-2.861022E-08
431.3276,-0.07230476,-1.416292E-08,NaN,-0.8446232,-1.349424E-07,NaN,0.4400305,2.49253E-08,NaN,-2.156404,1.344352E-05,-0.3688619,1.112956E-08,NaN,NaN,-0.02014975,6.984825E-11,3.099435E-07,-1.13275E-07,2.777485E-09,-2.622604E-08
431.347,-0.07099966,-1.416201E-08,NaN,-0.8349536,-1.349422E-07,NaN,0.4402324,2.499167E-08,NaN,-2.155737,1.344409E-05,-0.3682918,1.106474E-08,NaN,NaN,-0.02014631,6.984825E-11,3.093475E-07,-1.132749E-07,-5.007705E-10,-2.861022E-08
431.3569,-0.07099966,-1.416201E-08,NaN,-0.8349536,-1.349422E-07,NaN,0.4402324,2.499167E-08,NaN,-2.155737,1.344409E-05,-0.3682918,1.106474E-08,NaN,NaN,-0.02014631,6.984825E-11,3.093475E-07,-1.132749E-07,-5.007705E-10,-2.861022E-08
431.3709,-0.06970134,-1.416111E-08,NaN,-0.8256708,-1.34942E-07,NaN,0.4404544,2.505694E-08,NaN,-2.155095,1.344466E-05,-0.3677091,1.100108E-08,NaN,NaN,-0.02014285,6.984825E-11,3.099435E-07,-1.132748E-07,-7.987938E-10,-2.622604E-08
431.3865,-0.06841002,-1.41602E-08,NaN,-0.8166647,-1.349418E-07,NaN,0.4406804,2.512113E-08,NaN,-2.15446,1.344522E-05,-0.3671246,1.093856E-08,NaN,NaN,-0.02013942,7.450486E-11,3.117317E-07,-1.132747E-07,9.893455E-10,-2.861022E-08
431.4012,-0.06713334,-1.415929E-08,NaN,-0.8086285,-1.349416E-07,NaN,0.4408623,2.518425E-08,NaN,-2.154029,1.344577E-05,-0.3667524,1.087714E-08,NaN,NaN,-0.02013651,8.84747E-11,3.039831E-07,-1.132746E-07,1.585392E-09,-2.622604E-08
431.4159,-0.06713334,-1.415929E-08,NaN,-0.8086285,-1.349416E-07,NaN,0.4408623,2.518425E-08,NaN,-2.154029,1.344577E-05,-0.3667524,1.087714E-08,NaN,NaN,-0.02013651,8.84747E-11,3.039831E-07,-1.132746E-07,1.585392E-09,-2.622604E-08
431.43,-0.06586253,-1.415838E-08,NaN,-0.8012194,-1.349414E-07,NaN,0.4410794,2.524489E-08,NaN,-2.153657,1.344634E-05,-0.3663698,1.081822E-08,NaN,NaN,-0.02013355,8.84747E-11,2.998107E-07,-1.132745E-07,1.585392E-09,-2.861022E-08
431.4458,-0.0645962,-1.415748E-08,NaN,-0.7942259,-1.349412E-07,NaN,0.4413135,2.530451E-08,NaN,-2.153291,1.34469E-05,-0.3659642,1.076035E-08,NaN,NaN,-0.02013057,1.024445E-10,2.956384E-07,-1.132744E-07,2.181438E-09,-2.622604E-08
431.4601,-0.06333558,-1.415657E-08,NaN,-0.7875171,-1.34941E-07,NaN,0.4415494,2.536455E-08,NaN,-2.152917,1.344746E-05,-0.3655486,1.070208E-08,NaN,NaN,-0.0201276,1.071012E-10,2.90274E-07,-1.132743E-07,2.777485E-09,-2.861022E-08
431.477,-0.06333558,-1.415657E-08,NaN,-0.7875171,-1.34941E-07,NaN,0.4415494,2.536455E-08,NaN,-2.152917,1.344746E-05,-0.3655486,1.070208E-08,NaN,NaN,-0.0201276,1.071012E-10,2.90274E-07,-1.132743E-07,2.777485E-09,-2.861022E-08
431.4897,-0.06208863,-1.415566E-08,NaN,-0.7817735,-1.349408E-07,NaN,0.4417403,2.542358E-08,NaN,-2.152734,1.344803E-05,-0.3653364,1.064484E-08,NaN,NaN,-0.02012512,1.071012E-10,2.825253E-07,-1.132742E-07,2.777485E-09,-2.622604E-08
431.5043,-0.06084788,-1.415475E-08,NaN,-0.776645,-1.349406E-07,NaN,0.4419656,2.565693E-08,NaN,-2.1526,1.344859E-05,-0.3651075,1.041328E-08,NaN,NaN,-0.02012259,1.117578E-10,2.753728E-07,-1.132741E-07,2.777485E-09,-2.861022E-08
431.5187,-0.06084788,-1.415475E-08,NaN,-0.776645,-1.349406E-07,NaN,0.4419656,2.565693E-08,NaN,-2.1526,1.344859E-05,-0.3651075,1.041328E-08,NaN,NaN,-0.02012259,1.117578E-10,2.753728E-07,-1.132741E-07,2.777485E-09,-2.861022E-08
431.5327,-0.05961216,-1.415385E-08,NaN,-0.7719152,-1.349404E-07,NaN,0.442207,2.588587E-08,NaN,-2.152465,1.344915E-05,-0.3648504,1.018614E-08,NaN,NaN,-0.02012002,1.257276E-10,2.706044E-07,-1.132739E-07,9.893456E-10,-2.622604E-08
431.5483,-0.05838863,-1.415294E-08,NaN,-0.7682119,-1.349402E-07,NaN,0.4424092,2.611049E-08,NaN,-2.152514,1.344971E-05,-0.3647813,9.963335E-09,NaN,NaN,-0.02011789,1.257276E-10,2.604716E-07,-1.132738E-07,-2.027473E-10,-2.861022E-08
431.5628,-0.05717036,-1.415203E-08,NaN,-0.7651527,-1.3494E-07,NaN,0.4426465,2.633088E-08,NaN,-2.152602,1.345028E-05,-0.3646854,9.744772E-09,NaN,NaN,-0.0201157,1.257276E-10,2.515309E-07,-1.132737E-07,-2.027473E-10,-2.622604E-08
431.5774,-0.05717036,-1.415203E-08,NaN,-0.7651527,-1.3494E-07,NaN,0.4426465,2.633088E-08,NaN,-2.152602,1.345028E-05,-0.3646854,9.744772E-09,NaN,NaN,-0.0201157,1.257276E-10,2.515309E-07,-1.132737E-07,-2.027473E-10,-2.622604E-08
431.5914,-0.05595645,-1.415112E-08,NaN,-0.7625011,-1.349398E-07,NaN,0.4428995,2.65471E-08,NaN,-2.152678,1.345085E-05,-0.364554,9.53037E-09,NaN,NaN,-0.02011344,1.303842E-10,2.443784E-07,-1.132736E-07,-2.027473E-10,-2.861022E-08
431.6068,-0.05474824,-1.415022E-08,NaN,-0.7601107,-1.349396E-07,NaN,0.4431531,2.675925E-08,NaN,-2.152728,1.345142E-05,-0.3644015,9.320047E-09,NaN,NaN,-0.02011118,1.303842E-10,2.384179E-07,-1.132735E-07,-7.987937E-10,-2.622604E-08
431.6214,-0.05355346,-1.414931E-08,NaN,-0.7586526,-1.349394E-07,NaN,0.4433607,2.69674E-08,NaN,-2.152955,1.345198E-05,-0.3644421,9.113725E-09,NaN,NaN,-0.02010938,1.303842E-10,2.26497E-07,-1.132734E-07,-2.586933E-09,-2.861022E-08
431.6362,-0.05355346,-1.414931E-08,NaN,-0.7586526,-1.349394E-07,NaN,0.4433607,2.69674E-08,NaN,-2.152955,1.345198E-05,-0.3644421,9.113725E-09,NaN,NaN,-0.02010938,1.303842E-10,2.26497E-07,-1.132734E-07,-2.586933E-09,-2.861022E-08
431.6503,-0.05236571,-1.41484E-08,NaN,-0.7577715,-1.349392E-07,NaN,0.4436021,2.717163E-08,NaN,-2.153219,1.345255E-05,-0.3644575,8.911324E-09,NaN,NaN,-0.02010751,1.303842E-10,2.14278E-07,-1.132733E-07,-1.990887E-09,-2.622604E-08
431.666,-0.05118385,-1.414749E-08,NaN,-0.7572475,-1.34939E-07,NaN,0.4438594,2.737202E-08,NaN,-2.153467,1.345312E-05,-0.3644364,8.712769E-09,NaN,NaN,-0.02010558,1.303842E-10,2.056354E-07,-1.132732E-07,-4.971119E-09,-2.861022E-08
431.6805,-0.05000879,-1.414658E-08,NaN,-0.7569446,-1.349388E-07,NaN,0.4441182,2.756864E-08,NaN,-2.153688,1.345369E-05,-0.364392,8.517984E-09,NaN,NaN,-0.02010364,1.303842E-10,1.978868E-07,-1.132731E-07,-3.779026E-09,-2.622604E-08
431.6951,-0.05000879,-1.414658E-08,NaN,-0.7569446,-1.349388E-07,NaN,0.4441182,2.756864E-08,NaN,-2.153688,1.345369E-05,-0.364392,8.517984E-09,NaN,NaN,-0.02010364,1.303842E-10,1.978868E-07,-1.132731E-07,-3.779026E-09,-2.622604E-08
431.7092,-0.0488478,-1.414567E-08,NaN,-0.7575366,-1.349386E-07,NaN,0.4443316,2.776157E-08,NaN,-2.154083,1.345426E-05,-0.3645376,8.326893E-09,NaN,NaN,-0.02010215,1.303842E-10,1.856678E-07,-1.13273E-07,-4.375072E-09,-2.861022E-08
431.7245,-0.04770089,-1.414476E-08,NaN,-0.758677,-1.349384E-07,NaN,0.4445822,2.795088E-08,NaN,-2.154509,1.345483E-05,-0.3646556,8.139422E-09,NaN,NaN,-0.0201006,1.303842E-10,1.75535E-07,-1.132729E-07,-3.182979E-09,-2.622604E-08
431.7392,-0.04770089,-1.414476E-08,NaN,-0.758677,-1.349384E-07,NaN,0.4445822,2.795088E-08,NaN,-2.154509,1.345483E-05,-0.3646556,8.139422E-09,NaN,NaN,-0.0201006,1.303842E-10,1.75535E-07,-1.132729E-07,-3.182979E-09,-2.622604E-08
431.7553,-0.04656962,-1.414386E-08,NaN,-0.7601482,-1.349382E-07,NaN,0.4448532,2.813663E-08,NaN,-2.154913,1.345539E-05,-0.364733,7.955504E-09,NaN,NaN,-0.02009897,1.303842E-10,1.657003E-07,-1.132728E-07,-1.990887E-09,-2.861022E-08
431.7689,-0.04545991,-1.414295E-08,NaN,-0.7625772,-1.34938E-07,NaN,0.4450866,2.831891E-08,NaN,-2.155487,1.345596E-05,-0.3649882,7.775068E-09,NaN,NaN,-0.02009775,1.303842E-10,1.516932E-07,-1.132727E-07,-7.987937E-10,-2.622604E-08
431.7833,-0.04437106,-1.414204E-08,NaN,-0.7655826,-1.349378E-07,NaN,0.4453606,2.849918E-08,NaN,-2.156082,1.345653E-05,-0.3652056,7.596634E-09,NaN,NaN,-0.02009645,1.303842E-10,1.397723E-07,-1.132726E-07,-7.987937E-10,-2.861022E-08
431.7979,-0.04437106,-1.414204E-08,NaN,-0.7655826,-1.349378E-07,NaN,0.4453606,2.849918E-08,NaN,-2.156082,1.345653E-05,-0.3652056,7.596634E-09,NaN,NaN,-0.02009645,1.303842E-10,1.397723E-07,-1.132726E-07,-7.987937E-10,-2.861022E-08
431.812,-0.0433012,-1.414113E-08,NaN,-0.768928,-1.349376E-07,NaN,0.4456544,2.867608E-08,NaN,-2.156646,1.34571E-05,-0.3653758,7.42157E-09,NaN,NaN,-0.02009505,1.303842E-10,1.299375E-07,-1.132725E-07,-3.779026E-09,-2.622604E-08
431.8291,-0.04224834,-1.414022E-08,NaN,-0.772467,-1.349374E-07,NaN,0.445951,2.884967E-08,NaN,-2.15717,1.345767E-05,-0.3655139,7.249819E-09,NaN,NaN,-0.02009362,1.303842E-10,1.198047E-07,-1.132724E-07,-6.759258E-09,-2.861022E-08
431.8419,-0.04121675,-1.413931E-08,NaN,-0.7768707,-1.349372E-07,NaN,0.4462002,2.902002E-08,NaN,-2.157859,1.345824E-05,-0.3658392,7.081312E-09,NaN,NaN,-0.02009265,1.303842E-10,1.066917E-07,-1.132723E-07,-6.759258E-09,-2.622604E-08
431.8565,-0.04121675,-1.413931E-08,NaN,-0.7768707,-1.349372E-07,NaN,0.4462002,2.902002E-08,NaN,-2.157859,1.345824E-05,-0.3658392,7.081312E-09,NaN,NaN,-0.02009265,1.303842E-10,1.066917E-07,-1.132723E-07,-6.759258E-09,-2.622604E-08
431.8706,-0.04020452,-1.41384E-08,NaN,-0.7817854,-1.34937E-07,NaN,0.4464866,2.918719E-08,NaN,-2.158568,1.345881E-05,-0.3661304,6.915983E-09,NaN,NaN,-0.02009158,1.303842E-10,9.268458E-08,-1.132722E-07,-6.163212E-09,-2.861022E-08
431.8861,-0.03920934,-1.413749E-08,NaN,-0.7869915,-1.349368E-07,NaN,0.4467922,2.935124E-08,NaN,-2.159249,1.345937E-05,-0.3663751,6.753773E-09,NaN,NaN,-0.02009042,1.303842E-10,8.046563E-08,-1.132721E-07,-5.567165E-09,-2.622604E-08
431.9008,-0.0382292,-1.413658E-08,NaN,-0.7923535,-1.349366E-07,NaN,0.4471008,2.951223E-08,NaN,-2.159889,1.345994E-05,-0.3665867,6.594621E-09,NaN,NaN,-0.02008922,1.303842E-10,6.973679E-08,-1.13272E-07,-7.355305E-09,-2.861022E-08
431.9156,-0.0382292,-1.413658E-08,NaN,-0.7923535,-1.349366E-07,NaN,0.4471008,2.951223E-08,NaN,-2.159889,1.345994E-05,-0.3665867,6.594621E-09,NaN,NaN,-0.02008922,1.303842E-10,6.973679E-08,-1.13272E-07,-7.355305E-09,-2.861022E-08
431.9298,-0.03726864,-1.413567E-08,NaN,-0.7985489,-1.349364E-07,NaN,0.4473611,2.967024E-08,NaN,-2.160692,1.346051E-05,-0.3669866,6.438462E-09,NaN,NaN,-0.02008848,1.303842E-10,5.513365E-08,-1.132719E-07,-4.375073E-09,-2.622604E-08
431.9453,-0.03632548,-1.413476E-08,NaN,-0.8052284,-1.349363E-07,NaN,0.4476592,2.98253E-08,NaN,-2.161516,1.346108E-05,-0.367351,6.285244E-09,NaN,NaN,-0.02008763,1.303842E-10,4.231866E-08,-1.132718E-07,-1.394841E-09,-2.861022E-08
431.9597,-0.03632548,-1.413476E-08,NaN,-0.8052284,-1.349363E-07,NaN,0.4476592,2.98253E-08,NaN,-2.161516,1.346108E-05,-0.367351,6.285244E-09,NaN,NaN,-0.02008763,1.303842E-10,4.231866E-08,-1.132718E-07,-1.394841E-09,-2.861022E-08
431.9734,-0.03539749,-1.413385E-08,NaN,-0.8121751,-1.349361E-07,NaN,0.4479772,2.997748E-08,NaN,-2.162309,1.346165E-05,-0.3676666,6.134903E-09,NaN,NaN,-0.0200867,1.303842E-10,3.188784E-08,-1.132717E-07,-2.027478E-10,-2.622604E-08
431.9891,-0.03448913,-1.413294E-08,NaN,-0.8200168,-1.349359E-07,NaN,0.4482532,3.012684E-08,NaN,-2.163262,1.346222E-05,-0.3681595,5.987391E-09,NaN,NaN,-0.02008618,1.303842E-10,1.668866E-08,-1.132716E-07,-1.394841E-09,-2.861022E-08
432.0035,-0.03359762,-1.413203E-08,NaN,-0.8283731,-1.349357E-07,NaN,0.4485689,3.027343E-08,NaN,-2.164227,1.346278E-05,-0.3686089,5.842645E-09,NaN,NaN,-0.02008555,1.303842E-10,3.575638E-09,-1.132715E-07,-1.990887E-09,-2.622604E-08
432.0191,-0.03359762,-1.413203E-08,NaN,-0.8283731,-1.349357E-07,NaN,0.4485689,3.027343E-08,NaN,-2.164227,1.346278E-05,-0.3686089,5.842645E-09,NaN,NaN,-0.02008555,1.303842E-10,3.575638E-09,-1.132715E-07,-1.990887E-09,-2.622604E-08
432.0332,-0.03272048,-1.413112E-08,NaN,-0.8370083,-1.349355E-07,NaN,0.4489047,3.04173E-08,NaN,-2.165154,1.346335E-05,-0.3690036,5.700612E-09,NaN,NaN,-0.02008481,1.303842E-10,-6.557152E-09,-1.132714E-07,-2.586933E-09,-2.861022E-08
432.0479,-0.03185575,-1.413021E-08,NaN,-0.8457762,-1.349353E-07,NaN,0.4492433,3.055992E-08,NaN,-2.166029,1.346392E-05,-0.3693586,5.559833E-09,NaN,NaN,-0.02008401,1.303842E-10,-1.937215E-08,-1.132713E-07,-1.39484E-09,-2.622604E-08
432.0623,-0.03100862,-1.41293E-08,NaN,-0.8553482,-1.349351E-07,NaN,0.4495307,3.069991E-08,NaN,-2.167061,1.346449E-05,-0.369902,5.421692E-09,NaN,NaN,-0.02008366,1.303842E-10,-3.66575E-08,-1.132712E-07,-7.98794E-10,-2.861022E-08
432.0767,-0.03100862,-1.41293E-08,NaN,-0.8553482,-1.349351E-07,NaN,0.4495307,3.069991E-08,NaN,-2.167061,1.346449E-05,-0.369902,5.421692E-09,NaN,NaN,-0.02008366,1.303842E-10,-3.66575E-08,-1.132712E-07,-7.98794E-10,-2.861022E-08
432.0906,-0.03017631,-1.412839E-08,NaN,-0.8653716,-1.34935E-07,NaN,0.4498559,3.083731E-08,NaN,-2.168105,1.346506E-05,-0.3704061,5.286135E-09,NaN,NaN,-0.02008321,1.303842E-10,-5.155866E-08,-1.132711E-07,-1.990887E-09,-2.622604E-08
432.1061,-0.02935651,-1.412748E-08,NaN,-0.8756275,-1.349348E-07,NaN,0.4502016,3.097217E-08,NaN,-2.169111,1.346563E-05,-0.3708563,5.15311E-09,NaN,NaN,-0.02008264,1.303842E-10,-6.467168E-08,-1.13271E-07,-3.779026E-09,-2.861022E-08
432.1205,-0.02854758,-1.412656E-08,NaN,-0.8859805,-1.349346E-07,NaN,0.4505511,3.110456E-08,NaN,-2.170067,1.34662E-05,-0.371266,5.02257E-09,NaN,NaN,-0.02008202,1.303842E-10,-7.361238E-08,-1.13271E-07,-3.481003E-09,-2.622604E-08
432.1353,-0.02854758,-1.412656E-08,NaN,-0.8859805,-1.349346E-07,NaN,0.4505511,3.110456E-08,NaN,-2.170067,1.34662E-05,-0.371266,5.02257E-09,NaN,NaN,-0.02008202,1.303842E-10,-7.361238E-08,-1.13271E-07,-3.481003E-09,-2.622604E-08
432.1493,-0.02775531,-1.412565E-08,NaN,-0.8971087,-1.349344E-07,NaN,0.4508485,3.123309E-08,NaN,-2.171179,1.346676E-05,-0.3718669,4.895879E-09,NaN,NaN,-0.02008185,1.303842E-10,-9.030168E-08,-1.132709E-07,-3.779026E-09,-2.861022E-08
432.1648,-0.02697661,-1.412474E-08,NaN,-0.9086636,-1.349342E-07,NaN,0.4511848,3.135926E-08,NaN,-2.172303,1.346733E-05,-0.3724276,4.771546E-09,NaN,NaN,-0.02008158,1.303842E-10,-1.087791E-07,-1.132708E-07,-4.97112E-09,-2.622604E-08
432.1795,-0.02697661,-1.412474E-08,NaN,-0.9086636,-1.349342E-07,NaN,0.4511848,3.135926E-08,NaN,-2.172303,1.346733E-05,-0.3724276,4.771546E-09,NaN,NaN,-0.02008158,1.303842E-10,-1.087791E-07,-1.132708E-07,-4.97112E-09,-2.622604E-08
432.1936,-0.02620921,-1.412383E-08,NaN,-0.9204292,-1.34934E-07,NaN,0.4515426,3.148313E-08,NaN,-2.173388,1.34679E-05,-0.3729324,4.649527E-09,NaN,NaN,-0.02008118,1.303842E-10,-1.212961E-07,-1.132707E-07,-5.865189E-09,-2.861022E-08
432.209,-0.02545885,-1.412292E-08,NaN,-0.9330335,-1.349339E-07,NaN,0.4518547,3.160472E-08,NaN,-2.174626,1.346847E-05,-0.3736182,4.529777E-09,NaN,NaN,-0.02008122,1.303842E-10,-1.409656E-07,-1.132706E-07,-5.865189E-09,-2.622604E-08
