JMolnar6/NonAnthroHands_User_Study/HandsLoggerWithURDF/tempdata/PID 0 (test)/files/Reachy_PID0_JointMotion_gesture_13_2.csv
Time,r_shoulder,r_shoulder_x,r_upper_arm,r_forearm,r_wrist,r_wrist2hand,
1164.285,-0.262421,-0.337131,0.1399569,-0.5477108,0.06177913,0.154707
1164.299,-0.262421,-0.337131,0.1399569,-0.5477108,0.06177913,0.154707
1164.313,-0.2624423,-0.3370726,0.1400776,-0.5476966,0.06173893,0.1547038
1164.329,-0.2624633,-0.337015,0.1401968,-0.5476827,0.06169903,0.1547006
1164.343,-0.262484,-0.336958,0.1403145,-0.5476691,0.06165941,0.1546974
1164.358,-0.262484,-0.336958,0.1403145,-0.5476691,0.06165941,0.1546974
1164.372,-0.2625045,-0.3369017,0.1404309,-0.5476558,0.06162008,0.1546944
1164.388,-0.2625248,-0.336846,0.1405459,-0.5476428,0.06158103,0.1546913
1164.402,-0.2625449,-0.336791,0.1406595,-0.5476301,0.06154227,0.1546884
1164.417,-0.2625449,-0.336791,0.1406595,-0.5476301,0.06154227,0.1546884
1164.431,-0.2625647,-0.3367367,0.1407717,-0.5476177,0.0615038,0.1546855
1164.447,-0.2625843,-0.336683,0.1408827,-0.5476056,0.06146561,0.1546826
1164.462,-0.2626037,-0.33663,0.1409922,-0.5475938,0.06142771,0.1546798
1164.476,-0.2626037,-0.33663,0.1409922,-0.5475938,0.06142771,0.1546798
1164.493,-0.2626228,-0.3365776,0.1411005,-0.5475822,0.0613901,0.1546771
1164.507,-0.2626417,-0.3365259,0.1412074,-0.5475709,0.06135277,0.1546744
1164.521,-0.2626604,-0.3364747,0.1413131,-0.5475599,0.06131573,0.1546718
1164.535,-0.2626604,-0.3364747,0.1413131,-0.5475599,0.06131573,0.1546718
1164.549,-0.2626789,-0.3364241,0.1414175,-0.5475491,0.06127897,0.1546692
1164.564,-0.2626972,-0.3363742,0.1415206,-0.5475385,0.06124249,0.1546667
1164.579,-0.2626972,-0.3363742,0.1415206,-0.5475385,0.06124249,0.1546667
1164.593,-0.2627153,-0.3363248,0.1416225,-0.5475282,0.0612063,0.1546642
1164.609,-0.2627331,-0.3362761,0.1417232,-0.5475182,0.06117039,0.1546618
1164.623,-0.2627507,-0.3362279,0.1418226,-0.5475084,0.06113477,0.1546594
1164.638,-0.2627507,-0.3362279,0.1418226,-0.5475084,0.06113477,0.1546594
1164.652,-0.2627682,-0.3361803,0.1419208,-0.5474988,0.06109943,0.1546571
1164.668,-0.2627855,-0.3361333,0.1420179,-0.5474895,0.06106437,0.1546548
1164.683,-0.2628025,-0.3360868,0.1421137,-0.5474803,0.06102958,0.1546526
1164.698,-0.2628025,-0.3360868,0.1421137,-0.5474803,0.06102958,0.1546526
1164.712,-0.2628194,-0.3360409,0.1422084,-0.5474715,0.06099508,0.1546503
1164.727,-0.262836,-0.3359955,0.142302,-0.5474628,0.06096085,0.1546482
1164.743,-0.2628525,-0.3359507,0.1423944,-0.5474543,0.06092691,0.1546461
1164.758,-0.2628525,-0.3359507,0.1423944,-0.5474543,0.06092691,0.1546461
1164.771,-0.2628688,-0.3359064,0.1424856,-0.547446,0.06089324,0.154644
1164.786,-0.2628849,-0.3358626,0.1425758,-0.547438,0.06085984,0.154642
1164.801,-0.2629008,-0.3358194,0.1426649,-0.5474301,0.06082673,0.15464
1164.815,-0.2629008,-0.3358194,0.1426649,-0.5474301,0.06082673,0.15464
1164.829,-0.2629165,-0.3357767,0.1427529,-0.5474224,0.06079389,0.154638
1164.845,-0.2629321,-0.3357344,0.1428398,-0.5474149,0.06076132,0.1546361
1164.86,-0.2629321,-0.3357344,0.1428398,-0.5474149,0.06076132,0.1546361
1164.873,-0.2629475,-0.3356927,0.1429256,-0.5474076,0.06072902,0.1546342
1164.889,-0.2629627,-0.3356515,0.1430104,-0.5474004,0.060697,0.1546324
1164.904,-0.2629777,-0.3356108,0.1430941,-0.5473934,0.06066524,0.1546306
1164.919,-0.2629777,-0.3356108,0.1430941,-0.5473934,0.06066524,0.1546306
1164.933,-0.2629925,-0.3355705,0.1431768,-0.5473866,0.06063375,0.1546288
1164.948,-0.2630072,-0.3355308,0.1432585,-0.54738,0.06060253,0.1546271
1164.963,-0.2630217,-0.3354915,0.1433392,-0.5473736,0.06057158,0.1546254
1164.978,-0.2630217,-0.3354915,0.1433392,-0.5473736,0.06057158,0.1546254
1164.994,-0.263036,-0.3354527,0.1434189,-0.5473673,0.06054089,0.1546237
1165.008,-0.2630502,-0.3354144,0.1434977,-0.5473612,0.06051047,0.1546221
1165.022,-0.2630642,-0.3353765,0.1435754,-0.5473552,0.06048031,0.1546205
1165.036,-0.2630642,-0.3353765,0.1435754,-0.5473552,0.06048031,0.1546205
1165.05,-0.2630781,-0.335339,0.1436522,-0.5473495,0.06045041,0.1546189
1165.066,-0.2630918,-0.3353021,0.143728,-0.5473438,0.06042077,0.1546173
1165.08,-0.2631053,-0.3352655,0.143803,-0.5473383,0.06039139,0.1546158
1165.095,-0.2631053,-0.3352655,0.143803,-0.5473383,0.06039139,0.1546158
1165.109,-0.2631187,-0.3352294,0.1438769,-0.5473329,0.06036227,0.1546143
1165.125,-0.2631319,-0.3351937,0.14395,-0.5473278,0.0603334,0.1546129
1165.139,-0.2631319,-0.3351937,0.14395,-0.5473278,0.0603334,0.1546129
1165.154,-0.263145,-0.3351584,0.1440221,-0.5473227,0.06030479,0.1546114
1165.169,-0.263158,-0.3351236,0.1440934,-0.5473177,0.06027644,0.15461
1165.184,-0.2631707,-0.3350892,0.1441638,-0.5473129,0.06024833,0.1546087
1165.199,-0.2631707,-0.3350892,0.1441638,-0.5473129,0.06024833,0.1546087
1165.213,-0.2631834,-0.3350552,0.1442333,-0.5473082,0.06022048,0.1546073
1165.228,-0.2631959,-0.3350216,0.1443019,-0.5473037,0.06019288,0.154606
1165.245,-0.2632082,-0.3349884,0.1443696,-0.5472993,0.06016553,0.1546047
1165.259,-0.2632082,-0.3349884,0.1443696,-0.5472993,0.06016553,0.1546047
1165.273,-0.2632204,-0.3349555,0.1444366,-0.547295,0.06013842,0.1546035
1165.288,-0.2632647,-0.3348185,0.1441178,-0.5467548,0.06077872,0.1542879
1165.302,-0.263329,-0.3346177,0.1437623,-0.5460955,0.06169136,0.1539788
1165.316,-0.263329,-0.3346177,0.1437623,-0.5460955,0.06169136,0.1539788
1165.33,-0.2634057,-0.3343784,0.1434882,-0.5453889,0.06267927,0.1536757
1165.346,-0.2634898,-0.3341165,0.1433119,-0.5446686,0.06366758,0.1533786
1165.36,-0.2635461,-0.3339465,0.1436058,-0.544486,0.06396382,0.1534016
1165.375,-0.2635461,-0.3339465,0.1436058,-0.544486,0.06396382,0.1534016
1165.39,-0.2635846,-0.3338338,0.143998,-0.5444313,0.06395888,0.153424
1165.405,-0.2636118,-0.3337572,0.1443518,-0.5444354,0.06385098,0.1534458
1165.42,-0.2636118,-0.3337572,0.1443518,-0.5444354,0.06385098,0.1534458
1165.434,-0.2636008,-0.3338063,0.1450246,-0.5450005,0.06305134,0.1537815
1165.45,-0.2635658,-0.3339329,0.1456699,-0.5456957,0.0619836,0.1541105
1165.464,-0.2635158,-0.3341067,0.146184,-0.5464423,0.06085109,0.1544329
1165.479,-0.2635158,-0.3341067,0.146184,-0.5464423,0.06085109,0.1544329
1165.495,-0.2634566,-0.334309,0.1465645,-0.5472034,0.05972826,0.1547491
1165.509,-0.2633595,-0.3346324,0.1472222,-0.5484984,0.05797091,0.1553733
1165.523,-0.2632391,-0.3350293,0.1478323,-0.5499035,0.05597951,0.1559851
1165.537,-0.2632391,-0.3350293,0.1478323,-0.5499035,0.05597951,0.1559851
1165.551,-0.2631044,-0.3354696,0.1482996,-0.5513435,0.05394738,0.156585
1165.567,-0.2629614,-0.3359347,0.1486246,-0.5527837,0.05194439,0.157173
1165.582,-0.2627814,-0.3365178,0.1492126,-0.5547445,0.04932559,0.1580638
1165.596,-0.2627814,-0.3365178,0.1492126,-0.5547445,0.04932559,0.1580638
1165.61,-0.2625789,-0.3371709,0.1497419,-0.5568025,0.04648891,0.1589371
1165.626,-0.2623632,-0.3378642,0.1501174,-0.558883,0.04362782,0.1597932
1165.641,-0.26214,-0.3385794,0.1503407,-0.5609516,0.04081192,0.1606325
1165.656,-0.26214,-0.3385794,0.1503407,-0.5609516,0.04081192,0.1606325
1165.669,-0.2618808,-0.3394093,0.1508082,-0.5635288,0.03739745,0.1617696
1165.685,-0.2616001,-0.3403063,0.1512035,-0.5661913,0.03377945,0.1628843
1165.7,-0.2616001,-0.3403063,0.1512035,-0.5661913,0.03377945,0.1628843
1165.714,-0.2613071,-0.3412405,0.1514328,-0.5688648,0.03015229,0.1639772
1165.729,-0.2609753,-0.3422982,0.151859,-0.5720505,0.02592284,0.1653628
1165.746,-0.2606205,-0.3434272,0.1521698,-0.5753163,0.02150176,0.1667213
1165.76,-0.2606205,-0.3434272,0.1521698,-0.5753163,0.02150176,0.1667213
1165.774,-0.2602528,-0.344595,0.1522789,-0.5785841,0.01708983,0.1680531
1165.788,-0.2598786,-0.3457815,0.1521977,-0.5818188,0.01275734,0.1693588
1165.803,-0.2594694,-0.3470788,0.152307,-0.5855392,0.00786246,0.1709531
1165.817,-0.2594694,-0.3470788,0.152307,-0.5855392,0.00786246,0.1709531
1165.831,-0.2590402,-0.3484385,0.1523088,-0.5893221,0.002792384,0.1725162
1165.847,-0.2586001,-0.3498306,0.1521155,-0.5930941,-0.002256582,0.1740486
1165.862,-0.2581551,-0.3512363,0.1517355,-0.596822,-0.007215367,0.175551
1165.876,-0.2581551,-0.3512363,0.1517355,-0.596822,-0.007215367,0.175551
1165.89,-0.2576765,-0.3527488,0.1515309,-0.6010249,-0.01272428,0.1773381
1165.906,-0.2571788,-0.3543201,0.1512116,-0.6052802,-0.01840007,0.1790902
1165.921,-0.2566714,-0.3559206,0.1506904,-0.609515,-0.02404362,0.1808079
1165.936,-0.2566714,-0.3559206,0.1506904,-0.609515,-0.02404362,0.1808079
1165.95,-0.2561275,-0.3576365,0.1502928,-0.6142291,-0.0302431,0.1828062
1165.965,-0.2555632,-0.3594158,0.1497378,-0.6189916,-0.03659996,0.1847652
1165.98,-0.2555632,-0.3594158,0.1497378,-0.6189916,-0.03659996,0.1847652
1165.994,-0.2549884,-0.3612259,0.1489478,-0.6237262,-0.04290782,0.186686
1166.01,-0.2544094,-0.363047,0.147942,-0.628399,-0.04909598,0.1885691
1166.024,-0.2537979,-0.3649713,0.147057,-0.6335264,-0.05580356,0.1907293
1166.04,-0.2531685,-0.3669503,0.1460286,-0.6386867,-0.06265596,0.1928473
1166.053,-0.2531685,-0.3669503,0.1460286,-0.6386867,-0.06265596,0.1928473
1166.067,-0.2525306,-0.3689541,0.144778,-0.6438082,-0.06945015,0.1949238
1166.083,-0.2518901,-0.3709642,0.1433218,-0.6488591,-0.07611627,0.1969597
1166.097,-0.2518901,-0.3709642,0.1433218,-0.6488591,-0.07611627,0.1969597
1166.111,-0.2512181,-0.3730737,0.1419725,-0.6543552,-0.08329283,0.1992697
1166.127,-0.2505292,-0.3752349,0.1404774,-0.6598758,-0.09060858,0.2015345
1166.142,-0.2498327,-0.3774182,0.1387595,-0.6653502,-0.09785683,0.2037549
1166.156,-0.2498327,-0.3774182,0.1387595,-0.6653502,-0.09785683,0.2037549
1166.171,-0.2491018,-0.3797098,0.1370945,-0.6712744,-0.1056228,0.2062458
1166.188,-0.2483526,-0.3820577,0.1352439,-0.6772202,-0.1135189,0.2086881
1166.2,-0.2475951,-0.3844295,0.1331428,-0.6831139,-0.121331,0.2110825
1166.215,-0.2475951,-0.3844295,0.1331428,-0.6831139,-0.121331,0.2110825
1166.23,-0.2468355,-0.3868055,0.1308206,-0.6889233,-0.1289878,0.21343
1166.245,-0.2460451,-0.389278,0.1285573,-0.6951596,-0.1371298,0.2160455
1166.261,-0.245239,-0.3917986,0.1261313,-0.7014043,-0.145392,0.2186099
1166.275,-0.245239,-0.3917986,0.1261313,-0.7014043,-0.145392,0.2186099
1166.289,-0.2444264,-0.3943375,0.1234761,-0.7075881,-0.1535631,0.221124
1166.304,-0.2436131,-0.3968762,0.1206179,-0.7136812,-0.1615725,0.2235889
1166.319,-0.2436131,-0.3968762,0.1206179,-0.7136812,-0.1615725,0.2235889
1166.333,-0.24277,-0.3995079,0.1178087,-0.7201926,-0.1700616,0.2263193
1166.348,-0.241912,-0.402185,0.1148405,-0.7267063,-0.1786668,0.2289965
1166.363,-0.2410483,-0.4048779,0.1116498,-0.7331538,-0.1871725,0.2316212
1166.378,-0.2410483,-0.4048779,0.1116498,-0.7331538,-0.1871725,0.2316212
1166.392,-0.2401519,-0.407673,0.1084539,-0.7400247,-0.1961661,0.2345084
1166.407,-0.2392389,-0.4105182,0.1050636,-0.7468964,-0.2052655,0.2373391
1166.422,-0.2383196,-0.4133814,0.1014301,-0.753698,-0.2142484,0.2401145
1166.437,-0.2383196,-0.4133814,0.1014301,-0.753698,-0.2142484,0.2401145
1166.451,-0.2374,-0.4162428,0.09759337,-0.7603989,-0.2230438,0.2428354
1166.467,-0.2364512,-0.4191948,0.09376741,-0.767502,-0.2322992,0.2458169
1166.481,-0.2354883,-0.4221891,0.08977832,-0.7745951,-0.2416527,0.2487401
1166.498,-0.2354883,-0.4221891,0.08977832,-0.7745951,-0.2416527,0.2487401
1166.511,-0.2345208,-0.4251959,0.08557475,-0.7816114,-0.2508844,0.2516061
1166.525,-0.2335543,-0.4281969,0.08119252,-0.7885228,-0.2599239,0.2544159
1166.54,-0.2335543,-0.4281969,0.08119252,-0.7885228,-0.2599239,0.2544159
1166.554,-0.2325595,-0.4312854,0.07681443,-0.7958287,-0.2694217,0.2574843
1166.569,-0.2315513,-0.4344138,0.07228173,-0.8031204,-0.2790134,0.260493
1166.584,-0.2305392,-0.4375524,0.06754731,-0.8103323,-0.2884753,0.2634427
1166.599,-0.2305392,-0.4375524,0.06754731,-0.8103323,-0.2884753,0.2634427
1166.613,-0.2294957,-0.4407879,0.06276299,-0.817944,-0.2984034,0.2666483
1166.628,-0.2284373,-0.4440681,0.05779357,-0.825542,-0.3084126,0.2697913
1166.643,-0.227374,-0.447361,0.05260868,-0.8330581,-0.3182739,0.2728729
1166.657,-0.227374,-0.447361,0.05260868,-0.8330581,-0.3182739,0.2728729
1166.672,-0.2263123,-0.4506468,0.04725764,-0.8404632,-0.3279186,0.275894
1166.687,-0.2252226,-0.4540182,0.04188053,-0.8482484,-0.3380075,0.2791695
1166.702,-0.2241203,-0.4574268,0.03635476,-0.8560113,-0.3481715,0.2823811
1166.717,-0.2241203,-0.4574268,0.03635476,-0.8560113,-0.3481715,0.2823811
1166.731,-0.2230149,-0.4608429,0.03064637,-0.8636876,-0.3581837,0.2855299
1166.746,-0.2219121,-0.4642482,0.02479961,-0.8712503,-0.3679763,0.2886168
1166.762,-0.2207821,-0.4677362,0.01892114,-0.879186,-0.3782147,0.2919569
1166.776,-0.2207821,-0.4677362,0.01892114,-0.879186,-0.3782147,0.2919569
1166.79,-0.2196403,-0.4712592,0.01290507,-0.8870974,-0.3885229,0.2952319
1166.805,-0.2184959,-0.4747876,0.006722743,-0.8949207,-0.3986715,0.2984427
1166.82,-0.2184959,-0.4747876,0.006722743,-0.8949207,-0.3986715,0.2984427
1166.834,-0.2173214,-0.4784082,0.0004553334,-0.903123,-0.4092718,0.3019042
1166.849,-0.2161333,-0.4820688,-0.005975308,-0.9113033,-0.4199261,0.3052981
1166.864,-0.2149418,-0.4857375,-0.01257983,-0.9193953,-0.4304015,0.3086256
1166.879,-0.2149418,-0.4857375,-0.01257983,-0.9193953,-0.4304015,0.3086256
1166.893,-0.2137533,-0.4893946,-0.01930174,-0.9273711,-0.4406347,0.3118878
1166.908,-0.2125379,-0.4931327,-0.02608108,-0.935707,-0.4513046,0.3153996
1166.923,-0.2113113,-0.4969036,-0.03298589,-0.944014,-0.4620233,0.318843
1166.938,-0.2113113,-0.4969036,-0.03298589,-0.944014,-0.4620233,0.318843
1166.952,-0.2100829,-0.5006776,-0.04003098,-0.9522295,-0.4725609,0.3222188
1166.968,-0.2088585,-0.5044364,-0.04716571,-0.9603272,-0.4828549,0.3255285
1166.982,-0.2076079,-0.5082737,-0.05436478,-0.9687783,-0.4935895,0.3290868
1166.997,-0.2076079,-0.5082737,-0.05436478,-0.9687783,-0.4935895,0.3290868
1167.013,-0.2063467,-0.5121417,-0.06167761,-0.9772002,-0.5043659,0.3325757
1167.026,-0.2050843,-0.516011,-0.06911281,-0.9855306,-0.5149533,0.3359963
1167.041,-0.2038264,-0.5198637,-0.07661853,-0.9937435,-0.5252919,0.3393497
1167.056,-0.2038264,-0.5198637,-0.07661853,-0.9937435,-0.5252919,0.3393497
1167.07,-0.2025426,-0.5237935,-0.08420009,-1.002304,-0.5360726,0.342951
1167.085,-0.2012486,-0.5277528,-0.09188551,-1.010836,-0.5468856,0.346482
1167.1,-0.2012486,-0.5277528,-0.09188551,-1.010836,-0.5468856,0.346482
1167.114,-0.1999537,-0.5317121,-0.09967601,-1.019277,-0.5575011,0.3499438
1167.13,-0.1986298,-0.5357583,-0.1075935,-1.028072,-0.5685601,0.3536513
1167.144,-0.1972939,-0.5398393,-0.1156336,-1.036844,-0.5796307,0.3572865
1167.159,-0.1972939,-0.5398393,-0.1156336,-1.036844,-0.5796307,0.3572865
1167.173,-0.1959564,-0.5439231,-0.1237796,-1.045527,-0.5904853,0.3608504
1167.188,-0.1946235,-0.5479903,-0.1319705,-1.054092,-0.6010728,0.3643444
1167.203,-0.1932648,-0.5521336,-0.1402626,-1.062993,-0.6120979,0.3680835
1167.218,-0.1932648,-0.5521336,-0.1402626,-1.062993,-0.6120979,0.3680835
1167.232,-0.1918963,-0.5563046,-0.1486428,-1.071864,-0.6231303,0.3717496
1167.248,-0.1905277,-0.5604737,-0.1570982,-1.080644,-0.6339462,0.3753438
1167.263,-0.1891648,-0.564623,-0.1655742,-1.089305,-0.6444965,0.3788676
1167.277,-0.1891648,-0.564623,-0.1655742,-1.089305,-0.6444965,0.3788676
1167.291,-0.1877766,-0.568846,-0.1741623,-1.098296,-0.6554889,0.3826358
1167.306,-0.1863792,-0.573095,-0.1828271,-1.107258,-0.6664788,0.3863304
1167.321,-0.1849821,-0.5773405,-0.1915492,-1.11613,-0.6772465,0.3899527
1167.336,-0.1849821,-0.5773405,-0.1915492,-1.11613,-0.6772465,0.3899527
1167.35,-0.1835567,-0.5816695,-0.2004312,-1.125339,-0.688453,0.3938175
1167.365,-0.1821203,-0.5860298,-0.2094029,-1.134527,-0.6996354,0.3976069
1167.38,-0.1806836,-0.5903894,-0.2184287,-1.143626,-0.7105796,0.401322
1167.395,-0.1806836,-0.5903894,-0.2184287,-1.143626,-0.7105796,0.401322
1167.409,-0.1792526,-0.5947291,-0.2274486,-1.152607,-0.7212472,0.4049642
1167.424,-0.1777965,-0.5991415,-0.2366085,-1.161906,-0.7323522,0.4088486
1167.439,-0.1777965,-0.5991415,-0.2366085,-1.161906,-0.7323522,0.4088486
1167.453,-0.1763316,-0.6035784,-0.2458272,-1.171179,-0.7434288,0.4126572
1167.469,-0.1748677,-0.6080102,-0.2550726,-1.180361,-0.7542693,0.4163912
1167.484,-0.1734107,-0.6124188,-0.2642912,-1.189423,-0.7648374,0.420052
1167.5,-0.171929,-0.6168981,-0.2736639,-1.198797,-0.775845,0.4239546
1167.514,-0.171929,-0.6168981,-0.2736639,-1.198797,-0.775845,0.4239546
1167.528,-0.1704389,-0.6214001,-0.2830839,-1.208147,-0.7868142,0.427781
1167.543,-0.1689504,-0.6258957,-0.292513,-1.217408,-0.7975456,0.4315324
1167.557,-0.1689504,-0.6258957,-0.292513,-1.217408,-0.7975456,0.4315324
1167.571,-0.167434,-0.6304715,-0.3021393,-1.226988,-0.808709,0.435524
1167.586,-0.1659077,-0.6350756,-0.3118199,-1.236553,-0.8198146,0.4394375
1167.601,-0.1643821,-0.6396759,-0.3215039,-1.24603,-0.8306718,0.4432744
1167.616,-0.1643821,-0.6396759,-0.3215039,-1.24603,-0.8306718,0.4432744
1167.63,-0.1628635,-0.6442533,-0.3311366,-1.255388,-0.8412538,0.4470359
1167.646,-0.1613202,-0.6489006,-0.3409541,-1.265046,-0.852265,0.4510374
1167.66,-0.159769,-0.6535695,-0.3507989,-1.274684,-0.8632152,0.4549606
1167.675,-0.159769,-0.6535695,-0.3507989,-1.274684,-0.8632152,0.4549606
1167.689,-0.1582199,-0.6582302,-0.3606235,-1.284232,-0.8739229,0.458807
1167.705,-0.1566788,-0.6628651,-0.3703795,-1.293659,-0.8843627,0.462578
1167.719,-0.1566788,-0.6628651,-0.3703795,-1.293659,-0.8843627,0.462578
1167.733,-0.1551134,-0.6675678,-0.3803371,-1.30338,-0.8952278,0.4665887
1167.751,-0.1535405,-0.6722905,-0.3903097,-1.313083,-0.9060254,0.4705211
1167.765,-0.1519703,-0.677004,-0.4002461,-1.322698,-0.9165845,0.4743764
1167.778,-0.1519703,-0.677004,-0.4002461,-1.322698,-0.9165845,0.4743764
1167.792,-0.1503725,-0.6817951,-0.4104212,-1.332615,-0.9275579,0.4784698
1167.808,-0.1487657,-0.6866116,-0.4206136,-1.342523,-0.938451,0.4824833
1167.822,-0.1471608,-0.6914217,-0.430763,-1.352345,-0.9491019,0.4864181
1167.837,-0.1471608,-0.6914217,-0.430763,-1.352345,-0.9491019,0.4864181
1167.852,-0.1455639,-0.6962063,-0.4408233,-1.362046,-0.9594904,0.4902758
1167.867,-0.1439426,-0.7010583,-0.4511171,-1.372029,-0.9702825,0.4943716
1167.882,-0.1423143,-0.7059292,-0.4614047,-1.381998,-0.9809945,0.4983873
1167.896,-0.1423143,-0.7059292,-0.4614047,-1.381998,-0.9809945,0.4983873
1167.911,-0.1406892,-0.7107895,-0.4716301,-1.391878,-0.9914744,0.5023244
1167.926,-0.1390731,-0.7156214,-0.4817528,-1.401636,-1.001702,0.5061843
1167.941,-0.1374329,-0.7205188,-0.492126,-1.41167,-1.01232,0.5102823
1167.956,-0.1374329,-0.7205188,-0.492126,-1.41167,-1.01232,0.5102823
1167.97,-0.1357862,-0.7254337,-0.5024812,-1.421692,-1.022859,0.5143002
1167.985,-0.1341431,-0.730337,-0.5127611,-1.431626,-1.033175,0.5182394
1168.001,-0.1325092,-0.735211,-0.5229287,-1.441438,-1.043248,0.5221015
1168.015,-0.1325092,-0.735211,-0.5229287,-1.441438,-1.043248,0.5221015
1168.029,-0.1308514,-0.7401499,-0.5333638,-1.451522,-1.053696,0.5262016
1168.044,-0.1291872,-0.7451055,-0.5437703,-1.461596,-1.064067,0.5302215
1168.059,-0.1291872,-0.7451055,-0.5437703,-1.461596,-1.064067,0.5302215
1168.073,-0.1275269,-0.7500489,-0.5540901,-1.471583,-1.074227,0.5341628
1168.093,-0.1258762,-0.7549625,-0.564289,-1.481448,-1.084154,0.5380268
1168.103,-0.1242385,-0.7598359,-0.5743498,-1.491175,-1.093849,0.541815
1168.118,-0.1242385,-0.7598359,-0.5743498,-1.491175,-1.093849,0.541815
1168.132,-0.1226154,-0.764663,-0.5842648,-1.500759,-1.103317,0.5455291
1168.148,-0.1210081,-0.7694402,-0.594031,-1.510198,-1.112563,0.5491704
1168.163,-0.1194542,-0.7740611,-0.6032109,-1.519092,-1.121028,0.5524266
1168.178,-0.1194542,-0.7740611,-0.6032109,-1.519092,-1.121028,0.5524266
1168.192,-0.1179376,-0.7785668,-0.6121378,-1.527703,-1.129125,0.5556188
1168.207,-0.1164491,-0.7829822,-0.6208684,-1.536114,-1.136991,0.5587484
1168.222,-0.1149834,-0.7873232,-0.6294333,-1.544365,-1.144664,0.5618166
1168.238,-0.1149834,-0.7873232,-0.6294333,-1.544365,-1.144664,0.5618166
1168.252,-0.1135748,-0.7914948,-0.6373953,-1.552075,-1.151617,0.5645109
1168.266,-0.1122051,-0.7955452,-0.6451159,-1.55951,-1.158238,0.5671523
1168.281,-0.1108638,-0.7995038,-0.6526563,-1.566758,-1.164659,0.5697418
1168.295,-0.1108638,-0.7995038,-0.6526563,-1.566758,-1.164659,0.5697418
1168.31,-0.1095825,-0.8032843,-0.6595851,-1.573465,-1.170395,0.5719668
1168.325,-0.1083414,-0.8069399,-0.6662828,-1.579901,-1.175822,0.574148
1168.34,-0.1083414,-0.8069399,-0.6662828,-1.579901,-1.175822,0.574148
1168.354,-0.1071288,-0.8105031,-0.6728145,-1.586161,-1.181073,0.5762864
1168.369,-0.1059382,-0.8139942,-0.6792119,-1.592288,-1.18619,0.578383
1168.384,-0.1048036,-0.8173212,-0.6850181,-1.597911,-1.190682,0.5801245
1168.399,-0.1048036,-0.8173212,-0.6850181,-1.597911,-1.190682,0.5801245
1168.413,-0.1037063,-0.8205336,-0.6906183,-1.603285,-1.194897,0.5818318
1168.429,-0.1026354,-0.8236619,-0.6960748,-1.608502,-1.198962,0.5835055
1168.444,-0.1015847,-0.8267248,-0.7014167,-1.613604,-1.202919,0.5851465
1168.458,-0.1015847,-0.8267248,-0.7014167,-1.613604,-1.202919,0.5851465
1168.474,-0.1005886,-0.8296298,-0.7061778,-1.61822,-1.206292,0.5864413
1168.488,-0.09962855,-0.8324257,-0.7107515,-1.622601,-1.209412,0.5877107
1168.503,-0.09869366,-0.8351425,-0.7152003,-1.62684,-1.212403,0.5889552
1168.517,-0.09869366,-0.8351425,-0.7152003,-1.62684,-1.212403,0.5889552
1168.531,-0.09781595,-0.8376945,-0.719068,-1.630589,-1.214824,0.5898614
1168.547,-0.0969753,-0.8401345,-0.7227593,-1.634106,-1.217003,0.5907497
1168.562,-0.09615998,-0.8424953,-0.7263398,-1.63749,-1.219068,0.5916206
1168.577,-0.09615998,-0.8424953,-0.7263398,-1.63749,-1.219068,0.5916206
1168.59,-0.09536316,-0.8447971,-0.7298384,-1.640786,-1.221063,0.5924743
1168.606,-0.09461925,-0.8469481,-0.7327793,-1.643625,-1.222532,0.5929974
1168.62,-0.09390947,-0.8489974,-0.7355658,-1.646253,-1.223784,0.5935102
1168.635,-0.09390947,-0.8489974,-0.7355658,-1.646253,-1.223784,0.5935102
1168.65,-0.09322283,-0.8509753,-0.7382606,-1.648765,-1.224941,0.5940129
1168.665,-0.0925529,-0.8529008,-0.7408909,-1.651204,-1.226047,0.5945057
1168.68,-0.09193444,-0.8546811,-0.7429766,-1.6532,-1.226649,0.5946749
1168.695,-0.09193444,-0.8546811,-0.7429766,-1.6532,-1.226649,0.5946749
1168.711,-0.09134883,-0.8563645,-0.7449239,-1.654998,-1.227051,0.5948408
1168.725,-0.09078512,-0.8579812,-0.7467957,-1.656693,-1.227372,0.5950033
1168.739,-0.09078512,-0.8579812,-0.7467957,-1.656693,-1.227372,0.5950033
1168.753,-0.09027554,-0.8594453,-0.7481248,-1.657939,-1.227188,0.5948487
1168.768,-0.08979996,-0.8608093,-0.7493257,-1.658989,-1.22681,0.5946971
1168.783,-0.08934651,-0.8621058,-0.7504638,-1.659942,-1.226362,0.5945483
1168.798,-0.08934651,-0.8621058,-0.7504638,-1.659942,-1.226362,0.5945483
1168.812,-0.08890819,-0.8633552,-0.7515662,-1.660844,-1.225889,0.5944026
1168.827,-0.08851962,-0.8644655,-0.7521492,-1.661327,-1.224941,0.5939456
1168.842,-0.08816203,-0.8654856,-0.7526228,-1.661634,-1.22382,0.5934976
1168.857,-0.08816203,-0.8654856,-0.7526228,-1.661634,-1.22382,0.5934976
1168.871,-0.08782437,-0.8664457,-0.7530495,-1.661859,-1.222645,0.5930583
1168.886,-0.08750004,-0.8673645,-0.7534549,-1.662045,-1.22146,0.5926276
1168.901,-0.08722395,-0.8681495,-0.7533538,-1.661824,-1.219808,0.5918914
1168.916,-0.08722395,-0.8681495,-0.7533538,-1.661824,-1.219808,0.5918914
1168.93,-0.08697757,-0.8688487,-0.7531569,-1.661438,-1.217996,0.5911696
1168.946,-0.08674988,-0.8694919,-0.7529263,-1.660981,-1.216142,0.5904619
1168.961,-0.08653434,-0.8700979,-0.7526872,-1.660496,-1.21429,0.5897681
1168.975,-0.08653434,-0.8700979,-0.7526872,-1.660496,-1.21429,0.5897681
1168.99,-0.08636589,-0.8705737,-0.7519543,-1.659613,-1.211976,0.5887738
1169.005,-0.08622606,-0.8709673,-0.7511382,-1.658576,-1.209514,0.5877991
1169.019,-0.08622606,-0.8709673,-0.7511382,-1.658576,-1.209514,0.5877991
1169.033,-0.08610385,-0.8713083,-0.7503006,-1.657477,-1.207021,0.5868434
1169.049,-0.08603156,-0.8715111,-0.7489719,-1.655971,-1.204054,0.5855925
1169.063,-0.08598921,-0.8716276,-0.7475682,-1.654311,-1.200942,0.5843661
1169.078,-0.08598921,-0.8716276,-0.7475682,-1.654311,-1.200942,0.5843661
1169.092,-0.08596484,-0.8716905,-0.7461534,-1.652595,-1.197807,0.5831636
1169.108,-0.08595128,-0.8717198,-0.7447525,-1.650868,-1.194694,0.5819848
1169.123,-0.08598147,-0.8716253,-0.7428838,-1.64876,-1.191122,0.5805151
1169.138,-0.08598147,-0.8716253,-0.7428838,-1.64876,-1.191122,0.5805151
1169.151,-0.08603755,-0.8714547,-0.7409553,-1.646516,-1.187424,0.5790741
1169.167,-0.0861087,-0.8712379,-0.7390276,-1.644228,-1.183717,0.5776614
1169.182,-0.08618845,-0.8709936,-0.7371243,-1.64194,-1.180043,0.5762764
1169.197,-0.08618845,-0.8709936,-0.7371243,-1.64194,-1.180043,0.5762764
1169.213,-0.08631179,-0.8706288,-0.7347651,-1.639281,-1.175907,0.5746046
1169.226,-0.08646029,-0.8701915,-0.7323561,-1.636494,-1.171656,0.5729654
1169.241,-0.08662292,-0.8697114,-0.7299575,-1.633673,-1.167407,0.5713584
1169.255,-0.08662292,-0.8697114,-0.7299575,-1.633673,-1.167407,0.5713584
1169.27,-0.08683193,-0.8691026,-0.7271057,-1.630467,-1.16268,0.569469
1169.285,-0.08706722,-0.8684173,-0.7242106,-1.627135,-1.157841,0.5676166
1169.3,-0.08731675,-0.8676878,-0.7213342,-1.623773,-1.153013,0.5658004
1169.314,-0.08731675,-0.8676878,-0.7213342,-1.623773,-1.153013,0.5658004
1169.328,-0.08757341,-0.8669345,-0.7185004,-1.620424,-1.148235,0.5640199
1169.344,-0.08787176,-0.8660654,-0.7152362,-1.616716,-1.142985,0.5619603
1169.359,-0.08787176,-0.8660654,-0.7152362,-1.616716,-1.142985,0.5619603
1169.373,-0.08819306,-0.8651289,-0.7119412,-1.612898,-1.137641,0.5599411
1169.389,-0.08852616,-0.8641552,-0.708674,-1.609061,-1.132322,0.5579613
1169.403,-0.08886448,-0.863163,-0.7054574,-1.605248,-1.127063,0.5560204
1169.418,-0.08886448,-0.863163,-0.7054574,-1.605248,-1.127063,0.5560204
1169.432,-0.08924288,-0.8620594,-0.7018238,-1.601082,-1.121323,0.5538037
1169.449,-0.08964279,-0.8608922,-0.6981668,-1.596814,-1.115501,0.5516304
1169.463,-0.09005322,-0.8596911,-0.6945443,-1.592535,-1.109714,0.5494996
1169.477,-0.09005322,-0.8596911,-0.6945443,-1.592535,-1.109714,0.5494996
1169.491,-0.09050637,-0.8583702,-0.6905081,-1.58789,-1.103427,0.5470967
1169.506,-0.0909821,-0.8569817,-0.6864526,-1.583143,-1.097063,0.5447407
1169.521,-0.09146854,-0.8555578,-0.6824375,-1.578388,-1.090743,0.542431
1169.536,-0.09146854,-0.8555578,-0.6824375,-1.578388,-1.090743,0.542431
1169.55,-0.09195872,-0.8541186,-0.6784866,-1.573668,-1.084501,0.5401665
1169.565,-0.09248718,-0.8525719,-0.6741464,-1.568605,-1.077759,0.5376326
1169.58,-0.09303516,-0.8509663,-0.6697965,-1.563456,-1.070955,0.5351482
1169.595,-0.09303516,-0.8509663,-0.6697965,-1.563456,-1.070955,0.5351482
1169.609,-0.09359168,-0.8493316,-0.6654933,-1.55831,-1.064209,0.5327125
1169.625,-0.0941503,-0.8476865,-0.6612599,-1.553207,-1.057552,0.5303245
1169.639,-0.0941503,-0.8476865,-0.6612599,-1.553207,-1.057552,0.5303245
1169.653,-0.09474578,-0.8459378,-0.6566527,-1.547766,-1.050382,0.5276695
1169.669,-0.09535959,-0.8441335,-0.6520399,-1.542247,-1.043161,0.5250664
1169.683,-0.09598085,-0.8423032,-0.6474777,-1.536737,-1.03601,0.5225143
1169.699,-0.09598085,-0.8423032,-0.6474777,-1.536737,-1.03601,0.5225143
1169.714,-0.09664167,-0.8403606,-0.6425456,-1.530874,-1.028328,0.5196984
1169.728,-0.09732198,-0.8383579,-0.6376089,-1.524932,-1.020603,0.5169376
1169.742,-0.09801006,-0.8363275,-0.6327263,-1.519001,-1.012956,0.5142308
1169.757,-0.09801006,-0.8363275,-0.6327263,-1.519001,-1.012956,0.5142308
1169.771,-0.09869911,-0.8342891,-0.6279227,-1.513124,-1.005415,0.5115771
1169.787,-0.09942348,-0.8321503,-0.6227772,-1.506914,-0.9973392,0.5086616
1169.801,-0.1001645,-0.8299599,-0.6176338,-1.500642,-0.9892332,0.5058031
1169.816,-0.1001645,-0.8299599,-0.6176338,-1.500642,-0.9892332,0.5058031
1169.83,-0.1009114,-0.8277475,-0.6125482,-1.494392,-0.9812186,0.5030006
1169.846,-0.1016579,-0.8255315,-0.6075451,-1.488202,-0.9733204,0.500253
1169.861,-0.1024384,-0.8232188,-0.6022184,-1.481683,-0.9648749,0.4972454
1169.875,-0.1024384,-0.8232188,-0.6022184,-1.481683,-0.9648749,0.4972454
1169.89,-0.1032346,-0.8208572,-0.5968947,-1.475109,-0.9564077,0.4942967
1169.905,-0.1040358,-0.8184763,-0.5916295,-1.468562,-0.9480433,0.4914056
1169.92,-0.1040358,-0.8184763,-0.5916295,-1.468562,-0.9480433,0.4914056
1169.934,-0.1048738,-0.8159897,-0.5860453,-1.461669,-0.9391192,0.4882575
1169.95,-0.1057286,-0.8134496,-0.5804617,-1.45472,-0.9301798,0.4851709
1169.964,-0.1065889,-0.8108882,-0.5749373,-1.447799,-0.9213536,0.4821447
1169.979,-0.1065889,-0.8108882,-0.5749373,-1.447799,-0.9213536,0.4821447
1169.993,-0.1074478,-0.8083252,-0.5695007,-1.440947,-0.9126631,0.4791778
1170.008,-0.1083396,-0.8056681,-0.5637781,-1.43377,-0.9034067,0.4759553
1170.023,-0.1092456,-0.8029653,-0.5580605,-1.426552,-0.8941434,0.4727958
1170.038,-0.1092456,-0.8029653,-0.5580605,-1.426552,-0.8941434,0.4727958
1170.052,-0.1101553,-0.8002468,-0.5524033,-1.419371,-0.8850055,0.4696981
1170.067,-0.1110624,-0.7975308,-0.5468353,-1.412266,-0.8760135,0.4666611
1170.082,-0.1120012,-0.7947238,-0.5410033,-1.404837,-0.8664458,0.4633699
1170.097,-0.1120012,-0.7947238,-0.5410033,-1.404837,-0.8664458,0.4633699
1170.111,-0.1129535,-0.7918739,-0.5351744,-1.397375,-0.8568762,0.4601429
1170.127,-0.1139086,-0.7890104,-0.5294037,-1.389954,-0.8474431,0.4569792
1170.141,-0.1148607,-0.7861514,-0.523722,-1.382613,-0.8381657,0.4538774
1170.157,-0.1148607,-0.7861514,-0.523722,-1.382613,-0.8381657,0.4538774
1170.17,-0.1158436,-0.7832034,-0.517799,-1.374949,-0.8283048,0.4505227
1170.187,-0.1168393,-0.7802141,-0.5118764,-1.367257,-0.8184451,0.4472335
1170.201,-0.1178374,-0.777213,-0.506009,-1.359611,-0.8087325,0.4440087
1170.215,-0.1178374,-0.777213,-0.506009,-1.359611,-0.8087325,0.4440087
1170.229,-0.1188692,-0.7741136,-0.4999037,-1.351625,-0.7984347,0.4405333
1170.245,-0.1199151,-0.770968,-0.4937922,-1.343608,-0.7881441,0.4371258
1170.259,-0.1199151,-0.770968,-0.4937922,-1.343608,-0.7881441,0.4371258
1170.273,-0.120964,-0.7678083,-0.4877328,-1.335638,-0.7780117,0.4337851
1170.289,-0.1220092,-0.7646539,-0.481762,-1.327754,-0.7680561,0.4305097
1170.304,-0.1230843,-0.7614124,-0.4755953,-1.319547,-0.7575119,0.4269848
1170.319,-0.1230843,-0.7614124,-0.4755953,-1.319547,-0.7575119,0.4269848
1170.333,-0.1241712,-0.7581322,-0.4694268,-1.311324,-0.7469735,0.4235288
1170.349,-0.1252595,-0.7548429,-0.4633088,-1.303157,-0.736602,0.4201404
1170.363,-0.126343,-0.7515628,-0.4572782,-1.295082,-0.7264168,0.4168184
1170.378,-0.126343,-0.7515628,-0.4572782,-1.295082,-0.7264168,0.4168184
1170.392,-0.1274555,-0.7481983,-0.4510781,-1.286683,-0.7156417,0.4132478
1170.408,-0.128579,-0.7447974,-0.444873,-1.278275,-0.7048708,0.4097468
1170.423,-0.1297033,-0.7413894,-0.4387128,-1.269926,-0.6942751,0.4063144
1170.437,-0.1297033,-0.7413894,-0.4387128,-1.269926,-0.6942751,0.4063144
1170.451,-0.1308593,-0.7378877,-0.4323835,-1.261236,-0.6830971,0.4026355
1170.467,-0.1320278,-0.7343446,-0.4260396,-1.252533,-0.671929,0.3990285
1170.481,-0.1331976,-0.7307919,-0.4197348,-1.24389,-0.6609476,0.395492
1170.496,-0.1331976,-0.7307919,-0.4197348,-1.24389,-0.6609476,0.395492
1170.51,-0.1343625,-0.7272492,-0.4135126,-1.235344,-0.6501738,0.3920248
1170.526,-0.1355553,-0.7236238,-0.4071713,-1.226471,-0.6388184,0.3883119
1170.541,-0.1367584,-0.7199641,-0.4008227,-1.217601,-0.6274646,0.3846714
1170.555,-0.1367584,-0.7199641,-0.4008227,-1.217601,-0.6274646,0.3846714
1170.569,-0.1379613,-0.7162999,-0.3945107,-1.208799,-0.6163013,0.3811021
1170.585,-0.1391584,-0.7126491,-0.3882785,-1.200098,-0.6053534,0.3776029
1170.6,-0.1391584,-0.7126491,-0.3882785,-1.200098,-0.6053534,0.3776029
1170.614,-0.1403825,-0.7089182,-0.381956,-1.191069,-0.593829,0.3738584
1170.63,-0.1416161,-0.7051551,-0.3756241,-1.182049,-0.5823011,0.370187
1170.645,-0.1428493,-0.7013892,-0.3693217,-1.173099,-0.5709686,0.3665875
1170.66,-0.1440761,-0.6976382,-0.3630939,-1.164254,-0.5598598,0.3630586
1170.674,-0.1440761,-0.6976382,-0.3630939,-1.164254,-0.5598598,0.3630586
1170.688,-0.1453294,-0.6938085,-0.3568044,-1.155078,-0.548182,0.359285
1170.703,-0.1465919,-0.6899478,-0.3505041,-1.145913,-0.5364954,0.355585
1170.718,-0.1465919,-0.6899478,-0.3505041,-1.145913,-0.5364954,0.355585
1170.732,-0.1478536,-0.6860855,-0.3442259,-1.136824,-0.5250079,0.3519575
1170.748,-0.1491446,-0.6821348,-0.337879,-1.127385,-0.5129668,0.3480873
1170.763,-0.1504463,-0.6781479,-0.3315081,-1.117953,-0.5009249,0.3442926
1170.777,-0.1504463,-0.6781479,-0.3315081,-1.117953,-0.5009249,0.3442926
1170.791,-0.1517479,-0.6741565,-0.32515,-1.108596,-0.4890933,0.3405723
1170.807,-0.153043,-0.6701803,-0.3188567,-1.099347,-0.4775048,0.3369249
1170.823,-0.1543282,-0.6662309,-0.3126601,-1.090223,-0.4661514,0.333349
1170.837,-0.1543282,-0.6662309,-0.3126601,-1.090223,-0.4661514,0.333349
1170.851,-0.1556014,-0.6623154,-0.3065749,-1.081234,-0.4550212,0.3298433
1170.867,-0.1568615,-0.6584378,-0.300606,-1.072383,-0.444105,0.3264062
1170.881,-0.1581079,-0.6546006,-0.2947536,-1.06367,-0.4333963,0.3230364
1170.897,-0.1581079,-0.6546006,-0.2947536,-1.06367,-0.4333963,0.3230364
1170.911,-0.1593404,-0.6508051,-0.289016,-1.055095,-0.4228905,0.3197328
1170.926,-0.1605588,-0.6470518,-0.2833904,-1.046656,-0.4125838,0.3164938
1170.94,-0.1617631,-0.643341,-0.2778741,-1.038352,-0.4024728,0.3133184
1170.955,-0.1617631,-0.643341,-0.2778741,-1.038352,-0.4024728,0.3133184
1170.97,-0.1629535,-0.6396726,-0.2724643,-1.030182,-0.3925542,0.3102052
1170.985,-0.1641301,-0.6360463,-0.2671582,-1.022141,-0.382825,0.307153
1171,-0.1641301,-0.6360463,-0.2671582,-1.022141,-0.382825,0.307153
1171.014,-0.1652929,-0.6324618,-0.2619532,-1.01423,-0.3732821,0.3041607
1171.03,-0.1664422,-0.6289189,-0.2568467,-1.006446,-0.3639223,0.301227
1171.045,-0.167578,-0.625417,-0.2518361,-0.9987864,-0.3547427,0.2983508
1171.06,-0.167578,-0.625417,-0.2518361,-0.9987864,-0.3547427,0.2983508
1171.073,-0.1687006,-0.6219558,-0.246919,-0.99125,-0.3457402,0.295531
1171.089,-0.16981,-0.6185347,-0.2420931,-0.9838346,-0.3369119,0.2927665
1171.104,-0.1709065,-0.6151535,-0.237356,-0.9765383,-0.3282548,0.2900561
1171.12,-0.1709065,-0.6151535,-0.237356,-0.9765383,-0.3282548,0.2900561
1171.134,-0.1719901,-0.6118116,-0.2327054,-0.9693594,-0.319766,0.287399
1171.148,-0.1730611,-0.6085087,-0.2281393,-0.962296,-0.3114426,0.2847939
1171.163,-0.1741195,-0.6052442,-0.2236555,-0.9553463,-0.3032818,0.2822398
1171.179,-0.1741195,-0.6052442,-0.2236555,-0.9553463,-0.3032818,0.2822398
1171.192,-0.1751655,-0.6020178,-0.2192518,-0.9485085,-0.2952806,0.2797359
1171.208,-0.1761994,-0.598829,-0.2149264,-0.9417809,-0.2874363,0.277281
1171.223,-0.1772211,-0.5956774,-0.2106772,-0.9351619,-0.2797461,0.2748743
1171.237,-0.1772211,-0.5956774,-0.2106772,-0.9351619,-0.2797461,0.2748743
1171.252,-0.1782308,-0.5925627,-0.2065023,-0.9286497,-0.2722073,0.2725148
1171.267,-0.1792288,-0.5894843,-0.2023998,-0.9222426,-0.2648173,0.2702015
1171.282,-0.180215,-0.5864418,-0.1983681,-0.915939,-0.2575733,0.2679335
1171.297,-0.180215,-0.5864418,-0.1983681,-0.915939,-0.2575733,0.2679335
1171.312,-0.1811898,-0.5834349,-0.1944052,-0.9097374,-0.2504727,0.2657101
1171.327,-0.1821531,-0.5804632,-0.1905095,-0.9036362,-0.2435129,0.2635302
1171.343,-0.1831052,-0.5775263,-0.1866793,-0.8976337,-0.2366914,0.2613931
1171.356,-0.1831052,-0.5775263,-0.1866793,-0.8976337,-0.2366914,0.2613931
1171.371,-0.1840461,-0.5746236,-0.1829129,-0.8917285,-0.2300057,0.2592979
1171.386,-0.184976,-0.571755,-0.1792089,-0.885919,-0.2234533,0.2572438
1171.401,-0.1858951,-0.56892,-0.1755656,-0.8802038,-0.2170317,0.2552299
1171.416,-0.1858951,-0.56892,-0.1755656,-0.8802038,-0.2170317,0.2552299
1171.43,-0.1868034,-0.5661181,-0.1719816,-0.8745815,-0.2107386,0.2532556
1171.445,-0.1877011,-0.5633491,-0.1684554,-0.8690504,-0.2045715,0.25132
1171.46,-0.1885882,-0.5606126,-0.1649855,-0.8636094,-0.1985282,0.2494223
1171.475,-0.1885882,-0.5606126,-0.1649855,-0.8636094,-0.1985282,0.2494223
1171.489,-0.1894651,-0.5579081,-0.1615707,-0.8582569,-0.1926064,0.2475618
1171.505,-0.1903316,-0.5552353,-0.1582095,-0.8529916,-0.1868038,0.2457379
1171.52,-0.1903316,-0.5552353,-0.1582095,-0.8529916,-0.1868038,0.2457379
1171.534,-0.1911881,-0.5525938,-0.1549007,-0.8478121,-0.1811182,0.2439496
1171.549,-0.1920345,-0.5499834,-0.1516429,-0.8427171,-0.1755473,0.2421965
1171.565,-0.1928711,-0.5474036,-0.1484349,-0.8377052,-0.1700892,0.2404777
1171.579,-0.1928711,-0.5474036,-0.1484349,-0.8377052,-0.1700892,0.2404777
1171.593,-0.1936978,-0.5448542,-0.1452756,-0.8327752,-0.1647416,0.2387927
1171.609,-0.194515,-0.5423346,-0.1421638,-0.8279259,-0.1595024,0.2371407
1171.623,-0.1953225,-0.5398447,-0.1390982,-0.8231558,-0.1543697,0.2355211
1171.638,-0.1953225,-0.5398447,-0.1390982,-0.8231558,-0.1543697,0.2355211
1171.652,-0.1961207,-0.537384,-0.1360779,-0.8184639,-0.1493415,0.2339332
1171.668,-0.1969095,-0.5349522,-0.1331016,-0.8138488,-0.1444157,0.2323765
1171.683,-0.1976891,-0.532549,-0.1301685,-0.8093094,-0.1395904,0.2308503
1171.698,-0.1976891,-0.532549,-0.1301685,-0.8093094,-0.1395904,0.2308503
1171.712,-0.1984597,-0.5301741,-0.1272774,-0.8048446,-0.1348637,0.2293541
1171.728,-0.1992212,-0.5278271,-0.1244274,-0.800453,-0.1302338,0.2278872
1171.742,-0.1999738,-0.5255077,-0.1216174,-0.7961336,-0.1256988,0.2264491
1171.757,-0.1999738,-0.5255077,-0.1216174,-0.7961336,-0.1256988,0.2264491
1171.772,-0.2007177,-0.5232156,-0.1188467,-0.7918853,-0.121257,0.2250392
1171.788,-0.2014529,-0.5209505,-0.1161141,-0.7877069,-0.1169064,0.2236569
1171.802,-0.2021795,-0.518712,-0.113419,-0.7835974,-0.1126455,0.2223017
1171.817,-0.2021795,-0.518712,-0.113419,-0.7835974,-0.1126455,0.2223017
1171.831,-0.2028976,-0.5165,-0.1107603,-0.7795555,-0.1084724,0.2209731
1171.846,-0.2036074,-0.514314,-0.1081373,-0.7755803,-0.1043855,0.2196706
1171.861,-0.2043089,-0.5121537,-0.1055491,-0.7716708,-0.1003832,0.2183937
1171.876,-0.2043089,-0.5121537,-0.1055491,-0.7716708,-0.1003832,0.2183937
1171.89,-0.2050022,-0.5100189,-0.102995,-0.7678258,-0.09646382,0.2171417
1171.905,-0.2056874,-0.5079093,-0.1004741,-0.7640444,-0.09262578,0.2159143
1171.92,-0.2063646,-0.5058245,-0.09798582,-0.7603256,-0.08886752,0.214711
1171.935,-0.2063646,-0.5058245,-0.09798582,-0.7603256,-0.08886752,0.214711
1171.949,-0.207034,-0.5037643,-0.09552933,-0.7566683,-0.08518751,0.2135313
1171.965,-0.2076956,-0.5017284,-0.09310393,-0.7530715,-0.08158424,0.2123748
1171.98,-0.2083494,-0.4997165,-0.09070896,-0.7495345,-0.07805622,0.2112409
1171.995,-0.2083494,-0.4997165,-0.09070896,-0.7495345,-0.07805622,0.2112409
1172.01,-0.2089957,-0.4977283,-0.08834373,-0.7460561,-0.07460202,0.2101293
1172.025,-0.2096344,-0.4957636,-0.08600761,-0.7426354,-0.0712202,0.2090394
1172.039,-0.2096344,-0.4957636,-0.08600761,-0.7426354,-0.0712202,0.2090394
1172.053,-0.2102657,-0.4938221,-0.08369996,-0.7392716,-0.06790937,0.207971
1172.069,-0.2108896,-0.4919035,-0.08142019,-0.7359638,-0.06466815,0.2069235
1172.083,-0.2115063,-0.4900075,-0.07916769,-0.7327109,-0.0614952,0.2058965
1172.1,-0.2121158,-0.4881339,-0.07694189,-0.7295122,-0.05838919,0.2048897
1172.113,-0.2121158,-0.4881339,-0.07694189,-0.7295122,-0.05838919,0.2048897
1172.127,-0.2127182,-0.4862825,-0.07474222,-0.7263668,-0.05534882,0.2039026
1172.143,-0.2133136,-0.4844529,-0.07256816,-0.7232738,-0.05237283,0.2029349
1172.158,-0.2133136,-0.4844529,-0.07256816,-0.7232738,-0.05237283,0.2029349
1172.172,-0.2139021,-0.482645,-0.07041916,-0.7202324,-0.04945996,0.2019862
1172.188,-0.2144838,-0.4808584,-0.06829473,-0.7172418,-0.04660898,0.2010561
1172.202,-0.2150586,-0.4790929,-0.06619436,-0.7143012,-0.04381869,0.2001442
1172.217,-0.2150586,-0.4790929,-0.06619436,-0.7143012,-0.04381869,0.2001442
1172.234,-0.2156268,-0.4773483,-0.06411757,-0.7114096,-0.04108791,0.1992502
1172.247,-0.2161884,-0.4756243,-0.06206389,-0.7085664,-0.03841548,0.1983737
1172.262,-0.2167435,-0.4739206,-0.06003287,-0.7057709,-0.03580026,0.1975145
1172.276,-0.2167435,-0.4739206,-0.06003287,-0.7057709,-0.03580026,0.1975145
1172.29,-0.2172921,-0.4722372,-0.05802407,-0.7030221,-0.03324113,0.1966721
1172.306,-0.2178343,-0.4705736,-0.05603706,-0.7003193,-0.030737,0.1958462
1172.321,-0.2183703,-0.4689297,-0.05407143,-0.6976619,-0.02828678,0.1950365
1172.335,-0.2183703,-0.4689297,-0.05407143,-0.6976619,-0.02828678,0.1950365
1172.35,-0.2189,-0.4673052,-0.05212677,-0.6950491,-0.02588943,0.1942427
1172.365,-0.2194236,-0.4657,-0.05020268,-0.6924801,-0.02354391,0.1934644
