JMolnar6/NonAnthroHands_User_Study/HandsLoggerWithURDF/tempdata/PID 0 (test)/files/Reachy_JointMotion_gesture_8_40.csv
Time,r_shoulder,r_shoulder_x,r_upper_arm,r_forearm,r_wrist,r_wrist2hand,
791.6113,0.04497027,0.0004582094,NaN,-0.3272153,0.0004178452,NaN,-0.5044478,-14.55745,NaN,-1.326511,-1.479285,0.3248143,14.1224,NaN,NaN,0.3869382,0.8127687,0.8092742,1.064179,-1.912322E-05,1.350828
791.628,0.04497028,0.0004583968,NaN,-0.3272141,0.000418632,NaN,-0.5015703,-14.558,NaN,-1.329212,-1.467806,0.322191,14.11033,NaN,NaN,0.3877597,0.8120415,0.8046364,1.047493,-1.874534E-05,1.351297
791.642,0.04497037,0.0004584496,NaN,-0.3272129,0.000419009,NaN,-0.5002084,-14.55697,NaN,-1.327893,-1.469427,0.3215754,14.1119,NaN,NaN,0.3852861,0.8130999,0.8042218,1.049806,-1.837352E-05,1.34386
791.6571,0.04497037,0.0004584496,NaN,-0.3272129,0.000419009,NaN,-0.5002084,-14.55697,NaN,-1.327893,-1.469427,0.3215754,14.1119,NaN,NaN,0.3852861,0.8130999,0.8042218,1.049806,-1.837352E-05,1.34386
791.6713,0.04497048,0.0004585531,NaN,-0.3272117,0.0004195466,NaN,-0.4989539,-14.55785,NaN,-1.327493,-1.468068,0.3211495,14.11057,NaN,NaN,0.3839775,0.8121791,0.8059587,1.047864,-1.800029E-05,1.349527
791.687,0.0449706,0.0004582021,NaN,-0.3272105,0.0004197996,NaN,-0.4973239,-14.55682,NaN,-1.32754,-1.466016,0.3202251,14.10827,NaN,NaN,0.3833416,0.8131312,0.8072988,1.044844,-1.764563E-05,1.342878
791.7032,0.04497072,0.000458548,NaN,-0.3272094,0.0004196636,NaN,-0.4971027,-14.55802,NaN,-1.327484,-1.477013,0.3203326,14.12005,NaN,NaN,0.3834363,0.8122545,0.8096093,1.060891,-1.729171E-05,1.352806
791.7169,0.04497072,0.000458548,NaN,-0.3272094,0.0004196636,NaN,-0.4971027,-14.55802,NaN,-1.327484,-1.477013,0.3203326,14.12005,NaN,NaN,0.3834363,0.8122545,0.8096093,1.060891,-1.729171E-05,1.352806
791.7311,0.0449708,0.0004588401,NaN,-0.3272083,0.0004190154,NaN,-0.4957575,-14.55835,NaN,-1.328113,-1.479926,0.3193185,14.12316,NaN,NaN,0.38449,0.8119653,0.808903,1.065134,-1.695412E-05,1.354828
791.7468,0.04497089,0.0004589141,NaN,-0.3272071,0.0004187006,NaN,-0.4970247,-14.5567,NaN,-1.327763,-1.473694,0.320316,14.1164,NaN,NaN,0.3843876,0.8135081,0.8105699,1.056042,-1.662421E-05,1.344106
791.7619,0.04497095,0.0004590135,NaN,-0.3272061,0.0004193942,NaN,-0.4957291,-14.55703,NaN,-1.328515,-1.466512,0.3192644,14.10884,NaN,NaN,0.3854671,0.8130301,0.8082595,1.045599,-1.629626E-05,1.344684
791.7769,0.04497095,0.0004590135,NaN,-0.3272061,0.0004193942,NaN,-0.4957291,-14.55703,NaN,-1.328515,-1.466512,0.3192644,14.10884,NaN,NaN,0.3854671,0.8130301,0.8082595,1.045599,-1.629626E-05,1.344684
791.7911,0.04497103,0.0004592894,NaN,-0.327205,0.0004195656,NaN,-0.499176,-14.55835,NaN,-1.327614,-1.473223,0.3220773,14.1161,NaN,NaN,0.3853463,0.8119054,0.8118895,1.055413,-1.59767E-05,1.353007
791.8068,0.044971,0.0004593219,NaN,-0.3272041,0.0004201187,NaN,-0.4991551,-14.55709,NaN,-1.330144,-1.467002,0.3215943,14.10939,NaN,NaN,0.3879939,0.8130289,0.8086739,1.046335,-1.565764E-05,1.34481
791.8235,0.04497105,0.000459469,NaN,-0.3272031,0.0004204818,NaN,-0.5024342,-14.55803,NaN,-1.327827,-1.469975,0.3242861,14.11265,NaN,NaN,0.3869496,0.8121759,0.8106763,1.050694,-1.535835E-05,1.350524
791.837,0.04497105,0.000459469,NaN,-0.3272031,0.0004204818,NaN,-0.5024342,-14.55803,NaN,-1.327827,-1.469975,0.3242861,14.11265,NaN,NaN,0.3869496,0.8121759,0.8106763,1.050694,-1.535835E-05,1.350524
791.8513,0.04497102,0.0004599472,NaN,-0.3272022,0.0004202027,NaN,-0.5044909,-14.55721,NaN,-1.329399,-1.479382,0.3256816,14.12246,NaN,NaN,0.3895042,0.8132202,0.8099918,1.064336,-1.504591E-05,1.34983
791.8669,0.04497106,0.0004600729,NaN,-0.3272013,0.0004208439,NaN,-0.5059412,-14.55718,NaN,-1.327778,-1.467489,0.3275016,14.10988,NaN,NaN,0.3914584,0.8130627,0.810832,1.047029,-1.474815E-05,1.345382
791.8818,0.044971,0.0004596742,NaN,-0.3272004,0.0004210488,NaN,-0.5046166,-14.55704,NaN,-1.330849,-1.466133,0.3266016,14.10842,NaN,NaN,0.3968879,0.8131593,0.8074626,1.04505,-1.446843E-05,1.342252
791.898,0.044971,0.0004596742,NaN,-0.3272004,0.0004210488,NaN,-0.5046166,-14.55704,NaN,-1.330849,-1.466133,0.3266016,14.10842,NaN,NaN,0.3968879,0.8131593,0.8074626,1.04505,-1.446843E-05,1.342252
791.9111,0.04497102,0.0004594917,NaN,-0.3271995,0.0004207591,NaN,-0.5050862,-14.55856,NaN,-1.329813,-1.474278,0.3279654,14.11723,NaN,NaN,0.3997183,0.8118804,0.8089126,1.05696,-1.41795E-05,1.353395
791.9268,0.04497094,0.0004592197,NaN,-0.3271986,0.0004211171,NaN,-0.5035195,-14.55723,NaN,-1.333224,-1.466688,0.3273211,14.10906,NaN,NaN,0.4064251,0.8130527,0.8070626,1.045893,-1.389375E-05,1.343742
791.9415,0.04497092,0.0004586574,NaN,-0.3271977,0.0004213428,NaN,-0.5027516,-14.5573,NaN,-1.333011,-1.465429,0.3281456,14.10774,NaN,NaN,0.4114641,0.812943,0.8082563,1.044064,-1.363641E-05,1.343691
791.9565,0.04497092,0.0004586574,NaN,-0.3271977,0.0004213428,NaN,-0.5027516,-14.5573,NaN,-1.333011,-1.465429,0.3281456,14.10774,NaN,NaN,0.4114641,0.812943,0.8082563,1.044064,-1.363641E-05,1.343691
791.9708,0.0449709,0.0004579436,NaN,-0.3271969,0.0004212431,NaN,-0.5024814,-14.55722,NaN,-1.334497,-1.468438,0.3292267,14.1109,NaN,NaN,0.4181617,0.8131162,0.8105044,1.048434,-1.335638E-05,1.343975
791.9866,0.04497086,0.0004570511,NaN,-0.327196,0.0004212511,NaN,-0.5017201,-14.5573,NaN,-1.336429,-1.465466,0.3296853,14.10777,NaN,NaN,0.425052,0.8129399,0.8106357,1.044115,-1.308395E-05,1.343648
792.0018,0.04497074,0.0004571725,NaN,-0.3271952,0.0004210421,NaN,-0.4991641,-14.5586,NaN,-1.339735,-1.476566,0.3284128,14.11966,NaN,NaN,0.4320771,0.8119611,0.8063256,1.060313,-1.282221E-05,1.354028
792.0167,0.04497074,0.0004571725,NaN,-0.3271952,0.0004210421,NaN,-0.4991641,-14.5586,NaN,-1.339735,-1.476566,0.3284128,14.11966,NaN,NaN,0.4320771,0.8119611,0.8063256,1.060313,-1.282221E-05,1.354028
792.031,0.0449707,0.0004576361,NaN,-0.3271944,0.0004208283,NaN,-0.4980443,-14.5589,NaN,-1.339578,-1.478405,0.3296219,14.12163,NaN,NaN,0.4372486,0.8116861,0.8072041,1.062994,-1.258301E-05,1.356076
792.0468,0.04497064,0.0004577286,NaN,-0.3271935,0.0004214138,NaN,-0.496455,-14.55704,NaN,-1.342017,-1.466843,0.330142,14.10924,NaN,NaN,0.4443146,0.8133463,0.807986,1.046153,-1.23482E-05,1.343365
792.0617,0.04497052,0.0004580427,NaN,-0.3271927,0.0004212036,NaN,-0.4950666,-14.55839,NaN,-1.344277,-1.477844,0.3304056,14.12104,NaN,NaN,0.4500054,0.8122997,0.8069195,1.062212,-1.210028E-05,1.353632
792.0767,0.04497052,0.0004580427,NaN,-0.3271927,0.0004212036,NaN,-0.4950666,-14.55839,NaN,-1.344277,-1.477844,0.3304056,14.12104,NaN,NaN,0.4500054,0.8122997,0.8069195,1.062212,-1.210028E-05,1.353632
792.0962,0.04497043,0.0004581961,NaN,-0.3271919,0.0004219554,NaN,-0.4954188,-14.55725,NaN,-1.344892,-1.467236,0.3325284,14.10971,NaN,NaN,0.4541532,0.8132547,0.8082249,1.046759,-1.187729E-05,1.343934
792.1064,0.04497032,0.0004583261,NaN,-0.3271912,0.0004225241,NaN,-0.493173,-14.55731,NaN,-1.347,-1.468174,0.3325043,14.1107,NaN,NaN,0.4597279,0.8132086,0.8061379,1.048123,-1.163529E-05,1.344191
792.1213,0.04497019,0.0004591946,NaN,-0.3271904,0.0004225284,NaN,-0.4931734,-14.55721,NaN,-1.348236,-1.478733,0.334297,14.12184,NaN,NaN,0.4634217,0.8135714,0.8063156,1.063478,-1.14038E-05,1.345638
792.1362,0.04497019,0.0004591946,NaN,-0.3271904,0.0004225284,NaN,-0.4931734,-14.55721,NaN,-1.348236,-1.478733,0.334297,14.12184,NaN,NaN,0.4634217,0.8135714,0.8063156,1.063478,-1.14038E-05,1.345638
792.1507,0.04497015,0.0004598884,NaN,-0.3271896,0.0004221223,NaN,-0.4916435,-14.5575,NaN,-1.348159,-1.481054,0.3360557,14.12432,NaN,NaN,0.4684363,0.8132974,0.8082658,1.066863,-1.119586E-05,1.350001
792.1661,0.04497005,0.0004603628,NaN,-0.3271889,0.0004222897,NaN,-0.4900022,-14.55725,NaN,-1.351124,-1.475137,0.3366287,14.11803,NaN,NaN,0.4746254,0.8134553,0.8078916,1.058242,-1.099767E-05,1.349202
792.1812,0.04497001,0.0004604385,NaN,-0.3271881,0.0004227856,NaN,-0.4891033,-14.55704,NaN,-1.351216,-1.467854,0.3387393,14.11029,NaN,NaN,0.479559,0.8135093,0.8097802,1.047634,-1.078816E-05,1.343754
792.1965,0.04497001,0.0004604385,NaN,-0.3271881,0.0004227856,NaN,-0.4891033,-14.55704,NaN,-1.351216,-1.467854,0.3387393,14.11029,NaN,NaN,0.479559,0.8135093,0.8097802,1.047634,-1.078816E-05,1.343754
792.2108,0.04496998,0.0004603083,NaN,-0.3271873,0.0004227928,NaN,-0.4877377,-14.55728,NaN,-1.353184,-1.470968,0.3402941,14.1136,NaN,NaN,0.486272,0.8133489,0.8109663,1.052169,-1.057493E-05,1.342931
792.2264,0.04496986,0.0004603118,NaN,-0.3271866,0.0004229076,NaN,-0.4855736,-14.55801,NaN,-1.356175,-1.471217,0.3403957,14.11395,NaN,NaN,0.4923754,0.8126232,0.8081993,1.052553,-1.035968E-05,1.346745
792.2411,0.04496977,0.000460682,NaN,-0.3271859,0.0004224464,NaN,-0.4853411,-14.55804,NaN,-1.356957,-1.479761,0.3428262,14.12296,NaN,NaN,0.4962683,0.8127842,0.8083403,1.064974,-1.015501E-05,1.350087
792.2564,0.04496977,0.000460682,NaN,-0.3271859,0.0004224464,NaN,-0.4853411,-14.55804,NaN,-1.356957,-1.479761,0.3428262,14.12296,NaN,NaN,0.4962683,0.8127842,0.8083403,1.064974,-1.015501E-05,1.350087
792.2704,0.04496965,0.0004608806,NaN,-0.3271852,0.0004214984,NaN,-0.4827553,-14.55828,NaN,-1.359107,-1.480423,0.3433396,14.12368,NaN,NaN,0.5013538,0.8125464,0.8060142,1.065941,-9.942968E-06,1.349499
792.287,0.04496953,0.0004604169,NaN,-0.3271844,0.0004205176,NaN,-0.4814388,-14.55705,NaN,-1.360457,-1.472854,0.3451869,14.11555,NaN,NaN,0.5053221,0.8136547,0.8061976,1.054907,-9.751786E-06,1.341136
792.3026,0.04496942,0.0004600608,NaN,-0.3271837,0.0004199207,NaN,-0.4804477,-14.55675,NaN,-1.361688,-1.47186,0.3473576,14.11446,NaN,NaN,0.5090303,0.8139327,0.8071089,1.053452,-9.569396E-06,1.338978
792.3162,0.04496942,0.0004600608,NaN,-0.3271837,0.0004199207,NaN,-0.4804477,-14.55675,NaN,-1.361688,-1.47186,0.3473576,14.11446,NaN,NaN,0.5090303,0.8139327,0.8071089,1.053452,-9.569396E-06,1.338978
792.3301,0.04496931,0.0004603011,NaN,-0.327183,0.0004194466,NaN,-0.480015,-14.55844,NaN,-1.362763,-1.476802,0.3498753,14.1199,NaN,NaN,0.5122866,0.8123558,0.8080994,1.060703,-9.396394E-06,1.349483
792.3458,0.04496916,0.0004606353,NaN,-0.3271824,0.0004192533,NaN,-0.478682,-14.55858,NaN,-1.364341,-1.475614,0.3513252,14.11866,NaN,NaN,0.5155055,0.8122005,0.8067485,1.05898,-9.230991E-06,1.34959
792.3613,0.04496912,0.0004610559,NaN,-0.3271817,0.0004185643,NaN,-0.4764624,-14.55744,NaN,-1.364703,-1.481064,0.3534909,14.12427,NaN,NaN,0.5200467,0.8134275,0.8080472,1.066871,-9.047856E-06,1.345664
792.3758,0.04496912,0.0004610559,NaN,-0.3271817,0.0004185643,NaN,-0.4764624,-14.55744,NaN,-1.364703,-1.481064,0.3534909,14.12427,NaN,NaN,0.5200467,0.8134275,0.8080472,1.066871,-9.047856E-06,1.345664
792.39,0.044969,0.000461034,NaN,-0.327181,0.000418566,NaN,-0.4750999,-14.5562,NaN,-1.366937,-1.469007,0.3553092,14.11139,NaN,NaN,0.5245646,0.814495,0.8084038,1.049297,-8.871203E-06,1.33505
792.4057,0.04496888,0.0004613873,NaN,-0.3271803,0.0004179912,NaN,-0.4735188,-14.55794,NaN,-1.368428,-1.480168,0.3569492,14.12343,NaN,NaN,0.5283116,0.8130547,0.8077841,1.065617,-8.70133E-06,1.347363
792.4208,0.04496877,0.0004616228,NaN,-0.3271797,0.0004174582,NaN,-0.4718149,-14.55847,NaN,-1.369869,-1.4771,0.3586641,14.12023,NaN,NaN,0.5319031,0.8124874,0.8071415,1.061161,-8.549636E-06,1.347232
792.4362,0.04496877,0.0004616228,NaN,-0.3271797,0.0004174582,NaN,-0.4718149,-14.55847,NaN,-1.369869,-1.4771,0.3586641,14.12023,NaN,NaN,0.5319031,0.8124874,0.8071415,1.061161,-8.549636E-06,1.347232
792.4502,0.04496864,0.00046205,NaN,-0.327179,0.0004165782,NaN,-0.4698878,-14.55729,NaN,-1.371364,-1.481788,0.3602924,14.12504,NaN,NaN,0.535414,0.8137344,0.8065569,1.067946,-8.379316E-06,1.344832
792.4659,0.04496851,0.000462249,NaN,-0.3271784,0.0004169998,NaN,-0.4677986,-14.55653,NaN,-1.372867,-1.46897,0.3618494,14.11139,NaN,NaN,0.5387567,0.8143303,0.8060784,1.049266,-8.214658E-06,1.336303
792.4807,0.04496837,0.0004625937,NaN,-0.3271777,0.0004165804,NaN,-0.4656257,-14.55692,NaN,-1.374347,-1.478841,0.3633714,14.12188,NaN,NaN,0.5418998,0.8142003,0.80575,1.063651,-8.048957E-06,1.341799
792.4968,0.04496837,0.0004625937,NaN,-0.3271777,0.0004165804,NaN,-0.4656257,-14.55692,NaN,-1.374347,-1.478841,0.3633714,14.12188,NaN,NaN,0.5418998,0.8142003,0.80575,1.063651,-8.048957E-06,1.341799
792.5099,0.04496823,0.0004629231,NaN,-0.327177,0.0004173988,NaN,-0.463419,-14.55686,NaN,-1.375786,-1.468823,0.3649006,14.11125,NaN,NaN,0.5448349,0.8140926,0.8055464,1.04905,-7.882809E-06,1.341848
792.5256,0.04496808,0.0004627249,NaN,-0.3271764,0.00041772,NaN,-0.4612193,-14.55646,NaN,-1.377182,-1.467045,0.3664464,14.1093,NaN,NaN,0.5475813,0.8144388,0.8054485,1.046439,-7.725751E-06,1.333901
792.5403,0.04496793,0.0004626084,NaN,-0.3271758,0.0004179392,NaN,-0.4590699,-14.55755,NaN,-1.378521,-1.471046,0.368058,14.11368,NaN,NaN,0.5501421,0.8134556,0.8054404,1.052306,-7.581806E-06,1.340616
792.5552,0.04496793,0.0004626084,NaN,-0.3271758,0.0004179392,NaN,-0.4590699,-14.55755,NaN,-1.378521,-1.471046,0.368058,14.11368,NaN,NaN,0.5501421,0.8134556,0.8054404,1.052306,-7.581806E-06,1.340616
792.5696,0.04496779,0.0004624597,NaN,-0.3271751,0.0004184292,NaN,-0.4569768,-14.55722,NaN,-1.379815,-1.466892,0.3697173,14.10923,NaN,NaN,0.5525513,0.8136786,0.8054841,1.046246,-7.428026E-06,1.338778
792.5853,0.04496764,0.0004624357,NaN,-0.3271745,0.00041878,NaN,-0.4549861,-14.55795,NaN,-1.381047,-1.468807,0.3714831,14.11135,NaN,NaN,0.5548046,0.8130014,0.8055999,1.04906,-7.292425E-06,1.343153
792.6007,0.04496749,0.0004623751,NaN,-0.3271739,0.0004193117,NaN,-0.4530552,-14.5577,NaN,-1.38225,-1.466142,0.373292,14.10849,NaN,NaN,0.5569509,0.8131775,0.8057056,1.04517,-7.148629E-06,1.341275
792.6155,0.04496749,0.0004623751,NaN,-0.3271739,0.0004193117,NaN,-0.4530552,-14.5577,NaN,-1.38225,-1.466142,0.373292,14.10849,NaN,NaN,0.5569509,0.8131775,0.8057056,1.04517,-7.148629E-06,1.341275
792.6296,0.04496734,0.0004628837,NaN,-0.3271733,0.0004192267,NaN,-0.4512695,-14.55864,NaN,-1.383376,-1.47777,0.3752469,14.12089,NaN,NaN,0.5589523,0.8125689,0.8059029,1.06212,-7.010942E-06,1.350833
792.6454,0.04496719,0.0004631727,NaN,-0.3271727,0.0004197321,NaN,-0.449485,-14.55897,NaN,-1.384512,-1.470406,0.3771822,14.11315,NaN,NaN,0.5609026,0.8121257,0.805981,1.051417,-6.886517E-06,1.350971
792.6605,0.04496704,0.0004632628,NaN,-0.3271721,0.0004201744,NaN,-0.4479474,-14.55846,NaN,-1.385521,-1.468616,0.3793704,14.11119,NaN,NaN,0.5626746,0.8125845,0.8062918,1.048795,-6.755983E-06,1.346594
792.6752,0.04496704,0.0004632628,NaN,-0.3271721,0.0004201744,NaN,-0.4479474,-14.55846,NaN,-1.385521,-1.468616,0.3793704,14.11119,NaN,NaN,0.5626746,0.8125845,0.8062918,1.048795,-6.755983E-06,1.346594
792.6915,0.04496689,0.0004633437,NaN,-0.3271715,0.000420874,NaN,-0.4461887,-14.55834,NaN,-1.386658,-1.465978,0.3813201,14.10838,NaN,NaN,0.5645144,0.8126343,0.8061572,1.044952,-6.616061E-06,1.346936
792.705,0.04496675,0.0004626479,NaN,-0.3271709,0.0004207978,NaN,-0.4450845,-14.55769,NaN,-1.387455,-1.46541,0.3839397,14.10769,NaN,NaN,0.5659802,0.813256,0.8068681,1.044098,-6.489699E-06,1.343794
792.7199,0.04496675,0.0004626479,NaN,-0.3271709,0.0004207978,NaN,-0.4450845,-14.55769,NaN,-1.387455,-1.46541,0.3839397,14.10769,NaN,NaN,0.5659802,0.813256,0.8068681,1.044098,-6.489699E-06,1.343794
792.7341,0.04496665,0.0004621275,NaN,-0.3271703,0.0004210291,NaN,-0.4420877,-14.55844,NaN,-1.388553,-1.466816,0.3855359,14.10927,NaN,NaN,0.5694067,0.812553,0.8070994,1.046172,-6.34933E-06,1.348556
792.7498,0.04496651,0.0004613012,NaN,-0.3271697,0.0004210969,NaN,-0.4394647,-14.55767,NaN,-1.390393,-1.464983,0.3867778,14.10722,NaN,NaN,0.5726653,0.8132615,0.8069312,1.043475,-6.232952E-06,1.343482
792.7662,0.04496636,0.0004607072,NaN,-0.3271692,0.0004209924,NaN,-0.4381078,-14.55888,NaN,-1.391539,-1.470267,0.3889311,14.11297,NaN,NaN,0.574409,0.8122146,0.8071272,1.051211,-6.109123E-06,1.351844
792.7798,0.04496636,0.0004607072,NaN,-0.3271692,0.0004209924,NaN,-0.4381078,-14.55888,NaN,-1.391539,-1.470267,0.3889311,14.11297,NaN,NaN,0.574409,0.8122146,0.8071272,1.051211,-6.109123E-06,1.351844
792.7943,0.04496622,0.0004601377,NaN,-0.3271686,0.0004213407,NaN,-0.4372435,-14.5578,NaN,-1.39232,-1.465642,0.3916648,14.10795,NaN,NaN,0.5756218,0.8131756,0.8075515,1.044451,-5.989616E-06,1.344487
792.8099,0.04496607,0.0004603597,NaN,-0.327168,0.0004210681,NaN,-0.4361928,-14.55775,NaN,-1.393177,-1.477943,0.3942745,14.12093,NaN,NaN,0.5768979,0.8135744,0.8075505,1.06234,-5.89708E-06,1.349372
792.825,0.04496593,0.0004605081,NaN,-0.3271675,0.0004218445,NaN,-0.4352205,-14.5578,NaN,-1.393981,-1.467303,0.3969948,14.10967,NaN,NaN,0.5780624,0.8133436,0.8075747,1.04685,-5.769526E-06,1.34478
792.8398,0.04496593,0.0004605081,NaN,-0.3271675,0.0004218445,NaN,-0.4352205,-14.5578,NaN,-1.393981,-1.467303,0.3969948,14.10967,NaN,NaN,0.5780624,0.8133436,0.8075747,1.04685,-5.769526E-06,1.34478
792.8542,0.04496578,0.0004602598,NaN,-0.327167,0.0004221461,NaN,-0.4341669,-14.55807,NaN,-1.394815,-1.466796,0.3996526,14.10917,NaN,NaN,0.5792112,0.8130551,0.8074949,1.046121,-5.653595E-06,1.346103
792.8695,0.04496564,0.0004602352,NaN,-0.3271664,0.0004221193,NaN,-0.4331333,-14.55919,NaN,-1.395628,-1.473152,0.4023326,14.11602,NaN,NaN,0.5802706,0.8121213,0.8074762,1.055409,-5.547946E-06,1.354941
792.8857,0.04496549,0.0004604595,NaN,-0.3271659,0.0004214025,NaN,-0.4320538,-14.55865,NaN,-1.396438,-1.480804,0.4049702,14.12402,NaN,NaN,0.5812854,0.8128116,0.8074571,1.066513,-5.437975E-06,1.354285
792.8997,0.04496549,0.0004604595,NaN,-0.3271659,0.0004214025,NaN,-0.4320538,-14.55865,NaN,-1.396438,-1.480804,0.4049702,14.12402,NaN,NaN,0.5812854,0.8128116,0.8074571,1.066513,-5.437975E-06,1.354285
792.9139,0.04496535,0.0004607576,NaN,-0.3271654,0.0004217801,NaN,-0.4309245,-14.55748,NaN,-1.397231,-1.472242,0.4075658,14.11485,NaN,NaN,0.5822598,0.8138499,0.8074431,1.054034,-5.337542E-06,1.345734
792.9294,0.0449652,0.0004608288,NaN,-0.3271649,0.0004220859,NaN,-0.4297712,-14.55835,NaN,-1.398019,-1.469867,0.4101366,14.11244,NaN,NaN,0.5831934,0.8129312,0.8074554,1.050604,-5.231296E-06,1.34809
792.9444,0.04496505,0.0004608213,NaN,-0.3271644,0.0004225608,NaN,-0.428618,-14.55778,NaN,-1.398792,-1.467423,0.4126996,14.10978,NaN,NaN,0.5840746,0.8134352,0.8075023,1.047029,-5.123561E-06,1.346785
792.9593,0.04496505,0.0004608213,NaN,-0.3271644,0.0004225608,NaN,-0.428618,-14.55778,NaN,-1.398792,-1.467423,0.4126996,14.10978,NaN,NaN,0.5840746,0.8134352,0.8075023,1.047029,-5.123561E-06,1.346785
792.9736,0.04496491,0.0004609749,NaN,-0.3271639,0.0004224537,NaN,-0.4274763,-14.55913,NaN,-1.399548,-1.475387,0.4152613,14.11837,NaN,NaN,0.5848989,0.8123074,0.807572,1.058671,-5.001073E-06,1.354517
792.9894,0.04496476,0.0004612027,NaN,-0.3271634,0.0004224427,NaN,-0.4263587,-14.55922,NaN,-1.400285,-1.474695,0.4178312,14.11765,NaN,NaN,0.5856666,0.8122053,0.8076618,1.05767,-4.885738E-06,1.355143
793.0045,0.04496462,0.0004619206,NaN,-0.3271629,0.000422194,NaN,-0.4252681,-14.55781,NaN,-1.401005,-1.480677,0.4204005,14.12379,NaN,NaN,0.5863916,0.8137273,0.8077726,1.066325,-4.773533E-06,1.349472
793.0193,0.04496462,0.0004619206,NaN,-0.3271629,0.000422194,NaN,-0.4252681,-14.55781,NaN,-1.401005,-1.480677,0.4204005,14.12379,NaN,NaN,0.5863916,0.8137273,0.8077726,1.066325,-4.773533E-06,1.349472
793.0335,0.04496447,0.0004622257,NaN,-0.3271624,0.0004227608,NaN,-0.4242008,-14.55832,NaN,-1.401703,-1.469675,0.4229662,14.1122,NaN,NaN,0.5870658,0.8130637,0.8078718,1.050316,-4.668032E-06,1.348306
793.0493,0.04496433,0.0004625652,NaN,-0.327162,0.0004225851,NaN,-0.4231764,-14.55876,NaN,-1.402376,-1.477879,0.4255542,14.12092,NaN,NaN,0.5876848,0.812829,0.8079859,1.062265,-4.570728E-06,1.351963
793.0643,0.04496424,0.0004626024,NaN,-0.3271615,0.0004230459,NaN,-0.420587,-14.55752,NaN,-1.403164,-1.468431,0.4275866,14.1108,NaN,NaN,0.5902487,0.8139065,0.8084487,1.048492,-4.488474E-06,1.344761
793.0792,0.04496424,0.0004626024,NaN,-0.3271615,0.0004230459,NaN,-0.420587,-14.55752,NaN,-1.403164,-1.468431,0.4275866,14.1108,NaN,NaN,0.5902487,0.8139065,0.8084487,1.048492,-4.488474E-06,1.344761
793.0955,0.04496412,0.000462477,NaN,-0.327161,0.0004234608,NaN,-0.4180673,-14.5579,NaN,-1.404744,-1.466974,0.4290668,14.1093,NaN,NaN,0.5930175,0.813485,0.8085927,1.046383,-4.396385E-06,1.345302
793.1091,0.04496399,0.0004623722,NaN,-0.3271605,0.0004240155,NaN,-0.4166077,-14.55806,NaN,-1.40581,-1.465685,0.4310618,14.10795,NaN,NaN,0.5943651,0.8132843,0.8086393,1.044513,-4.315024E-06,1.34858
793.1241,0.04496386,0.0004621312,NaN,-0.32716,0.0004243559,NaN,-0.4158969,-14.55836,NaN,-1.406386,-1.46653,0.4338895,14.10887,NaN,NaN,0.5950412,0.8130149,0.8092145,1.045752,-4.247373E-06,1.346046
793.1388,0.04496386,0.0004621312,NaN,-0.32716,0.0004243559,NaN,-0.4158969,-14.55836,NaN,-1.406386,-1.46653,0.4338895,14.10887,NaN,NaN,0.5950412,0.8130149,0.8092145,1.045752,-4.247373E-06,1.346046
793.1532,0.04496372,0.0004621999,NaN,-0.3271595,0.0004246931,NaN,-0.4148422,-14.55924,NaN,-1.407119,-1.469589,0.4364323,14.11222,NaN,NaN,0.5959241,0.812224,0.8091667,1.050234,-4.174059E-06,1.352456
793.1688,0.04496359,0.0004626156,NaN,-0.3271591,0.0004245578,NaN,-0.4139376,-14.55939,NaN,-1.407769,-1.477766,0.4391537,14.12085,NaN,NaN,0.5966749,0.8122733,0.8092378,1.062122,-4.104173E-06,1.35566
793.1839,0.04496346,0.0004626944,NaN,-0.3271586,0.0004252039,NaN,-0.4129079,-14.55817,NaN,-1.408472,-1.46695,0.4417669,14.1093,NaN,NaN,0.5974674,0.8133016,0.809158,1.046369,-4.017746E-06,1.345103
793.1991,0.04496346,0.0004626944,NaN,-0.3271586,0.0004252039,NaN,-0.4129079,-14.55817,NaN,-1.408472,-1.46695,0.4417669,14.1093,NaN,NaN,0.5974674,0.8133016,0.809158,1.046369,-4.017746E-06,1.345103
793.2133,0.04496333,0.0004627221,NaN,-0.3271582,0.000425512,NaN,-0.411927,-14.55904,NaN,-1.409141,-1.469219,0.4444225,14.11181,NaN,NaN,0.5981575,0.8125012,0.8091502,1.049703,-3.929233E-06,1.350676
793.229,0.0449632,0.0004632719,NaN,-0.3271577,0.0004255285,NaN,-0.410938,-14.55956,NaN,-1.4098,-1.476994,0.4470574,14.12007,NaN,NaN,0.5987782,0.8121837,0.8091414,1.061023,-3.847575E-06,1.355987
793.2456,0.04496307,0.0004632117,NaN,-0.3271573,0.0004257548,NaN,-0.4099883,-14.55831,NaN,-1.410425,-1.467035,0.449712,14.10942,NaN,NaN,0.5992989,0.8132565,0.8091765,1.046517,-3.757721E-06,1.346226
793.2591,0.04496307,0.0004632117,NaN,-0.3271573,0.0004257548,NaN,-0.4099883,-14.55831,NaN,-1.410425,-1.467035,0.449712,14.10942,NaN,NaN,0.5992989,0.8132565,0.8091765,1.046517,-3.757721E-06,1.346226
793.2734,0.04496294,0.0004636339,NaN,-0.3271568,0.0004253814,NaN,-0.4090584,-14.55869,NaN,-1.411027,-1.479415,0.4523658,14.12255,NaN,NaN,0.5997428,0.81322,0.8092239,1.064539,-3.680682E-06,1.352747
793.2898,0.04496281,0.0004640024,NaN,-0.3271564,0.000425386,NaN,-0.4081535,-14.5598,NaN,-1.411605,-1.474942,0.4550232,14.11793,NaN,NaN,0.600117,0.8120534,0.8092865,1.05805,-3.609752E-06,1.357323
793.3038,0.04496268,0.0004642525,NaN,-0.327156,0.0004250624,NaN,-0.4072658,-14.55958,NaN,-1.412163,-1.476886,0.4576759,14.11994,NaN,NaN,0.6004363,0.8123051,0.8093541,1.060867,-3.54672E-06,1.354205
793.3187,0.04496268,0.0004642525,NaN,-0.327156,0.0004250624,NaN,-0.4072658,-14.55958,NaN,-1.412163,-1.476886,0.4576759,14.11994,NaN,NaN,0.6004363,0.8123051,0.8093541,1.060867,-3.54672E-06,1.354205
793.3328,0.04496255,0.0004644419,NaN,-0.3271556,0.0004251253,NaN,-0.4063934,-14.55952,NaN,-1.412704,-1.472827,0.4603214,14.11565,NaN,NaN,0.6007091,0.8122946,0.8094255,1.054962,-3.478473E-06,1.354306
793.3485,0.04496242,0.0004644509,NaN,-0.3271552,0.0004256724,NaN,-0.4055342,-14.55852,NaN,-1.413229,-1.466748,0.4629575,14.1091,NaN,NaN,0.6009431,0.8131558,0.8095009,1.046092,-3.405606E-06,1.348678
793.3635,0.04496229,0.0004642058,NaN,-0.3271548,0.0004260411,NaN,-0.4046844,-14.55867,NaN,-1.413743,-1.46602,0.465579,14.10835,NaN,NaN,0.6011456,0.8129911,0.8095765,1.045036,-3.321564E-06,1.346971
793.3785,0.04496229,0.0004642058,NaN,-0.3271548,0.0004260411,NaN,-0.4046844,-14.55867,NaN,-1.413743,-1.46602,0.465579,14.10835,NaN,NaN,0.6011456,0.8129911,0.8095765,1.045036,-3.321564E-06,1.346971
793.3931,0.04496216,0.0004644663,NaN,-0.3271543,0.000425753,NaN,-0.4038488,-14.55955,NaN,-1.414243,-1.477841,0.4681895,14.12094,NaN,NaN,0.6013157,0.8124531,0.8096582,1.062261,-3.241694E-06,1.356517
793.4085,0.04496203,0.000464415,NaN,-0.327154,0.0004253105,NaN,-0.403022,-14.55911,NaN,-1.414731,-1.474122,0.4707837,14.11696,NaN,NaN,0.6014605,0.8128203,0.8097401,1.056842,-3.18045E-06,1.351688
793.4236,0.04496195,0.0004644024,NaN,-0.3271535,0.0004258545,NaN,-0.4007768,-14.55868,NaN,-1.415411,-1.467041,0.4728815,14.10943,NaN,NaN,0.6034946,0.8131021,0.8102076,1.046529,-3.128147E-06,1.347962
793.4385,0.04496195,0.0004644024,NaN,-0.3271535,0.0004258545,NaN,-0.4007768,-14.55868,NaN,-1.415411,-1.467041,0.4728815,14.10943,NaN,NaN,0.6034946,0.8131021,0.8102076,1.046529,-3.128147E-06,1.347962
793.4529,0.04496185,0.000464693,NaN,-0.3271531,0.0004254711,NaN,-0.3986012,-14.55907,NaN,-1.41668,-1.478933,0.474549,14.12203,NaN,NaN,0.6057139,0.8130454,0.8105258,1.063839,-3.079718E-06,1.353713
793.4684,0.04496173,0.0004649484,NaN,-0.3271527,0.0004263595,NaN,-0.3976322,-14.55874,NaN,-1.417395,-1.4676,0.4766387,14.11001,NaN,NaN,0.6063737,0.8131884,0.810443,1.047339,-3.01013E-06,1.348499
793.4844,0.04496161,0.000464767,NaN,-0.3271523,0.0004260097,NaN,-0.3966777,-14.55897,NaN,-1.417956,-1.475305,0.4789377,14.11818,NaN,NaN,0.6068383,0.8131601,0.8100563,1.058554,-2.957976E-06,1.350614
793.4984,0.04496161,0.000464767,NaN,-0.3271523,0.0004260097,NaN,-0.3966777,-14.55897,NaN,-1.417956,-1.475305,0.4789377,14.11818,NaN,NaN,0.6068383,0.8131601,0.8100563,1.058554,-2.957976E-06,1.350614
793.5127,0.04496148,0.0004646152,NaN,-0.3271519,0.0004252664,NaN,-0.3957123,-14.55973,NaN,-1.418491,-1.477894,0.481308,14.12099,NaN,NaN,0.6071494,0.8124445,0.8097616,1.06234,-2.892411E-06,1.352897
793.5281,0.04496136,0.0004647986,NaN,-0.3271515,0.0004256802,NaN,-0.394743,-14.55981,NaN,-1.419032,-1.470703,0.4836994,14.1134,NaN,NaN,0.6073714,0.8122374,0.8096138,1.051884,-2.826249E-06,1.355138
793.543,0.04496124,0.0004650788,NaN,-0.3271511,0.0004262245,NaN,-0.3938126,-14.55952,NaN,-1.419541,-1.46989,0.4860809,14.1125,NaN,NaN,0.6074628,0.8125025,0.8095345,1.050689,-2.788251E-06,1.353031
793.5582,0.04496124,0.0004650788,NaN,-0.3271511,0.0004262245,NaN,-0.3938126,-14.55952,NaN,-1.419541,-1.46989,0.4860809,14.1125,NaN,NaN,0.6074628,0.8125025,0.8095345,1.050689,-2.788251E-06,1.353031
793.5723,0.04496114,0.000464622,NaN,-0.3271508,0.0004260913,NaN,-0.3934934,-14.55902,NaN,-1.419435,-1.467718,0.4883612,14.11014,NaN,NaN,0.605895,0.8129393,0.8096605,1.047511,-2.729094E-06,1.34933
793.5878,0.04496107,0.0004640642,NaN,-0.3271504,0.0004262261,NaN,-0.3931157,-14.5588,NaN,-1.419403,-1.466558,0.4907696,14.10888,NaN,NaN,0.604382,0.8131146,0.8103139,1.045813,-2.679771E-06,1.347974
793.6031,0.04496101,0.0004634621,NaN,-0.32715,0.0004264744,NaN,-0.3927165,-14.55909,NaN,-1.419456,-1.466058,0.4930442,14.10838,NaN,NaN,0.6029711,0.8127976,0.8109434,1.045097,-2.62568E-06,1.347818
793.6179,0.04496101,0.0004634621,NaN,-0.32715,0.0004264744,NaN,-0.3927165,-14.55909,NaN,-1.419456,-1.466058,0.4930442,14.10838,NaN,NaN,0.6029711,0.8127976,0.8109434,1.045097,-2.62568E-06,1.347818
793.6324,0.04496096,0.0004634715,NaN,-0.3271496,0.0004259746,NaN,-0.392366,-14.55941,NaN,-1.419497,-1.478641,0.4952405,14.12171,NaN,NaN,0.6016029,0.8128319,0.8114181,1.063405,-2.564734E-06,1.354027
793.6479,0.04496093,0.0004639719,NaN,-0.3271492,0.0004254173,NaN,-0.3925563,-14.55979,NaN,-1.419038,-1.480882,0.4971416,14.12411,NaN,NaN,0.59872,0.8124868,0.8116571,1.066672,-2.50498E-06,1.356301
793.6628,0.04496092,0.0004640978,NaN,-0.3271488,0.0004249423,NaN,-0.3927291,-14.55882,NaN,-1.418696,-1.474992,0.4989017,14.11778,NaN,NaN,0.5953505,0.8133619,0.8115084,1.058086,-2.46579E-06,1.349769
793.6778,0.04496092,0.0004640978,NaN,-0.3271488,0.0004249423,NaN,-0.3927291,-14.55882,NaN,-1.418696,-1.474992,0.4989017,14.11778,NaN,NaN,0.5953505,0.8133619,0.8115084,1.058086,-2.46579E-06,1.349769
793.6942,0.04496092,0.0004641924,NaN,-0.3271484,0.0004241931,NaN,-0.3923279,-14.56026,NaN,-1.418419,-1.477474,0.5004078,14.12057,NaN,NaN,0.5921586,0.8119742,0.8112586,1.061739,-2.416467E-06,1.354456
793.7075,0.04496098,0.0004641059,NaN,-0.327148,0.0004243127,NaN,-0.3921409,-14.55897,NaN,-1.417779,-1.467982,0.5028753,14.1104,NaN,NaN,0.5901139,0.8130961,0.8138145,1.04791,-2.380258E-06,1.344816
793.7256,0.04496106,0.0004645182,NaN,-0.3271476,0.00042396,NaN,-0.3922516,-14.55983,NaN,-1.417248,-1.478814,0.5041161,14.12195,NaN,NaN,0.5873184,0.8125234,0.8144239,1.063696,-2.35269E-06,1.352404
793.7385,0.04496106,0.0004645182,NaN,-0.3271476,0.00042396,NaN,-0.3922516,-14.55983,NaN,-1.417248,-1.478814,0.5041161,14.12195,NaN,NaN,0.5873184,0.8125234,0.8144239,1.063696,-2.35269E-06,1.352404
793.7513,0.04496117,0.0004647819,NaN,-0.3271472,0.0004247769,NaN,-0.3924219,-14.55932,NaN,-1.41676,-1.46778,0.5053701,14.11024,NaN,NaN,0.5848109,0.8128616,0.8150975,1.047638,-2.301132E-06,1.347228
793.7672,0.0449613,0.0004647905,NaN,-0.3271468,0.0004253068,NaN,-0.3925634,-14.55968,NaN,-1.416271,-1.466638,0.5066679,14.10907,NaN,NaN,0.5827587,0.8124695,0.8160202,1.045987,-2.261495E-06,1.347678
793.7822,0.04496145,0.0004649547,NaN,-0.3271464,0.000425516,NaN,-0.3924908,-14.56073,NaN,-1.415897,-1.471536,0.5078263,14.11437,NaN,NaN,0.5813232,0.8115547,0.8168836,1.053146,-2.221411E-06,1.355054
793.7974,0.04496145,0.0004649547,NaN,-0.3271464,0.000425516,NaN,-0.3924908,-14.56073,NaN,-1.415897,-1.471536,0.5078263,14.11437,NaN,NaN,0.5813232,0.8115547,0.8168836,1.053146,-2.221411E-06,1.355054
793.8116,0.04496164,0.0004649092,NaN,-0.3271459,0.0004259748,NaN,-0.392599,-14.55969,NaN,-1.415209,-1.466818,0.5085694,14.10927,NaN,NaN,0.5788352,0.8124774,0.8174169,1.046257,-2.19593E-06,1.34836
793.8271,0.04496182,0.0004646266,NaN,-0.3271455,0.0004260717,NaN,-0.3929852,-14.55995,NaN,-1.414958,-1.468833,0.5090368,14.11142,NaN,NaN,0.5758419,0.8122761,0.8171258,1.049195,-2.148097E-06,1.347978
793.8421,0.04496203,0.0004640089,NaN,-0.3271451,0.0004260458,NaN,-0.3933424,-14.55928,NaN,-1.414272,-1.466955,0.5098925,14.10935,NaN,NaN,0.5728731,0.8128822,0.8177701,1.046438,-2.08745E-06,1.345142
793.8571,0.04496203,0.0004640089,NaN,-0.3271451,0.0004260458,NaN,-0.3933424,-14.55928,NaN,-1.414272,-1.466955,0.5098925,14.10935,NaN,NaN,0.5728731,0.8128822,0.8177701,1.046438,-2.08745E-06,1.345142
793.8713,0.04496222,0.0004638906,NaN,-0.3271447,0.0004257069,NaN,-0.393315,-14.56096,NaN,-1.414301,-1.475435,0.5110312,14.11852,NaN,NaN,0.571933,0.8114437,0.8187115,1.058836,-2.046024E-06,1.356643
793.887,0.04496242,0.0004638884,NaN,-0.3271442,0.0004263182,NaN,-0.3931793,-14.55981,NaN,-1.414186,-1.46712,0.5122138,14.10962,NaN,NaN,0.5718691,0.8124309,0.8199408,1.046728,-1.979863E-06,1.349943
793.903,0.0449626,0.000463811,NaN,-0.3271438,0.0004268535,NaN,-0.3925812,-14.55994,NaN,-1.414376,-1.465957,0.5127027,14.10841,NaN,NaN,0.5723643,0.8122706,0.8196643,1.045041,-1.932626E-06,1.350273
793.9168,0.0449626,0.000463811,NaN,-0.3271438,0.0004268535,NaN,-0.3925812,-14.55994,NaN,-1.414376,-1.465957,0.5127027,14.10841,NaN,NaN,0.5723643,0.8122706,0.8196643,1.045041,-1.932626E-06,1.350273
793.931,0.04496276,0.0004643602,NaN,-0.3271434,0.000426697,NaN,-0.3925193,-14.55985,NaN,-1.414807,-1.478197,0.5132473,14.1213,NaN,NaN,0.5723477,0.812704,0.8187471,1.062824,-1.875555E-06,1.35241
793.947,0.04496294,0.0004644743,NaN,-0.327143,0.0004271583,NaN,-0.3918446,-14.55977,NaN,-1.414908,-1.4688,0.5139368,14.11136,NaN,NaN,0.5730568,0.8126186,0.8188725,1.049154,-1.814758E-06,1.349781
793.9618,0.04496308,0.000464406,NaN,-0.3271426,0.0004276792,NaN,-0.3916585,-14.56021,NaN,-1.415479,-1.465914,0.5142699,14.10836,NaN,NaN,0.5731097,0.8121116,0.8179273,1.044972,-1.779591E-06,1.350251
793.9767,0.04496308,0.000464406,NaN,-0.3271426,0.0004276792,NaN,-0.3916585,-14.56021,NaN,-1.415479,-1.465914,0.5142699,14.10836,NaN,NaN,0.5731097,0.8121116,0.8179273,1.044972,-1.779591E-06,1.350251
793.991,0.04496328,0.0004638225,NaN,-0.3271422,0.0004277629,NaN,-0.3916413,-14.55987,NaN,-1.41519,-1.46526,0.5156242,14.10762,NaN,NaN,0.573282,0.8124295,0.8194175,1.044006,-1.730418E-06,1.346284
794.0068,0.04496344,0.0004638701,NaN,-0.3271418,0.0004272106,NaN,-0.3914471,-14.55983,NaN,-1.415297,-1.477791,0.5162407,14.12083,NaN,NaN,0.5732763,0.8128326,0.8191968,1.062215,-1.727735E-06,1.351096
794.0219,0.04496351,0.0004637791,NaN,-0.3271414,0.0004274227,NaN,-0.3910179,-14.55976,NaN,-1.415468,-1.468359,0.5168854,14.11085,NaN,NaN,0.573604,0.8127311,0.8190446,1.048492,-1.692569E-06,1.346745
794.0367,0.04496351,0.0004637791,NaN,-0.3271414,0.0004274227,NaN,-0.3910179,-14.55976,NaN,-1.415468,-1.468359,0.5168854,14.11085,NaN,NaN,0.573604,0.8127311,0.8190446,1.048492,-1.692569E-06,1.346745
794.0511,0.04496352,0.0004640289,NaN,-0.327141,0.0004279462,NaN,-0.3909259,-14.56062,NaN,-1.415675,-1.469464,0.5176136,14.11212,NaN,NaN,0.5735319,0.8119013,0.8187659,1.050127,-1.663213E-06,1.352225
794.0668,0.04496353,0.000464063,NaN,-0.3271407,0.0004284799,NaN,-0.3903524,-14.56025,NaN,-1.415859,-1.466594,0.5181558,14.10904,NaN,NaN,0.5739201,0.8121851,0.8185552,1.045941,-1.601225E-06,1.349036
794.0817,0.04496352,0.0004644826,NaN,-0.3271403,0.0004282398,NaN,-0.3903384,-14.56055,NaN,-1.416228,-1.478631,0.518674,14.12176,NaN,NaN,0.5736188,0.8122236,0.8178878,1.063441,-1.56576E-06,1.355511
794.0978,0.04496352,0.0004644826,NaN,-0.3271403,0.0004282398,NaN,-0.3903384,-14.56055,NaN,-1.416228,-1.478631,0.518674,14.12176,NaN,NaN,0.5736188,0.8122236,0.8178878,1.063441,-1.56576E-06,1.355511
794.112,0.04423562,0.0004646202,NaN,-0.3271417,0.0004289584,NaN,-0.3902821,-14.56045,NaN,-1.415112,-1.467097,0.5204494,14.10957,NaN,NaN,0.5737625,0.8121341,0.8205559,1.046669,-1.524633E-06,1.350666
794.1265,0.04305268,0.0004646177,NaN,-0.3271437,0.0004295333,NaN,-0.3906205,-14.56074,NaN,-1.414062,-1.466128,0.5212955,14.10858,NaN,NaN,0.5731419,0.8118122,0.820964,1.045271,-1.497214E-06,1.351853
794.1413,0.04158843,0.0004648838,NaN,-0.3271456,0.0004296787,NaN,-0.3907258,-14.56203,NaN,-1.41235,-1.47322,0.5224131,14.11622,NaN,NaN,0.5728139,0.8107346,0.8218994,1.055622,-1.460707E-06,1.362023
794.1564,0.04158843,0.0004648838,NaN,-0.3271456,0.0004296787,NaN,-0.3907258,-14.56203,NaN,-1.41235,-1.47322,0.5224131,14.11622,NaN,NaN,0.5728139,0.8107346,0.8218994,1.055622,-1.460707E-06,1.362023
794.1707,0.03922508,0.0004655715,NaN,-0.3271497,0.0004295146,NaN,-0.3910943,-14.56148,NaN,-1.409576,-1.479858,0.524236,14.12313,NaN,NaN,0.5726469,0.8114134,0.8244931,1.065236,-1.442229E-06,1.359736
794.1865,0.03630583,0.0004655565,NaN,-0.3271542,0.0004297023,NaN,-0.3953227,-14.5605,NaN,-1.405742,-1.467022,0.5278064,14.1095,NaN,NaN,0.5690165,0.8122081,0.8274252,1.04657,-1.413172E-06,1.352881
794.2027,0.03304916,0.0004656657,NaN,-0.3271582,0.0004296418,NaN,-0.3982593,-14.56044,NaN,-1.400985,-1.472893,0.5309702,14.11568,NaN,NaN,0.5664146,0.8124314,0.8288075,1.055105,-1.370555E-06,1.3521
794.2164,0.03304916,0.0004656657,NaN,-0.3271582,0.0004296418,NaN,-0.3982593,-14.56044,NaN,-1.400985,-1.472893,0.5309702,14.11568,NaN,NaN,0.5664146,0.8124314,0.8288075,1.055105,-1.370555E-06,1.3521
794.2308,0.02959384,0.0004663009,NaN,-0.3271615,0.0004293745,NaN,-0.3968686,-14.56066,NaN,-1.397923,-1.479638,0.5311537,14.12283,NaN,NaN,0.5679922,0.8123579,0.827315,1.064924,-1.339113E-06,1.355075
794.2466,0.02529963,0.0004665844,NaN,-0.3271663,0.0004298055,NaN,-0.4032735,-14.56024,NaN,-1.392,-1.471001,0.5360699,14.11367,NaN,NaN,0.5626262,0.8126447,0.8299141,1.05236,-1.29143E-06,1.35137
794.2619,0.02049568,0.0004668888,NaN,-0.3271708,0.0004293677,NaN,-0.4095464,-14.5609,NaN,-1.384896,-1.479315,0.541385,14.12253,NaN,NaN,0.5569608,0.8121886,0.83142,1.064473,-1.248067E-06,1.354771
794.2766,0.02049568,0.0004668888,NaN,-0.3271708,0.0004293677,NaN,-0.4095464,-14.5609,NaN,-1.384896,-1.479315,0.541385,14.12253,NaN,NaN,0.5569608,0.8121886,0.83142,1.064473,-1.248067E-06,1.354771
794.2929,0.01539117,0.000466623,NaN,-0.3271743,0.0004293672,NaN,-0.4089105,-14.5599,NaN,-1.379716,-1.46736,0.5415352,14.1098,NaN,NaN,0.5565645,0.8130009,0.8274093,1.047074,-1.223629E-06,1.346258
794.3064,0.01011893,0.0004664616,NaN,-0.3271764,0.0004288731,NaN,-0.4089763,-14.56206,NaN,-1.374479,-1.475544,0.5422807,14.11872,NaN,NaN,0.5556255,0.8110641,0.8256332,1.059054,-1.194274E-06,1.359831
794.3214,0.004034999,0.0004667981,NaN,-0.3271797,0.00042811,NaN,-0.4097273,-14.56119,NaN,-1.367968,-1.480803,0.5439302,14.12415,NaN,NaN,0.553957,0.8120351,0.8263659,1.066664,-1.152998E-06,1.35702
794.3362,0.004034999,0.0004667981,NaN,-0.3271797,0.00042811,NaN,-0.4097273,-14.56119,NaN,-1.367968,-1.480803,0.5439302,14.12415,NaN,NaN,0.553957,0.8120351,0.8263659,1.066664,-1.152998E-06,1.35702
794.3506,-0.002534225,0.0004667014,NaN,-0.3271822,0.0004274354,NaN,-0.4128446,-14.56035,NaN,-1.361099,-1.474012,0.5460142,14.11689,NaN,NaN,0.5486943,0.8127804,0.8259466,1.056772,-1.121631E-06,1.350336
794.3663,-0.009381188,0.0004667861,NaN,-0.3271832,0.0004278508,NaN,-0.4184718,-14.56047,NaN,-1.352172,-1.468542,0.549883,14.11111,NaN,NaN,0.540088,0.8125563,0.8257154,1.048817,-1.10293E-06,1.351212
794.3813,-0.01637417,0.0004671204,NaN,-0.3271833,0.0004276993,NaN,-0.4250849,-14.56178,NaN,-1.342363,-1.477002,0.5546283,14.1202,NaN,NaN,0.5300814,0.8114839,0.8254802,1.061162,-1.083633E-06,1.358592
794.3965,-0.01637417,0.0004671204,NaN,-0.3271833,0.0004276993,NaN,-0.4250849,-14.56178,NaN,-1.342363,-1.477002,0.5546283,14.1202,NaN,NaN,0.5300814,0.8114839,0.8254802,1.061162,-1.083633E-06,1.358592
794.4107,-0.02415793,0.0004671119,NaN,-0.3271842,0.0004281299,NaN,-0.4262775,-14.56055,NaN,-1.332617,-1.467692,0.5562593,14.11025,NaN,NaN,0.5246978,0.8125482,0.8238207,1.047606,-1.067018E-06,1.349835
794.4265,-0.03240665,0.0004671297,NaN,-0.3271845,0.0004287389,NaN,-0.4310872,-14.5609,NaN,-1.322899,-1.46639,0.5596924,14.10891,NaN,NaN,0.5161062,0.8121721,0.8242555,1.045722,-1.051037E-06,1.353062
794.4414,-0.04091327,0.0004668095,NaN,-0.327184,0.0004290994,NaN,-0.4358594,-14.56088,NaN,-1.312135,-1.465546,0.562775,14.10801,NaN,NaN,0.5063066,0.8121687,0.8234163,1.044492,-1.019186E-06,1.349469
794.4566,-0.04091327,0.0004668095,NaN,-0.327184,0.0004290994,NaN,-0.4358594,-14.56088,NaN,-1.312135,-1.465546,0.562775,14.10801,NaN,NaN,0.5063066,0.8121687,0.8234163,1.044492,-1.019186E-06,1.349469
794.4706,-0.05027479,0.0004667107,NaN,-0.3271841,0.0004293721,NaN,-0.4366689,-14.56173,NaN,-1.30148,-1.469107,0.5628395,14.11187,NaN,NaN,0.4990104,0.8114294,0.8198035,1.049698,-9.9892E-07,1.356504
794.4872,-0.06013488,0.0004668676,NaN,-0.3271833,0.0004294002,NaN,-0.4384707,-14.56217,NaN,-1.290005,-1.474015,0.5634149,14.11709,NaN,NaN,0.4901763,0.8111069,0.8175106,1.056839,-9.838511E-07,1.360012
794.5012,-0.07026726,0.0004672205,NaN,-0.3271815,0.0004288045,NaN,-0.4413012,-14.56125,NaN,-1.277645,-1.480747,0.5648131,14.12406,NaN,NaN,0.4800652,0.8121642,0.8168969,1.066584,-9.652224E-07,1.356868
794.5163,-0.07026726,0.0004672205,NaN,-0.3271815,0.0004288045,NaN,-0.4413012,-14.56125,NaN,-1.277645,-1.480747,0.5648131,14.12406,NaN,NaN,0.4800652,0.8121642,0.8168969,1.066584,-9.652224E-07,1.356868
794.5305,-0.08052844,0.0004670365,NaN,-0.3271786,0.0004288865,NaN,-0.4448858,-14.55975,NaN,-1.264543,-1.466987,0.5669994,14.10938,NaN,NaN,0.4694543,0.8134779,0.8180526,1.046551,-9.591502E-07,1.344594
794.5463,-0.09155597,0.000467356,NaN,-0.3271767,0.0004283409,NaN,-0.4441322,-14.56128,NaN,-1.252325,-1.47954,0.5658352,14.12284,NaN,NaN,0.4614515,0.8123097,0.8154864,1.064873,-9.499859E-07,1.356406
794.5612,-0.1030193,0.0004673295,NaN,-0.3271738,0.0004286312,NaN,-0.4412595,-14.5606,NaN,-1.239339,-1.467739,0.5628334,14.11031,NaN,NaN,0.4543796,0.8128288,0.8133674,1.047696,-9.278577E-07,1.349516
794.5761,-0.1030193,0.0004673295,NaN,-0.3271738,0.0004286312,NaN,-0.4412595,-14.5606,NaN,-1.239339,-1.467739,0.5628334,14.11031,NaN,NaN,0.4543796,0.8128288,0.8133674,1.047696,-9.278577E-07,1.349516
794.5904,-0.1147088,0.0004672201,NaN,-0.3271689,0.000428773,NaN,-0.4413577,-14.56112,NaN,-1.226871,-1.469697,0.5613891,14.11243,NaN,NaN,0.4448125,0.8123722,0.8122898,1.05056,-8.985397E-07,1.351293
794.6061,-0.1264917,0.0004667664,NaN,-0.3271622,0.0004289139,NaN,-0.4405131,-14.56048,NaN,-1.213406,-1.46643,0.5588476,14.10889,NaN,NaN,0.4339201,0.8129416,0.8084408,1.045782,-8.806583E-07,1.347114
794.6212,-0.1390122,0.0004665578,NaN,-0.3271564,0.0004284444,NaN,-0.4325051,-14.56173,NaN,-1.200866,-1.475846,0.550501,14.119,NaN,NaN,0.4260206,0.8119695,0.7982156,1.059523,-8.50707E-07,1.356066
794.6362,-0.1390122,0.0004665578,NaN,-0.3271564,0.0004284444,NaN,-0.4325051,-14.56173,NaN,-1.200866,-1.475846,0.550501,14.119,NaN,NaN,0.4260206,0.8119695,0.7982156,1.059523,-8.50707E-07,1.356066
794.6504,-0.1519442,0.0004659863,NaN,-0.327149,0.0004282756,NaN,-0.4185848,-14.56017,NaN,-1.187814,-1.467622,0.5377833,14.11014,NaN,NaN,0.4199642,0.813376,0.787031,1.047528,-8.291748E-07,1.346263
794.6677,-0.1650808,0.0004652149,NaN,-0.3271393,0.0004281783,NaN,-0.4042664,-14.56005,NaN,-1.174409,-1.466093,0.5241904,14.1085,NaN,NaN,0.4134629,0.8134515,0.7761222,1.045294,-8.178499E-07,1.344965
794.6822,-0.1782911,0.0004645156,NaN,-0.3271276,0.0004279427,NaN,-0.3893862,-14.56074,NaN,-1.160695,-1.469365,0.5098447,14.11204,NaN,NaN,0.4067715,0.8128631,0.7646317,1.050081,-7.937845E-07,1.348927
794.6963,-0.1782911,0.0004645156,NaN,-0.3271276,0.0004279427,NaN,-0.3893862,-14.56074,NaN,-1.160695,-1.469365,0.5098447,14.11204,NaN,NaN,0.4067715,0.8128631,0.7646317,1.050081,-7.937845E-07,1.348927
794.7104,-0.1922206,0.0004644396,NaN,-0.3271167,0.0004278625,NaN,-0.3737764,-14.56146,NaN,-1.145952,-1.473315,0.4948348,14.1163,NaN,NaN,0.3996316,0.8122535,0.7521076,1.055848,-7.851418E-07,1.355765
794.726,-0.2065442,0.0004643237,NaN,-0.3271042,0.0004280732,NaN,-0.3575113,-14.56082,NaN,-1.13043,-1.468937,0.4791452,14.11159,NaN,NaN,0.3919774,0.8127964,0.7384576,1.049463,-7.721778E-07,1.349426
794.7409,-0.2210554,0.0004638367,NaN,-0.3270893,0.0004281223,NaN,-0.3407939,-14.56009,NaN,-1.114339,-1.46661,0.4630599,14.10904,NaN,NaN,0.3839002,0.8134644,0.7239799,1.04605,-7.599589E-07,1.344172
794.7556,-0.2210554,0.0004638367,NaN,-0.3270893,0.0004281223,NaN,-0.3407939,-14.56009,NaN,-1.114339,-1.46661,0.4630599,14.10904,NaN,NaN,0.3839002,0.8134644,0.7239799,1.04605,-7.599589E-07,1.344172
794.77,-0.2363522,0.0004637347,NaN,-0.3270747,0.000428708,NaN,-0.3241196,-14.56073,NaN,-1.098127,-1.465888,0.4473585,14.10835,NaN,NaN,0.3759775,0.8127981,0.7097795,1.045022,-7.517633E-07,1.348869
794.7855,-0.252079,0.0004641984,NaN,-0.3270578,0.0004285271,NaN,-0.3076195,-14.56052,NaN,-1.082208,-1.477932,0.4318581,14.12103,NaN,NaN,0.3682118,0.81335,0.6958613,1.062524,-7.35968E-07,1.351725
794.8007,-0.2680101,0.0004649751,NaN,-0.327038,0.0004282638,NaN,-0.2913849,-14.56083,NaN,-1.066727,-1.480743,0.4165749,14.12403,NaN,NaN,0.3605983,0.8130789,0.6822161,1.06662,-7.148084E-07,1.353018
794.8157,-0.2680101,0.0004649751,NaN,-0.327038,0.0004282638,NaN,-0.2913849,-14.56083,NaN,-1.066727,-1.480743,0.4165749,14.12403,NaN,NaN,0.3605983,0.8130789,0.6822161,1.06662,-7.148084E-07,1.353018
794.8301,-0.284003,0.0004656047,NaN,-0.3270156,0.0004277801,NaN,-0.2754451,-14.56071,NaN,-1.051709,-1.480443,0.4015398,14.12369,NaN,NaN,0.353134,0.8131831,0.6688386,1.066177,-7.040795E-07,1.350768
794.8458,-0.300696,0.0004657843,NaN,-0.326994,0.000428091,NaN,-0.2596535,-14.56004,NaN,-1.036705,-1.469984,0.3867945,14.11255,NaN,NaN,0.345816,0.8136967,0.6557232,1.050937,-6.829199E-07,1.343966
794.8608,-0.3177593,0.0004657191,NaN,-0.3269702,0.0004285931,NaN,-0.2440722,-14.56094,NaN,-1.021963,-1.465853,0.3722663,14.10828,NaN,NaN,0.3386413,0.8126882,0.6428651,1.04495,-6.71595E-07,1.347255
794.8757,-0.3177593,0.0004657191,NaN,-0.3269702,0.0004285931,NaN,-0.2440722,-14.56094,NaN,-1.021963,-1.465853,0.3722663,14.10828,NaN,NaN,0.3386413,0.8126882,0.6428651,1.04495,-6.71595E-07,1.347255
794.8909,-0.3349839,0.0004662031,NaN,-0.3269438,0.0004290433,NaN,-0.2287378,-14.56212,NaN,-1.007564,-1.472057,0.3579597,14.11497,NaN,NaN,0.3316072,0.8116929,0.630259,1.054013,-6.525216E-07,1.361163
794.9055,-0.3522378,0.0004665647,NaN,-0.3269152,0.000429087,NaN,-0.2136601,-14.56224,NaN,-0.9935191,-1.475235,0.3438836,14.11833,NaN,NaN,0.324711,0.8116385,0.6179003,1.058629,-6.441769E-07,1.356117
794.9203,-0.370166,0.0004667941,NaN,-0.3268876,0.0004289678,NaN,-0.1986765,-14.56205,NaN,-0.9793844,-1.475159,0.3300581,14.11822,NaN,NaN,0.3179498,0.8118134,0.6057837,1.058509,-6.358322E-07,1.353408
794.9353,-0.370166,0.0004667941,NaN,-0.3268876,0.0004289678,NaN,-0.1986765,-14.56205,NaN,-0.9793844,-1.475159,0.3300581,14.11822,NaN,NaN,0.3179498,0.8118134,0.6057837,1.058509,-6.358322E-07,1.353408
794.9496,-0.3884431,0.0004666683,NaN,-0.3268579,0.0004281475,NaN,-0.1838679,-14.56099,NaN,-0.965458,-1.477908,0.3164171,14.12098,NaN,NaN,0.3113211,0.8129205,0.5939047,1.062472,-6.215271E-07,1.350995
794.9653,-0.406863,0.0004660313,NaN,-0.3268258,0.0004277758,NaN,-0.1692832,-14.56036,NaN,-0.951843,-1.46711,0.3029684,14.1095,NaN,NaN,0.3048223,0.8133615,0.5822587,1.046747,-6.084141E-07,1.344872
794.9805,-0.4252955,0.0004658829,NaN,-0.3267915,0.0004270021,NaN,-0.1549393,-14.56166,NaN,-0.9385625,-1.477387,0.2897242,14.12053,NaN,NaN,0.2984509,0.812359,0.5708411,1.061749,-5.94109E-07,1.356024
794.9957,-0.4252955,0.0004658829,NaN,-0.3267915,0.0004270021,NaN,-0.1549393,-14.56166,NaN,-0.9385625,-1.477387,0.2897242,14.12053,NaN,NaN,0.2984509,0.812359,0.5708411,1.061749,-5.94109E-07,1.356024
795.01,-0.4443869,0.0004652721,NaN,-0.3267583,0.0004266072,NaN,-0.1406704,-14.56023,NaN,-0.9251708,-1.467369,0.2766971,14.10979,NaN,NaN,0.2922043,0.8136142,0.5596473,1.04715,-5.821881E-07,1.346208
795.0258,-0.4638126,0.000465163,NaN,-0.3267231,0.0004262201,NaN,-0.1265621,-14.56164,NaN,-0.911972,-1.474082,0.2638361,14.11707,NaN,NaN,0.28608,0.8123912,0.5486729,1.056974,-5.738434E-07,1.354741
795.0405,-0.4833671,0.0004647705,NaN,-0.3266854,0.0004262394,NaN,-0.1126643,-14.5604,NaN,-0.8990727,-1.466968,0.2511494,14.10941,NaN,NaN,0.2800758,0.8134884,0.5379138,1.046594,-5.601344E-07,1.345977
795.0555,-0.4833671,0.0004647705,NaN,-0.3266854,0.0004262394,NaN,-0.1126643,-14.5604,NaN,-0.8990727,-1.466968,0.2511494,14.10941,NaN,NaN,0.2800758,0.8134884,0.5379138,1.046594,-5.601344E-07,1.345977
795.0699,-0.5036489,0.0004649232,NaN,-0.326648,0.0004257838,NaN,-0.09882278,-14.56162,NaN,-0.8860542,-1.477541,0.2386464,14.12075,NaN,NaN,0.2741892,0.8125656,0.5273656,1.062025,-5.470213E-07,1.355793
795.0856,-0.5243029,0.0004648628,NaN,-0.3266079,0.0004260704,NaN,-0.08513462,-14.56095,NaN,-0.8732322,-1.467768,0.2262935,14.11035,NaN,NaN,0.268418,0.8130737,0.5170243,1.047795,-5.362925E-07,1.348894
795.1006,-0.5451044,0.0004652242,NaN,-0.3265645,0.000425687,NaN,-0.071652,-14.56099,NaN,-0.8607152,-1.478934,0.2141027,14.12214,NaN,NaN,0.2627599,0.8133292,0.5068857,1.064034,-5.30928E-07,1.354146
795.1155,-0.5451044,0.0004652242,NaN,-0.3265645,0.000425687,NaN,-0.071652,-14.56099,NaN,-0.8607152,-1.478934,0.2141027,14.12214,NaN,NaN,0.2627599,0.8133292,0.5068857,1.064034,-5.30928E-07,1.354146
795.131,-0.5659114,0.0004651327,NaN,-0.3265187,0.0004257616,NaN,-0.05839237,-14.56063,NaN,-0.8485268,-1.468723,0.202085,14.1113,NaN,NaN,0.2572128,0.8135282,0.496946,1.049162,-5.213913E-07,1.347854
795.1456,-0.5873627,0.000465329,NaN,-0.3264737,0.000425111,NaN,-0.04517202,-14.56164,NaN,-0.8362128,-1.479802,0.1902254,14.12313,NaN,NaN,0.2517744,0.8128081,0.4872011,1.065318,-5.094704E-07,1.356884
795.1605,-0.6091294,0.0004652585,NaN,-0.3264264,0.0004252872,NaN,-0.03208733,-14.56088,NaN,-0.82408,-1.468272,0.1785013,14.11086,NaN,NaN,0.2464427,0.8134025,0.4776474,1.048527,-4.993376E-07,1.349094
795.1754,-0.6091294,0.0004652585,NaN,-0.3264264,0.0004252872,NaN,-0.03208733,-14.56088,NaN,-0.82408,-1.468272,0.1785013,14.11086,NaN,NaN,0.2464427,0.8134025,0.4776474,1.048527,-4.993376E-07,1.349094
795.1901,-0.631003,0.000464733,NaN,-0.3263764,0.0004253048,NaN,-0.01918945,-14.56077,NaN,-0.812236,-1.466384,0.1669232,14.10884,NaN,NaN,0.2412155,0.8134623,0.468281,1.04577,-4.921851E-07,1.345947
795.2056,-0.6528522,0.0004640656,NaN,-0.3263243,0.0004250832,NaN,-0.006496392,-14.56123,NaN,-0.8007058,-1.468611,0.1555005,14.11125,NaN,NaN,0.2360909,0.8130667,0.4590982,1.049024,-4.832444E-07,1.348858
795.2206,-0.6748155,0.0004630607,NaN,-0.3262719,0.0004245514,NaN,0.006051141,-14.56075,NaN,-0.7893479,-1.468718,0.1442238,14.11129,NaN,NaN,0.2310669,0.8135499,0.4500956,1.049157,-4.731116E-07,1.347427
795.236,-0.6748155,0.0004630607,NaN,-0.3262719,0.0004245514,NaN,0.006051141,-14.56075,NaN,-0.7893479,-1.468718,0.1442238,14.11129,NaN,NaN,0.2310669,0.8135499,0.4500956,1.049157,-4.731116E-07,1.347427
795.2501,-0.6967584,0.0004619944,NaN,-0.3262186,0.0004242499,NaN,0.01842506,-14.56066,NaN,-0.7782459,-1.466253,0.1330906,14.10866,NaN,NaN,0.2261414,0.8135694,0.4412695,1.045564,-4.701313E-07,1.345468
795.2668,-0.7185966,0.0004613157,NaN,-0.326165,0.0004243787,NaN,0.03061483,-14.56068,NaN,-0.7674224,-1.46766,0.1221021,14.11015,NaN,NaN,0.2213126,0.8135765,0.4326166,1.047609,-4.594025E-07,1.3454
795.2809,-0.7402776,0.0004609026,NaN,-0.3261114,0.0004246217,NaN,0.0426202,-14.56167,NaN,-0.7568762,-1.468872,0.1112577,14.11155,NaN,NaN,0.2165786,0.8126174,0.4241333,1.04941,-4.474816E-07,1.351939
795.296,-0.7402776,0.0004609026,NaN,-0.3261114,0.0004246217,NaN,0.0426202,-14.56167,NaN,-0.7568762,-1.468872,0.1112577,14.11155,NaN,NaN,0.2165786,0.8126174,0.4241333,1.04941,-4.474816E-07,1.351939
795.3102,-0.7617691,0.0004606738,NaN,-0.3260586,0.0004252507,NaN,0.05444551,-14.5613,NaN,-0.7465979,-1.465384,0.1005547,14.10781,NaN,NaN,0.2119376,0.8128864,0.4158163,1.044323,-4.421172E-07,1.349372
795.3265,-0.7830513,0.0004598849,NaN,-0.3260069,0.0004252548,NaN,0.06609649,-14.56092,NaN,-0.736577,-1.464893,0.08998955,14.10724,NaN,NaN,0.2073877,0.8132384,0.4076625,1.043592,-4.373488E-07,1.34675
795.3409,-0.804113,0.0004591651,NaN,-0.3259566,0.0004255918,NaN,0.07757881,-14.56125,NaN,-0.7268038,-1.464476,0.07955831,14.10684,NaN,NaN,0.2029271,0.812881,0.3996686,1.042997,-4.290042E-07,1.348658
795.356,-0.804113,0.0004591651,NaN,-0.3259566,0.0004255918,NaN,0.07757881,-14.56125,NaN,-0.7268038,-1.464476,0.07955831,14.10684,NaN,NaN,0.2029271,0.812881,0.3996686,1.042997,-4.290042E-07,1.348658
795.3705,-0.824948,0.0004579785,NaN,-0.3259081,0.0004252456,NaN,0.08889748,-14.5619,NaN,-0.7172697,-1.465288,0.06925728,14.10778,NaN,NaN,0.198554,0.8122545,0.3918315,1.044206,-4.200635E-07,1.35286
795.3862,-0.8455533,0.0004574069,NaN,-0.3258614,0.0004257581,NaN,0.1000569,-14.5614,NaN,-0.7079674,-1.464785,0.05908312,14.10717,NaN,NaN,0.1942669,0.8127273,0.384148,1.043451,-4.093346E-07,1.35063
795.4013,-0.865928,0.0004572022,NaN,-0.3258165,0.0004263979,NaN,0.1110607,-14.56147,NaN,-0.6988907,-1.465414,0.0490328,14.10784,NaN,NaN,0.1900639,0.8126741,0.3766152,1.044366,-4.01288E-07,1.351228
795.4166,-0.865928,0.0004572022,NaN,-0.3258165,0.0004263979,NaN,0.1110607,-14.56147,NaN,-0.6988907,-1.465414,0.0490328,14.10784,NaN,NaN,0.1900639,0.8126741,0.3766152,1.044366,-4.01288E-07,1.351228
795.4309,-0.8860726,0.0004572853,NaN,-0.3257736,0.0004260455,NaN,0.1219121,-14.56236,NaN,-0.6900342,-1.478037,0.03910365,14.12128,NaN,NaN,0.1859435,0.8121421,0.3692301,1.062757,-3.896651E-07,1.36032
795.4465,-0.9059882,0.0004575987,NaN,-0.3257326,0.0004264301,NaN,0.1326141,-14.56304,NaN,-0.6813927,-1.472475,0.02929326,14.11549,NaN,NaN,0.181904,0.8113658,0.3619899,1.054689,-3.795323E-07,1.363739
795.4615,-0.9256766,0.0004581418,NaN,-0.3256936,0.0004270071,NaN,0.1431691,-14.56285,NaN,-0.6729618,-1.472103,0.01959942,14.11507,NaN,NaN,0.1779439,0.8115389,0.3548916,1.054142,-3.741679E-07,1.363084
795.4767,-0.9256766,0.0004581418,NaN,-0.3256936,0.0004270071,NaN,0.1431691,-14.56285,NaN,-0.6729618,-1.472103,0.01959942,14.11507,NaN,NaN,0.1779439,0.8115389,0.3548916,1.054142,-3.741679E-07,1.363084
795.4909,-0.9451399,0.000458078,NaN,-0.3256564,0.000427261,NaN,0.1535796,-14.56108,NaN,-0.6647369,-1.467958,0.01002016,14.11048,NaN,NaN,0.1740616,0.8132061,0.3479325,1.048065,-3.682074E-07,1.350217
795.5063,-0.9643801,0.0004583997,NaN,-0.3256211,0.0004269669,NaN,0.1638478,-14.56223,NaN,-0.6567141,-1.47822,0.0005536592,14.12148,NaN,NaN,0.1702555,0.8123308,0.3411099,1.063042,-3.622469E-07,1.359617
795.5215,-0.9833998,0.0004584542,NaN,-0.3255876,0.0004275347,NaN,0.1739758,-14.56111,NaN,-0.6488892,-1.46732,-0.008801785,14.10985,NaN,NaN,0.1665242,0.8132703,0.3344211,1.047173,-3.562865E-07,1.350792
795.5363,-0.9833998,0.0004584542,NaN,-0.3255876,0.0004275347,NaN,0.1739758,-14.56111,NaN,-0.6488892,-1.46732,-0.008801785,14.10985,NaN,NaN,0.1665242,0.8132703,0.3344211,1.047173,-3.562865E-07,1.350792
795.5508,-1.002201,0.0004585493,NaN,-0.3255559,0.0004280092,NaN,0.1839654,-14.56178,NaN,-0.6412584,-1.468219,-0.01804775,14.11089,NaN,NaN,0.1628663,0.8126313,0.3278635,1.048508,-3.479418E-07,1.354566
795.5668,-1.020787,0.0004586167,NaN,-0.3255259,0.0004283353,NaN,0.1938187,-14.56193,NaN,-0.6338178,-1.469188,-0.02718569,14.11192,NaN,NaN,0.1592802,0.8125119,0.3214345,1.049923,-3.400442E-07,1.355127
795.5817,-1.039159,0.0004581971,NaN,-0.3254976,0.0004284087,NaN,0.2035374,-14.56081,NaN,-0.6265637,-1.466438,-0.03621703,14.10888,NaN,NaN,0.1557646,0.8135509,0.3151316,1.045886,-3.364679E-07,1.347983
795.5982,-1.039159,0.0004581971,NaN,-0.3254976,0.0004284087,NaN,0.2035374,-14.56081,NaN,-0.6265637,-1.466438,-0.03621703,14.10888,NaN,NaN,0.1557646,0.8135509,0.3151316,1.045886,-3.364679E-07,1.347983
795.6112,-1.05732,0.0004578817,NaN,-0.325471,0.0004287112,NaN,0.2131232,-14.5615,NaN,-0.6194924,-1.466688,-0.04514303,14.10923,NaN,NaN,0.1523181,0.8128747,0.3089523,1.046278,-3.315506E-07,1.351941
795.627,-1.075272,0.0004576326,NaN,-0.3254459,0.0004291832,NaN,0.2225779,-14.56122,NaN,-0.6126002,-1.465532,-0.05396488,14.10797,NaN,NaN,0.1489394,0.8131182,0.3028941,1.044584,-3.283095E-07,1.350711
795.6431,-1.093019,0.0004577613,NaN,-0.3254223,0.0004289482,NaN,0.2319029,-14.56251,NaN,-0.6058837,-1.476154,-0.06268368,14.11936,NaN,NaN,0.1456271,0.8121396,0.2969548,1.060089,-3.247333E-07,1.359981
795.657,-1.093019,0.0004577613,NaN,-0.3254223,0.0004289482,NaN,0.2319029,-14.56251,NaN,-0.6058837,-1.476154,-0.06268368,14.11936,NaN,NaN,0.1456271,0.8121396,0.2969548,1.060089,-3.247333E-07,1.359981
795.6713,-1.110561,0.0004577748,NaN,-0.3254002,0.000429604,NaN,0.2410997,-14.56184,NaN,-0.5993393,-1.466101,-0.07130046,14.10867,NaN,NaN,0.1423799,0.8126286,0.2911319,1.04546,-3.180836E-07,1.353692
795.6868,-1.127902,0.0004580044,NaN,-0.3253796,0.0004299674,NaN,0.2501698,-14.56295,NaN,-0.5929635,-1.470615,-0.07981618,14.11358,NaN,NaN,0.1391966,0.8116557,0.2854232,1.052067,-3.117879E-07,1.361359
795.702,-1.145043,0.0004582658,NaN,-0.3253604,0.0004296326,NaN,0.2591146,-14.56319,NaN,-0.586753,-1.477476,-0.08823173,14.12084,NaN,NaN,0.1360759,0.8115761,0.2798265,1.06204,-3.047098E-07,1.362998
795.717,-1.145043,0.0004582658,NaN,-0.3253604,0.0004296326,NaN,0.2591146,-14.56319,NaN,-0.586753,-1.477476,-0.08823173,14.12084,NaN,NaN,0.1360759,0.8115761,0.2798265,1.06204,-3.047098E-07,1.362998
795.7314,-1.161988,0.0004584391,NaN,-0.3253425,0.0004301568,NaN,0.2679353,-14.56164,NaN,-0.5807042,-1.469194,-0.09654792,14.11193,NaN,NaN,0.1330165,0.8129794,0.2743395,1.049971,-2.94279E-07,1.351646
795.7472,-1.178738,0.0004584858,NaN,-0.325326,0.000430792,NaN,0.2766332,-14.56218,NaN,-0.574814,-1.466037,-0.1047655,14.10866,NaN,NaN,0.1300173,0.8123693,0.2689601,1.0454,-2.875734E-07,1.354432
795.7623,-1.195295,0.0004576867,NaN,-0.3253107,0.0004305366,NaN,0.2852095,-14.56234,NaN,-0.5690792,-1.465438,-0.1128852,14.10805,NaN,NaN,0.1270771,0.8121958,0.2636862,1.044536,-2.869774E-07,1.354714
795.7775,-1.195295,0.0004576867,NaN,-0.3253107,0.0004305366,NaN,0.2852095,-14.56234,NaN,-0.5690792,-1.465438,-0.1128852,14.10805,NaN,NaN,0.1270771,0.8121958,0.2636862,1.044536,-2.869774E-07,1.354714
795.7918,-1.211662,0.0004567479,NaN,-0.3252967,0.0004302223,NaN,0.2936653,-14.56224,NaN,-0.5634964,-1.466342,-0.1209077,14.10898,NaN,NaN,0.1241948,0.8123196,0.2585158,1.045845,-2.798248E-07,1.352452
795.8072,-1.227841,0.0004567939,NaN,-0.3252839,0.0004302808,NaN,0.3020017,-14.56371,NaN,-0.5580625,-1.472575,-0.1288336,14.11575,NaN,NaN,0.1213691,0.8110353,0.2534467,1.054963,-2.723743E-07,1.363858
795.8224,-1.243613,0.0004562128,NaN,-0.3252715,0.0004300713,NaN,0.3101051,-14.56249,NaN,-0.5529064,-1.46625,-0.1365849,14.10894,NaN,NaN,0.118599,0.8121072,0.248477,1.045744,-2.705861E-07,1.354986
795.8384,-1.243613,0.0004562128,NaN,-0.3252715,0.0004300713,NaN,0.3101051,-14.56249,NaN,-0.5529064,-1.46625,-0.1365849,14.10894,NaN,NaN,0.118599,0.8121072,0.248477,1.045744,-2.705861E-07,1.354986
795.8517,-1.259063,0.0004560424,NaN,-0.3252606,0.0004296158,NaN,0.3180537,-14.56376,NaN,-0.5479305,-1.474284,-0.1442156,14.11758,NaN,NaN,0.1158834,0.8110744,0.2436048,1.057471,-2.664138E-07,1.363165
795.867,-1.274247,0.0004557673,NaN,-0.3252513,0.0004297943,NaN,0.3258794,-14.56262,NaN,-0.5430949,-1.466721,-0.1517472,14.10949,NaN,NaN,0.1132212,0.8120541,0.2388282,1.046458,-2.610493E-07,1.354535
795.8821,-1.289198,0.0004555802,NaN,-0.3252438,0.0004302326,NaN,0.3335938,-14.56287,NaN,-0.5383841,-1.465812,-0.1591872,14.10855,NaN,NaN,0.1106114,0.8117791,0.2341451,1.045145,-2.556849E-07,1.356415
795.8971,-1.289198,0.0004555802,NaN,-0.3252438,0.0004302326,NaN,0.3335938,-14.56287,NaN,-0.5383841,-1.465812,-0.1591872,14.10855,NaN,NaN,0.1106114,0.8117791,0.2341451,1.045145,-2.556849E-07,1.356415
795.9115,-1.303214,0.0004555922,NaN,-0.3252354,0.0004307131,NaN,0.3407935,-14.56359,NaN,-0.534224,-1.467113,-0.1662465,14.11001,NaN,NaN,0.1080527,0.8111055,0.229554,1.047062,-2.506185E-07,1.361445
795.9271,-1.316583,0.0004558821,NaN,-0.3252291,0.0004302601,NaN,0.3477562,-14.56339,NaN,-0.5303048,-1.478969,-0.173126,14.12246,NaN,NaN,0.1055444,0.8116167,0.2250529,1.064262,-2.470422E-07,1.36404
795.9424,-1.329488,0.0004564985,NaN,-0.3252259,0.0004297018,NaN,0.3545907,-14.5632,NaN,-0.5265048,-1.481061,-0.1799028,14.12464,NaN,NaN,0.1030853,0.8118316,0.22064,1.067296,-2.428699E-07,1.363328
795.9573,-1.329488,0.0004564985,NaN,-0.3252259,0.0004297018,NaN,0.3545907,-14.5632,NaN,-0.5265048,-1.481061,-0.1799028,14.12464,NaN,NaN,0.1030853,0.8118316,0.22064,1.067296,-2.428699E-07,1.363328
795.9716,-1.341321,0.0004566843,NaN,-0.3252232,0.0004292317,NaN,0.360907,-14.56263,NaN,-0.5232109,-1.475166,-0.1862885,14.11835,NaN,NaN,0.1006744,0.8123116,0.2163137,1.058716,-2.369094E-07,1.356446
795.9872,-1.352428,0.0004564137,NaN,-0.3252226,0.0004288832,NaN,0.3670057,-14.56245,NaN,-0.5201086,-1.469719,-0.1925049,14.11257,NaN,NaN,0.09831079,0.8123937,0.2120722,1.05079,-2.30949E-07,1.355204
796.0024,-1.363034,0.0004556036,NaN,-0.3252238,0.0004284536,NaN,0.3729988,-14.56245,NaN,-0.5170799,-1.46572,-0.1986321,14.10835,NaN,NaN,0.09599368,0.8122932,0.2079139,1.044973,-2.279688E-07,1.353976
796.0173,-1.363034,0.0004556036,NaN,-0.3252238,0.0004284536,NaN,0.3729988,-14.56245,NaN,-0.5170799,-1.46572,-0.1986321,14.10835,NaN,NaN,0.09599368,0.8122932,0.2079139,1.044973,-2.279688E-07,1.353976
796.0327,-1.37328,0.0004547797,NaN,-0.325226,0.0004283346,NaN,0.3789205,-14.56262,NaN,-0.5140902,-1.465179,-0.2046931,14.10779,NaN,NaN,0.09372213,0.8121032,0.2038372,1.044191,-2.255846E-07,1.354767
796.0473,-1.382528,0.0004540788,NaN,-0.3252278,0.0004285236,NaN,0.3843258,-14.56291,NaN,-0.5115615,-1.4648,-0.2103521,14.10742,NaN,NaN,0.09149498,0.8118042,0.1998404,1.043649,-2.18432E-07,1.356164
796.0623,-1.39111,0.0004537741,NaN,-0.3252307,0.0004289522,NaN,0.3895206,-14.56364,NaN,-0.509198,-1.466186,-0.2158411,14.10897,NaN,NaN,0.08931153,0.8111178,0.1959219,1.045689,-2.160478E-07,1.361649
796.0784,-1.39111,0.0004537741,NaN,-0.3252307,0.0004289522,NaN,0.3895206,-14.56364,NaN,-0.509198,-1.466186,-0.2158411,14.10897,NaN,NaN,0.08931153,0.8111178,0.1959219,1.045689,-2.160478E-07,1.361649
796.0914,-1.399238,0.0004541844,NaN,-0.3252355,0.0004290622,NaN,0.3946193,-14.56427,NaN,-0.5068892,-1.474857,-0.2212458,14.11817,NaN,NaN,0.08717098,0.8107346,0.1920803,1.058298,-2.118755E-07,1.36839
796.1071,-1.407045,0.000454415,NaN,-0.3252428,0.0004282655,NaN,0.399656,-14.56274,NaN,-0.5046027,-1.480319,-0.2265905,14.12374,NaN,NaN,0.08507252,0.8123553,0.188314,1.066181,-2.082992E-07,1.35978
796.122,-1.41389,0.0004547042,NaN,-0.3252499,0.0004278756,NaN,0.4041631,-14.56278,NaN,-0.5027575,-1.476424,-0.2315142,14.11961,NaN,NaN,0.08301498,0.8122531,0.1846216,1.060511,-2.041269E-07,1.352488
796.1372,-1.41389,0.0004547042,NaN,-0.3252499,0.0004278756,NaN,0.4041631,-14.56278,NaN,-0.5027575,-1.476424,-0.2315142,14.11961,NaN,NaN,0.08301498,0.8122531,0.1846216,1.060511,-2.041269E-07,1.352488
796.1515,-1.420101,0.0004546911,NaN,-0.3252588,0.0004281857,NaN,0.4084638,-14.56256,NaN,-0.5010601,-1.466957,-0.236268,14.10958,NaN,NaN,0.08099778,0.8122936,0.1810016,1.046736,-2.035309E-07,1.354438
796.1672,-1.425888,0.0004543409,NaN,-0.3252701,0.0004283,NaN,0.4126774,-14.56236,NaN,-0.4994007,-1.466217,-0.2409427,14.10876,NaN,NaN,0.07902019,0.8124632,0.1774526,1.045645,-1.987625E-07,1.349931
796.1821,-1.431383,0.0004540474,NaN,-0.3252835,0.0004285445,NaN,0.4168391,-14.56293,NaN,-0.4977468,-1.466965,-0.2455639,14.10961,NaN,NaN,0.07708147,0.811916,0.1739731,1.046749,-1.957823E-07,1.35319
796.1973,-1.431383,0.0004540474,NaN,-0.3252835,0.0004285445,NaN,0.4168391,-14.56293,NaN,-0.4977468,-1.466965,-0.2455639,14.10961,NaN,NaN,0.07708147,0.811916,0.1739731,1.046749,-1.957823E-07,1.35319
796.2115,-1.435944,0.00045342,NaN,-0.3252963,0.0004285971,NaN,0.4204648,-14.56239,NaN,-0.4965144,-1.465408,-0.2497525,14.10789,NaN,NaN,0.07518047,0.8123995,0.1705619,1.04446,-1.92802E-07,1.349443
796.2281,-1.439898,0.0004533904,NaN,-0.3253101,0.0004288807,NaN,0.4238918,-14.56359,NaN,-0.4954126,-1.469571,-0.253774,14.11244,NaN,NaN,0.0733167,0.8113247,0.1672176,1.050557,-1.904179E-07,1.358456
796.2422,-1.443453,0.0004532277,NaN,-0.3253254,0.0004292807,NaN,0.4272438,-14.56311,NaN,-0.4943324,-1.466136,-0.2577246,14.10875,NaN,NaN,0.07148952,0.8117089,0.1639389,1.04555,-1.832653E-07,1.353505
796.2571,-1.443453,0.0004532277,NaN,-0.3253254,0.0004292807,NaN,0.4272438,-14.56311,NaN,-0.4943324,-1.466136,-0.2577246,14.10875,NaN,NaN,0.07148952,0.8117089,0.1639389,1.04555,-1.832653E-07,1.353505
796.2714,-1.446015,0.0004536484,NaN,-0.3253396,0.0004290775,NaN,0.4300606,-14.56326,NaN,-0.4936583,-1.47807,-0.2612404,14.12134,NaN,NaN,0.06969783,0.8119015,0.1607244,1.062885,-1.808811E-07,1.358348
796.2869,-1.447941,0.0004535965,NaN,-0.3253544,0.0004294569,NaN,0.4326977,-14.5624,NaN,-0.4930916,-1.466042,-0.2646034,14.10855,NaN,NaN,0.06794122,0.8125674,0.157573,1.045386,-1.784969E-07,1.349006
796.3019,-1.449459,0.0004532041,NaN,-0.32537,0.0004295765,NaN,0.4352836,-14.56249,NaN,-0.4925224,-1.46628,-0.267914,14.1088,NaN,NaN,0.06621908,0.8124795,0.1544834,1.04573,-1.725365E-07,1.348459
796.3168,-1.449459,0.0004532041,NaN,-0.32537,0.0004295765,NaN,0.4352836,-14.56249,NaN,-0.4925224,-1.46628,-0.267914,14.1088,NaN,NaN,0.06621908,0.8124795,0.1544834,1.04573,-1.725365E-07,1.348459
796.3312,-1.450714,0.0004527489,NaN,-0.3253863,0.0004297191,NaN,0.4378538,-14.56303,NaN,-0.4919207,-1.466552,-0.271199,14.10915,NaN,NaN,0.06453078,0.8119533,0.1514544,1.046142,-1.689602E-07,1.35093
796.347,-1.451069,0.0004523028,NaN,-0.325401,0.0004297441,NaN,0.4399033,-14.56305,NaN,-0.4917013,-1.467962,-0.2740558,14.11063,NaN,NaN,0.06287521,0.8119698,0.1484847,1.048188,-1.641918E-07,1.351613
796.3621,-1.450859,0.0004516945,NaN,-0.3254151,0.0004297877,NaN,0.4417838,-14.56236,NaN,-0.491578,-1.466148,-0.2767662,14.10862,NaN,NaN,0.06125202,0.8126069,0.1455733,1.045522,-1.582314E-07,1.347767
796.3774,-1.450859,0.0004516945,NaN,-0.3254151,0.0004297877,NaN,0.4417838,-14.56236,NaN,-0.491578,-1.466148,-0.2767662,14.10862,NaN,NaN,0.06125202,0.8126069,0.1455733,1.045522,-1.582314E-07,1.347767
796.3915,-1.450292,0.0004516091,NaN,-0.3254292,0.000429445,NaN,0.4436226,-14.56381,NaN,-0.4914452,-1.475423,-0.279431,14.1186,NaN,NaN,0.05966068,0.8114302,0.142719,1.059064,-1.546551E-07,1.359152
796.407,-1.449505,0.0004514802,NaN,-0.3254433,0.0004298558,NaN,0.4454561,-14.56291,NaN,-0.4912729,-1.46655,-0.2820781,14.10914,NaN,NaN,0.05810058,0.8121632,0.1399206,1.046151,-1.498867E-07,1.351476
796.4232,-1.447853,0.0004521328,NaN,-0.3254551,0.0004297252,NaN,0.4467747,-14.56364,NaN,-0.4914737,-1.478615,-0.2842995,14.12195,NaN,NaN,0.05657069,0.8117752,0.1371772,1.06371,-1.463105E-07,1.358213
796.4374,-1.447853,0.0004521328,NaN,-0.3254551,0.0004297252,NaN,0.4467747,-14.56364,NaN,-0.4914737,-1.478615,-0.2842995,14.12195,NaN,NaN,0.05657069,0.8117752,0.1371772,1.06371,-1.463105E-07,1.358213
796.4512,-1.445665,0.0004530906,NaN,-0.3254657,0.000429515,NaN,0.4479356,-14.56305,NaN,-0.491762,-1.481209,-0.2863826,14.12462,NaN,NaN,0.0550707,0.812398,0.1344875,1.067464,-1.463105E-07,1.355088
796.4667,-1.443148,0.0004532387,NaN,-0.3254755,0.0004291509,NaN,0.4490696,-14.56217,NaN,-0.4920314,-1.473432,-0.2884319,14.11631,NaN,NaN,0.05360012,0.8131765,0.1318505,1.056136,-1.439263E-07,1.347616
796.482,-1.440435,0.0004534662,NaN,-0.3254849,0.0004299323,NaN,0.4502141,-14.563,NaN,-0.4922513,-1.466758,-0.2904766,14.10935,NaN,NaN,0.05215842,0.8122154,0.1292653,1.046449,-1.439263E-07,1.353037
796.4968,-1.440435,0.0004534662,NaN,-0.3254849,0.0004299323,NaN,0.4502141,-14.563,NaN,-0.4922513,-1.466758,-0.2904766,14.10935,NaN,NaN,0.05215842,0.8122154,0.1292653,1.046449,-1.439263E-07,1.353037
796.5111,-1.436882,0.000453853,NaN,-0.3254916,0.000430103,NaN,0.4508576,-14.56414,NaN,-0.4928331,-1.473851,-0.2921056,14.11697,NaN,NaN,0.05074459,0.8112796,0.1267307,1.056799,-1.415421E-07,1.359513
796.527,-1.432815,0.0004543123,NaN,-0.3254966,0.0004295507,NaN,0.4513599,-14.56333,NaN,-0.4934917,-1.480791,-0.2936094,14.12417,NaN,NaN,0.04935837,0.8122362,0.1242459,1.066851,-1.379658E-07,1.355319
796.5434,-1.428442,0.0004544275,NaN,-0.3255003,0.000429661,NaN,0.4518526,-14.56281,NaN,-0.494121,-1.470795,-0.2950937,14.11357,NaN,NaN,0.04799934,0.8126132,0.1218097,1.052309,-1.367737E-07,1.350722
796.5571,-1.428442,0.0004544275,NaN,-0.3255003,0.000429661,NaN,0.4518526,-14.56281,NaN,-0.494121,-1.470795,-0.2950937,14.11357,NaN,NaN,0.04799934,0.8126132,0.1218097,1.052309,-1.367737E-07,1.350722
796.5714,-1.423166,0.000454979,NaN,-0.3255015,0.0004293703,NaN,0.4518611,-14.56326,NaN,-0.4951029,-1.47924,-0.2961764,14.12253,NaN,NaN,0.04666657,0.8123721,0.1194214,1.064602,-1.320054E-07,1.354357
796.587,-1.417345,0.0004555522,NaN,-0.3255016,0.0004288436,NaN,0.451757,-14.56399,NaN,-0.4961435,-1.480588,-0.2971583,14.12403,NaN,NaN,0.04535984,0.8116669,0.1170798,1.066576,-1.320054E-07,1.357731
796.6026,-1.411205,0.0004556671,NaN,-0.3255012,0.0004291846,NaN,0.4516725,-14.56242,NaN,-0.4971354,-1.468051,-0.2981454,14.11064,NaN,NaN,0.04407875,0.8130649,0.1147842,1.048327,-1.296212E-07,1.346035
796.617,-1.411205,0.0004556671,NaN,-0.3255012,0.0004291846,NaN,0.4516725,-14.56242,NaN,-0.4971354,-1.468051,-0.2981454,14.11064,NaN,NaN,0.04407875,0.8130649,0.1147842,1.048327,-1.296212E-07,1.346035
796.6315,-1.404889,0.0004551372,NaN,-0.3255003,0.0004290809,NaN,0.4516425,-14.56235,NaN,-0.4980497,-1.46609,-0.299165,14.10855,NaN,NaN,0.04282283,0.8130768,0.1125336,1.045465,-1.27237E-07,1.343688
796.647,-1.397762,0.0004546311,NaN,-0.3254968,0.0004292504,NaN,0.4511566,-14.56245,NaN,-0.4992997,-1.466269,-0.2998059,14.10873,NaN,NaN,0.04159114,0.8129867,0.1103271,1.045722,-1.27237E-07,1.344345
796.662,-1.390155,0.0004548543,NaN,-0.3254913,0.0004288767,NaN,0.4505704,-14.56332,NaN,-0.5006027,-1.478151,-0.3003552,14.12139,NaN,NaN,0.04038351,0.8124457,0.1081639,1.063034,-1.248528E-07,1.353421
796.6771,-1.390155,0.0004548543,NaN,-0.3254913,0.0004288767,NaN,0.4505704,-14.56332,NaN,-0.5006027,-1.478151,-0.3003552,14.12139,NaN,NaN,0.04038351,0.8124457,0.1081639,1.063034,-1.248528E-07,1.353421
796.6913,-1.382276,0.0004548114,NaN,-0.3254843,0.0004292671,NaN,0.4500128,-14.56226,NaN,-0.5018547,-1.467034,-0.3009167,14.10953,NaN,NaN,0.03919958,0.8133232,0.1060431,1.046842,-1.212765E-07,1.344428
796.7069,-1.37426,0.0004550514,NaN,-0.3254764,0.0004288826,NaN,0.4495187,-14.56342,NaN,-0.5030267,-1.47796,-0.3015185,14.12123,NaN,NaN,0.03803891,0.8124717,0.1039639,1.062781,-1.200845E-07,1.353681
796.7221,-1.365463,0.0004551372,NaN,-0.3254655,0.00042866,NaN,0.448585,-14.56337,NaN,-0.5045314,-1.473113,-0.3017552,14.1161,NaN,NaN,0.03690062,0.8124331,0.1019254,1.055729,-1.182963E-07,1.350387
796.737,-1.365463,0.0004551372,NaN,-0.3254655,0.00042866,NaN,0.448585,-14.56337,NaN,-0.5045314,-1.473113,-0.3017552,14.1161,NaN,NaN,0.03690062,0.8124331,0.1019254,1.055729,-1.182963E-07,1.350387
796.7515,-1.356212,0.000454998,NaN,-0.3254522,0.0004285825,NaN,0.4475648,-14.56292,NaN,-0.5060848,-1.469607,-0.3019118,14.11233,NaN,NaN,0.03578457,0.8128128,0.09992694,1.050613,-1.1472E-07,1.346825
796.7672,-1.346714,0.0004549778,NaN,-0.3254371,0.0004280599,NaN,0.4465864,-14.56367,NaN,-0.5075818,-1.475696,-0.3020917,14.11885,NaN,NaN,0.03469043,0.8122057,0.09796765,1.059491,-1.123359E-07,1.352947
796.7822,-1.3371,0.0004552318,NaN,-0.3254209,0.0004284008,NaN,0.445685,-14.56351,NaN,-0.508993,-1.47117,-0.3023232,14.11404,NaN,NaN,0.03361779,0.8122807,0.09604677,1.052905,-1.117398E-07,1.351207
796.7973,-1.3371,0.0004552318,NaN,-0.3254209,0.0004284008,NaN,0.445685,-14.56351,NaN,-0.508993,-1.47117,-0.3023232,14.11404,NaN,NaN,0.03361779,0.8122807,0.09604677,1.052905,-1.117398E-07,1.351207
796.8126,-1.326725,0.0004553832,NaN,-0.3254016,0.0004290528,NaN,0.4443655,-14.56284,NaN,-0.5107312,-1.466878,-0.3022083,14.10942,NaN,NaN,0.03256581,0.812849,0.09416355,1.046639,-1.093556E-07,1.345959
796.8271,-1.315915,0.0004558369,NaN,-0.3253798,0.0004288303,NaN,0.4429756,-14.56306,NaN,-0.5125117,-1.478607,-0.3020267,14.12183,NaN,NaN,0.03153438,0.8129519,0.09231726,1.063701,-1.081635E-07,1.351639
796.842,-1.304877,0.0004555862,NaN,-0.325356,0.0004283822,NaN,0.441642,-14.56369,NaN,-0.5142293,-1.470971,-0.3018804,14.11382,NaN,NaN,0.03052322,0.8121971,0.09050717,1.052605,-1.051833E-07,1.351749
796.8569,-1.304877,0.0004555862,NaN,-0.325356,0.0004283822,NaN,0.441642,-14.56369,NaN,-0.5142293,-1.470971,-0.3018804,14.11382,NaN,NaN,0.03052322,0.8121971,0.09050717,1.052605,-1.051833E-07,1.351749
796.8712,-1.293013,0.0004556593,NaN,-0.3253286,0.000428377,NaN,0.4399115,-14.56232,NaN,-0.5162681,-1.471017,-0.3014063,14.1137,NaN,NaN,0.02953153,0.8135568,0.08873257,1.052627,-1.027991E-07,1.344062
796.8868,-1.280679,0.0004558893,NaN,-0.325298,0.0004278026,NaN,0.4381377,-14.56409,NaN,-0.5183338,-1.478047,-0.3008882,14.12135,NaN,NaN,0.02855923,0.8119595,0.08699276,1.062919,-9.922285E-08,1.355325
796.9018,-1.268102,0.0004561521,NaN,-0.3252649,0.0004285876,NaN,0.4364467,-14.56285,NaN,-0.5203196,-1.467768,-0.3004273,14.11037,NaN,NaN,0.02760603,0.8130192,0.08528707,1.04795,-9.922285E-08,1.346464
796.9169,-1.268102,0.0004561521,NaN,-0.3252649,0.0004285876,NaN,0.4364467,-14.56285,NaN,-0.5203196,-1.467768,-0.3004273,14.11037,NaN,NaN,0.02760603,0.8130192,0.08528707,1.04795,-9.922285E-08,1.346464
796.9313,-1.255424,0.0004563346,NaN,-0.3252303,0.0004290997,NaN,0.4348699,-14.56341,NaN,-0.5221975,-1.468409,-0.3000489,14.11111,NaN,NaN,0.02667161,0.8124715,0.08361483,1.048903,-9.86268E-08,1.349169
796.947,-1.242007,0.0004563458,NaN,-0.3251923,0.000429548,NaN,0.4329268,-14.56341,NaN,-0.5243843,-1.466726,-0.2993694,14.10933,NaN,NaN,0.02575519,0.8124223,0.08197537,1.046455,-9.445447E-08,1.348299
796.962,-1.228182,0.0004561436,NaN,-0.3251514,0.0004297782,NaN,0.43095,-14.56358,NaN,-0.526596,-1.467228,-0.2986537,14.10987,NaN,NaN,0.02485669,0.8122585,0.08036806,1.047189,-9.326238E-08,1.347634
796.9771,-1.228182,0.0004561436,NaN,-0.3251514,0.0004297782,NaN,0.43095,-14.56358,NaN,-0.526596,-1.467228,-0.2986537,14.10987,NaN,NaN,0.02485669,0.8122585,0.08036806,1.047189,-9.326238E-08,1.347634
796.9913,-1.214158,0.0004560205,NaN,-0.3251083,0.0004302506,NaN,0.4290593,-14.56379,NaN,-0.5287285,-1.465881,-0.2979979,14.10847,NaN,NaN,0.02397585,0.8120105,0.07879226,1.045238,-9.08782E-08,1.348645
797.0071,-1.200068,0.0004555773,NaN,-0.3250637,0.0004303562,NaN,0.4272857,-14.56394,NaN,-0.5307537,-1.466377,-0.2974271,14.10901,NaN,NaN,0.02311236,0.8118715,0.07724736,1.045963,-9.08782E-08,1.347918
797.0236,-1.185266,0.0004556689,NaN,-0.3250161,0.0004302996,NaN,0.4251616,-14.56524,NaN,-0.5330884,-1.473667,-0.2965693,14.11686,NaN,NaN,0.0222655,0.81077,0.07573275,1.056603,-9.058017E-08,1.358043
797.0367,-1.185266,0.0004556689,NaN,-0.3250161,0.0004302996,NaN,0.4251616,-14.56524,NaN,-0.5330884,-1.473667,-0.2965693,14.11686,NaN,NaN,0.0222655,0.81077,0.07573275,1.056603,-9.058017E-08,1.358043
797.0511,-1.17008,0.0004560885,NaN,-0.3249657,0.0004298803,NaN,0.4230127,-14.56492,NaN,-0.5354466,-1.479287,-0.2956825,14.12273,NaN,NaN,0.0214352,0.8112038,0.07424784,1.06475,-8.909006E-08,1.358042
797.0668,-1.154714,0.00045633,NaN,-0.324913,0.0004301971,NaN,0.4209572,-14.56339,NaN,-0.5377228,-1.471023,-0.2948613,14.11386,NaN,NaN,0.02062123,0.8126012,0.07279204,1.052715,-8.849401E-08,1.347298
797.0818,-1.139301,0.0004562436,NaN,-0.3248589,0.0004293495,NaN,0.4190256,-14.56325,NaN,-0.5398882,-1.479321,-0.2941304,14.1226,NaN,NaN,0.01982329,0.8129317,0.07136478,1.064775,-8.432168E-08,1.348882
797.0969,-1.139301,0.0004562436,NaN,-0.3248589,0.0004293495,NaN,0.4190256,-14.56325,NaN,-0.5398882,-1.479321,-0.2941304,14.1226,NaN,NaN,0.01982329,0.8129317,0.07136478,1.064775,-8.432168E-08,1.348882
797.1112,-1.123194,0.0004561993,NaN,-0.324802,0.0004298592,NaN,0.416763,-14.56382,NaN,-0.5423606,-1.467046,-0.2931297,14.10968,NaN,NaN,0.0190407,0.8121846,0.06996551,1.046928,-8.342762E-08,1.34944
797.1271,-1.106717,0.0004556148,NaN,-0.3247422,0.0004297757,NaN,0.4144865,-14.56329,NaN,-0.5448526,-1.467002,-0.2921089,14.10956,NaN,NaN,0.01827341,0.8127056,0.06859367,1.046842,-8.044739E-08,1.345619
797.1419,-1.090078,0.0004555662,NaN,-0.3246803,0.000430101,NaN,0.4123113,-14.5645,NaN,-0.5472583,-1.468925,-0.2911597,14.11174,NaN,NaN,0.0175212,0.8115547,0.06724874,1.049685,-7.746716E-08,1.35377
797.1571,-1.090078,0.0004555662,NaN,-0.3246803,0.000430101,NaN,0.4123113,-14.5645,NaN,-0.5472583,-1.468925,-0.2911597,14.11174,NaN,NaN,0.0175212,0.8115547,0.06724874,1.049685,-7.746716E-08,1.35377
797.1713,-1.072678,0.0004554979,NaN,-0.3246146,0.0004305768,NaN,0.4098243,-14.56411,NaN,-0.5499673,-1.466269,-0.2899572,14.10889,NaN,NaN,0.01678349,0.8118684,0.06593017,1.045813,-7.716913E-08,1.350416
797.1869,-1.054871,0.0004558967,NaN,-0.3245454,0.000430327,NaN,0.4073461,-14.56408,NaN,-0.5526819,-1.478343,-0.2887528,14.12161,NaN,NaN,0.01606024,0.8122337,0.06463746,1.063349,-7.612605E-08,1.354718
797.202,-1.036885,0.0004554784,NaN,-0.3244734,0.0004299843,NaN,0.4049904,-14.56457,NaN,-0.555295,-1.467424,-0.2876367,14.11014,NaN,NaN,0.01535127,0.8115733,0.06337009,1.047488,-7.471044E-08,1.354082
797.2169,-1.036885,0.0004554784,NaN,-0.3244734,0.0004299843,NaN,0.4049904,-14.56457,NaN,-0.555295,-1.467424,-0.2876367,14.11014,NaN,NaN,0.01535127,0.8115733,0.06337009,1.047488,-7.471044E-08,1.354082
797.2311,-1.018859,0.0004550287,NaN,-0.3243997,0.0004294704,NaN,0.4027839,-14.56394,NaN,-0.5577787,-1.471799,-0.2866308,14.11467,NaN,NaN,0.01465628,0.8123123,0.06212758,1.053823,-7.32762E-08,1.354515
797.2469,-1.000157,0.0004554309,NaN,-0.324323,0.0004289311,NaN,0.4002911,-14.56482,NaN,-0.5605559,-1.479,-0.2853944,14.12237,NaN,NaN,0.0139747,0.8115953,0.06090942,1.064324,-7.245664E-08,1.359038
797.2618,-0.9811078,0.0004554391,NaN,-0.3242432,0.0004289813,NaN,0.3978106,-14.56369,NaN,-0.5633388,-1.468511,-0.284159,14.1112,NaN,NaN,0.01330646,0.8125462,0.05971515,1.049066,-7.051949E-08,1.349832
797.277,-0.9811078,0.0004554391,NaN,-0.3242432,0.0004289813,NaN,0.3978106,-14.56369,NaN,-0.5633388,-1.468511,-0.284159,14.1112,NaN,NaN,0.01330646,0.8125462,0.05971515,1.049066,-7.051949E-08,1.349832
797.2912,-0.9619197,0.0004550897,NaN,-0.3241611,0.0004290312,NaN,0.3954498,-14.56393,NaN,-0.5660228,-1.466547,-0.2830093,14.10915,NaN,NaN,0.01265138,0.8122541,0.0585443,1.04622,-6.947641E-08,1.349224
797.3069,-0.9427246,0.0004553822,NaN,-0.3240778,0.0004285423,NaN,0.3932349,-14.56407,NaN,-0.5685799,-1.478596,-0.2819666,14.12188,NaN,NaN,0.01200924,0.8124422,0.0573964,1.063734,-6.604914E-08,1.35552
797.3224,-0.9228776,0.0004555093,NaN,-0.3239919,0.0004290692,NaN,0.3907448,-14.56382,NaN,-0.5714331,-1.468292,-0.2807035,14.11097,NaN,NaN,0.01137948,0.8125302,0.05627101,1.048746,-6.545309E-08,1.351228
797.337,-0.9228776,0.0004555093,NaN,-0.3239919,0.0004290692,NaN,0.3907448,-14.56382,NaN,-0.5714331,-1.468292,-0.2807035,14.11097,NaN,NaN,0.01137948,0.8125302,0.05627101,1.048746,-6.545309E-08,1.351228
797.3513,-0.9027037,0.0004554197,NaN,-0.3239032,0.0004292016,NaN,0.3882703,-14.56421,NaN,-0.5742925,-1.469921,-0.2794435,14.11273,NaN,NaN,0.01076205,0.8121719,0.05516769,1.051129,-6.515507E-08,1.351615
797.3671,-0.8824086,0.0004551985,NaN,-0.3238124,0.0004294668,NaN,0.3859166,-14.56427,NaN,-0.5770519,-1.467369,-0.2782694,14.11004,NaN,NaN,0.01015679,0.8120551,0.054086,1.04742,-6.515507E-08,1.351655
797.3832,-0.8621221,0.0004548463,NaN,-0.3237205,0.0004296704,NaN,0.3837098,-14.5645,NaN,-0.5796828,-1.466866,-0.2772023,14.10954,NaN,NaN,0.009563472,0.8118061,0.05302552,1.046697,-6.396298E-08,1.351488
797.3973,-0.8621221,0.0004548463,NaN,-0.3237205,0.0004296704,NaN,0.3837098,-14.5645,NaN,-0.5796828,-1.466866,-0.2772023,14.10954,NaN,NaN,0.009563472,0.8118061,0.05302552,1.046697,-6.396298E-08,1.351488
797.4114,-0.8411981,0.0004543079,NaN,-0.3236264,0.0004297766,NaN,0.3812419,-14.5644,NaN,-0.5826089,-1.466102,-0.2759273,14.10871,NaN,NaN,0.008981604,0.8118787,0.05198583,1.045581,-6.128077E-08,1.350208
797.4272,-0.819961,0.0004544509,NaN,-0.3235296,0.0004297005,NaN,0.3787948,-14.56584,NaN,-0.585539,-1.474651,-0.2746593,14.11791,NaN,NaN,0.008411136,0.8106851,0.05096653,1.058057,-5.710845E-08,1.361611
797.442,-0.7986156,0.0004551286,NaN,-0.3234308,0.0004294795,NaN,0.3764709,-14.5655,NaN,-0.5883666,-1.479794,-0.2734782,14.12327,NaN,NaN,0.007851908,0.81112,0.04996721,1.06551,-5.889659E-08,1.359848
797.4571,-0.7986156,0.0004551286,NaN,-0.3234308,0.0004294795,NaN,0.3764709,-14.5655,NaN,-0.5883666,-1.479794,-0.2734782,14.12327,NaN,NaN,0.007851908,0.81112,0.04996721,1.06551,-5.889659E-08,1.359848
797.4713,-0.7765638,0.0004554473,NaN,-0.3233288,0.0004298182,NaN,0.3739012,-14.56396,NaN,-0.5914867,-1.471556,-0.2721015,14.11443,NaN,NaN,0.007303464,0.8125386,0.04898748,1.053516,-5.770449E-08,1.349448
797.4884,-0.75416,0.0004555623,NaN,-0.3232233,0.0004290943,NaN,0.3713703,-14.56457,NaN,-0.5945979,-1.479429,-0.2707452,14.12281,NaN,NaN,0.006765768,0.8121089,0.04802696,1.064981,-5.710845E-08,1.353074
797.5022,-0.7316285,0.0004556423,NaN,-0.323115,0.0004295075,NaN,0.3689789,-14.56403,NaN,-0.5975921,-1.468803,-0.2694879,14.11153,NaN,NaN,0.006238687,0.8124791,0.04708527,1.049522,-5.770449E-08,1.349084
797.5172,-0.7316285,0.0004556423,NaN,-0.323115,0.0004295075,NaN,0.3689789,-14.56403,NaN,-0.5975921,-1.468803,-0.2694879,14.11153,NaN,NaN,0.006238687,0.8124791,0.04708527,1.049522,-5.770449E-08,1.349084
797.5316,-0.709111,0.0004553017,NaN,-0.3230054,0.0004295758,NaN,0.3667492,-14.56391,NaN,-0.6004418,-1.467474,-0.2683482,14.11011,NaN,NaN,0.005722036,0.8125612,0.04616205,1.047582,-5.472426E-08,1.34749
797.5475,-0.6859689,0.0004551827,NaN,-0.3228934,0.0004296042,NaN,0.3642925,-14.56488,NaN,-0.6035756,-1.470857,-0.2670302,14.1138,NaN,NaN,0.005215358,0.8116887,0.04525693,1.052535,-5.234007E-08,1.353488
797.5624,-0.6625307,0.0004547846,NaN,-0.3227785,0.0004296001,NaN,0.3618731,-14.56405,NaN,-0.6067022,-1.467444,-0.2657318,14.11009,NaN,NaN,0.004718613,0.8124306,0.04436956,1.047546,-5.114798E-08,1.347714
797.5785,-0.6625307,0.0004547846,NaN,-0.3227785,0.0004296001,NaN,0.3618731,-14.56405,NaN,-0.6067022,-1.467444,-0.2657318,14.11009,NaN,NaN,0.004718613,0.8124306,0.04436956,1.047546,-5.114798E-08,1.347714
797.5919,-0.6390045,0.0004545248,NaN,-0.3226616,0.0004299959,NaN,0.3595862,-14.5644,NaN,-0.6097161,-1.46615,-0.2645262,14.10876,NaN,NaN,0.004231675,0.81204,0.04349958,1.045676,-4.876379E-08,1.350418
797.6074,-0.6155214,0.0004542234,NaN,-0.322544,0.0004303832,NaN,0.3574536,-14.56446,NaN,-0.6125895,-1.466128,-0.2634316,14.10874,NaN,NaN,0.003754361,0.8119775,0.04264666,1.045643,-4.876379E-08,1.35132
797.6223,-0.591608,0.0004540347,NaN,-0.3224251,0.000430822,NaN,0.3554883,-14.56506,NaN,-0.6158814,-1.466449,-0.262502,14.10915,NaN,NaN,0.003345537,0.8113766,0.04157087,1.046133,-4.280333E-08,1.353876
797.6374,-0.591608,0.0004540347,NaN,-0.3224251,0.000430822,NaN,0.3554883,-14.56506,NaN,-0.6158814,-1.466449,-0.262502,14.10915,NaN,NaN,0.003345537,0.8113766,0.04157087,1.046133,-4.280333E-08,1.353876
797.6519,-0.5675245,0.0004542856,NaN,-0.3223047,0.0004306353,NaN,0.3243486,-14.56565,NaN,-0.6534697,-1.476868,-0.238942,14.1202,NaN,NaN,0.03327114,0.8110638,0.04644803,1.061284,4.643213E-05,1.35964
797.6674,-0.5434349,0.0004546726,NaN,-0.3221837,0.0004299876,NaN,0.2964624,-14.56561,NaN,-0.6910178,-1.48044,-0.2187065,14.12395,NaN,NaN,0.05941898,0.8111616,0.05043846,1.066468,4.552495E-05,1.36109
797.6826,-0.5194421,0.0004549694,NaN,-0.3220631,0.0004297901,NaN,0.2711906,-14.56409,NaN,-0.7286673,-1.474942,-0.2009465,14.11799,NaN,NaN,0.08437409,0.812593,0.05424156,1.058452,4.461538E-05,1.351233
797.6976,-0.5194421,0.0004549694,NaN,-0.3220631,0.0004297901,NaN,0.2711906,-14.56409,NaN,-0.7286673,-1.474942,-0.2009465,14.11799,NaN,NaN,0.08437409,0.812593,0.05424156,1.058452,4.461538E-05,1.351233
797.7121,-0.4956108,0.0004546928,NaN,-0.3219439,0.000429761,NaN,0.2483758,-14.56396,NaN,-0.7659243,-1.46659,-0.1853613,14.10915,NaN,NaN,0.10851,0.8125541,0.0580403,1.046302,4.373502E-05,1.34773
797.7278,-0.4719807,0.00045515,NaN,-0.3218272,0.0004293603,NaN,0.2276687,-14.56399,NaN,-0.8026389,-1.478456,-0.1715765,14.12167,NaN,NaN,0.13202,0.8128514,0.06192826,1.063552,4.287612E-05,1.352498
797.743,-0.4485762,0.000455416,NaN,-0.3217137,0.0004282896,NaN,0.2087779,-14.56401,NaN,-0.8387048,-1.481417,-0.1593017,14.1248,NaN,NaN,0.1549405,0.8128635,0.06593807,1.067858,4.203927E-05,1.351813
797.7583,-0.4485762,0.000455416,NaN,-0.3217137,0.0004282896,NaN,0.2087779,-14.56401,NaN,-0.8387048,-1.481417,-0.1593017,14.1248,NaN,NaN,0.1549405,0.8128635,0.06593807,1.067858,4.203927E-05,1.351813
797.7734,-0.4254115,0.0004560093,NaN,-0.3216039,0.0004279735,NaN,0.1914508,-14.56383,NaN,-0.8740705,-1.478022,-0.1482983,14.12117,NaN,NaN,0.1772864,0.8129964,0.07008206,1.062908,4.121493E-05,1.351578
797.7878,-0.4024948,0.0004561375,NaN,-0.3214982,0.0004283766,NaN,0.175477,-14.56371,NaN,-0.9087095,-1.467386,-0.138373,14.10991,NaN,NaN,0.1990645,0.8129365,0.07436268,1.047425,4.039597E-05,1.343526
797.8029,-0.3798302,0.0004570505,NaN,-0.3213968,0.0004285126,NaN,0.1606849,-14.56503,NaN,-0.9426038,-1.477437,-0.1293706,14.12068,NaN,NaN,0.2202765,0.811888,0.07877675,1.062085,3.960948E-05,1.359741
797.818,-0.3798302,0.0004570505,NaN,-0.3213968,0.0004285126,NaN,0.1606849,-14.56503,NaN,-0.9426038,-1.477437,-0.1293706,14.12068,NaN,NaN,0.2202765,0.811888,0.07877675,1.062085,3.960948E-05,1.359741
797.8325,-0.3574189,0.0004572397,NaN,-0.3213,0.0004290534,NaN,0.1469294,-14.56383,NaN,-0.9757481,-1.46716,-0.1211619,14.1097,NaN,NaN,0.2409295,0.8129099,0.08331989,1.047119,3.883254E-05,1.346471
797.8482,-0.335261,0.0004569211,NaN,-0.3212077,0.0004292671,NaN,0.1340888,-14.56349,NaN,-1.008143,-1.466323,-0.11364,14.10876,NaN,NaN,0.2610328,0.8132383,0.0879867,1.045884,3.807645E-05,1.343328
797.8635,-0.3133554,0.0004571131,NaN,-0.32112,0.000429288,NaN,0.1220616,-14.56497,NaN,-1.039791,-1.473968,-0.1067165,14.11703,NaN,NaN,0.2805937,0.8119795,0.09277054,1.057063,3.733155E-05,1.355053
797.8786,-0.3133554,0.0004571131,NaN,-0.32112,0.000429288,NaN,0.1220616,-14.56497,NaN,-1.039791,-1.473968,-0.1067165,14.11703,NaN,NaN,0.2805937,0.8119795,0.09277054,1.057063,3.733155E-05,1.355053
797.8931,-0.2917001,0.0004570608,NaN,-0.3210368,0.0004296886,NaN,0.1107601,-14.56375,NaN,-1.0707,-1.467085,-0.1003161,14.10962,NaN,NaN,0.2996251,0.8130483,0.09766545,1.047024,3.658768E-05,1.345259
797.9086,-0.2702931,0.0004567119,NaN,-0.3209581,0.0004297437,NaN,0.100111,-14.5637,NaN,-1.100877,-1.467715,-0.09437624,14.11028,NaN,NaN,0.318136,0.8131161,0.1026643,1.047936,3.586945E-05,1.342538
797.9239,-0.2555054,0.0004565049,NaN,-0.3209044,0.0004302056,NaN,0.09317539,-14.56409,NaN,-1.121368,-1.466029,-0.09054717,14.10854,NaN,NaN,0.3317694,0.8126781,0.1069059,1.045496,3.51495E-05,1.3449
797.9387,-0.2555054,0.0004565049,NaN,-0.3209044,0.0004302056,NaN,0.09317539,-14.56409,NaN,-1.121368,-1.466029,-0.09054717,14.10854,NaN,NaN,0.3317694,0.8126781,0.1069059,1.045496,3.51495E-05,1.3449
797.9543,-0.2449437,0.0004557541,NaN,-0.3208837,0.0004301053,NaN,0.08825062,-14.56364,NaN,-1.136189,-1.465297,-0.08794565,14.1077,NaN,NaN,0.3421503,0.8131102,0.1106308,1.04441,3.446181E-05,1.341617
797.9702,-0.2370855,0.0004548868,NaN,-0.3208882,0.0004300584,NaN,0.08460682,-14.56374,NaN,-1.147218,-1.465088,-0.08611972,14.10748,NaN,NaN,0.3500816,0.8130043,0.1139221,1.044108,3.378723E-05,1.341951
797.9839,-0.2309617,0.0004546325,NaN,-0.3209111,0.0004297285,NaN,0.08176307,-14.56525,NaN,-1.155827,-1.474353,-0.08476354,14.11747,NaN,NaN,0.3563879,0.8117713,0.116909,1.057645,3.312503E-05,1.354126
797.9988,-0.2309617,0.0004546325,NaN,-0.3209111,0.0004297285,NaN,0.08176307,-14.56525,NaN,-1.155827,-1.474353,-0.08476354,14.11747,NaN,NaN,0.3563879,0.8117713,0.116909,1.057645,3.312503E-05,1.354126
798.0133,-0.2259549,0.000454748,NaN,-0.3209472,0.0004307111,NaN,0.07943293,-14.56411,NaN,-1.162887,-1.465684,-0.08370005,14.10819,NaN,NaN,0.36163,0.8127269,0.1196841,1.045016,3.246759E-05,1.34549
798.0291,-0.2216721,0.0004554184,NaN,-0.3209921,0.0004306985,NaN,0.07744049,-14.56401,NaN,-1.168945,-1.477907,-0.08282456,14.12108,NaN,NaN,0.3661737,0.8131835,0.1223111,1.062782,3.183279E-05,1.348613
798.0443,-0.2178629,0.0004555678,NaN,-0.3210427,0.000431376,NaN,0.07567522,-14.56428,NaN,-1.174346,-1.466409,-0.08207348,14.10895,NaN,NaN,0.3702541,0.812725,0.1248327,1.046057,3.120397E-05,1.346537
798.0593,-0.2178629,0.0004555678,NaN,-0.3210427,0.000431376,NaN,0.07567522,-14.56428,NaN,-1.174346,-1.466409,-0.08207348,14.10895,NaN,NaN,0.3702541,0.812725,0.1248327,1.046057,3.120397E-05,1.346537
798.0739,-0.2143676,0.0004559222,NaN,-0.3210968,0.0004312554,NaN,0.07335832,-14.56551,NaN,-1.178873,-1.476879,-0.08398834,14.12016,NaN,NaN,0.3737449,0.8117993,0.1288878,1.061326,3.059064E-05,1.356194
798.0894,-0.2110845,0.0004555354,NaN,-0.321153,0.0004310912,NaN,0.07060523,-14.56497,NaN,-1.182879,-1.466848,-0.08681472,14.10951,NaN,NaN,0.3768216,0.8121563,0.1331221,1.046736,2.998267E-05,1.350931
798.1046,-0.2079486,0.0004550707,NaN,-0.3212103,0.0004306427,NaN,0.06776157,-14.56477,NaN,-1.186508,-1.470967,-0.08988998,14.11383,NaN,NaN,0.3795537,0.8124684,0.1370991,1.052717,2.938871E-05,1.350324
798.1194,-0.2079486,0.0004550707,NaN,-0.3212103,0.0004306427,NaN,0.06776157,-14.56477,NaN,-1.186508,-1.470967,-0.08988998,14.11383,NaN,NaN,0.3795537,0.8124684,0.1370991,1.052717,2.938871E-05,1.350324
798.1348,-0.2049185,0.0004548446,NaN,-0.3212681,0.0004303525,NaN,0.06529457,-14.56602,NaN,-1.189974,-1.471826,-0.09328679,14.11489,NaN,NaN,0.3821365,0.8112409,0.1405161,1.054011,2.881263E-05,1.356118
798.1495,-0.2019676,0.0004544726,NaN,-0.321326,0.0004301833,NaN,0.06304994,-14.56483,NaN,-1.193392,-1.469238,-0.09544126,14.11202,NaN,NaN,0.3847214,0.8123542,0.1432773,1.050217,2.824698E-05,1.350162
798.1645,-0.1990788,0.0004544047,NaN,-0.3213838,0.0004304828,NaN,0.06102079,-14.56571,NaN,-1.196903,-1.468692,-0.09716302,14.11156,NaN,NaN,0.3874354,0.8114583,0.1458725,1.049459,2.7687E-05,1.355027
798.1795,-0.1990788,0.0004544047,NaN,-0.3213838,0.0004304828,NaN,0.06102079,-14.56571,NaN,-1.196903,-1.468692,-0.09716302,14.11156,NaN,NaN,0.3874354,0.8114583,0.1458725,1.049459,2.7687E-05,1.355027
798.194,-0.1962412,0.0004542358,NaN,-0.3214413,0.00043078,NaN,0.05912546,-14.56529,NaN,-1.20041,-1.467141,-0.09878489,14.10987,NaN,NaN,0.3901784,0.8118317,0.1484337,1.047194,2.7144E-05,1.350595
798.2096,-0.1934477,0.0004542773,NaN,-0.3214984,0.0004310551,NaN,0.05730938,-14.56578,NaN,-1.203892,-1.469463,-0.1003912,14.11238,NaN,NaN,0.392925,0.8114029,0.1509651,1.050588,2.660666E-05,1.355373
798.2245,-0.1906936,0.0004544409,NaN,-0.321555,0.0004305524,NaN,0.05586626,-14.56613,NaN,-1.207543,-1.477788,-0.100875,14.12119,NaN,NaN,0.3957911,0.8112531,0.1527687,1.062691,2.608631E-05,1.358502
798.2397,-0.1906936,0.0004544409,NaN,-0.321555,0.0004305524,NaN,0.05586626,-14.56613,NaN,-1.207543,-1.477788,-0.100875,14.12119,NaN,NaN,0.3957911,0.8112531,0.1527687,1.062691,2.608631E-05,1.358502
798.254,-0.1879757,0.0004548849,NaN,-0.3216112,0.000429839,NaN,0.05467666,-14.56507,NaN,-1.211269,-1.480503,-0.1009783,14.12393,NaN,NaN,0.3987364,0.8123445,0.1544318,1.06661,2.557312E-05,1.354966
798.2696,-0.1852921,0.0004548904,NaN,-0.3216669,0.0004294302,NaN,0.0535879,-14.56415,NaN,-1.21502,-1.471355,-0.1009889,14.11417,NaN,NaN,0.4017189,0.8131228,0.1561221,1.05329,2.50635E-05,1.348534
798.2848,-0.1826412,0.0004549511,NaN,-0.321722,0.0004290761,NaN,0.0525452,-14.56441,NaN,-1.218747,-1.472672,-0.1009862,14.11559,NaN,NaN,0.4046886,0.8128833,0.1578362,1.055218,2.457206E-05,1.348778
798.2999,-0.1826412,0.0004549511,NaN,-0.321722,0.0004290761,NaN,0.0525452,-14.56441,NaN,-1.218747,-1.472672,-0.1009862,14.11559,NaN,NaN,0.4046886,0.8128833,0.1578362,1.055218,2.457206E-05,1.348778
798.3143,-0.1800219,0.0004551733,NaN,-0.3217767,0.0004281737,NaN,0.05183303,-14.56561,NaN,-1.222663,-1.479749,-0.0998496,14.12321,NaN,NaN,0.4077715,0.8118377,0.1588843,1.065551,2.409254E-05,1.355038
798.33,-0.1774335,0.0004553988,NaN,-0.3218307,0.0004288825,NaN,0.05134069,-14.56485,NaN,-1.22664,-1.467813,-0.0983341,14.11054,NaN,NaN,0.4108824,0.8124065,0.1598236,1.048191,2.361332E-05,1.349135
798.3451,-0.1748753,0.0004558962,NaN,-0.3218843,0.0004287009,NaN,0.05093115,-14.5653,NaN,-1.230608,-1.478672,-0.09673387,14.12206,NaN,NaN,0.4139744,0.812243,0.1608162,1.063993,2.314721E-05,1.353228
798.36,-0.1748753,0.0004558962,NaN,-0.3218843,0.0004287009,NaN,0.05093115,-14.5653,NaN,-1.230608,-1.478672,-0.09673387,14.12206,NaN,NaN,0.4139744,0.812243,0.1608162,1.063993,2.314721E-05,1.353228
798.3743,-0.1723468,0.0004560309,NaN,-0.3219373,0.0004292012,NaN,0.05084149,-14.56472,NaN,-1.234777,-1.468742,-0.09397744,14.11151,NaN,NaN,0.4171746,0.8126433,0.1612092,1.049543,2.269392E-05,1.347438
798.3901,-0.1698476,0.0004559118,NaN,-0.3219898,0.00042958,NaN,0.05096135,-14.56499,NaN,-1.238999,-1.466814,-0.09085277,14.1095,NaN,NaN,0.4203587,0.8123165,0.1615215,1.046747,2.224956E-05,1.34728
798.4053,-0.1673772,0.0004558257,NaN,-0.3220418,0.0004300921,NaN,0.05116166,-14.56507,NaN,-1.243182,-1.466041,-0.08766111,14.10869,NaN,NaN,0.4234732,0.8121975,0.1619065,1.045625,2.181385E-05,1.349907
798.4201,-0.1649354,0.0004562332,NaN,-0.3220933,0.0004299431,NaN,0.051383,-14.56605,NaN,-1.2473,-1.477633,-0.08447572,14.12104,NaN,NaN,0.4265146,0.811546,0.1623777,1.062509,2.138679E-05,1.356973
798.4353,-0.1649354,0.0004562332,NaN,-0.3220933,0.0004299431,NaN,0.051383,-14.56605,NaN,-1.2473,-1.477633,-0.08447572,14.12104,NaN,NaN,0.4265146,0.811546,0.1623777,1.062509,2.138679E-05,1.356973
798.451,-0.1625216,0.0004561618,NaN,-0.3221442,0.0004300146,NaN,0.05188556,-14.56464,NaN,-1.251603,-1.46892,-0.08014823,14.1117,NaN,NaN,0.4296487,0.8127907,0.1622842,1.049819,2.096225E-05,1.346452
798.4656,-0.1601356,0.0004565232,NaN,-0.3221947,0.0004296958,NaN,0.05258555,-14.56597,NaN,-1.255944,-1.478266,-0.07547537,14.12173,NaN,NaN,0.4327269,0.8117095,0.1621076,1.063459,2.05486E-05,1.356161
798.4807,-0.157777,0.0004566172,NaN,-0.3222446,0.0004289861,NaN,0.05336775,-14.56574,NaN,-1.260218,-1.477123,-0.0707581,14.1205,NaN,NaN,0.4356886,0.8119212,0.1620036,1.061796,2.014686E-05,1.353371
798.4958,-0.157777,0.0004566172,NaN,-0.3222446,0.0004289861,NaN,0.05336775,-14.56574,NaN,-1.260218,-1.477123,-0.0707581,14.1205,NaN,NaN,0.4356886,0.8119212,0.1620036,1.061796,2.014686E-05,1.353371
798.5111,-0.1554456,0.0004568534,NaN,-0.3222941,0.0004279435,NaN,0.05416514,-14.56569,NaN,-1.264409,-1.480404,-0.0660605,14.12395,NaN,NaN,0.4385539,0.8120189,0.1620049,1.066564,1.976003E-05,1.35203
798.526,-0.153141,0.000456698,NaN,-0.322343,0.0004270676,NaN,0.05523117,-14.5648,NaN,-1.268772,-1.474068,-0.06021762,14.11717,NaN,NaN,0.4415011,0.8128194,0.1614844,1.057334,1.937066E-05,1.345776
798.5406,-0.1508629,0.0004567788,NaN,-0.3223915,0.0004263712,NaN,0.05650996,-14.56643,NaN,-1.273112,-1.475764,-0.05389937,14.11914,NaN,NaN,0.4443537,0.8112292,0.1610797,1.059845,1.899172E-05,1.352915
798.5558,-0.1508629,0.0004567788,NaN,-0.3223915,0.0004263712,NaN,0.05650996,-14.56643,NaN,-1.273112,-1.475764,-0.05389937,14.11914,NaN,NaN,0.4443537,0.8112292,0.1610797,1.059845,1.899172E-05,1.352915
798.5701,-0.1486109,0.0004566759,NaN,-0.3224394,0.0004262414,NaN,0.05852885,-14.56554,NaN,-1.277739,-1.469144,-0.04816269,14.11207,NaN,NaN,0.4472164,0.8119863,0.1601617,1.050207,1.861755E-05,1.346654
798.5861,-0.1463849,0.0004569286,NaN,-0.3224869,0.0004255079,NaN,0.06069472,-14.5652,NaN,-1.282186,-1.479659,-0.0426052,14.1231,NaN,NaN,0.4498449,0.812592,0.1592811,1.065469,1.82568E-05,1.349911
798.6024,-0.1441845,0.0004573847,NaN,-0.3225339,0.0004259506,NaN,0.06298503,-14.5663,NaN,-1.286716,-1.472556,-0.03579798,14.11571,NaN,NaN,0.452507,0.8113964,0.1580766,1.055159,1.790379E-05,1.357189
798.6169,-0.1441845,0.0004573847,NaN,-0.3225339,0.0004259506,NaN,0.06298503,-14.5663,NaN,-1.286716,-1.472556,-0.03579798,14.11571,NaN,NaN,0.452507,0.8113964,0.1580766,1.055159,1.790379E-05,1.357189
798.6309,-0.1420093,0.0004568969,NaN,-0.3225804,0.0004257411,NaN,0.0644934,-14.56509,NaN,-1.290911,-1.467279,-0.02786279,14.10999,NaN,NaN,0.4548913,0.8124847,0.1577829,1.047455,1.755436E-05,1.344398
798.6465,-0.1398592,0.0004564945,NaN,-0.3226265,0.0004256591,NaN,0.06540058,-14.56495,NaN,-1.29483,-1.469701,-0.01932842,14.11253,NaN,NaN,0.4570633,0.8126858,0.1582279,1.050969,1.720239E-05,1.347535
798.665,-0.1377337,0.0004565175,NaN,-0.3226721,0.0004259141,NaN,0.06591195,-14.56595,NaN,-1.29854,-1.470554,-0.01048199,14.11355,NaN,NaN,0.459071,0.8117046,0.1591814,1.052245,1.68695E-05,1.352297
798.6771,-0.1377337,0.0004565175,NaN,-0.3226721,0.0004259141,NaN,0.06591195,-14.56595,NaN,-1.29854,-1.470554,-0.01048199,14.11355,NaN,NaN,0.459071,0.8117046,0.1591814,1.052245,1.68695E-05,1.352297
798.6923,-0.1356327,0.0004569473,NaN,-0.3227172,0.0004255212,NaN,0.06926948,-14.56522,NaN,-1.302962,-1.47973,-0.002590754,14.12312,NaN,NaN,0.4621486,0.8126334,0.1572903,1.065548,1.654168E-05,1.349921
798.7067,-0.1335559,0.0004569381,NaN,-0.3227619,0.0004258238,NaN,0.07006708,-14.56479,NaN,-1.307096,-1.467574,0.007669986,14.11024,NaN,NaN,0.464783,0.8128722,0.1579533,1.047861,1.621683E-05,1.342443
798.7217,-0.1315029,0.0004566825,NaN,-0.3228061,0.0004255724,NaN,0.07360154,-14.56507,NaN,-1.311709,-1.471831,0.01583358,14.11476,NaN,NaN,0.4680327,0.8126981,0.156221,1.054059,1.590078E-05,1.344031
798.7369,-0.1315029,0.0004566825,NaN,-0.3228061,0.0004255724,NaN,0.07360154,-14.56507,NaN,-1.311709,-1.471831,0.01583358,14.11476,NaN,NaN,0.4680327,0.8126981,0.156221,1.054059,1.590078E-05,1.344031
798.7514,-0.1294735,0.0004563562,NaN,-0.3228498,0.0004258,NaN,0.0774987,-14.56521,NaN,-1.31663,-1.467012,0.02502199,14.10968,NaN,NaN,0.4716079,0.8124385,0.1541399,1.047052,1.558875E-05,1.343021
798.7678,-0.1274674,0.0004567104,NaN,-0.3228931,0.0004255014,NaN,0.08133254,-14.56608,NaN,-1.321531,-1.478617,0.03466463,14.12203,NaN,NaN,0.4751523,0.8118919,0.1523684,1.063951,1.528208E-05,1.351721
798.7823,-0.1254844,0.0004571991,NaN,-0.322936,0.0004258025,NaN,0.08515044,-14.5667,NaN,-1.326343,-1.474304,0.04434553,14.11754,NaN,NaN,0.4786014,0.8111972,0.1508292,1.057693,1.498719E-05,1.355063
798.7975,-0.1254844,0.0004571991,NaN,-0.322936,0.0004258025,NaN,0.08515044,-14.5667,NaN,-1.326343,-1.474304,0.04434553,14.11754,NaN,NaN,0.4786014,0.8111972,0.1508292,1.057693,1.498719E-05,1.355063
798.8119,-0.1235242,0.0004572304,NaN,-0.3229784,0.0004262723,NaN,0.08892944,-14.56528,NaN,-1.331044,-1.467075,0.05397709,14.10975,NaN,NaN,0.4819421,0.8124587,0.149499,1.047154,1.46993E-05,1.342237
798.8278,-0.1215865,0.0004574186,NaN,-0.3230203,0.0004257444,NaN,0.09305688,-14.56596,NaN,-1.335789,-1.479048,0.06470375,14.12247,NaN,NaN,0.4853896,0.8120934,0.1477369,1.064582,1.441439E-05,1.350985
798.8428,-0.1196711,0.0004575745,NaN,-0.3230619,0.0004259496,NaN,0.09715725,-14.56494,NaN,-1.340493,-1.471846,0.07586934,14.11475,NaN,NaN,0.4888085,0.8129905,0.1462268,1.054087,1.412784E-05,1.342922
798.8577,-0.1196711,0.0004575745,NaN,-0.3230619,0.0004259496,NaN,0.09715725,-14.56494,NaN,-1.340493,-1.471846,0.07586934,14.11475,NaN,NaN,0.4888085,0.8129905,0.1462268,1.054087,1.412784E-05,1.342922
798.8731,-0.1177777,0.0004570998,NaN,-0.323103,0.000425857,NaN,0.1012356,-14.56462,NaN,-1.345097,-1.467132,0.08707338,14.10973,NaN,NaN,0.4921311,0.813198,0.1449562,1.047218,1.384978E-05,1.341078
798.8876,-0.1159061,0.0004563351,NaN,-0.3231436,0.000425736,NaN,0.1052728,-14.56455,NaN,-1.34959,-1.465787,0.09822089,14.10829,NaN,NaN,0.4953472,0.8132294,0.1439048,1.045254,1.358991E-05,1.340026
798.9026,-0.114056,0.0004562148,NaN,-0.3231839,0.0004250559,NaN,0.1096589,-14.56549,NaN,-1.354095,-1.478162,0.1104661,14.12149,NaN,NaN,0.4986657,0.8126497,0.1424509,1.063294,1.333212E-05,1.350776
798.9175,-0.114056,0.0004562148,NaN,-0.3231839,0.0004250559,NaN,0.1096589,-14.56549,NaN,-1.354095,-1.478162,0.1104661,14.12149,NaN,NaN,0.4986657,0.8126497,0.1424509,1.063294,1.333212E-05,1.350776
798.9333,-0.1122272,0.0004562527,NaN,-0.3232237,0.000424173,NaN,0.1140171,-14.56639,NaN,-1.35854,-1.478806,0.1231383,14.12226,NaN,NaN,0.5019366,0.8117552,0.1412573,1.064249,1.307612E-05,1.354414
798.9476,-0.1104194,0.0004555982,NaN,-0.3232632,0.0004231702,NaN,0.1183503,-14.56466,NaN,-1.362875,-1.471631,0.1358391,14.1145,NaN,NaN,0.505101,0.8133509,0.1403106,1.053783,1.282548E-05,1.344218
798.9628,-0.1086323,0.0004553799,NaN,-0.3233022,0.0004227009,NaN,0.1226382,-14.56435,NaN,-1.367091,-1.472832,0.1484761,14.11573,NaN,NaN,0.5081533,0.8136851,0.1395941,1.05552,1.258252E-05,1.339699
798.978,-0.1086323,0.0004553799,NaN,-0.3233022,0.0004227009,NaN,0.1226382,-14.56435,NaN,-1.367091,-1.472832,0.1484761,14.11573,NaN,NaN,0.5081533,0.8136851,0.1395941,1.05552,1.258252E-05,1.339699
798.9922,-0.1068659,0.0004549304,NaN,-0.3233408,0.0004226646,NaN,0.1272764,-14.56484,NaN,-1.371289,-1.466552,0.162212,14.10914,NaN,NaN,0.5113055,0.8130629,0.1385016,1.046392,1.232897E-05,1.342377
799.0079,-0.1051197,0.0004546228,NaN,-0.3233791,0.000422548,NaN,0.1318877,-14.56587,NaN,-1.37541,-1.470554,0.1763613,14.1135,NaN,NaN,0.5143927,0.8121411,0.1376734,1.052254,1.209331E-05,1.348473
799.0232,-0.1033936,0.0004543695,NaN,-0.3234169,0.0004227702,NaN,0.13647,-14.56553,NaN,-1.379408,-1.467948,0.1905303,14.1107,NaN,NaN,0.5173637,0.8124146,0.1370982,1.048453,1.185698E-05,1.346176
799.0379,-0.1033936,0.0004543695,NaN,-0.3234169,0.0004227702,NaN,0.13647,-14.56553,NaN,-1.379408,-1.467948,0.1905303,14.1107,NaN,NaN,0.5173637,0.8124146,0.1370982,1.048453,1.185698E-05,1.346176
799.0545,-0.1016873,0.0004547069,NaN,-0.3234543,0.0004224155,NaN,0.1414013,-14.56513,NaN,-1.383361,-1.47896,0.2058231,14.12226,NaN,NaN,0.5204246,0.8130977,0.136191,1.064443,1.162594E-05,1.348819
799.068,-0.1000007,0.0004548343,NaN,-0.3234914,0.0004231576,NaN,0.1463079,-14.5651,NaN,-1.387212,-1.466906,0.2215198,14.10951,NaN,NaN,0.523399,0.812942,0.1355613,1.046902,1.138804E-05,1.344476
799.083,-0.09833344,0.0004546874,NaN,-0.323528,0.0004235374,NaN,0.1511796,-14.56542,NaN,-1.390931,-1.466797,0.237229,14.10943,NaN,NaN,0.5262485,0.8126172,0.1352015,1.046754,1.116154E-05,1.344607
799.098,-0.09833344,0.0004546874,NaN,-0.323528,0.0004235374,NaN,0.1511796,-14.56542,NaN,-1.390931,-1.466797,0.237229,14.10943,NaN,NaN,0.5262485,0.8126172,0.1352015,1.046754,1.116154E-05,1.344607
799.1122,-0.09668536,0.0004544888,NaN,-0.3235643,0.0004239182,NaN,0.1559961,-14.56571,NaN,-1.394518,-1.46668,0.25286,14.10934,NaN,NaN,0.528972,0.8123243,0.1350963,1.046592,1.093869E-05,1.346649
799.1283,-0.09505624,0.0004546415,NaN,-0.3236002,0.0004236798,NaN,0.1611621,-14.5664,NaN,-1.39802,-1.476395,0.2695878,14.11967,NaN,NaN,0.5317844,0.8118989,0.1346626,1.060738,1.072218E-05,1.353371
799.1433,-0.09344584,0.0004545941,NaN,-0.3236357,0.0004240511,NaN,0.1663046,-14.56507,NaN,-1.401409,-1.467869,0.2866993,14.11052,NaN,NaN,0.5345049,0.8130649,0.1344995,1.048313,1.051058E-05,1.344108
799.1581,-0.09344584,0.0004545941,NaN,-0.3236357,0.0004240511,NaN,0.1663046,-14.56507,NaN,-1.401409,-1.467869,0.2866993,14.11052,NaN,NaN,0.5345049,0.8130649,0.1344995,1.048313,1.051058E-05,1.344108
799.1725,-0.09185395,0.0004549193,NaN,-0.3236709,0.0004236552,NaN,0.1714063,-14.56575,NaN,-1.404663,-1.47933,0.3038144,14.12271,NaN,NaN,0.5370972,0.8126925,0.1346086,1.065005,1.030211E-05,1.351805
