JMolnar6/NonAnthroHands_User_Study/HandsLoggerWithURDF/tempdata/PID 0 (test)/files/Reachy_PID0_JointMotion_gesture_10_5.csv
Time,r_shoulder,r_shoulder_x,r_upper_arm,r_forearm,r_wrist,r_wrist2hand,
944.4753,0.08782028,-0.5790371,-0.2755142,-0.8179279,0.4988796,-0.4839289
944.4888,0.08787663,-0.5790362,-0.275477,-0.8179037,0.4988816,-0.4839289
944.504,0.08793229,-0.5790353,-0.27544,-0.8178798,0.4988836,-0.4839288
944.5201,0.08798728,-0.5790344,-0.2754035,-0.8178562,0.4988856,-0.4839288
944.5345,0.08798728,-0.5790344,-0.2754035,-0.8178562,0.4988856,-0.4839288
944.5476,0.08804162,-0.5790336,-0.2753672,-0.8178328,0.4988874,-0.4839288
944.5629,0.0880953,-0.5790328,-0.2753313,-0.8178098,0.4988893,-0.4839287
944.5776,0.0880953,-0.5790328,-0.2753313,-0.8178098,0.4988893,-0.4839287
944.5916,0.08814834,-0.5790319,-0.2752958,-0.817787,0.4988911,-0.4839287
944.6072,0.08820074,-0.5790311,-0.2752606,-0.8177645,0.4988928,-0.4839287
944.6219,0.08825251,-0.5790303,-0.2752257,-0.8177423,0.4988945,-0.4839287
944.6366,0.08825251,-0.5790303,-0.2752257,-0.8177423,0.4988945,-0.4839287
944.6506,0.08830367,-0.5790295,-0.2751911,-0.8177204,0.4988961,-0.4839287
944.6662,0.08835421,-0.5790287,-0.2751569,-0.8176987,0.4988977,-0.4839286
944.6809,0.08840414,-0.579028,-0.2751229,-0.8176773,0.4988993,-0.4839286
944.6957,0.08840414,-0.579028,-0.2751229,-0.8176773,0.4988993,-0.4839286
944.7099,0.08845347,-0.5790272,-0.2750894,-0.8176561,0.4989007,-0.4839286
944.7251,0.08850221,-0.5790264,-0.2750561,-0.8176352,0.4989022,-0.4839286
944.74,0.08850221,-0.5790264,-0.2750561,-0.8176352,0.4989022,-0.4839286
944.7537,0.08855037,-0.5790256,-0.2750231,-0.8176146,0.4989036,-0.4839286
944.7712,0.08859795,-0.5790249,-0.2749905,-0.8175942,0.498905,-0.4839286
944.7849,0.08864495,-0.5790241,-0.2749582,-0.817574,0.4989063,-0.4839286
944.7985,0.08864495,-0.5790241,-0.2749582,-0.817574,0.4989063,-0.4839286
944.8128,0.08869139,-0.5790234,-0.2749262,-0.8175541,0.4989076,-0.4839286
944.8281,0.08873728,-0.5790227,-0.2748944,-0.8175345,0.4989088,-0.4839286
944.8427,0.08878262,-0.579022,-0.274863,-0.8175151,0.4989101,-0.4839286
944.8573,0.08878262,-0.579022,-0.274863,-0.8175151,0.4989101,-0.4839286
944.8713,0.08882741,-0.5790213,-0.2748319,-0.8174959,0.4989113,-0.4839286
944.887,0.08887167,-0.5790206,-0.2748011,-0.817477,0.4989124,-0.4839286
944.9017,0.08891539,-0.5790198,-0.2747706,-0.8174583,0.4989135,-0.4839286
944.9165,0.08891539,-0.5790198,-0.2747706,-0.8174583,0.4989135,-0.4839286
944.9304,0.08895858,-0.5790191,-0.2747404,-0.8174398,0.4989146,-0.4839286
944.9459,0.08900126,-0.5790184,-0.2747104,-0.8174216,0.4989156,-0.4839286
944.9606,0.08904343,-0.5790177,-0.2746808,-0.8174036,0.4989166,-0.4839286
944.9756,0.08904343,-0.5790177,-0.2746808,-0.8174036,0.4989166,-0.4839286
944.9894,0.08908509,-0.579017,-0.2746515,-0.8173857,0.4989176,-0.4839286
945.0046,0.08912626,-0.5790163,-0.2746224,-0.8173681,0.4989186,-0.4839286
945.0194,0.08912626,-0.5790163,-0.2746224,-0.8173681,0.4989186,-0.4839286
945.0354,0.08916692,-0.5790157,-0.2745936,-0.8173508,0.4989195,-0.4839286
945.0491,0.08920711,-0.579015,-0.2745651,-0.8173336,0.4989204,-0.4839286
945.0633,0.0892468,-0.5790144,-0.2745369,-0.8173167,0.4989212,-0.4839286
945.0781,0.0892468,-0.5790144,-0.2745369,-0.8173167,0.4989212,-0.4839286
945.0922,0.08928602,-0.5790137,-0.274509,-0.8173,0.4989221,-0.4839286
945.1076,0.08932477,-0.579013,-0.2744813,-0.8172835,0.4989229,-0.4839286
945.1222,0.08936305,-0.5790124,-0.2744538,-0.8172671,0.4989237,-0.4839286
945.1371,0.08936305,-0.5790124,-0.2744538,-0.8172671,0.4989237,-0.4839286
945.1512,0.08940088,-0.5790117,-0.2744267,-0.817251,0.4989244,-0.4839286
945.1667,0.08943825,-0.5790111,-0.2743998,-0.8172351,0.4989251,-0.4839286
945.1815,0.08947518,-0.5790104,-0.2743732,-0.8172194,0.4989258,-0.4839286
945.1961,0.08947518,-0.5790104,-0.2743732,-0.8172194,0.4989258,-0.4839286
945.2105,0.08951166,-0.5790098,-0.2743469,-0.8172038,0.4989265,-0.4839286
945.2285,0.08954769,-0.5790091,-0.2743208,-0.8171885,0.4989271,-0.4839286
945.2402,0.0895833,-0.5790085,-0.2742949,-0.8171734,0.4989277,-0.4839286
945.2551,0.0895833,-0.5790085,-0.2742949,-0.8171734,0.4989277,-0.4839286
945.2691,0.08961848,-0.5790078,-0.2742693,-0.8171584,0.4989283,-0.4839286
945.2855,0.08965324,-0.5790071,-0.274244,-0.8171436,0.4989289,-0.4839286
945.2996,0.08965324,-0.5790071,-0.274244,-0.8171436,0.4989289,-0.4839286
945.3134,0.08968758,-0.5790065,-0.2742189,-0.817129,0.4989294,-0.4839286
945.3287,0.08972151,-0.5790058,-0.2741941,-0.8171146,0.4989299,-0.4839286
945.3436,0.08975503,-0.5790052,-0.2741695,-0.8171003,0.4989304,-0.4839286
945.3581,0.08975503,-0.5790052,-0.2741695,-0.8171003,0.4989304,-0.4839286
945.3722,0.08978815,-0.5790045,-0.2741451,-0.8170863,0.4989309,-0.4839286
945.3875,0.08982087,-0.5790039,-0.274121,-0.8170724,0.4989313,-0.4839286
945.4022,0.0898532,-0.5790032,-0.2740971,-0.8170587,0.4989318,-0.4839286
945.4171,0.0898532,-0.5790032,-0.2740971,-0.8170587,0.4989318,-0.4839286
945.431,0.08988514,-0.5790026,-0.2740735,-0.8170452,0.4989322,-0.4839286
945.4468,0.0899167,-0.579002,-0.2740501,-0.8170317,0.4989326,-0.4839286
945.4612,0.08994788,-0.5790014,-0.274027,-0.8170185,0.498933,-0.4839286
945.4772,0.08994788,-0.5790014,-0.274027,-0.8170185,0.498933,-0.4839286
945.4902,0.0903194,-0.5789874,-0.2746428,-0.8170537,0.4995674,-0.4838827
945.5057,0.09089866,-0.5789654,-0.2753856,-0.8170304,0.5002784,-0.4838375
945.5201,0.09160309,-0.5789388,-0.2761555,-0.816956,0.5010065,-0.4837932
945.5362,0.09160309,-0.5789388,-0.2761555,-0.816956,0.5010065,-0.4837932
945.5502,0.09204062,-0.5789232,-0.2762813,-0.8167959,0.5011055,-0.4837958
945.5645,0.09231198,-0.5789143,-0.2762608,-0.8166687,0.5011232,-0.4837984
945.5794,0.09231198,-0.5789143,-0.2762608,-0.8166687,0.5011232,-0.4837984
945.5931,0.09247987,-0.5789093,-0.2761906,-0.8165765,0.5011153,-0.483801
945.6088,0.09258334,-0.5789068,-0.2761042,-0.816512,0.5010933,-0.4838036
945.6234,0.09230725,-0.578918,-0.2753785,-0.8164201,0.5004315,-0.4838521
945.6379,0.09230725,-0.578918,-0.2753785,-0.8164201,0.5004315,-0.4838521
945.6521,0.09179889,-0.5789373,-0.2745292,-0.8164004,0.4996877,-0.4838997
945.6674,0.09114989,-0.5789612,-0.2736586,-0.8164408,0.4989244,-0.4839464
945.6824,0.09041731,-0.5789876,-0.2727997,-0.8165243,0.4981568,-0.4839922
945.6971,0.09041731,-0.5789876,-0.2727997,-0.8165243,0.4981568,-0.4839922
945.7111,0.0892959,-0.5790289,-0.2713254,-0.8165886,0.4967589,-0.4840829
945.7266,0.08794036,-0.5790786,-0.2697513,-0.8167304,0.4952918,-0.484172
945.7413,0.08644692,-0.5791329,-0.2681767,-0.8169351,0.4938176,-0.4842593
945.7559,0.08644692,-0.5791329,-0.2681767,-0.8169351,0.4938176,-0.4842593
945.7702,0.08453467,-0.5792031,-0.265992,-0.8171356,0.4917143,-0.4843909
945.7852,0.08237348,-0.5792819,-0.2637233,-0.8174246,0.4895504,-0.4845199
945.8008,0.08006894,-0.5793653,-0.2614715,-0.8177832,0.4873892,-0.4846463
945.8147,0.08006894,-0.5793653,-0.2614715,-0.8177832,0.4873892,-0.4846463
945.8286,0.07768666,-0.5794506,-0.2592677,-0.8181903,0.4852468,-0.4847702
945.8441,0.07492656,-0.5795502,-0.2564784,-0.8185797,0.4824881,-0.4849376
945.8589,0.07492656,-0.5795502,-0.2564784,-0.8185797,0.4824881,-0.4849376
945.8727,0.0719466,-0.5796572,-0.2536253,-0.819047,0.4796867,-0.4851018
945.8882,0.06884491,-0.5797677,-0.2508033,-0.8195765,0.476902,-0.4852627
945.9031,0.0656824,-0.5798795,-0.2480413,-0.8201491,0.4741483,-0.4854204
945.9178,0.0656824,-0.5798795,-0.2480413,-0.8201491,0.4741483,-0.4854204
945.9321,0.06215592,-0.580005,-0.2447012,-0.8206992,0.4707813,-0.4856209
945.9475,0.05842163,-0.5801373,-0.2413115,-0.8213243,0.4673857,-0.4858176
945.9622,0.05457645,-0.5802726,-0.2379651,-0.8220091,0.4640179,-0.4860103
945.9769,0.05457645,-0.5802726,-0.2379651,-0.8220091,0.4640179,-0.4860103
945.991,0.05033958,-0.5804223,-0.2340401,-0.8226845,0.4600323,-0.4862451
946.0063,0.0458811,-0.580579,-0.2300794,-0.8234443,0.4560274,-0.4864753
946.0208,0.04130652,-0.5807386,-0.2261768,-0.8242698,0.4520589,-0.486701
946.0355,0.04130652,-0.5807386,-0.2261768,-0.8242698,0.4520589,-0.486701
946.052,0.03668125,-0.5808987,-0.2223605,-0.8251398,0.4481411,-0.4869222
946.065,0.03170472,-0.5810718,-0.217984,-0.825986,0.4436105,-0.4871849
946.0797,0.03170472,-0.5810718,-0.217984,-0.825986,0.4436105,-0.4871849
946.0939,0.02653483,-0.5812508,-0.2135904,-0.8269058,0.4390787,-0.4874425
946.1093,0.02126945,-0.581432,-0.2092662,-0.8278834,0.4345959,-0.4876949
946.1238,0.01596915,-0.5816132,-0.2050375,-0.8289001,0.4301742,-0.4879423
946.1385,0.01596915,-0.5816132,-0.2050375,-0.8289001,0.4301742,-0.4879423
946.1526,0.01033027,-0.581807,-0.200252,-0.8298883,0.4251365,-0.4882308
946.1682,0.004508828,-0.5820063,-0.1954627,-0.8309467,0.4201121,-0.4885135
946.1829,-0.001398485,-0.5822074,-0.1907527,-0.8320607,0.4151467,-0.4887907
946.1976,-0.001398485,-0.5822074,-0.1907527,-0.8320607,0.4151467,-0.4887907
946.212,-0.007673034,-0.5824218,-0.1854839,-0.8331591,0.4095579,-0.4891082
946.2274,-0.01414482,-0.5826418,-0.1802252,-0.8343371,0.4039926,-0.4894195
946.2421,-0.02070856,-0.5828635,-0.1750593,-0.8355767,0.3984945,-0.4897247
946.2567,-0.02070856,-0.5828635,-0.1750593,-0.8355767,0.3984945,-0.4897247
946.2706,-0.02729917,-0.5830846,-0.1700113,-0.836857,0.3930752,-0.4900237
946.2862,-0.03421779,-0.5833179,-0.1644192,-0.8381077,0.3870325,-0.4903627
946.3017,-0.0413066,-0.5835559,-0.1588537,-0.8394274,0.3810312,-0.490695
946.3167,-0.0413066,-0.5835559,-0.1588537,-0.8394274,0.3810312,-0.490695
946.3296,-0.04846793,-0.5837951,-0.1533899,-0.8408011,0.3751082,-0.4910206
946.3451,-0.05564149,-0.5840333,-0.1480508,-0.8422104,0.3692735,-0.4913399
946.3597,-0.05564149,-0.5840333,-0.1480508,-0.8422104,0.3692735,-0.4913399
946.3736,-0.06313156,-0.5842834,-0.1421691,-0.8435857,0.3628089,-0.4916986
946.389,-0.07078212,-0.5845379,-0.1363257,-0.845027,0.3564,-0.4920503
946.4036,-0.07849668,-0.5847933,-0.1305915,-0.84652,0.3500788,-0.4923949
946.4188,-0.07849668,-0.5847933,-0.1305915,-0.84652,0.3500788,-0.4923949
946.4329,-0.08655719,-0.5850611,-0.124313,-0.8479922,0.3431199,-0.4927786
946.4482,-0.09479367,-0.5853337,-0.1180856,-0.8495398,0.3362271,-0.4931547
946.4627,-0.103101,-0.5856069,-0.1119796,-0.8511453,0.3294302,-0.4935233
946.4777,-0.103101,-0.5856069,-0.1119796,-0.8511453,0.3294302,-0.4935233
946.4918,-0.1114143,-0.5858788,-0.1060171,-0.8527889,0.3227378,-0.4938845
946.5071,-0.1200354,-0.586162,-0.09952277,-0.8543986,0.3154055,-0.4942845
946.5219,-0.1288065,-0.5864493,-0.09309287,-0.8560733,0.3081554,-0.4946765
946.5363,-0.1288065,-0.5864493,-0.09309287,-0.8560733,0.3081554,-0.4946765
946.5526,-0.1376299,-0.5867369,-0.08679077,-0.857799,0.3010109,-0.4950607
946.5669,-0.1464458,-0.5870228,-0.08063666,-0.8595579,0.2939795,-0.4954372
946.5806,-0.1555589,-0.5873199,-0.07395169,-0.8612794,0.2863012,-0.4958521
946.5951,-0.1555589,-0.5873199,-0.07395169,-0.8612794,0.2863012,-0.4958521
946.6094,-0.1648132,-0.5876209,-0.06733984,-0.863063,0.2787176,-0.4962588
946.6246,-0.1741123,-0.5879219,-0.06086124,-0.8648959,0.271248,-0.4966574
946.6389,-0.1741123,-0.5879219,-0.06086124,-0.8648959,0.271248,-0.4966574
946.6536,-0.1837389,-0.5882347,-0.0538512,-0.8667046,0.2631252,-0.4970939
946.6689,-0.1935229,-0.5885515,-0.04692511,-0.8685851,0.2551068,-0.4975217
946.6837,-0.2033592,-0.5888682,-0.04014296,-0.8705214,0.2472104,-0.497941
946.6985,-0.2033592,-0.5888682,-0.04014296,-0.8705214,0.2472104,-0.497941
946.7126,-0.2131832,-0.589183,-0.03352385,-0.8724942,0.2394422,-0.498352
946.7279,-0.2232973,-0.5895086,-0.02638441,-0.874431,0.2310178,-0.4988006
946.7426,-0.2335437,-0.5898376,-0.01933816,-0.87643,0.2227105,-0.4992403
946.7575,-0.2335437,-0.5898376,-0.01933816,-0.87643,0.2227105,-0.4992403
946.7714,-0.2438249,-0.5901662,-0.01243971,-0.8784781,0.2145336,-0.4996713
946.7867,-0.254081,-0.5904926,-0.005706546,-0.8805585,0.2064921,-0.5000937
946.8013,-0.2646177,-0.5908298,0.001546067,-0.8826002,0.1977878,-0.5005535
946.817,-0.2646177,-0.5908298,0.001546067,-0.8826002,0.1977878,-0.5005535
946.8312,-0.2752786,-0.5911703,0.00870033,-0.8847017,0.1892103,-0.5010042
946.8456,-0.2859676,-0.5915102,0.0157035,-0.8868511,0.1807703,-0.5014459
946.8601,-0.2966256,-0.591848,0.02253865,-0.8890319,0.1724719,-0.5018789
946.875,-0.2966256,-0.591848,0.02253865,-0.8890319,0.1724719,-0.5018789
946.889,-0.3075587,-0.5921963,0.02989113,-0.8911741,0.1635043,-0.502349
946.9043,-0.3186111,-0.5925478,0.03714012,-0.8933754,0.1546721,-0.5028098
946.9191,-0.3186111,-0.5925478,0.03714012,-0.8933754,0.1546721,-0.5028098
946.9331,-0.3296865,-0.5928987,0.04423455,-0.8956242,0.1459842,-0.5032615
946.949,-0.3410686,-0.5932608,0.05184538,-0.8978484,0.1366232,-0.50375
946.9634,-0.3525872,-0.593626,0.05934436,-0.900142,0.1274056,-0.5042288
946.9782,-0.3525872,-0.593626,0.05934436,-0.900142,0.1274056,-0.5042288
946.9921,-0.3641373,-0.5939904,0.06667992,-0.9024901,0.1183398,-0.5046981
947.0076,-0.3756545,-0.5943523,0.07383648,-0.9048747,0.1094287,-0.5051581
947.0223,-0.3874423,-0.5947246,0.0815005,-0.9072251,0.09984021,-0.5056548
947.037,-0.3874423,-0.5947246,0.0815005,-0.9072251,0.09984021,-0.5056548
947.0513,-0.3993425,-0.5950996,0.08904808,-0.9096361,0.09040364,-0.5061415
947.0684,-0.4112577,-0.5954735,0.09643119,-0.9120957,0.08112538,-0.5066187
947.082,-0.4231283,-0.5958447,0.1036354,-0.9145881,0.07200715,-0.5070865
947.0972,-0.4231283,-0.5958447,0.1036354,-0.9145881,0.07200715,-0.5070865
947.1098,-0.4352607,-0.5962264,0.1113471,-0.9170449,0.06220482,-0.5075907
947.1249,-0.4474986,-0.5966107,0.1189404,-0.9195607,0.05256137,-0.508085
947.1396,-0.4474986,-0.5966107,0.1189404,-0.9195607,0.05256137,-0.508085
947.1536,-0.4597457,-0.5969938,0.1263682,-0.9221241,0.04308198,-0.5085694
947.1691,-0.4722861,-0.5973879,0.1343028,-0.9246665,0.03291538,-0.5090901
947.1836,-0.4849494,-0.5977846,0.142112,-0.9272779,0.02291557,-0.5096004
947.1985,-0.4849494,-0.5977846,0.142112,-0.9272779,0.02291557,-0.5096004
947.2127,-0.4976306,-0.5981801,0.1497481,-0.9299442,0.01308727,-0.5101007
947.2281,-0.5102654,-0.5985727,0.1571978,-0.9326479,0.003431005,-0.5105911
947.2431,-0.5231578,-0.5989754,0.1651474,-0.9353222,-0.006918466,-0.5111176
947.2574,-0.5231578,-0.5989754,0.1651474,-0.9353222,-0.006918466,-0.5111176
947.2714,-0.5361497,-0.5993803,0.1729693,-0.9380575,-0.01709423,-0.5116336
947.2868,-0.5491435,-0.5997839,0.1806186,-0.9408422,-0.02709302,-0.5121396
947.3016,-0.5620797,-0.6001845,0.1880829,-0.9436607,-0.03691515,-0.5126355
947.3162,-0.5620797,-0.6001845,0.1880829,-0.9436607,-0.03691515,-0.5126355
947.3323,-0.5752656,-0.6005952,0.1960479,-0.9464495,-0.04743793,-0.5131675
947.3467,-0.5885444,-0.6010082,0.2038846,-0.949298,-0.05778075,-0.5136889
947.3605,-0.6018201,-0.6014197,0.2115488,-0.9521952,-0.06794135,-0.5142001
947.3755,-0.6018201,-0.6014197,0.2115488,-0.9521952,-0.06794135,-0.5142001
947.389,-0.6153772,-0.6018419,0.2197131,-0.9550774,-0.07880494,-0.514747
947.4042,-0.6290452,-0.6022664,0.2277428,-0.9580294,-0.08948024,-0.515283
947.4191,-0.6290452,-0.6022664,0.2277428,-0.9580294,-0.08948024,-0.515283
947.4332,-0.6427191,-0.6026891,0.2355933,-0.9610373,-0.09996571,-0.5158086
947.4487,-0.6563346,-0.6031087,0.243253,-0.964084,-0.110263,-0.5163238
947.4635,-0.6701967,-0.6035382,0.2514076,-0.9671088,-0.1212706,-0.5168747
947.4785,-0.6701967,-0.6035382,0.2514076,-0.9671088,-0.1212706,-0.5168747
947.4926,-0.6841465,-0.6039696,0.2594265,-0.9701961,-0.1320839,-0.5174147
947.5078,-0.6980869,-0.6043993,0.2672678,-0.9733337,-0.1427026,-0.5179441
947.5225,-0.7119583,-0.6048258,0.2749203,-0.9765066,-0.1531288,-0.5184632
947.5374,-0.7119583,-0.6048258,0.2749203,-0.9765066,-0.1531288,-0.5184632
947.5513,-0.7260687,-0.6052623,0.2830693,-0.9796585,-0.1642733,-0.5190179
947.5668,-0.7402611,-0.6057007,0.2910829,-0.9828715,-0.1752176,-0.5195618
947.5836,-0.7544394,-0.6061373,0.2989196,-0.9861341,-0.1859622,-0.5200949
947.5971,-0.7544394,-0.6061373,0.2989196,-0.9861341,-0.1859622,-0.5200949
947.6105,-0.768889,-0.6065844,0.3072518,-0.989391,-0.1974265,-0.5206635
947.6258,-0.7834387,-0.6070334,0.3154429,-0.992719,-0.2086817,-0.5212209
947.6403,-0.7979838,-0.6074805,0.3234511,-0.9961036,-0.2197293,-0.5217673
947.655,-0.7979838,-0.6074805,0.3234511,-0.9961036,-0.2197293,-0.5217673
947.6691,-0.8124601,-0.607924,0.3312662,-0.9995281,-0.2305731,-0.5223031
947.6846,-0.827173,-0.6083773,0.3395726,-1.002941,-0.2421451,-0.5228743
947.6995,-0.827173,-0.6083773,0.3395726,-1.002941,-0.2421451,-0.5228743
947.7136,-0.8419638,-0.6088323,0.347738,-1.006418,-0.2535026,-0.5234342
947.729,-0.8567349,-0.6092853,0.3557226,-1.009946,-0.2646483,-0.5239832
947.7438,-0.871427,-0.6097348,0.3635168,-1.01351,-0.2755865,-0.5245215
947.7587,-0.871427,-0.6097348,0.3635168,-1.01351,-0.2755865,-0.5245215
947.7726,-0.8863488,-0.6101942,0.3718039,-1.017065,-0.287261,-0.5250952
947.788,-0.9013432,-0.6106552,0.3799508,-1.020682,-0.2987152,-0.5256577
947.8027,-0.9163136,-0.6111143,0.3879184,-1.024349,-0.3099529,-0.5262091
947.8173,-0.9163136,-0.6111143,0.3879184,-1.024349,-0.3099529,-0.5262091
947.8336,-0.9315464,-0.6115835,0.3963775,-1.028022,-0.3219273,-0.5267957
947.848,-0.9468703,-0.6120544,0.4046913,-1.031767,-0.3336718,-0.5273708
947.8615,-0.96218,-0.6125231,0.4128201,-1.035569,-0.3451916,-0.5279346
947.8764,-0.96218,-0.6125231,0.4128201,-1.035569,-0.3451916,-0.5279346
947.8902,-0.9774116,-0.6129881,0.4207547,-1.03941,-0.3564921,-0.5284874
947.9059,-0.9928715,-0.6134627,0.4291771,-1.043252,-0.3685386,-0.5290755
947.9202,-1.0084,-0.6139387,0.437455,-1.04716,-0.3803505,-0.5296521
947.9355,-1.0084,-0.6139387,0.437455,-1.04716,-0.3803505,-0.5296521
947.9494,-1.023901,-0.6144125,0.4455505,-1.051118,-0.3919336,-0.5302173
947.9647,-1.039313,-0.6148826,0.4534548,-1.055111,-0.403294,-0.5307716
947.9797,-1.039313,-0.6148826,0.4534548,-1.055111,-0.403294,-0.5307716
947.9937,-1.054602,-0.6153488,0.4611698,-1.059126,-0.414437,-0.5313151
948.0095,-1.069745,-0.615811,0.4687015,-1.063154,-0.4253674,-0.531848
948.0239,-1.084731,-0.6162694,0.476056,-1.067188,-0.4360894,-0.5323706
948.0388,-1.084731,-0.6162694,0.476056,-1.067188,-0.4360894,-0.5323706
948.0527,-1.099206,-0.6167104,0.4825636,-1.071235,-0.4456286,-0.5328369
948.0681,-1.113303,-0.6171424,0.4888643,-1.075229,-0.4549961,-0.5332943
948.0847,-1.127106,-0.6175692,0.495007,-1.079175,-0.4641926,-0.5337428
948.0986,-1.127106,-0.6175692,0.495007,-1.079175,-0.4641926,-0.5337428
948.1125,-1.140665,-0.6179926,0.5010107,-1.083081,-0.4732179,-0.5341826
948.127,-1.153668,-0.6183994,0.5062106,-1.086963,-0.4810868,-0.5345678
948.1415,-1.166271,-0.6187979,0.5112391,-1.090768,-0.488817,-0.5349456
948.1564,-1.166271,-0.6187979,0.5112391,-1.090768,-0.488817,-0.5349456
948.1703,-1.178572,-0.6191916,0.5161424,-1.094508,-0.4964076,-0.5353161
948.1857,-1.190633,-0.6195822,0.520937,-1.098196,-0.5038564,-0.5356795
948.2006,-1.202146,-0.6199564,0.5249603,-1.101846,-0.5101715,-0.5359896
948.2153,-1.202146,-0.6199564,0.5249603,-1.101846,-0.5101715,-0.5359896
948.2296,-1.213271,-0.6203222,0.5288366,-1.105414,-0.5163764,-0.5362938
948.2451,-1.224108,-0.620683,0.532612,-1.108912,-0.5224701,-0.5365921
948.2596,-1.224108,-0.620683,0.532612,-1.108912,-0.5224701,-0.5365921
948.2737,-1.234373,-0.6210268,0.5356385,-1.112355,-0.5274553,-0.5368385
948.2893,-1.244242,-0.6213617,0.5385377,-1.115704,-0.5323573,-0.5370803
948.304,-1.253824,-0.6216915,0.5413576,-1.118976,-0.5371743,-0.5373174
948.3185,-1.253824,-0.6216915,0.5413576,-1.118976,-0.5371743,-0.5373174
948.3347,-1.263186,-0.6220179,0.5441136,-1.122185,-0.5419018,-0.5375499
948.3491,-1.272024,-0.6223278,0.5461507,-1.125344,-0.5455405,-0.5377317
948.3628,-1.280503,-0.6226287,0.5480787,-1.128414,-0.5491194,-0.5379101
948.3776,-1.280503,-0.6226287,0.5480787,-1.128414,-0.5491194,-0.5379101
948.3914,-1.288722,-0.6229244,0.5499451,-1.13141,-0.5526378,-0.5380851
948.4069,-1.296745,-0.6232165,0.5517653,-1.134346,-0.5560907,-0.5382567
948.4216,-1.304265,-0.6234919,0.5528899,-1.13723,-0.5584767,-0.5383788
948.4365,-1.304265,-0.6234919,0.5528899,-1.13723,-0.5584767,-0.5383788
948.4505,-1.311443,-0.6237581,0.5539208,-1.140026,-0.560827,-0.5384986
948.4659,-1.318379,-0.6240187,0.5549071,-1.142749,-0.563141,-0.5386162
948.481,-1.325135,-0.6242756,0.5558647,-1.145412,-0.5654131,-0.5387315
948.4957,-1.325135,-0.6242756,0.5558647,-1.145412,-0.5654131,-0.5387315
948.5098,-1.331404,-0.6245158,0.5561491,-1.148022,-0.5666404,-0.5387983
948.5251,-1.337346,-0.6247466,0.5563546,-1.150545,-0.5678551,-0.538864
948.5399,-1.337346,-0.6247466,0.5563546,-1.150545,-0.5678551,-0.538864
948.5538,-1.343061,-0.6249717,0.5565317,-1.152994,-0.5690566,-0.5389285
948.5695,-1.348264,-0.6251792,0.5560514,-1.155379,-0.569239,-0.5389456
948.586,-1.353131,-0.6253767,0.5555066,-1.157668,-0.5694328,-0.5389624
948.5989,-1.353131,-0.6253767,0.5555066,-1.157668,-0.5694328,-0.5389624
948.613,-1.357769,-0.6255682,0.5549495,-1.159878,-0.5696362,-0.5389791
948.6282,-1.362247,-0.6257558,0.5543963,-1.162027,-0.5698414,-0.5389955
948.643,-1.366258,-0.6259269,0.5532104,-1.16412,-0.5690441,-0.5389653
948.6577,-1.366258,-0.6259269,0.5532104,-1.16412,-0.5690441,-0.5389653
948.6716,-1.369967,-0.6260883,0.5519732,-1.166124,-0.5682768,-0.538936
948.687,-1.373473,-0.6262438,0.550736,-1.168057,-0.5675378,-0.5389072
948.7018,-1.376839,-0.6263956,0.5495152,-1.169931,-0.5668192,-0.5388791
948.7169,-1.376839,-0.6263956,0.5495152,-1.169931,-0.5668192,-0.5388791
948.7312,-1.379757,-0.6265308,0.547679,-1.171754,-0.5651172,-0.5388053
948.7463,-1.382388,-0.6266564,0.5458022,-1.173492,-0.5634645,-0.5387331
948.7609,-1.384831,-0.6267762,0.5439374,-1.175159,-0.5618588,-0.5386625
948.7761,-1.384831,-0.6267762,0.5439374,-1.175159,-0.5618588,-0.5386625
948.79,-1.386801,-0.6268784,0.5414686,-1.176767,-0.5592934,-0.538547
948.8053,-1.388473,-0.6269704,0.5389708,-1.178282,-0.5567991,-0.538434
948.8195,-1.388473,-0.6269704,0.5389708,-1.178282,-0.5567991,-0.538434
948.8361,-1.389954,-0.6270562,0.5364984,-1.179723,-0.5543713,-0.5383233
948.8495,-1.391312,-0.6271382,0.5340683,-1.181106,-0.5520005,-0.5382149
948.8641,-1.392242,-0.6272039,0.5310555,-1.18244,-0.5486837,-0.5380623
948.8791,-1.392242,-0.6272039,0.5310555,-1.18244,-0.5486837,-0.5380623
948.8928,-1.392905,-0.62726,0.5280243,-1.18369,-0.5454529,-0.537913
948.9084,-1.393402,-0.6273103,0.525028,-1.184873,-0.5423032,-0.5377666
948.923,-1.393795,-0.627357,0.5220837,-1.186003,-0.539225,-0.5376232
948.9377,-1.393795,-0.627357,0.5220837,-1.186003,-0.539225,-0.5376232
948.9518,-1.393777,-0.6273877,0.5185705,-1.187089,-0.5352175,-0.5374364
948.9673,-1.393508,-0.6274089,0.5150473,-1.188095,-0.5313119,-0.5372535
948.9822,-1.393086,-0.6274242,0.5115682,-1.189036,-0.527502,-0.5370743
948.9968,-1.393086,-0.6274242,0.5115682,-1.189036,-0.527502,-0.5370743
949.0113,-1.392226,-0.6274231,0.5075276,-1.189926,-0.5227846,-0.5368524
949.0266,-1.391101,-0.6274132,0.5034862,-1.190732,-0.5181881,-0.5366351
949.0412,-1.38982,-0.6273979,0.4995001,-1.191468,-0.5137039,-0.5364221
949.056,-1.38982,-0.6273979,0.4995001,-1.191468,-0.5137039,-0.5364221
949.0699,-1.388449,-0.6273796,0.4955871,-1.19215,-0.5093211,-0.5362135
949.0873,-1.386682,-0.6273459,0.4911309,-1.192795,-0.504042,-0.5359627
949.1011,-1.38468,-0.627303,0.486683,-1.193363,-0.4988956,-0.535717
949.1146,-1.38468,-0.627303,0.486683,-1.193363,-0.4988956,-0.535717
949.1287,-1.382545,-0.627255,0.4822977,-1.193868,-0.4938723,-0.5354763
949.144,-1.380338,-0.6272042,0.477993,-1.194325,-0.4889613,-0.5352404
949.1591,-1.380338,-0.6272042,0.477993,-1.194325,-0.4889613,-0.5352404
949.1731,-1.37775,-0.6271382,0.4731552,-1.19475,-0.4831685,-0.5349629
949.1897,-1.374941,-0.6270635,0.4683323,-1.195102,-0.4775208,-0.5346911
949.2032,-1.37201,-0.626984,0.4635791,-1.195394,-0.4720071,-0.5344247
949.2181,-1.37201,-0.626984,0.4635791,-1.195394,-0.4720071,-0.5344247
949.2324,-1.36867,-0.6268883,0.458298,-1.195648,-0.4656321,-0.5341175
949.2477,-1.365096,-0.6267833,0.4530395,-1.195821,-0.4594186,-0.5338165
949.2621,-1.361396,-0.6266734,0.4478603,-1.19593,-0.4533532,-0.5335215
949.2773,-1.361396,-0.6266734,0.4478603,-1.19593,-0.4533532,-0.5335215
949.2916,-1.357635,-0.626561,0.442779,-1.195989,-0.447424,-0.5332324
949.3068,-1.353508,-0.6264341,0.4371861,-1.196024,-0.440643,-0.5329028
949.321,-1.349176,-0.626299,0.4316231,-1.195987,-0.4340318,-0.53258
949.337,-1.349176,-0.626299,0.4316231,-1.195987,-0.4340318,-0.53258
949.3511,-1.344738,-0.6261598,0.4261451,-1.195891,-0.4275761,-0.5322635
949.3653,-1.340257,-0.6260188,0.4207705,-1.195751,-0.4212645,-0.5319534
949.3801,-1.335423,-0.6258636,0.414892,-1.195593,-0.4141142,-0.5316032
949.3945,-1.335423,-0.6258636,0.414892,-1.195593,-0.4141142,-0.5316032
949.4088,-1.330395,-0.6257008,0.4090481,-1.195367,-0.4071426,-0.5312602
949.4241,-1.325273,-0.6255342,0.4032946,-1.195084,-0.4003343,-0.530924
949.4389,-1.325273,-0.6255342,0.4032946,-1.195084,-0.4003343,-0.530924
949.4528,-1.319769,-0.6253524,0.3970401,-1.194775,-0.3927066,-0.5305483
949.4683,-1.314058,-0.6251623,0.3908266,-1.194391,-0.3852712,-0.5301803
949.4833,-1.308247,-0.6249682,0.3847117,-1.193945,-0.3780105,-0.5298196
949.4979,-1.308247,-0.6249682,0.3847117,-1.193945,-0.3780105,-0.5298196
949.5119,-1.302401,-0.6247728,0.3787144,-1.193453,-0.3709123,-0.5294661
949.5273,-1.296214,-0.6245638,0.3722308,-1.192949,-0.3630037,-0.5290734
949.5421,-1.289848,-0.6243476,0.3657941,-1.192377,-0.3552921,-0.5286887
949.5569,-1.289848,-0.6243476,0.3657941,-1.192377,-0.3552921,-0.5286887
949.5707,-1.283401,-0.6241281,0.3594603,-1.191749,-0.3477598,-0.5283116
949.5883,-1.276936,-0.6239079,0.3532481,-1.191079,-0.3403953,-0.5279421
949.6018,-1.270141,-0.6236745,0.3465555,-1.190403,-0.3322327,-0.5275337
949.6156,-1.270141,-0.6236745,0.3465555,-1.190403,-0.3322327,-0.5275337
949.6296,-1.263178,-0.6234344,0.3399131,-1.189662,-0.3242726,-0.5271336
949.645,-1.256143,-0.6231915,0.3333773,-1.188867,-0.3164968,-0.5267414
949.6595,-1.256143,-0.6231915,0.3333773,-1.188867,-0.3164968,-0.5267414
949.6738,-1.248751,-0.6229343,0.3263623,-1.188059,-0.3079412,-0.526311
949.6892,-1.241175,-0.6226697,0.3194025,-1.187177,-0.2995987,-0.5258892
949.7041,-1.233521,-0.622402,0.3125563,-1.186234,-0.2914497,-0.5254759
949.7184,-1.233521,-0.622402,0.3125563,-1.186234,-0.2914497,-0.5254759
949.7328,-1.225856,-0.6221338,0.3058437,-1.185247,-0.2834821,-0.5250707
949.7485,-1.217872,-0.6218529,0.2986653,-1.184259,-0.2747434,-0.5246274
949.7631,-1.209731,-0.6215658,0.2915467,-1.183205,-0.2662193,-0.5241932
949.7779,-1.209731,-0.6215658,0.2915467,-1.183205,-0.2662193,-0.5241932
949.7919,-1.201531,-0.6212763,0.2845449,-1.182096,-0.2578911,-0.5237675
949.8074,-1.193334,-0.6209868,0.2776794,-1.180946,-0.2497472,-0.5233503
949.822,-1.184829,-0.6206852,0.2703524,-1.179802,-0.240844,-0.5228953
949.8367,-1.184829,-0.6206852,0.2703524,-1.179802,-0.240844,-0.5228953
949.8527,-1.176176,-0.6203776,0.2630871,-1.178594,-0.2321578,-0.5224494
949.866,-1.167473,-0.620068,0.2559413,-1.177331,-0.2236701,-0.5220124
949.8808,-1.15878,-0.6197588,0.2489348,-1.176028,-0.2153694,-0.521584
949.8956,-1.15878,-0.6197588,0.2489348,-1.176028,-0.2153694,-0.521584
949.9095,-1.149786,-0.6194376,0.2414711,-1.174735,-0.2063213,-0.5211182
949.9248,-1.14065,-0.6191108,0.2340714,-1.173378,-0.1974921,-0.5206616
949.9395,-1.14065,-0.6191108,0.2340714,-1.173378,-0.1974921,-0.5206616
949.9536,-1.13147,-0.6187822,0.2267938,-1.171967,-0.1888633,-0.5202141
949.9693,-1.12196,-0.6184405,0.2190585,-1.170556,-0.1795038,-0.5197294
949.9839,-1.112291,-0.6180925,0.2113908,-1.169072,-0.1703704,-0.5192545
949.9987,-1.112291,-0.6180925,0.2113908,-1.169072,-0.1703704,-0.5192545
950.0129,-1.102571,-0.6177424,0.2038513,-1.167527,-0.1614438,-0.518789
950.0283,-1.092865,-0.6173927,0.1964605,-1.165937,-0.1527128,-0.5183327
950.0433,-1.082865,-0.6170315,0.188624,-1.164358,-0.1432597,-0.5178394
950.0579,-1.082865,-0.6170315,0.188624,-1.164358,-0.1432597,-0.5178394
950.0718,-1.072734,-0.616665,0.1808587,-1.162713,-0.1340313,-0.517356
950.0874,-1.062567,-0.6162971,0.1732233,-1.161013,-0.1250097,-0.5168822
950.1027,-1.052428,-0.6159303,0.1657381,-1.159271,-0.1161843,-0.5164177
950.1166,-1.052428,-0.6159303,0.1657381,-1.159271,-0.1161843,-0.5164177
950.1306,-1.042005,-0.6155524,0.1578098,-1.157545,-0.1066478,-0.5159164
950.1461,-1.031458,-0.6151695,0.1499531,-1.155756,-0.0973355,-0.5154251
950.1607,-1.020883,-0.6147855,0.1422278,-1.153911,-0.08823008,-0.5149436
950.1754,-1.020883,-0.6147855,0.1422278,-1.153911,-0.08823008,-0.5149436
950.1895,-1.009995,-0.6143891,0.1340571,-1.152073,-0.0784289,-0.5144256
950.2047,-0.9989665,-0.6139871,0.1259608,-1.15016,-0.06885677,-0.513918
950.2195,-0.9989665,-0.6139871,0.1259608,-1.15016,-0.06885677,-0.513918
950.2336,-0.9879026,-0.6135836,0.1180009,-1.148186,-0.05949628,-0.5134203
950.2493,-0.9768684,-0.6131814,0.1101988,-1.146164,-0.05033728,-0.5129325
950.2637,-0.965558,-0.6127682,0.1019625,-1.144161,-0.04049105,-0.5124084
950.2786,-0.965558,-0.6127682,0.1019625,-1.144161,-0.04049105,-0.5124084
950.2927,-0.9541312,-0.6123505,0.09380326,-1.14209,-0.03087107,-0.5118948
950.3083,-0.9426861,-0.611932,0.08578151,-1.139963,-0.02146132,-0.5113912
950.3229,-0.9312826,-0.6115152,0.07791814,-1.137793,-0.01225243,-0.5108975
950.3375,-0.9312826,-0.6115152,0.07791814,-1.137793,-0.01225243,-0.5108975
950.3535,-0.9196122,-0.611088,0.0696217,-1.135645,-0.00236695,-0.5103677
950.3679,-0.9078327,-0.6106565,0.06140224,-1.133432,0.007294608,-0.5098484
950.3815,-0.8960409,-0.6102245,0.05332069,-1.131162,0.01674729,-0.5093393
950.3962,-0.8960409,-0.6102245,0.05332069,-1.131162,0.01674729,-0.5093393
950.4118,-0.8842959,-0.6097946,0.04539842,-1.12885,0.02599994,-0.5088401
950.4262,-0.8726338,-0.609368,0.03764032,-1.126509,0.03505864,-0.5083508
950.4406,-0.8610761,-0.6089459,0.03004488,-1.124149,0.04392828,-0.5078712
950.4551,-0.8610761,-0.6089459,0.03004488,-1.124149,0.04392828,-0.5078712
950.4692,-0.8496354,-0.6085287,0.02260839,-1.121777,0.05261326,-0.5074008
950.4847,-0.8383188,-0.6081169,0.01532667,-1.1194,0.06111777,-0.5069397
950.4997,-0.8383188,-0.6081169,0.01532667,-1.1194,0.06111777,-0.5069397
950.5136,-0.8271303,-0.6077104,0.008195672,-1.11702,0.06944586,-0.5064876
950.5292,-0.8160716,-0.6073095,0.001211633,-1.114639,0.07760153,-0.5060444
950.5441,-0.805143,-0.6069142,-0.005628923,-1.112261,0.08558869,-0.5056098
950.5588,-0.805143,-0.6069142,-0.005628923,-1.112261,0.08558869,-0.5056098
950.5731,-0.7943443,-0.6065243,-0.01232922,-1.109885,0.09341118,-0.5051838
950.5882,-0.7836747,-0.6061399,-0.0188923,-1.107512,0.1010728,-0.504766
950.6038,-0.773133,-0.6057609,-0.02532103,-1.105144,0.1085771,-0.5043565
950.6176,-0.773133,-0.6057609,-0.02532103,-1.105144,0.1085771,-0.5043565
950.6319,-0.762718,-0.6053873,-0.03161817,-1.102781,0.1159278,-0.503955
950.6475,-0.7524284,-0.605019,-0.03778639,-1.100422,0.1231284,-0.5035614
950.662,-0.7422628,-0.6046559,-0.04382827,-1.098069,0.1301824,-0.5031754
950.6769,-0.7422628,-0.6046559,-0.04382827,-1.098069,0.1301824,-0.5031754
950.691,-0.7322196,-0.604298,-0.04974632,-1.095721,0.1370929,-0.5027971
950.7065,-0.7222976,-0.6039451,-0.055543,-1.09338,0.1438634,-0.5024261
950.7212,-0.7124952,-0.6035973,-0.06122069,-1.091045,0.1504969,-0.5020624
950.7365,-0.7124952,-0.6035973,-0.06122069,-1.091045,0.1504969,-0.5020624
950.7505,-0.702811,-0.6032543,-0.06678174,-1.088716,0.1569965,-0.5017058
950.7659,-0.6932436,-0.6029162,-0.07222845,-1.086394,0.1633654,-0.5013561
950.7808,-0.6837915,-0.6025829,-0.07756303,-1.08408,0.1696063,-0.5010133
950.7954,-0.6837915,-0.6025829,-0.07756303,-1.08408,0.1696063,-0.5010133
950.81,-0.6744534,-0.6022543,-0.08278771,-1.081773,0.1757222,-0.5006772
950.8251,-0.6652279,-0.6019304,-0.08790461,-1.079473,0.1817159,-0.5003477
950.8409,-0.6561137,-0.601611,-0.09291585,-1.077181,0.1875901,-0.5000247
950.8546,-0.6561137,-0.601611,-0.09291585,-1.077181,0.1875901,-0.5000247
950.8687,-0.6471093,-0.6012962,-0.09782349,-1.074898,0.1933473,-0.4997079
950.8842,-0.6382135,-0.6009858,-0.1026296,-1.072623,0.1989904,-0.4993974
950.8991,-0.6382135,-0.6009858,-0.1026296,-1.072623,0.1989904,-0.4993974
950.9133,-0.6294249,-0.6006798,-0.107336,-1.070356,0.2045216,-0.4990929
950.9286,-0.6207422,-0.600378,-0.1119448,-1.068099,0.2099435,-0.4987944
950.9437,-0.6121642,-0.6000806,-0.1164578,-1.065851,0.2152586,-0.4985017
950.9586,-0.6121642,-0.6000806,-0.1164578,-1.065851,0.2152586,-0.4985017
950.9728,-0.6036896,-0.5997874,-0.120877,-1.063612,0.220469,-0.4982148
950.9882,-0.5953171,-0.5994982,-0.125204,-1.061382,0.2255771,-0.4979334
951.0029,-0.5870455,-0.5992132,-0.1294408,-1.059163,0.2305852,-0.4976576
951.0178,-0.5870455,-0.5992132,-0.1294408,-1.059163,0.2305852,-0.4976576
951.0319,-0.5788736,-0.5989321,-0.133589,-1.056953,0.2354954,-0.4973872
951.0477,-0.5708001,-0.5986551,-0.1376504,-1.054754,0.2403098,-0.497122
951.0641,-0.562824,-0.5983819,-0.1416267,-1.052565,0.2450304,-0.4968621
951.0782,-0.562824,-0.5983819,-0.1416267,-1.052565,0.2450304,-0.4968621
951.0909,-0.5549439,-0.5981126,-0.1455195,-1.050387,0.2496593,-0.4966072
951.1064,-0.5471588,-0.5978471,-0.1493304,-1.04822,0.2541985,-0.4963573
951.124,-0.5394675,-0.5975853,-0.153061,-1.046064,0.2586498,-0.4961123
951.1371,-0.5394675,-0.5975853,-0.153061,-1.046064,0.2586498,-0.4961123
951.1501,-0.5318689,-0.5973272,-0.1567129,-1.043919,0.2630152,-0.4958721
951.1656,-0.5243617,-0.5970727,-0.1602875,-1.041785,0.2672963,-0.4956366
951.1802,-0.5169451,-0.5968217,-0.1637865,-1.039663,0.2714952,-0.4954057
951.1951,-0.5169451,-0.5968217,-0.1637865,-1.039663,0.2714952,-0.4954057
951.2094,-0.5096177,-0.5965743,-0.1672111,-1.037553,0.2756134,-0.4951793
951.225,-0.5023786,-0.5963304,-0.1705629,-1.035454,0.2796526,-0.4949574
951.2397,-0.5023786,-0.5963304,-0.1705629,-1.035454,0.2796526,-0.4949574
951.2537,-0.4952267,-0.5960899,-0.1738433,-1.033368,0.2836146,-0.4947398
951.2692,-0.4881609,-0.5958528,-0.1770537,-1.031293,0.2875009,-0.4945264
951.2838,-0.4811802,-0.595619,-0.1801953,-1.029231,0.2913131,-0.4943173
951.3009,-0.4742836,-0.5953885,-0.1832696,-1.027182,0.2950528,-0.4941122
951.3147,-0.4742836,-0.5953885,-0.1832696,-1.027182,0.2950528,-0.4941122
951.3276,-0.46747,-0.5951613,-0.1862778,-1.025144,0.2987215,-0.4939112
951.3431,-0.4607385,-0.5949371,-0.1892212,-1.02312,0.3023206,-0.4937141
951.3579,-0.4607385,-0.5949371,-0.1892212,-1.02312,0.3023206,-0.4937141
951.372,-0.4540881,-0.5947162,-0.192101,-1.021108,0.3058515,-0.4935208
951.3874,-0.4475177,-0.5944983,-0.1949185,-1.019109,0.3093157,-0.4933313
951.4022,-0.4410264,-0.5942835,-0.1976749,-1.017123,0.3127146,-0.4931456
951.4172,-0.4410264,-0.5942835,-0.1976749,-1.017123,0.3127146,-0.4931456
951.4313,-0.4346133,-0.5940717,-0.2003713,-1.01515,0.3160495,-0.4929634
951.4471,-0.4282773,-0.5938628,-0.2030089,-1.013191,0.3193216,-0.4927849
951.4616,-0.4220177,-0.5936569,-0.2055888,-1.011244,0.3225323,-0.4926098
951.4768,-0.4220177,-0.5936569,-0.2055888,-1.011244,0.3225323,-0.4926098
951.4907,-0.4158334,-0.5934538,-0.2081122,-1.009311,0.3256828,-0.4924382
951.5063,-0.4097235,-0.5932536,-0.2105801,-1.007391,0.3287744,-0.4922699
951.5206,-0.4036872,-0.5930562,-0.2129935,-1.005484,0.3318081,-0.4921049
951.5368,-0.4036872,-0.5930562,-0.2129935,-1.005484,0.3318081,-0.4921049
951.5508,-0.3977235,-0.5928615,-0.2153537,-1.003591,0.3347853,-0.4919432
951.565,-0.3918317,-0.5926696,-0.2176615,-1.001712,0.337707,-0.4917846
951.5798,-0.3918317,-0.5926696,-0.2176615,-1.001712,0.337707,-0.4917846
951.5938,-0.3860107,-0.5924804,-0.219918,-0.9998456,0.3405743,-0.4916291
951.6096,-0.3802598,-0.5922937,-0.2221241,-0.9979933,0.3433883,-0.4914767
951.6242,-0.3745781,-0.5921097,-0.2242808,-0.9961546,0.3461501,-0.4913273
951.639,-0.3745781,-0.5921097,-0.2242808,-0.9961546,0.3461501,-0.4913273
951.6531,-0.3689648,-0.5919283,-0.2263891,-0.9943296,0.3488607,-0.4911808
951.6689,-0.363419,-0.5917494,-0.22845,-0.9925184,0.3515211,-0.4910371
951.6837,-0.35794,-0.591573,-0.2304643,-0.9907208,0.3541324,-0.4908963
951.6985,-0.35794,-0.591573,-0.2304643,-0.9907208,0.3541324,-0.4908963
951.7128,-0.3525269,-0.5913991,-0.2324329,-0.988937,0.3566954,-0.4907583
951.7282,-0.3471789,-0.5912275,-0.2343567,-0.987167,0.3592112,-0.4906229
951.7432,-0.3418953,-0.5910584,-0.2362366,-0.9854108,0.3616807,-0.4904902
951.7579,-0.3418953,-0.5910584,-0.2362366,-0.9854108,0.3616807,-0.4904902
951.7742,-0.3366753,-0.5908916,-0.2380734,-0.9836684,0.3641049,-0.4903601
951.7877,-0.3315181,-0.5907272,-0.2398679,-0.9819398,0.3664845,-0.4902326
951.8026,-0.3264229,-0.590565,-0.2416211,-0.980225,0.3688204,-0.4901076
951.8171,-0.3264229,-0.590565,-0.2416211,-0.980225,0.3688204,-0.4901076
951.8311,-0.321389,-0.590405,-0.2433336,-0.978524,0.3711136,-0.489985
951.8467,-0.3164157,-0.5902474,-0.2450062,-0.9768368,0.3733649,-0.4898648
951.8615,-0.3115022,-0.5900919,-0.2466398,-0.9751634,0.375575,-0.489747
951.8765,-0.3115022,-0.5900919,-0.2466398,-0.9751634,0.375575,-0.489747
951.8906,-0.3066478,-0.5899386,-0.2482351,-0.9735038,0.3777449,-0.4896315
951.9063,-0.3018518,-0.5897874,-0.2497929,-0.9718579,0.3798752,-0.4895183
951.921,-0.2971135,-0.5896383,-0.2513137,-0.9702258,0.3819667,-0.4894072
951.9356,-0.2971135,-0.5896383,-0.2513137,-0.9702258,0.3819667,-0.4894072
951.9498,-0.2924322,-0.5894912,-0.2527985,-0.9686073,0.3840202,-0.4892984
951.9655,-0.2878072,-0.5893463,-0.2542479,-0.9670026,0.3860365,-0.4891917
951.9803,-0.2832379,-0.5892034,-0.2556626,-0.9654115,0.3880162,-0.4890871
951.997,-0.2832379,-0.5892034,-0.2556626,-0.9654115,0.3880162,-0.4890871
952.0104,-0.2787235,-0.5890624,-0.2570432,-0.963834,0.38996,-0.4889846
