JMolnar6/NonAnthroHands_User_Study/HandsLoggerWithURDF/tempdata/PID 0 (test)/files/Reachy_PID0_JointMotion_gesture_8_4.csv
Time,r_shoulder,r_shoulder_x,r_upper_arm,r_forearm,r_wrist,r_wrist2hand,
719.7721,0.04493018,-0.3277195,0.4352874,-0.5176899,-0.3743048,-0.01999551
719.7868,0.04493045,-0.3277133,0.4356744,-0.5176849,-0.3743978,-0.01999526
719.8014,0.04493073,-0.3277071,0.4360572,-0.51768,-0.3744899,-0.01999501
719.816,0.04493073,-0.3277071,0.4360572,-0.51768,-0.3744899,-0.01999501
719.83,0.04493099,-0.327701,0.4364361,-0.517675,-0.3745811,-0.01999476
719.8453,0.04493126,-0.327695,0.4368109,-0.5176702,-0.3746715,-0.01999452
719.8599,0.04493126,-0.327695,0.4368109,-0.5176702,-0.3746715,-0.01999452
719.874,0.04493153,-0.327689,0.4371817,-0.5176653,-0.374761,-0.01999427
719.8894,0.0449318,-0.3276831,0.4375486,-0.5176604,-0.3748497,-0.01999403
719.9042,0.04493206,-0.3276773,0.4379117,-0.5176556,-0.3749376,-0.01999379
719.9188,0.04493206,-0.3276773,0.4379117,-0.5176556,-0.3749376,-0.01999379
719.933,0.04493233,-0.3276715,0.4382708,-0.5176508,-0.3750246,-0.01999355
719.9501,0.04493259,-0.3276658,0.4386262,-0.5176461,-0.3751108,-0.01999331
719.9631,0.04493285,-0.3276602,0.4389778,-0.5176414,-0.3751962,-0.01999307
719.9778,0.04493285,-0.3276602,0.4389778,-0.5176414,-0.3751962,-0.01999307
719.9918,0.04493311,-0.3276547,0.4393257,-0.5176367,-0.3752808,-0.01999284
720.0073,0.04493337,-0.3276492,0.4396699,-0.517632,-0.3753645,-0.01999261
720.023,0.04493364,-0.3276438,0.4400104,-0.5176274,-0.3754475,-0.01999238
720.0366,0.04493364,-0.3276438,0.4400104,-0.5176274,-0.3754475,-0.01999238
720.0506,0.04493389,-0.3276384,0.4403473,-0.5176228,-0.3755297,-0.01999215
720.0659,0.04493415,-0.3276331,0.4406807,-0.5176182,-0.3756111,-0.01999193
720.0805,0.04493441,-0.3276279,0.4410104,-0.5176136,-0.3756917,-0.01999171
720.095,0.04493441,-0.3276279,0.4410104,-0.5176136,-0.3756917,-0.01999171
720.1092,0.04493466,-0.3276228,0.4413368,-0.5176091,-0.3757716,-0.01999148
720.1246,0.04493492,-0.3276177,0.4416596,-0.5176046,-0.3758506,-0.01999126
720.1393,0.04493492,-0.3276177,0.4416596,-0.5176046,-0.3758506,-0.01999126
720.1533,0.04493517,-0.3276126,0.441979,-0.5176002,-0.375929,-0.01999105
720.1689,0.04493542,-0.3276077,0.442295,-0.5175958,-0.3760066,-0.01999084
720.1833,0.04493568,-0.3276027,0.4426076,-0.5175914,-0.3760834,-0.01999062
720.198,0.04493568,-0.3276027,0.4426076,-0.5175914,-0.3760834,-0.01999062
720.2121,0.04493593,-0.3275979,0.4429169,-0.517587,-0.3761595,-0.01999041
720.2277,0.04493618,-0.3275931,0.443223,-0.5175827,-0.3762349,-0.0199902
720.2427,0.04493643,-0.3275883,0.4435257,-0.5175784,-0.3763095,-0.01999
720.2574,0.04493643,-0.3275883,0.4435257,-0.5175784,-0.3763095,-0.01999
720.2709,0.04493667,-0.3275837,0.4438253,-0.5175741,-0.3763835,-0.01998979
720.2877,0.04493692,-0.3275791,0.4441217,-0.5175698,-0.3764567,-0.01998959
720.3012,0.04493716,-0.3275745,0.4444149,-0.5175656,-0.3765292,-0.01998939
720.3158,0.04493716,-0.3275745,0.4444149,-0.5175656,-0.3765292,-0.01998939
720.3298,0.04493741,-0.3275699,0.444705,-0.5175614,-0.376601,-0.01998919
720.345,0.04493765,-0.3275655,0.444992,-0.5175573,-0.3766722,-0.01998899
720.3596,0.04493765,-0.3275655,0.444992,-0.5175573,-0.3766722,-0.01998899
720.3737,0.04493789,-0.3275611,0.445276,-0.5175532,-0.3767426,-0.0199888
720.3889,0.04493814,-0.3275567,0.4455569,-0.517549,-0.3768124,-0.0199886
720.4037,0.04493838,-0.3275524,0.4458348,-0.517545,-0.3768815,-0.01998841
720.4184,0.04493838,-0.3275524,0.4458348,-0.517545,-0.3768815,-0.01998841
720.4324,0.04493862,-0.3275481,0.4461098,-0.5175409,-0.3769499,-0.01998822
720.4479,0.04493885,-0.3275439,0.4463819,-0.5175369,-0.3770177,-0.01998803
720.4626,0.04493909,-0.3275398,0.4466511,-0.5175329,-0.3770848,-0.01998784
720.4774,0.04493909,-0.3275398,0.4466511,-0.5175329,-0.3770848,-0.01998784
720.4913,0.04493933,-0.3275357,0.4469174,-0.517529,-0.3771513,-0.01998766
720.5073,0.04493957,-0.3275316,0.4471808,-0.5175251,-0.3772171,-0.01998747
720.5215,0.0449398,-0.3275276,0.4474415,-0.5175212,-0.3772822,-0.01998729
720.5362,0.0449398,-0.3275276,0.4474415,-0.5175212,-0.3772822,-0.01998729
720.5515,0.04494004,-0.3275236,0.4476993,-0.5175173,-0.3773468,-0.01998711
720.5659,0.04494027,-0.3275197,0.4479545,-0.5175135,-0.3774107,-0.01998693
720.58,0.04494027,-0.3275197,0.4479545,-0.5175135,-0.3774107,-0.01998693
720.5943,0.0449405,-0.3275158,0.4482069,-0.5175096,-0.3774739,-0.01998675
720.6096,0.04494073,-0.327512,0.4484566,-0.5175058,-0.3775366,-0.01998658
720.6244,0.04494096,-0.3275082,0.4487036,-0.5175021,-0.3775986,-0.0199864
720.6389,0.04494096,-0.3275082,0.4487036,-0.5175021,-0.3775986,-0.0199864
720.6531,0.04494119,-0.3275045,0.4489481,-0.5174983,-0.3776601,-0.01998623
720.6684,0.04494143,-0.3275008,0.4491899,-0.5174946,-0.377721,-0.01998606
720.6831,0.04494165,-0.3274972,0.4494291,-0.5174909,-0.3777812,-0.01998589
720.6977,0.04494165,-0.3274972,0.4494291,-0.5174909,-0.3777812,-0.01998589
720.7119,0.04494188,-0.3274936,0.4496658,-0.5174873,-0.3778409,-0.01998573
720.7273,0.04494211,-0.32749,0.4498999,-0.5174837,-0.3778999,-0.01998556
720.742,0.04494233,-0.3274865,0.4501316,-0.5174801,-0.3779584,-0.0199854
720.7569,0.04494233,-0.3274865,0.4501316,-0.5174801,-0.3779584,-0.0199854
720.7709,0.04494256,-0.3274831,0.4503608,-0.5174765,-0.3780164,-0.01998523
720.7874,0.04494279,-0.3274796,0.4507353,-0.5187054,-0.3782717,-0.01998872
720.8028,0.04494303,-0.3274763,0.4510958,-0.5206325,-0.3785399,-0.01999063
720.8167,0.04494303,-0.3274763,0.4510958,-0.5206325,-0.3785399,-0.01999063
720.8308,0.04494326,-0.3274729,0.4514095,-0.5228732,-0.3787684,-0.01999188
720.8449,0.04494349,-0.3274696,0.4516862,-0.5252436,-0.3789582,-0.01999285
720.8596,0.04494349,-0.3274696,0.4516862,-0.5252436,-0.3789582,-0.01999285
720.8736,0.0449437,-0.3274663,0.4517947,-0.5264234,-0.3789238,-0.01999014
720.889,0.04494391,-0.3274631,0.4519027,-0.526905,-0.3788584,-0.0199889
720.9034,0.04494413,-0.3274599,0.4520471,-0.5270534,-0.3788195,-0.01998824
720.918,0.04494413,-0.3274599,0.4520471,-0.5270534,-0.3788195,-0.01998824
720.9321,0.04494433,-0.3274567,0.4520757,-0.5258104,-0.378614,-0.01998428
720.9476,0.04494454,-0.3274536,0.4521311,-0.523794,-0.3784146,-0.01998194
720.9623,0.04494474,-0.3274505,0.4522358,-0.5214293,-0.3782649,-0.01998026
720.9772,0.04494474,-0.3274505,0.4522358,-0.5214293,-0.3782649,-0.01998026
720.991,0.04494495,-0.3274474,0.452375,-0.5189193,-0.3781588,-0.01997886
721.0066,0.04494515,-0.3274444,0.4523851,-0.5151288,-0.3778848,-0.01997396
721.021,0.04494535,-0.3274415,0.4524113,-0.5106383,-0.3776132,-0.01997065
721.0358,0.04494535,-0.3274415,0.4524113,-0.5106383,-0.3776132,-0.01997065
721.0499,0.04494555,-0.3274385,0.4524813,-0.5058547,-0.3773899,-0.01996801
721.0651,0.04494575,-0.3274356,0.4525837,-0.5009719,-0.3772111,-0.01996564
721.0813,0.04494594,-0.3274327,0.452551,-0.4948502,-0.3768621,-0.01995951
721.095,0.04494594,-0.3274327,0.452551,-0.4948502,-0.3768621,-0.01995951
721.1089,0.04494613,-0.3274299,0.4525321,-0.4880674,-0.3765153,-0.01995506
721.124,0.04494632,-0.3274271,0.4525576,-0.4810287,-0.376219,-0.01995129
721.1387,0.04494632,-0.3274271,0.4525576,-0.4810287,-0.376219,-0.01995129
721.1537,0.04494651,-0.3274243,0.4525986,-0.4737822,-0.3759457,-0.01994729
721.168,0.0449467,-0.3274216,0.4526603,-0.4664823,-0.3757048,-0.0199436
721.1827,0.04494689,-0.3274189,0.4527374,-0.4592174,-0.3754926,-0.01994003
721.1974,0.04494689,-0.3274189,0.4527374,-0.4592174,-0.3754926,-0.01994003
721.2119,0.04494708,-0.3274162,0.4528235,-0.4520288,-0.3753023,-0.01993649
721.2271,0.04494727,-0.3274136,0.4529145,-0.4449357,-0.3751285,-0.01993295
721.2417,0.04494746,-0.327411,0.4530084,-0.4379462,-0.3749678,-0.01992939
721.2563,0.04494746,-0.327411,0.4530084,-0.4379462,-0.3749678,-0.01992939
721.2704,0.04494765,-0.3274085,0.4531043,-0.4310634,-0.3748184,-0.0199258
721.2859,0.04494784,-0.327406,0.4532021,-0.4242877,-0.3746789,-0.01992219
721.3008,0.04494803,-0.3274035,0.4533019,-0.4176187,-0.3745489,-0.01991853
721.3152,0.04494803,-0.3274035,0.4533019,-0.4176187,-0.3745489,-0.01991853
721.3314,0.04494822,-0.3274011,0.4534041,-0.411055,-0.3744279,-0.01991484
721.3457,0.0449484,-0.3273987,0.4535088,-0.4045954,-0.3743159,-0.01991112
721.3595,0.0449484,-0.3273987,0.4535088,-0.4045954,-0.3743159,-0.01991112
721.3736,0.04494859,-0.3273963,0.4536163,-0.3982382,-0.3742126,-0.01990735
721.3887,0.04494878,-0.3273939,0.4537269,-0.3919819,-0.374118,-0.01990354
721.4032,0.04494896,-0.3273916,0.4538406,-0.3858249,-0.3740318,-0.01989968
721.4178,0.04494896,-0.3273916,0.4538406,-0.3858249,-0.3740318,-0.01989968
721.432,0.04494915,-0.3273893,0.4539577,-0.3797657,-0.3739542,-0.01989578
721.4473,0.04494933,-0.327387,0.4540782,-0.3738027,-0.3738849,-0.01989183
721.4619,0.04494952,-0.3273848,0.4542023,-0.3679343,-0.3738238,-0.01988783
721.4768,0.04494952,-0.3273848,0.4542023,-0.3679343,-0.3738238,-0.01988783
721.4907,0.0449497,-0.3273826,0.45433,-0.3621591,-0.3737708,-0.01988377
721.5062,0.04494988,-0.3273804,0.4544613,-0.3564757,-0.373726,-0.01987967
721.5208,0.04495006,-0.3273783,0.4545964,-0.3508824,-0.3736891,-0.0198755
721.5355,0.04495006,-0.3273783,0.4545964,-0.3508824,-0.3736891,-0.0198755
721.5496,0.04495025,-0.3273762,0.4547353,-0.345378,-0.3736601,-0.01987128
721.5653,0.04495043,-0.3273741,0.454878,-0.339961,-0.3736389,-0.019867
721.5797,0.04495043,-0.3273741,0.454878,-0.339961,-0.3736389,-0.019867
721.596,0.04495061,-0.327372,0.4550246,-0.33463,-0.3736254,-0.01986265
721.6105,0.04495079,-0.32737,0.4551751,-0.3293836,-0.3736196,-0.01985824
721.6241,0.04495097,-0.327368,0.4553296,-0.3242205,-0.3736213,-0.01985376
721.6387,0.04495097,-0.327368,0.4553296,-0.3242205,-0.3736213,-0.01985376
721.6525,0.04495114,-0.327366,0.4554881,-0.3191395,-0.3736305,-0.01984922
721.6678,0.04495132,-0.327364,0.4556507,-0.3141391,-0.373647,-0.0198446
721.6824,0.0449515,-0.3273621,0.4558174,-0.3092182,-0.3736709,-0.01983991
721.6974,0.0449515,-0.3273621,0.4558174,-0.3092182,-0.3736709,-0.01983991
721.7125,0.04495168,-0.3273602,0.4559881,-0.3043754,-0.3737021,-0.01983515
721.7264,0.04495185,-0.3273583,0.4561631,-0.2996095,-0.3737405,-0.0198303
721.7411,0.04495203,-0.3273564,0.4563422,-0.2949193,-0.3737859,-0.01982538
721.756,0.04495203,-0.3273564,0.4563422,-0.2949193,-0.3737859,-0.01982538
721.77,0.0449522,-0.3273546,0.4565256,-0.2903035,-0.3738385,-0.01982037
721.7853,0.04495238,-0.3273527,0.4567132,-0.2857611,-0.373898,-0.01981528
721.7999,0.04495238,-0.3273527,0.4567132,-0.2857611,-0.373898,-0.01981528
721.8143,0.04495255,-0.3273509,0.4569051,-0.2812909,-0.3739644,-0.0198101
721.8297,0.04495272,-0.3273492,0.4571013,-0.2768916,-0.3740377,-0.01980483
721.8444,0.0449529,-0.3273474,0.4573018,-0.2725622,-0.3741178,-0.01979947
721.8602,0.04495307,-0.3273457,0.4575067,-0.2683016,-0.3742046,-0.01979402
721.8752,0.04495307,-0.3273457,0.4575067,-0.2683016,-0.3742046,-0.01979402
721.889,0.04495324,-0.327344,0.457716,-0.2641086,-0.3742982,-0.01978846
721.9032,0.04495341,-0.3273423,0.4579298,-0.2599823,-0.3743983,-0.01978281
721.9177,0.04495341,-0.3273423,0.4579298,-0.2599823,-0.3743983,-0.01978281
721.9321,0.04495358,-0.3273406,0.4581479,-0.2559215,-0.374505,-0.01977706
721.9471,0.04495375,-0.327339,0.4583705,-0.2519252,-0.3746183,-0.0197712
721.9617,0.04495392,-0.3273373,0.4585976,-0.2479924,-0.374738,-0.01976523
721.9764,0.04495392,-0.3273373,0.4585976,-0.2479924,-0.374738,-0.01976523
721.9904,0.04495408,-0.3273357,0.4588292,-0.244122,-0.3748641,-0.01975915
722.0058,0.04495425,-0.3273341,0.4590653,-0.2403131,-0.3749966,-0.01975296
722.0206,0.04495442,-0.3273326,0.4593059,-0.2365648,-0.3751354,-0.01974665
722.0355,0.04495442,-0.3273326,0.4593059,-0.2365648,-0.3751354,-0.01974665
722.0494,0.04495459,-0.327331,0.4595511,-0.232876,-0.3752805,-0.01974023
722.0648,0.04495475,-0.3273295,0.4598009,-0.2292458,-0.3754318,-0.01973368
722.0795,0.04495475,-0.3273295,0.4598009,-0.2292458,-0.3754318,-0.01973368
722.0936,0.04495492,-0.327328,0.4600552,-0.2256732,-0.3755892,-0.01972701
722.1092,0.04495508,-0.3273265,0.4603141,-0.2221574,-0.3757528,-0.01972021
722.1248,0.04495525,-0.327325,0.4605775,-0.2186975,-0.3759224,-0.01971329
722.1396,0.04495525,-0.327325,0.4605775,-0.2186975,-0.3759224,-0.01971329
722.1536,0.04495541,-0.3273235,0.4608456,-0.2152926,-0.3760981,-0.01970623
722.168,0.04495557,-0.3273221,0.4611183,-0.2119417,-0.3762797,-0.01969903
722.1828,0.04495574,-0.3273207,0.4613955,-0.2086441,-0.3764672,-0.01969169
722.197,0.04495574,-0.3273207,0.4613955,-0.2086441,-0.3764672,-0.01969169
722.2111,0.0449559,-0.3273193,0.4616773,-0.2053989,-0.3766606,-0.01968421
722.2265,0.04495606,-0.3273179,0.4619638,-0.2022052,-0.3768598,-0.01967659
722.2413,0.04495622,-0.3273165,0.4622548,-0.1990623,-0.3770648,-0.01966882
722.256,0.04495622,-0.3273165,0.4622548,-0.1990623,-0.3770648,-0.01966882
722.2698,0.04495638,-0.3273151,0.4625503,-0.1959694,-0.3772754,-0.0196609
722.2852,0.04495654,-0.3273138,0.4628505,-0.1929256,-0.3774917,-0.01965282
722.3,0.0449567,-0.3273125,0.4631552,-0.1899301,-0.3777136,-0.01964458
722.3146,0.0449567,-0.3273125,0.4631552,-0.1899301,-0.3777136,-0.01964458
722.329,0.04495686,-0.3273112,0.4634643,-0.1869823,-0.377941,-0.01963618
722.3444,0.04495701,-0.3273099,0.463778,-0.1840813,-0.3781739,-0.01962762
722.3591,0.04495701,-0.3273099,0.463778,-0.1840813,-0.3781739,-0.01962762
722.3731,0.04495717,-0.3273086,0.4640962,-0.1812264,-0.3784122,-0.0196189
722.3895,0.04495732,-0.3273073,0.4644189,-0.1784169,-0.3786558,-0.01961
722.4042,0.04495748,-0.3273061,0.464746,-0.1756521,-0.3789047,-0.01960092
722.4178,0.04495748,-0.3273061,0.464746,-0.1756521,-0.3789047,-0.01960092
722.4319,0.04495764,-0.3273049,0.4650775,-0.1729312,-0.3791589,-0.01959167
722.4471,0.04495779,-0.3273036,0.4654133,-0.1702535,-0.3794182,-0.01958224
722.4617,0.04495795,-0.3273024,0.4657534,-0.1676184,-0.3796825,-0.01957263
722.4766,0.04495795,-0.3273024,0.4657534,-0.1676184,-0.3796825,-0.01957263
722.4905,0.0449581,-0.3273012,0.4660978,-0.1650252,-0.3799519,-0.01956283
722.5058,0.04495825,-0.3273,0.4664464,-0.1624732,-0.3802261,-0.01955285
722.5204,0.04495841,-0.3272988,0.4667992,-0.1599617,-0.3805052,-0.01954268
722.535,0.04495841,-0.3272988,0.4667992,-0.1599617,-0.3805052,-0.01954268
722.5493,0.04495856,-0.3272977,0.4671561,-0.1574902,-0.380789,-0.0195323
722.565,0.04495871,-0.3272965,0.4675171,-0.155058,-0.3810776,-0.01952174
722.5792,0.04495871,-0.3272965,0.4675171,-0.155058,-0.3810776,-0.01952174
722.5934,0.04495886,-0.3272953,0.467882,-0.1526644,-0.3813706,-0.01951096
722.6091,0.04495901,-0.3272942,0.4682509,-0.1503089,-0.3816682,-0.01949999
722.6238,0.04495917,-0.327293,0.4686906,-0.1481337,-0.3820395,-0.01949384
722.6382,0.04495917,-0.327293,0.4686906,-0.1481337,-0.3820395,-0.01949384
722.6545,0.04495931,-0.3272919,0.4691342,-0.1460794,-0.3824166,-0.01948547
722.6689,0.04495946,-0.3272907,0.4695693,-0.1440987,-0.3827862,-0.01947607
722.6826,0.04495961,-0.3272896,0.4699966,-0.1421689,-0.3831486,-0.01946613
722.6973,0.04495961,-0.3272896,0.4699966,-0.1421689,-0.3831486,-0.01946613
722.7111,0.04495977,-0.3272885,0.4710244,-0.1414914,-0.3841307,-0.01950317
722.7266,0.04495993,-0.3272874,0.4720349,-0.1415654,-0.385108,-0.01952073
722.7413,0.04496009,-0.3272863,0.4729263,-0.1419885,-0.385971,-0.01952997
722.7558,0.04496009,-0.3272863,0.4729263,-0.1419885,-0.385971,-0.01952997
722.7701,0.04496025,-0.3272852,0.4743246,-0.1437835,-0.3873609,-0.01958364
722.7853,0.04496042,-0.3272841,0.4756163,-0.1463663,-0.3886562,-0.01961525
722.8002,0.04496058,-0.3272831,0.4767328,-0.1492941,-0.3897801,-0.01963722
722.8149,0.04496058,-0.3272831,0.4767328,-0.1492941,-0.3897801,-0.01963722
722.8292,0.04496073,-0.327282,0.4777101,-0.1523587,-0.3907652,-0.01965469
722.8446,0.0449609,-0.3272809,0.4791641,-0.1566772,-0.3922456,-0.01971325
722.8593,0.0449609,-0.3272809,0.4791641,-0.1566772,-0.3922456,-0.01971325
722.8734,0.04496107,-0.3272798,0.4805091,-0.1617044,-0.3936287,-0.01975108
722.889,0.04496123,-0.3272788,0.4816765,-0.1670195,-0.3948385,-0.01977942
722.9045,0.04496139,-0.3272777,0.4826979,-0.1724249,-0.3959031,-0.01980284
722.9185,0.04496139,-0.3272777,0.4826979,-0.1724249,-0.3959031,-0.01980284
722.9322,0.04496156,-0.3272767,0.4841208,-0.1790473,-0.3973905,-0.01985896
722.9476,0.04496172,-0.3272756,0.4854264,-0.1863369,-0.3987745,-0.01989665
722.962,0.04496189,-0.3272746,0.4865497,-0.1938766,-0.3999825,-0.01992548
722.9771,0.04496189,-0.3272746,0.4865497,-0.1938766,-0.3999825,-0.01992548
722.991,0.04496204,-0.3272735,0.4869857,-0.2000314,-0.4004776,-0.01991496
723.0066,0.04496218,-0.3272725,0.4873313,-0.205313,-0.4008642,-0.01991699
723.0211,0.04496233,-0.3272715,0.4877052,-0.2101434,-0.4012706,-0.0199235
723.0359,0.04496233,-0.3272715,0.4877052,-0.2101434,-0.4012706,-0.0199235
723.0501,0.04496248,-0.3272704,0.4881082,-0.2147222,-0.4017031,-0.01993138
723.0654,0.04496263,-0.3272694,0.4885207,-0.2191448,-0.402145,-0.01993946
723.08,0.04496278,-0.3272684,0.4889264,-0.2234573,-0.4025809,-0.01994727
723.0952,0.04496278,-0.3272684,0.4889264,-0.2234573,-0.4025809,-0.01994727
723.1092,0.04496293,-0.3272674,0.4893151,-0.2276821,-0.4030013,-0.01995465
723.1247,0.04496308,-0.3272664,0.4896818,-0.2318307,-0.4034013,-0.01996155
723.1395,0.04496308,-0.3272664,0.4896818,-0.2318307,-0.4034013,-0.01996155
723.1555,0.04496312,-0.3272654,0.4900243,-0.235909,-0.4037787,-0.01996798
723.1699,0.04496313,-0.3272643,0.490342,-0.2399203,-0.4041327,-0.01997395
723.1835,0.04496312,-0.3272633,0.4906354,-0.243867,-0.4044635,-0.0199795
723.1983,0.04496312,-0.3272633,0.4906354,-0.243867,-0.4044635,-0.0199795
723.2122,0.04423571,-0.3272636,0.4919142,-0.2473468,-0.4056191,-0.01998335
723.2275,0.04305363,-0.3272639,0.493463,-0.2506482,-0.4069643,-0.01998667
723.2424,0.04159041,-0.3272641,0.4950167,-0.2538857,-0.4082768,-0.01998977
723.2568,0.04159041,-0.3272641,0.4950167,-0.2538857,-0.4082768,-0.01998977
723.2709,0.03995642,-0.3272642,0.4964887,-0.257098,-0.4094927,-0.01999271
723.2863,0.0374935,-0.3272656,0.4988365,-0.2598904,-0.4114243,-0.01999426
723.3009,0.03451934,-0.327267,0.5013771,-0.2625467,-0.4134748,-0.01999548
723.3157,0.03451934,-0.327267,0.5013771,-0.2625467,-0.4134748,-0.01999548
723.3298,0.03123598,-0.3272678,0.5038637,-0.2651743,-0.4154425,-0.01999662
723.3453,0.02777184,-0.3272682,0.5062224,-0.2678059,-0.4172774,-0.0199977
723.3604,0.02348013,-0.3272699,0.5093993,-0.2700433,-0.4197843,-0.01999754
723.3752,0.02348013,-0.3272699,0.5093993,-0.2700433,-0.4197843,-0.01999754
723.3891,0.01868575,-0.3272712,0.5127327,-0.2721651,-0.422387,-0.01999713
723.4044,0.0135952,-0.3272719,0.5159867,-0.2742759,-0.4248931,-0.01999671
723.4202,0.008339653,-0.327272,0.5190915,-0.2764061,-0.4272554,-0.01999629
723.434,0.008339653,-0.327272,0.5190915,-0.2764061,-0.4272554,-0.01999629
723.4481,0.002273988,-0.3272731,0.522985,-0.2781587,-0.4302737,-0.01999471
723.4632,-0.004275916,-0.3272737,0.5270161,-0.2798097,-0.4333805,-0.01999293
723.4781,-0.004275916,-0.3272737,0.5270161,-0.2798097,-0.4333805,-0.01999293
723.492,-0.01110301,-0.3272736,0.5309526,-0.2814624,-0.4363857,-0.01999117
723.5078,-0.01880421,-0.3272743,0.5356724,-0.2827504,-0.4400418,-0.01998831
723.5221,-0.02702301,-0.3272742,0.5405071,-0.283957,-0.4437679,-0.0199853
723.5368,-0.02702301,-0.3272742,0.5405071,-0.283957,-0.4437679,-0.0199853
723.5509,-0.03553298,-0.3272732,0.5452216,-0.2851861,-0.4473729,-0.01998235
723.5665,-0.04419047,-0.3272716,0.5497495,-0.2864654,-0.4508117,-0.01997948
723.5812,-0.05363281,-0.3272708,0.5550398,-0.2874018,-0.4549011,-0.01997546
723.5961,-0.05363281,-0.3272708,0.5550398,-0.2874018,-0.4549011,-0.01997546
723.6105,-0.0635293,-0.3272693,0.5604395,-0.2882646,-0.4590689,-0.01997131
723.626,-0.07366999,-0.3272668,0.5657185,-0.2891536,-0.4631245,-0.01996723
723.6404,-0.08392182,-0.3272635,0.5708097,-0.2900964,-0.4670204,-0.01996325
723.6565,-0.08392182,-0.3272635,0.5708097,-0.2900964,-0.4670204,-0.01996325
723.6704,-0.09492893,-0.3272611,0.5766757,-0.2907061,-0.4715883,-0.01995809
723.6848,-0.106365,-0.3272579,0.5826511,-0.2912493,-0.4762419,-0.0199528
723.6995,-0.106365,-0.3272579,0.5826511,-0.2912493,-0.4762419,-0.0199528
723.7134,-0.118023,-0.3272529,0.5884997,-0.2918255,-0.4807833,-0.01994762
723.7291,-0.1305,-0.3272486,0.5951401,-0.2920806,-0.4860121,-0.01994126
723.7437,-0.1434399,-0.3272423,0.6018754,-0.2922872,-0.4913141,-0.01993481
723.7584,-0.1434399,-0.3272423,0.6018754,-0.2922872,-0.4913141,-0.01993481
723.7729,-0.1566167,-0.3272335,0.6084642,-0.2925455,-0.4964874,-0.01992851
723.788,-0.1698872,-0.3272224,0.6148399,-0.292882,-0.501484,-0.01992234
723.8041,-0.1838893,-0.3272119,0.6220106,-0.2929192,-0.5071868,-0.01991488
723.8177,-0.1838893,-0.3272119,0.6220106,-0.2929192,-0.5071868,-0.01991488
723.8317,-0.198293,-0.3271996,0.6292804,-0.2929142,-0.5129766,-0.01990732
723.8474,-0.2128888,-0.3271848,0.6364078,-0.2929631,-0.5186478,-0.01989989
723.8621,-0.2275442,-0.3271679,0.6433244,-0.2930922,-0.5241489,-0.01989262
723.877,-0.2275442,-0.3271679,0.6433244,-0.2930922,-0.5241489,-0.01989262
723.8911,-0.242904,-0.3271518,0.651067,-0.2929321,-0.5303933,-0.01988398
723.9078,-0.2586424,-0.3271339,0.6589147,-0.2927362,-0.5367354,-0.01987524
723.9213,-0.274553,-0.3271135,0.6666178,-0.2925997,-0.5429601,-0.01986666
723.9363,-0.274553,-0.3271135,0.6666178,-0.2925997,-0.5429601,-0.01986666
723.9501,-0.2912335,-0.3270934,0.6751752,-0.292187,-0.5499539,-0.0198567
723.9653,-0.3083282,-0.3270708,0.6838281,-0.2917561,-0.5570362,-0.01984667
723.9802,-0.3256117,-0.3270451,0.6923175,-0.2914023,-0.5639843,-0.01983686
723.9948,-0.3256117,-0.3270451,0.6923175,-0.2914023,-0.5639843,-0.01983686
724.0092,-0.3429414,-0.3270169,0.7005733,-0.2911508,-0.5707445,-0.01982722
724.0245,-0.3609559,-0.3269894,0.7097014,-0.2906462,-0.5783041,-0.01981603
724.0394,-0.3609559,-0.3269894,0.7097014,-0.2906462,-0.5783041,-0.01981603
724.0533,-0.3793254,-0.3269596,0.7189336,-0.2901294,-0.585968,-0.01980477
724.0685,-0.3978413,-0.3269272,0.7280062,-0.2896909,-0.5935057,-0.01979373
724.0833,-0.4163714,-0.3268926,0.7368461,-0.2893552,-0.6008589,-0.01978289
724.0984,-0.4163714,-0.3268926,0.7368461,-0.2893552,-0.6008589,-0.01978289
724.1124,-0.4355612,-0.3268589,0.7466012,-0.2887788,-0.6090589,-0.01977042
724.1278,-0.4550854,-0.3268233,0.7564674,-0.2881962,-0.6173732,-0.01975789
724.1436,-0.474738,-0.326785,0.7661695,-0.2876965,-0.6255587,-0.01974564
724.1575,-0.474738,-0.326785,0.7661695,-0.2876965,-0.6255587,-0.01974564
724.1729,-0.4951171,-0.3267471,0.7768215,-0.2869709,-0.6346229,-0.01973173
724.1869,-0.5158678,-0.3267063,0.787573,-0.2862568,-0.6437899,-0.01971786
724.2014,-0.536765,-0.3266624,0.7981377,-0.2856427,-0.6528065,-0.01970431
724.2163,-0.536765,-0.3266624,0.7981377,-0.2856427,-0.6528065,-0.01970431
724.2303,-0.5576667,-0.3266159,0.8084384,-0.2851518,-0.6616104,-0.01969103
724.2457,-0.5792117,-0.3265702,0.8197128,-0.2844608,-0.6713274,-0.01967595
724.2605,-0.6010711,-0.3265223,0.8310935,-0.2837874,-0.6811594,-0.01966091
724.2755,-0.6010711,-0.3265223,0.8310935,-0.2837874,-0.6811594,-0.01966091
724.2897,-0.6230364,-0.3264716,0.8422857,-0.2832146,-0.6908427,-0.01964623
724.3053,-0.6449763,-0.3264188,0.8532078,-0.2827649,-0.7003089,-0.01963191
724.3203,-0.6670291,-0.3263657,0.8642445,-0.2823433,-0.709913,-0.01961722
724.3356,-0.6670291,-0.3263657,0.8642445,-0.2823433,-0.709913,-0.01961722
724.3491,-0.6890607,-0.3263117,0.875127,-0.2820059,-0.7194085,-0.01960276
724.3646,-0.7109866,-0.3262573,0.885771,-0.2817693,-0.7287198,-0.01958862
724.3803,-0.7327542,-0.3262031,0.8961574,-0.2816331,-0.7378318,-0.01957484
724.394,-0.7327542,-0.3262031,0.8961574,-0.2816331,-0.7378318,-0.01957484
724.4085,-0.7543312,-0.3261495,0.9062882,-0.281591,-0.7467468,-0.01956139
724.4237,-0.7756982,-0.3260971,0.9161695,-0.2816354,-0.7554706,-0.0195483
724.4385,-0.7756982,-0.3260971,0.9161695,-0.2816354,-0.7554706,-0.0195483
724.4523,-0.7968436,-0.3260461,0.9258065,-0.2817592,-0.7640077,-0.01953558
724.4681,-0.8177614,-0.3259968,0.9352027,-0.2819563,-0.7723603,-0.01952326
724.4825,-0.8384486,-0.3259494,0.9443595,-0.2822217,-0.7805287,-0.01951135
724.4974,-0.8384486,-0.3259494,0.9443595,-0.2822217,-0.7805287,-0.01951135
724.5114,-0.8589042,-0.3259038,0.9532772,-0.2825511,-0.7885119,-0.01949986
724.5269,-0.8791288,-0.3258601,0.9619555,-0.2829409,-0.7963083,-0.01948882
724.5419,-0.8991235,-0.3258184,0.9703931,-0.2833878,-0.8039156,-0.01947822
724.5566,-0.8991235,-0.3258184,0.9703931,-0.2833878,-0.8039156,-0.01947822
724.5709,-0.9188902,-0.3257786,0.9785888,-0.2838888,-0.8113314,-0.01946809
724.5865,-0.9384308,-0.3257407,0.9865414,-0.2844413,-0.8185533,-0.0194584
724.601,-0.9577476,-0.3257046,0.9942498,-0.2850427,-0.8255792,-0.01944916
724.6171,-0.9577476,-0.3257046,0.9942498,-0.2850427,-0.8255792,-0.01944916
724.6312,-0.9768429,-0.3256704,1.001713,-0.2856906,-0.832407,-0.01944038
724.6456,-0.9957191,-0.3256379,1.008931,-0.2863826,-0.8390352,-0.01943205
724.6603,-1.014379,-0.3256071,1.015902,-0.2871164,-0.8454622,-0.01942416
724.675,-1.014379,-0.3256071,1.015902,-0.2871164,-0.8454622,-0.01942416
724.6893,-1.032824,-0.325578,1.022626,-0.2878899,-0.8516868,-0.01941672
724.7045,-1.051057,-0.3255505,1.029105,-0.2887009,-0.8577083,-0.0194097
724.7192,-1.051057,-0.3255505,1.029105,-0.2887009,-0.8577083,-0.0194097
724.7332,-1.069081,-0.3255246,1.035337,-0.2895473,-0.8635261,-0.01940313
724.749,-1.086898,-0.3255002,1.041324,-0.290427,-0.8691399,-0.01939698
724.7636,-1.104511,-0.3254773,1.047068,-0.2913381,-0.8745499,-0.01939124
724.7785,-1.104511,-0.3254773,1.047068,-0.2913381,-0.8745499,-0.01939124
724.7925,-1.121921,-0.3254559,1.052568,-0.2922786,-0.8797562,-0.01938589
724.8086,-1.139131,-0.3254358,1.057827,-0.2932467,-0.8847593,-0.01938095
724.8232,-1.156143,-0.3254171,1.062845,-0.2942405,-0.8895602,-0.01937639
724.8377,-1.156143,-0.3254171,1.062845,-0.2942405,-0.8895602,-0.01937639
724.8538,-1.17296,-0.3253997,1.067626,-0.2952583,-0.8941598,-0.0193722
724.868,-1.189583,-0.3253836,1.072172,-0.2962983,-0.8985594,-0.01936837
724.8818,-1.206016,-0.3253687,1.076484,-0.2973589,-0.9027604,-0.01936489
724.8967,-1.206016,-0.3253687,1.076484,-0.2973589,-0.9027604,-0.01936489
724.9107,-1.222038,-0.3253542,1.080136,-0.2985063,-0.9063644,-0.01936238
724.9258,-1.237736,-0.3253413,1.083445,-0.2996916,-0.9096684,-0.01936024
724.9408,-1.253164,-0.32533,1.086525,-0.3008923,-0.9127785,-0.01935835
724.9554,-1.253164,-0.32533,1.086525,-0.3008923,-0.9127785,-0.01935835
724.9695,-1.268358,-0.3253205,1.089413,-0.3020992,-0.9157273,-0.01935669
724.9847,-1.282614,-0.3253102,1.090716,-0.3035278,-0.9172119,-0.01935729
724.9997,-1.282614,-0.3253102,1.090716,-0.3035278,-0.9172119,-0.01935729
725.0137,-1.296219,-0.3253021,1.091461,-0.3050257,-0.9181986,-0.01935829
725.0295,-1.309358,-0.3252971,1.092014,-0.3065258,-0.9190269,-0.01935933
725.0442,-1.32215,-0.325295,1.092482,-0.3080035,-0.9197946,-0.01936037
725.0591,-1.32215,-0.325295,1.092482,-0.3080035,-0.9197946,-0.01936037
725.0731,-1.333942,-0.3252931,1.091503,-0.3096707,-0.919225,-0.01936341
725.0886,-1.345055,-0.3252927,1.090078,-0.3113787,-0.9182573,-0.01936676
725.1045,-1.355695,-0.3252937,1.088552,-0.3130651,-0.9172127,-0.01937005
725.118,-1.355695,-0.3252937,1.088552,-0.3130651,-0.9172127,-0.01937005
725.1326,-1.365265,-0.3252945,1.085667,-0.314929,-0.9149113,-0.01937512
725.1476,-1.374122,-0.3252966,1.082427,-0.3168173,-0.9122941,-0.01938036
725.1623,-1.382493,-0.3253003,1.079171,-0.3186683,-0.9096761,-0.01938543
725.1772,-1.382493,-0.3253003,1.079171,-0.3186683,-0.9096761,-0.01938543
725.1911,-1.390523,-0.3253063,1.075984,-0.3204639,-0.9071339,-0.0193903
725.207,-1.397578,-0.3253119,1.071545,-0.3224277,-0.9034312,-0.0193968
725.2213,-1.40399,-0.3253195,1.066803,-0.3244123,-0.8994552,-0.01940342
725.2362,-1.40399,-0.3253195,1.066803,-0.3244123,-0.8994552,-0.01940342
725.2503,-1.40997,-0.3253295,1.062079,-0.326358,-0.8955065,-0.0194098
725.2657,-1.415653,-0.3253418,1.057456,-0.3282461,-0.8916602,-0.01941592
725.2806,-1.420399,-0.3253536,1.051658,-0.3303072,-0.8867218,-0.01942352
725.2956,-1.420399,-0.3253536,1.051658,-0.3303072,-0.8867218,-0.01942352
725.3098,-1.424534,-0.3253665,1.045605,-0.3323886,-0.8815527,-0.01943117
725.325,-1.428267,-0.325381,1.039613,-0.3344285,-0.8764469,-0.01943854
725.3418,-1.431733,-0.3253969,1.033763,-0.336408,-0.8714788,-0.0194456
725.358,-1.431733,-0.3253969,1.033763,-0.336408,-0.8714788,-0.0194456
725.3695,-1.434288,-0.3254115,1.026822,-0.3385664,-0.8654972,-0.019454
725.3837,-1.436258,-0.3254264,1.019681,-0.3407446,-0.8593326,-0.0194624
725.3984,-1.436258,-0.3254264,1.019681,-0.3407446,-0.8593326,-0.0194624
725.4126,-1.437853,-0.325442,1.012643,-0.3428791,-0.8532692,-0.01947048
725.4282,-1.438476,-0.3254558,1.004592,-0.3451986,-0.8462649,-0.01947976
725.4427,-1.438486,-0.3254693,0.9964156,-0.3475323,-0.839146,-0.01948895
725.4577,-1.438486,-0.3254693,0.9964156,-0.3475323,-0.839146,-0.01948895
725.4717,-1.43811,-0.3254828,0.9884109,-0.3498133,-0.8321909,-0.01949776
725.4873,-1.437494,-0.3254965,0.980647,-0.3520224,-0.8254629,-0.01950616
725.5021,-1.436,-0.325508,0.97197,-0.3544204,-0.8178873,-0.01951565
725.5169,-1.436,-0.325508,0.97197,-0.3544204,-0.8178873,-0.01951565
725.5308,-1.43396,-0.3255184,0.9632008,-0.3568354,-0.810228,-0.01952507
725.5466,-1.431586,-0.3255281,0.954619,-0.3592002,-0.8027453,-0.0195341
725.5613,-1.429011,-0.3255374,0.9462922,-0.3614949,-0.7955019,-0.01954271
725.5763,-1.429011,-0.3255374,0.9462922,-0.3614949,-0.7955019,-0.01954271
725.5925,-1.425592,-0.3255441,0.9371212,-0.3639919,-0.7874766,-0.01955232
725.6058,-1.421657,-0.325549,0.9278927,-0.3665094,-0.7793993,-0.01956184
725.6202,-1.417413,-0.3255527,0.9188762,-0.3689765,-0.7715203,-0.01957097
725.6349,-1.417413,-0.3255527,0.9188762,-0.3689765,-0.7715203,-0.01957097
725.6491,-1.412265,-0.3255539,0.9090859,-0.3716551,-0.7629257,-0.01958098
725.6642,-1.406569,-0.325554,0.8993016,-0.3743495,-0.754338,-0.01959083
725.6791,-1.406569,-0.325554,0.8993016,-0.3743495,-0.754338,-0.01959083
725.6932,-1.400553,-0.3255534,0.8897837,-0.3769849,-0.7459988,-0.01960024
725.7087,-1.394361,-0.3255523,0.8805894,-0.3795397,-0.7379616,-0.01960918
725.7233,-1.387355,-0.3255486,0.8707072,-0.3823104,-0.7292922,-0.01961891
725.7381,-1.387355,-0.3255486,0.8707072,-0.3823104,-0.7292922,-0.01961891
725.7521,-1.379866,-0.325543,0.8608513,-0.3850994,-0.7206486,-0.0196285
725.7676,-1.372106,-0.3255358,0.8512642,-0.3878309,-0.7122552,-0.01963768
725.7824,-1.364207,-0.3255277,0.8420013,-0.3904829,-0.7041641,-0.01964641
725.7972,-1.364207,-0.3255277,0.8420013,-0.3904829,-0.7041641,-0.01964641
725.8115,-1.355526,-0.3255166,0.8321077,-0.3933639,-0.6954966,-0.01965585
725.8269,-1.346389,-0.3255032,0.8222615,-0.3962658,-0.6868746,-0.01966515
725.8427,-1.337003,-0.325488,0.8126943,-0.399109,-0.6785117,-0.01967405
725.857,-1.337003,-0.325488,0.8126943,-0.399109,-0.6785117,-0.01967405
725.8705,-1.326773,-0.3254693,0.8025559,-0.4021887,-0.6696287,-0.01968358
725.8854,-1.316053,-0.3254477,0.7925142,-0.4052823,-0.6608364,-0.01969293
725.9002,-1.305071,-0.3254238,0.7827922,-0.4083062,-0.6523398,-0.01970185
725.9162,-1.305071,-0.3254238,0.7827922,-0.4083062,-0.6523398,-0.01970185
725.9291,-1.29397,-0.3253984,0.7734357,-0.4112371,-0.6441824,-0.0197103
725.9446,-1.282112,-0.3253698,0.7635775,-0.4144064,-0.6355736,-0.0197193
725.9594,-1.282112,-0.3253698,0.7635775,-0.4144064,-0.6355736,-0.0197193
725.9732,-1.269827,-0.3253384,0.753824,-0.4175912,-0.6270636,-0.01972813
725.9888,-1.257326,-0.3253049,0.7443804,-0.4207071,-0.6188402,-0.01973656
726.0037,-1.244741,-0.32527,0.7352909,-0.4237301,-0.6109445,-0.01974456
726.0186,-1.244741,-0.32527,0.7352909,-0.4237301,-0.6109445,-0.01974456
726.0323,-1.231428,-0.325232,0.7257419,-0.4270021,-0.6026394,-0.01975304
726.048,-1.217712,-0.3251912,0.7163053,-0.4302906,-0.5944404,-0.01976136
726.0628,-1.2038,-0.3251483,0.7071763,-0.4335078,-0.5865245,-0.01976932
726.0775,-1.2038,-0.3251483,0.7071763,-0.4335078,-0.5865245,-0.01976932
726.0927,-1.189096,-0.3251016,0.697634,-0.4369791,-0.5782426,-0.0197777
726.1073,-1.173954,-0.3250515,0.6882403,-0.4404576,-0.5700987,-0.01978588
726.1215,-1.158601,-0.3249987,0.6791821,-0.443852,-0.5622621,-0.01979367
726.1361,-1.158601,-0.3249987,0.6791821,-0.443852,-0.5622621,-0.01979367
726.1501,-1.143178,-0.3249443,0.6704956,-0.4471373,-0.5547668,-0.01980105
726.1655,-1.127049,-0.3248866,0.6614473,-0.4506753,-0.546957,-0.01980878
726.1802,-1.110543,-0.3248259,0.6525441,-0.454221,-0.5392827,-0.01981634
726.1948,-1.110543,-0.3248259,0.6525441,-0.454221,-0.5392827,-0.01981634
726.2091,-1.093869,-0.3247628,0.6439576,-0.4576832,-0.5318974,-0.01982355
726.2244,-1.077159,-0.3246984,0.6357228,-0.4610361,-0.5248336,-0.01983037
726.2395,-1.077159,-0.3246984,0.6357228,-0.4610361,-0.5248336,-0.01983037
726.2533,-1.059768,-0.3246311,0.6271533,-0.4646499,-0.5174828,-0.01983751
726.2687,-1.042021,-0.3245609,0.6187265,-0.4682717,-0.5102642,-0.01984448
726.2833,-1.024126,-0.3244886,0.6106052,-0.4718071,-0.5033225,-0.01985113
726.2982,-1.024126,-0.3244886,0.6106052,-0.4718071,-0.5033225,-0.01985113
726.3124,-1.005484,-0.3244127,0.6021828,-0.475606,-0.4961246,-0.01985806
726.3276,-0.9864494,-0.3243332,0.5939281,-0.4794021,-0.4890797,-0.01986481
726.3435,-0.9672484,-0.3242508,0.5859969,-0.4830981,-0.482326,-0.01987123
726.3573,-0.9672484,-0.3242508,0.5859969,-0.4830981,-0.482326,-0.01987123
726.3713,-0.948023,-0.3241668,0.578418,-0.4866681,-0.4758899,-0.01987729
726.3865,-0.9281346,-0.32408,0.5705735,-0.4904976,-0.4692332,-0.01988358
726.4009,-0.9079126,-0.3239901,0.5628859,-0.4943249,-0.4627197,-0.0198897
726.4156,-0.9079126,-0.3239901,0.5628859,-0.4943249,-0.4627197,-0.0198897
726.43,-0.8875654,-0.323898,0.5554982,-0.4980533,-0.4564744,-0.01989553
726.4454,-0.8672245,-0.3238047,0.5484385,-0.5016561,-0.4505227,-0.01990104
726.4603,-0.846245,-0.3237091,0.5411284,-0.5055252,-0.4443656,-0.01990676
726.475,-0.846245,-0.3237091,0.5411284,-0.5055252,-0.4443656,-0.01990676
726.4894,-0.8249516,-0.3236108,0.5339662,-0.5093924,-0.4383422,-0.01991233
726.5049,-0.80355,-0.3235104,0.5270881,-0.5131585,-0.4325702,-0.01991763
726.5195,-0.80355,-0.3235104,0.5270881,-0.5131585,-0.4325702,-0.01991763
726.5335,-0.781442,-0.3234068,0.5199829,-0.517192,-0.4266132,-0.0199231
726.5491,-0.7589824,-0.3232996,0.5130426,-0.5212122,-0.4208025,-0.01992843
726.5638,-0.7363956,-0.3231898,0.5063983,-0.5251175,-0.4152511,-0.01993348
726.5784,-0.7363956,-0.3231898,0.5063983,-0.5251175,-0.4152511,-0.01993348
726.5947,-0.7138233,-0.3230785,0.5000731,-0.5288811,-0.4099799,-0.01993824
726.6082,-0.6906268,-0.3229649,0.4935442,-0.5329071,-0.4045474,-0.01994316
726.6227,-0.6671349,-0.3228484,0.4871659,-0.5369209,-0.399248,-0.01994792
726.6373,-0.6671349,-0.3228484,0.4871659,-0.5369209,-0.399248,-0.01994792
726.6512,-0.6435556,-0.32273,0.4810588,-0.5408223,-0.3941839,-0.01995246
726.6666,-0.6200199,-0.3226108,0.4752461,-0.5445842,-0.3893754,-0.01995672
726.6815,-0.5960546,-0.3224903,0.4693495,-0.5485181,-0.3845071,-0.01996103
726.6964,-0.5960546,-0.3224903,0.4693495,-0.5485181,-0.3845071,-0.01996103
726.7103,-0.5719194,-0.3223684,0.4636199,-0.5524132,-0.3797843,-0.0199652
726.7256,-0.5477784,-0.3222459,0.4581403,-0.5561938,-0.3752759,-0.01996916
726.7408,-0.5237349,-0.3221238,0.4529234,-0.5598409,-0.3709934,-0.0199729
726.7557,-0.5237349,-0.3221238,0.4529234,-0.5598409,-0.3709934,-0.0199729
726.7697,-0.4998532,-0.3220032,0.4479568,-0.5633568,-0.3669262,-0.01997642
726.785,-0.4761734,-0.3218852,0.4432213,-0.5667503,-0.3630579,-0.01997975
726.8,-0.4527197,-0.3217704,0.4386982,-0.570031,-0.359372,-0.01998291
726.8145,-0.4527197,-0.3217704,0.4386982,-0.570031,-0.359372,-0.01998291
726.831,-0.4295066,-0.3216594,0.4343714,-0.573207,-0.3558539,-0.01998591
726.8453,-0.406542,-0.3215526,0.4302277,-0.576285,-0.3524918,-0.01998878
726.8589,-0.406542,-0.3215526,0.4302277,-0.576285,-0.3524918,-0.01998878
726.8731,-0.38383,-0.3214503,0.4262562,-0.5792701,-0.3492754,-0.01999151
726.8886,-0.3613721,-0.3213525,0.4224478,-0.5821661,-0.3461964,-0.01999411
726.9031,-0.3391682,-0.3212594,0.4187948,-0.5849763,-0.3432475,-0.0199966
726.9178,-0.3391682,-0.3212594,0.4187948,-0.5849763,-0.3432475,-0.0199966
726.9319,-0.317217,-0.321171,0.4152902,-0.5877033,-0.3404222,-0.01999898
726.9474,-0.2955169,-0.3210871,0.4119281,-0.5903491,-0.337715,-0.02000125
726.9622,-0.2740656,-0.3210078,0.4087027,-0.5929158,-0.3351205,-0.02000342
726.9771,-0.2740656,-0.3210078,0.4087027,-0.5929158,-0.3351205,-0.02000342
726.9912,-0.2592343,-0.3209535,0.4091614,-0.5917369,-0.3354804,-0.02000308
727.007,-0.2486296,-0.3209324,0.4106973,-0.5894321,-0.3367551,-0.02000192
727.0216,-0.240729,-0.3209367,0.4122897,-0.5870259,-0.3381094,-0.0200007
727.0367,-0.240729,-0.3209367,0.4122897,-0.5870259,-0.3381094,-0.0200007
727.0507,-0.2345633,-0.3209587,0.4136173,-0.5848583,-0.3392625,-0.01999971
727.0681,-0.2295153,-0.3209936,0.4146376,-0.5829928,-0.340165,-0.01999896
727.082,-0.2251919,-0.3210371,0.4154004,-0.5813948,-0.3408491,-0.01999842
727.0956,-0.2251919,-0.3210371,0.4154004,-0.5813948,-0.3408491,-0.01999842
727.1101,-0.2213425,-0.3210861,0.4159737,-0.5800055,-0.3413672,-0.01999804
727.1252,-0.2178075,-0.3211385,0.4189912,-0.5787518,-0.3452759,-0.02000327
727.1399,-0.2178075,-0.3211385,0.4189912,-0.5787518,-0.3452759,-0.02000327
727.1541,-0.2144852,-0.321193,0.4226446,-0.5775813,-0.3506395,-0.02000453
727.1696,-0.2113106,-0.3212485,0.4261408,-0.576471,-0.3563952,-0.02000448
727.1844,-0.2082422,-0.3213046,0.4293014,-0.5754085,-0.3621596,-0.02000409
727.1994,-0.2082422,-0.3213046,0.4293014,-0.5754085,-0.3621596,-0.02000409
727.2136,-0.2052534,-0.3213607,0.4310355,-0.5743921,-0.3663065,-0.02000118
727.2291,-0.2023273,-0.3214168,0.4322025,-0.5734171,-0.3696516,-0.02000014
727.244,-0.1994528,-0.3214726,0.4332199,-0.5724741,-0.3726661,-0.01999979
727.2586,-0.1994528,-0.3214726,0.4332199,-0.5724741,-0.3726661,-0.01999979
727.2731,-0.1966228,-0.321528,0.4331147,-0.5715619,-0.3740376,-0.01999708
727.2882,-0.1938326,-0.321583,0.4327093,-0.5706792,-0.3746722,-0.01999626
727.3043,-0.1910792,-0.3216375,0.4323579,-0.5698182,-0.3750599,-0.01999607
727.3177,-0.1910792,-0.3216375,0.4323579,-0.5698182,-0.3750599,-0.01999607
727.3318,-0.1883603,-0.3216915,0.4321398,-0.5689709,-0.3753822,-0.01999602
727.3475,-0.1856746,-0.321745,0.4309379,-0.5681412,-0.3742086,-0.01999336
727.3619,-0.1830209,-0.3217981,0.429509,-0.5673336,-0.3723859,-0.01999253
727.3767,-0.1830209,-0.3217981,0.429509,-0.5673336,-0.3723859,-0.01999253
727.3909,-0.1803985,-0.3218506,0.4281803,-0.5665427,-0.3703784,-0.01999229
727.4064,-0.1778067,-0.3219027,0.4270201,-0.5657619,-0.3683567,-0.0199922
727.4213,-0.1752451,-0.3219542,0.4249054,-0.5649957,-0.3648889,-0.01998951
727.4361,-0.1752451,-0.3219542,0.4249054,-0.5649957,-0.3648889,-0.01998951
727.4504,-0.172713,-0.3220052,0.4225893,-0.5642505,-0.3608159,-0.01998865
727.4659,-0.1702102,-0.3220557,0.4203983,-0.5635208,-0.3565994,-0.01998838
727.4807,-0.1677363,-0.3221058,0.4184005,-0.5627998,-0.3524087,-0.01998828
727.4956,-0.1677363,-0.3221058,0.4184005,-0.5627998,-0.3524087,-0.01998828
727.51,-0.1652908,-0.3221553,0.4154711,-0.5620914,-0.3468127,-0.01998564
727.525,-0.1628735,-0.3222044,0.412363,-0.561403,-0.3406503,-0.0199848
727.541,-0.160484,-0.3222529,0.4094032,-0.5607287,-0.3343821,-0.01998455
727.5549,-0.160484,-0.3222529,0.4094032,-0.5607287,-0.3343821,-0.01998455
727.5687,-0.158122,-0.322301,0.4055471,-0.560069,-0.3266901,-0.01998199
727.5841,-0.1557871,-0.3223486,0.4015674,-0.5594296,-0.3184549,-0.01998122
727.5988,-0.1557871,-0.3223486,0.4015674,-0.5594296,-0.3184549,-0.01998122
727.6129,-0.1534791,-0.3223957,0.3977893,-0.5588031,-0.3101507,-0.01998104
727.6285,-0.1511976,-0.3224424,0.3942736,-0.5581813,-0.3019492,-0.01998101
727.6432,-0.1489423,-0.3224885,0.3898821,-0.5575668,-0.2924163,-0.01997869
727.6579,-0.1489423,-0.3224885,0.3898821,-0.5575668,-0.2924163,-0.01997869
727.6722,-0.146713,-0.3225343,0.3853663,-0.5569681,-0.2823912,-0.01997802
727.6878,-0.1445093,-0.3225796,0.3810501,-0.5563791,-0.2723327,-0.01997791
727.7025,-0.142331,-0.3226244,0.3769988,-0.5557929,-0.262407,-0.01997796
727.7173,-0.142331,-0.3226244,0.3769988,-0.5557929,-0.262407,-0.01997796
727.7313,-0.1401776,-0.3226688,0.3720749,-0.5552108,-0.2511763,-0.01997594
727.7471,-0.1380491,-0.3227127,0.3670369,-0.554642,-0.2394821,-0.01997543
727.7618,-0.135945,-0.3227562,0.3622126,-0.5540804,-0.2277839,-0.01997543
727.7776,-0.135945,-0.3227562,0.3622126,-0.5540804,-0.2277839,-0.01997543
727.7917,-0.1338651,-0.3227993,0.3565452,-0.553524,-0.2147549,-0.0199737
727.8061,-0.1318091,-0.3228419,0.3508148,-0.5529795,-0.2012807,-0.01997336
727.8207,-0.1297768,-0.3228841,0.3453477,-0.5524397,-0.1878346,-0.01997348
727.8353,-0.1297768,-0.3228841,0.3453477,-0.5524397,-0.1878346,-0.01997348
727.8498,-0.1277678,-0.3229259,0.340203,-0.5518973,-0.1745859,-0.01997373
727.8651,-0.1257819,-0.3229673,0.3342295,-0.5513512,-0.1600907,-0.01997251
727.8797,-0.1257819,-0.3229673,0.3342295,-0.5513512,-0.1600907,-0.01997251
727.8938,-0.1238189,-0.3230082,0.3281866,-0.5508111,-0.1451945,-0.0199724
727.9095,-0.1218784,-0.3230487,0.3223999,-0.5502716,-0.1303564,-0.01997265
727.9241,-0.1199603,-0.3230889,0.3169324,-0.5497264,-0.1157402,-0.01997301
727.9391,-0.1199603,-0.3230889,0.3169324,-0.5497264,-0.1157402,-0.01997301
727.953,-0.1180642,-0.3231286,0.3106343,-0.5491738,-0.09989911,-0.01997235
727.9687,-0.1161899,-0.3231679,0.3042714,-0.5486231,-0.08368073,-0.01997248
727.9835,-0.1143371,-0.3232068,0.2981725,-0.5480698,-0.06754456,-0.01997287
727.9982,-0.1143371,-0.3232068,0.2981725,-0.5480698,-0.06754456,-0.01997287
728.0145,-0.1125057,-0.3232453,0.29127,-0.5475084,-0.0501571,-0.01997266
728.0292,-0.1106953,-0.3232834,0.2843492,-0.5469466,-0.0324077,-0.01997299
728.0427,-0.1089057,-0.3233211,0.2777368,-0.546379,-0.01476927,-0.01997345
728.0574,-0.1089057,-0.3233211,0.2777368,-0.546379,-0.01476927,-0.01997345
728.0714,-0.1071368,-0.3233585,0.2714898,-0.5458004,0.002591452,-0.01997395
728.087,-0.1053881,-0.3233954,0.2644494,-0.5452061,0.02111998,-0.01997442
728.1016,-0.1036596,-0.323432,0.2573764,-0.5446053,0.03997088,-0.01997497
728.1165,-0.1036596,-0.323432,0.2573764,-0.5446053,0.03997088,-0.01997497
728.1307,-0.1019509,-0.3234682,0.2505959,-0.5439951,0.05868674,-0.0199755
728.1462,-0.1002619,-0.3235041,0.24417,-0.543372,0.07710554,-0.01997601
728.161,-0.09859236,-0.3235396,0.2369462,-0.5427298,0.09666835,-0.01997713
728.1761,-0.09859236,-0.3235396,0.2369462,-0.5427298,0.09666835,-0.01997713
728.1903,-0.09694199,-0.3235747,0.2296859,-0.5420778,0.1165339,-0.01997785
728.2059,-0.09531059,-0.3236094,0.2227167,-0.5414142,0.136246,-0.0199784
728.2205,-0.09369796,-0.3236438,0.216103,-0.5407366,0.1556425,-0.01997886
728.2354,-0.09369796,-0.3236438,0.216103,-0.5407366,0.1556425,-0.01997886
728.2505,-0.09210388,-0.3236778,0.2086978,-0.5400377,0.1761551,-0.01998057
728.2648,-0.09052812,-0.3237115,0.2012564,-0.5393264,0.1969502,-0.01998142
728.2796,-0.09052812,-0.3237115,0.2012564,-0.5393264,0.1969502,-0.01998142
728.2936,-0.0889705,-0.3237449,0.194106,-0.538602,0.2175745,-0.01998192
728.3092,-0.08743078,-0.3237779,0.1861889,-0.5378553,0.2393369,-0.01998403
728.3239,-0.08590878,-0.3238105,0.1782722,-0.5370947,0.2613709,-0.01998493
728.3387,-0.08590878,-0.3238105,0.1782722,-0.5370947,0.2613709,-0.01998493
728.3527,-0.08440428,-0.3238429,0.1706803,-0.5363202,0.2832119,-0.01998533
728.3683,-0.08291709,-0.3238749,0.1634732,-0.5355318,0.3046943,-0.01998555
728.3831,-0.08144701,-0.3239065,0.1555127,-0.5347199,0.3272227,-0.01998808
728.398,-0.08144701,-0.3239065,0.1555127,-0.5347199,0.3272227,-0.01998808
728.4122,-0.07999383,-0.3239379,0.1475285,-0.5338931,0.349988,-0.01998899
728.4279,-0.07855737,-0.3239689,0.1398413,-0.5330531,0.3725451,-0.01998927
728.4427,-0.07713743,-0.3239996,0.1325178,-0.5322015,0.3947329,-0.01998931
728.4574,-0.07713743,-0.3239996,0.1325178,-0.5322015,0.3947329,-0.01998931
728.4738,-0.07573383,-0.32403,0.1255418,-0.5313402,0.4165017,-0.01998928
728.4883,-0.07434636,-0.32406,0.1188777,-0.5304711,0.4378433,-0.0199892
728.5019,-0.07297487,-0.3240898,0.112491,-0.5295958,0.4587641,-0.0199891
728.5166,-0.07297487,-0.3240898,0.112491,-0.5295958,0.4587641,-0.0199891
728.5309,-0.07161915,-0.3241192,0.1074487,-0.5287291,0.4778575,-0.01998585
728.5461,-0.07027902,-0.3241484,0.1029903,-0.5278687,0.495901,-0.01998465
728.561,-0.0689543,-0.3241772,0.09874573,-0.5270141,0.513346,-0.01998417
728.5764,-0.0689543,-0.3241772,0.09874573,-0.5270141,0.513346,-0.01998417
728.5903,-0.06764483,-0.3242058,0.09460121,-0.5261635,0.5303742,-0.01998388
728.6058,-0.06635042,-0.324234,0.09161909,-0.5253298,0.5456614,-0.01998032
728.6205,-0.0650709,-0.324262,0.08908534,-0.5245124,0.5599828,-0.0199789
728.6354,-0.0650709,-0.324262,0.08908534,-0.5245124,0.5599828,-0.0199789
728.6498,-0.06380609,-0.3242896,0.08666138,-0.5237081,0.5737857,-0.01997821
728.6653,-0.06255584,-0.324317,0.08425437,-0.5229132,0.5872488,-0.01997772
728.6801,-0.06131998,-0.3243441,0.08293185,-0.5221395,0.5990625,-0.01997389
728.695,-0.06131998,-0.3243441,0.08293185,-0.5221395,0.5990625,-0.01997389
728.7102,-0.06009833,-0.324371,0.08200502,-0.5213881,0.6099826,-0.01997222
728.7247,-0.05889073,-0.3243975,0.0811448,-0.5206544,0.6204484,-0.01997132
728.7396,-0.05889073,-0.3243975,0.0811448,-0.5206544,0.6204484,-0.01997132
728.7534,-0.05769704,-0.3244237,0.08133004,-0.5199471,0.6292685,-0.01996727
728.769,-0.05651707,-0.3244497,0.08185773,-0.5192668,0.6372308,-0.01996545
728.7837,-0.05535068,-0.3244754,0.08239837,-0.5186068,0.6447871,-0.01996442
728.7986,-0.05535068,-0.3244754,0.08239837,-0.5186068,0.6447871,-0.01996442
728.8129,-0.05419771,-0.3245009,0.08286588,-0.5179601,0.6521191,-0.01996361
728.8286,-0.05305801,-0.3245261,0.08432298,-0.5173367,0.6579392,-0.01995949
728.8434,-0.05193142,-0.324551,0.08610463,-0.5167403,0.6629808,-0.01995753
728.8582,-0.05193142,-0.324551,0.08610463,-0.5167403,0.6629808,-0.01995753
728.8725,-0.05081779,-0.3245756,0.08788881,-0.5161648,0.6676747,-0.01995636
728.8881,-0.04971698,-0.3246,0.08958694,-0.5156027,0.6721953,-0.01995543
728.9028,-0.04862883,-0.3246242,0.09225384,-0.5150637,0.6752608,-0.01995121
728.9175,-0.04862883,-0.3246242,0.09225384,-0.5150637,0.6752608,-0.01995121
728.9326,-0.04755321,-0.324648,0.09522691,-0.514553,0.6775966,-0.01994916
728.9473,-0.04648997,-0.3246717,0.09818217,-0.5140634,0.6796306,-0.0199479
728.9618,-0.04543896,-0.324695,0.1010282,-0.5135871,0.6815369,-0.0199469
728.9769,-0.04543896,-0.324695,0.1010282,-0.5135871,0.6815369,-0.0199469
728.9906,-0.04440004,-0.3247181,0.1048163,-0.5131329,0.6820384,-0.01994263
729.0061,-0.04337308,-0.324741,0.108886,-0.5127072,0.6818556,-0.01994052
729.0209,-0.04235794,-0.3247637,0.1129131,-0.5123025,0.6814146,-0.01993921
729.0357,-0.04235794,-0.3247637,0.1129131,-0.5123025,0.6814146,-0.01993921
729.0499,-0.04135448,-0.3247861,0.1178632,-0.511924,0.6795458,-0.01993482
729.0652,-0.04036257,-0.3248083,0.1230504,-0.5115762,0.6770113,-0.01993265
729.0804,-0.03938208,-0.3248302,0.1281461,-0.5112495,0.6742533,-0.0199313
729.0953,-0.03938208,-0.3248302,0.1281461,-0.5112495,0.6742533,-0.0199313
729.1097,-0.03841287,-0.3248519,0.133061,-0.5109339,0.6714507,-0.01993023
729.1252,-0.03745482,-0.3248734,0.138852,-0.5106372,0.6673282,-0.01992585
729.1401,-0.03650779,-0.3248946,0.1448625,-0.5103678,0.6626045,-0.01992367
729.1559,-0.03650779,-0.3248946,0.1448625,-0.5103678,0.6626045,-0.01992367
729.17,-0.03557166,-0.3249156,0.1507712,-0.5101172,0.6577035,-0.01992229
729.1842,-0.03464631,-0.3249364,0.1564881,-0.5098763,0.6527966,-0.01992122
729.199,-0.03464631,-0.3249364,0.1564881,-0.5098763,0.6527966,-0.01992122
729.2137,-0.03373161,-0.3249569,0.1630708,-0.5096527,0.6466027,-0.01991681
729.2287,-0.03282744,-0.3249772,0.1698567,-0.5094559,0.6398419,-0.01991463
729.2435,-0.03193368,-0.3249974,0.1765214,-0.5092771,0.6329385,-0.01991329
729.2583,-0.03193368,-0.3249974,0.1765214,-0.5092771,0.6329385,-0.01991329
729.2726,-0.0310502,-0.3250173,0.1840397,-0.5091204,0.6247128,-0.01990879
729.2881,-0.0301769,-0.325037,0.1917187,-0.5089923,0.6159317,-0.01990661
729.3031,-0.02931364,-0.3250564,0.1992285,-0.508882,0.607037,-0.01990528
729.318,-0.02931364,-0.3250564,0.1992285,-0.508882,0.607037,-0.01990528
729.3322,-0.02846033,-0.3250757,0.2064815,-0.5087783,0.5982052,-0.01990429
729.3479,-0.02761684,-0.3250948,0.2145488,-0.5086881,0.5881439,-0.01989992
729.3625,-0.02678306,-0.3251136,0.2227611,-0.5086216,0.5775831,-0.01989784
729.3784,-0.02678306,-0.3251136,0.2227611,-0.5086216,0.5775831,-0.01989784
729.3926,-0.02595888,-0.3251323,0.2307951,-0.5085698,0.5669485,-0.01989663
729.4073,-0.02514419,-0.3251507,0.2385632,-0.5085222,0.5564092,-0.01989576
729.4219,-0.02433887,-0.325169,0.2471419,-0.508486,0.5446606,-0.01989155
729.4366,-0.02433887,-0.325169,0.2471419,-0.508486,0.5446606,-0.01989155
729.4506,-0.02354283,-0.325187,0.2558509,-0.5084718,0.5324398,-0.01988965
729.4662,-0.02275596,-0.3252049,0.2643633,-0.5084705,0.5201746,-0.01988863
729.4809,-0.02197814,-0.3252225,0.2725911,-0.5084714,0.5080338,-0.01988797
729.496,-0.02197814,-0.3252225,0.2725911,-0.5084714,0.5080338,-0.01988797
729.51,-0.02120928,-0.32524,0.2816186,-0.5084811,0.4947008,-0.01988405
729.5259,-0.02044928,-0.3252573,0.2907559,-0.5085105,0.4809225,-0.01988243
729.5408,-0.01969802,-0.3252743,0.2996743,-0.5085501,0.4671289,-0.01988169
729.5557,-0.01969802,-0.3252743,0.2996743,-0.5085501,0.4671289,-0.01988169
729.5699,-0.01895542,-0.3252912,0.3093798,-0.5086021,0.4521011,-0.01987799
729.5851,-0.01822137,-0.325308,0.3191502,-0.5086739,0.4366359,-0.01987661
729.601,-0.01749577,-0.3253245,0.3286528,-0.508754,0.4211818,-0.01987612
729.6155,-0.01749577,-0.3253245,0.3286528,-0.508754,0.4211818,-0.01987612
729.6292,-0.01677852,-0.3253409,0.3378058,-0.5088306,0.4059117,-0.019876
729.6447,-0.01606954,-0.325357,0.3477171,-0.5089086,0.3894867,-0.01987295
729.6592,-0.01606954,-0.325357,0.3477171,-0.5089086,0.3894867,-0.01987295
729.6735,-0.01536872,-0.3253731,0.3576835,-0.508999,0.372672,-0.01987206
729.689,-0.01467597,-0.3253889,0.3673774,-0.5090924,0.3559022,-0.01987201
729.7037,-0.01399119,-0.3254045,0.3767176,-0.5091785,0.3393435,-0.01987232
729.7187,-0.01399119,-0.3254045,0.3767176,-0.5091785,0.3393435,-0.01987232
729.7327,-0.01331431,-0.32542,0.3868194,-0.5092618,0.3216412,-0.01987004
729.7485,-0.01264522,-0.3254353,0.3969664,-0.5093533,0.3035714,-0.01986973
729.7633,-0.01198384,-0.3254505,0.4068272,-0.5094439,0.2855719,-0.01987019
729.7783,-0.01198384,-0.3254505,0.4068272,-0.5094439,0.2855719,-0.01987019
729.7924,-0.01133006,-0.3254654,0.4137351,-0.5095013,0.2711004,-0.01987666
729.8081,-0.01068382,-0.3254802,0.4194399,-0.5094929,0.258431,-0.01987953
729.824,-0.01004501,-0.3254949,0.4248112,-0.5094356,0.2465577,-0.01988122
729.8388,-0.01004501,-0.3254949,0.4248112,-0.5094356,0.2465577,-0.01988122
729.8516,-0.009413566,-0.3255093,0.4301234,-0.5093498,0.2350836,-0.01988259
729.8672,-0.008789392,-0.3255236,0.4354333,-0.5092489,0.2238582,-0.01988393
729.8817,-0.008172406,-0.3255378,0.4407278,-0.5091397,0.2128279,-0.01988533
729.8966,-0.008172406,-0.3255378,0.4407278,-0.5091397,0.2128279,-0.01988533
729.9108,-0.007562525,-0.3255518,0.4459778,-0.5090253,0.2019759,-0.01988681
729.9261,-0.006959666,-0.3255656,0.4511565,-0.5089068,0.1912983,-0.01988836
729.9412,-0.006402337,-0.3381838,0.4657233,-0.5124801,0.1680063,-0.01990869
729.9561,-0.006402337,-0.3381838,0.4657233,-0.5124801,0.1680063,-0.01990869
729.9705,-0.005881986,-0.3585113,0.4801932,-0.5171122,0.1428871,-0.01992938
729.9857,-0.005387845,-0.3835023,0.492301,-0.5217102,0.1191909,-0.01994587
730.0005,-0.004911084,-0.4112598,0.5020778,-0.525921,0.0975154,-0.01995811
730.0155,-0.004911084,-0.4112598,0.5020778,-0.525921,0.0975154,-0.01995811
730.0299,-0.004442627,-0.4398468,0.5095704,-0.529465,0.07836636,-0.01996648
730.0452,-0.003980266,-0.4688188,0.515849,-0.5325851,0.06077522,-0.01997244
730.0609,-0.00352276,-0.4978993,0.5214353,-0.5354318,0.04423401,-0.0199767
730.075,-0.00352276,-0.4978993,0.5214353,-0.5354318,0.04423401,-0.0199767
730.0892,-0.003065813,-0.5261553,0.526088,-0.5378482,0.02915792,-0.01997937
730.1044,-0.002611431,-0.5537757,0.5304385,-0.5400736,0.0148042,-0.01998102
730.119,-0.002611431,-0.5537757,0.5304385,-0.5400736,0.0148042,-0.01998102
730.1343,-0.002160626,-0.58088,0.5346644,-0.542209,0.000903517,-0.01998181
730.1487,-0.001713879,-0.6075444,0.5387882,-0.5442938,-0.0126318,-0.01998181
730.1636,-0.00126684,-0.633056,0.5423158,-0.5460882,-0.02515732,-0.01998118
730.1785,-0.00126684,-0.633056,0.5423158,-0.5460882,-0.02515732,-0.01998118
730.1923,-0.0008226136,-0.6577412,0.5457129,-0.5477833,-0.03724619,-0.01997999
730.2083,-0.0003825265,-0.6818054,0.549074,-0.5494477,-0.04906935,-0.01997823
730.2229,5.294359E-05,-0.7053783,0.5523825,-0.5510999,-0.06065787,-0.01997593
730.238,5.294359E-05,-0.7053783,0.5523825,-0.5510999,-0.06065787,-0.01997593
730.2519,0.0004890893,-0.7277805,0.5551437,-0.5524831,-0.07135297,-0.0199735
730.2673,0.0009223131,-0.7493589,0.5578043,-0.5537832,-0.08169605,-0.01997074
730.2822,0.001351209,-0.7703319,0.5604517,-0.5550647,-0.09184073,-0.01996759
730.298,0.001351209,-0.7703319,0.5604517,-0.5550647,-0.09184073,-0.01996759
730.311,0.001781301,-0.7900752,0.5626193,-0.5560841,-0.1011702,-0.0199646
730.3267,0.002208579,-0.8089705,0.5647401,-0.5570329,-0.1102192,-0.01996142
730.3411,0.002631541,-0.8272575,0.5668882,-0.5579754,-0.1191305,-0.01995792
730.3558,0.002631541,-0.8272575,0.5668882,-0.5579754,-0.1191305,-0.01995792
730.37,0.003049767,-0.8450869,0.5690376,-0.5589259,-0.1279173,-0.0199541
730.3854,0.00346988,-0.8617923,0.5707071,-0.5596199,-0.1359307,-0.01995075
730.4001,0.003887712,-0.8777287,0.5723261,-0.5602447,-0.1436898,-0.01994734
730.4151,0.003887712,-0.8777287,0.5723261,-0.5602447,-0.1436898,-0.01994734
730.4293,0.004301673,-0.8931189,0.5739746,-0.560864,-0.1513354,-0.01994369
730.4449,0.004711269,-0.9081032,0.5756333,-0.5614927,-0.1588832,-0.01993979
730.4597,0.004711269,-0.9081032,0.5756333,-0.5614927,-0.1588832,-0.01993979
730.474,0.00512363,-0.922008,0.5768321,-0.5618661,-0.1656944,-0.01993661
730.4896,0.005534357,-0.9351842,0.577998,-0.5621738,-0.1722849,-0.01993344
730.5043,0.00594171,-0.9478518,0.5792106,-0.5624803,-0.1787937,-0.01993009
730.52,0.00594171,-0.9478518,0.5792106,-0.5624803,-0.1787937,-0.01993009
730.5339,0.006352609,-0.9593872,0.580018,-0.5625378,-0.1846184,-0.01992757
730.5485,0.006762446,-0.9701723,0.5808372,-0.5625417,-0.1902742,-0.01992509
730.5633,0.007169324,-0.9804466,0.5817357,-0.5625567,-0.1958928,-0.0199224
730.5783,0.007169324,-0.9804466,0.5817357,-0.5625567,-0.1958928,-0.0199224
730.592,0.00757251,-0.9903598,0.5826856,-0.5625973,-0.2014822,-0.01991949
730.6078,0.007979668,-0.9992445,0.5832152,-0.5623965,-0.2064039,-0.01991758
730.6224,0.008386403,-1.007455,0.583744,-0.5621442,-0.2111653,-0.01991576
730.6372,0.008386403,-1.007455,0.583744,-0.5621442,-0.2111653,-0.01991576
730.6516,0.008790746,-1.015213,0.5843473,-0.5619044,-0.2158998,-0.01991376
730.6668,0.009191812,-1.022659,0.5850042,-0.5616919,-0.220619,-0.01991157
730.6818,0.009597398,-1.029116,0.5852469,-0.5612407,-0.224688,-0.0199105
730.6971,0.009597398,-1.029116,0.5852469,-0.5612407,-0.224688,-0.0199105
730.7109,0.0100032,-1.034935,0.5854975,-0.560742,-0.2286161,-0.01990955
730.7264,0.01040712,-1.040336,0.5858327,-0.5602602,-0.2325374,-0.01990842
730.7413,0.0108081,-1.045455,0.5862322,-0.5598107,-0.2364636,-0.01990709
730.7571,0.0108081,-1.045455,0.5862322,-0.5598107,-0.2364636,-0.01990709
730.7714,0.01121395,-1.049615,0.5862257,-0.5591277,-0.2397583,-0.01990698
730.7856,0.01162055,-1.053167,0.586237,-0.5584028,-0.242932,-0.01990699
730.8,0.01202568,-1.056329,0.5863428,-0.5577005,-0.2461184,-0.01990681
730.8151,0.01202568,-1.056329,0.5863428,-0.5577005,-0.2461184,-0.01990681
730.8292,0.01243657,-1.058475,0.5860843,-0.5567725,-0.2487097,-0.01990787
730.8448,0.012849,-1.059986,0.5858795,-0.5558149,-0.2512197,-0.01990899
730.8594,0.012849,-1.059986,0.5858795,-0.5558149,-0.2512197,-0.01990899
730.8737,0.01326051,-1.061099,0.5857952,-0.5548919,-0.2537768,-0.01990987
730.8892,0.01366959,-1.061964,0.5858034,-0.5540176,-0.2563859,-0.01991049
730.9042,0.01408372,-1.061916,0.5854234,-0.5529276,-0.2584028,-0.0199124
730.919,0.01408372,-1.061916,0.5854234,-0.5529276,-0.2584028,-0.0199124
730.933,0.0144989,-1.061302,0.5850751,-0.5518085,-0.2603315,-0.01991442
730.9487,0.01490921,-1.060343,0.5848407,-0.5507231,-0.262308,-0.01991622
730.9634,0.01531248,-1.059177,0.5846997,-0.5496861,-0.2643426,-0.01991774
730.9783,0.01531248,-1.059177,0.5846997,-0.5496861,-0.2643426,-0.01991774
730.9933,0.01571679,-1.057127,0.5841644,-0.5484334,-0.2657827,-0.01992065
731.0079,0.01611429,-1.054543,0.5836728,-0.5471538,-0.267149,-0.01992365
731.0227,0.01650256,-1.051642,0.5833034,-0.5459114,-0.2685764,-0.0199264
731.0372,0.01650256,-1.051642,0.5833034,-0.5459114,-0.2685764,-0.0199264
731.0513,0.01689,-1.047798,0.5825765,-0.5444602,-0.2694377,-0.01993051
731.0666,0.01726909,-1.043391,0.5819272,-0.5429934,-0.2702599,-0.01993464
731.0814,0.01763797,-1.038659,0.5814243,-0.5415748,-0.271173,-0.01993845
731.0963,0.01763797,-1.038659,0.5814243,-0.5415748,-0.271173,-0.01993845
731.1104,0.01799709,-1.033747,0.5810375,-0.5402185,-0.2721807,-0.01994192
731.1259,0.0183559,-1.027985,0.5802568,-0.5386611,-0.2726103,-0.01994681
731.1409,0.01870727,-1.021726,0.5795294,-0.5370889,-0.2729907,-0.01995176
731.1557,0.01870727,-1.021726,0.5795294,-0.5370889,-0.2729907,-0.01995176
731.1699,0.01904947,-1.01519,0.5789354,-0.5355643,-0.2734573,-0.0199564
731.1855,0.01938296,-1.008513,0.5784521,-0.534102,-0.2740192,-0.01996069
731.2001,0.01971687,-1.001016,0.5775638,-0.5324406,-0.2739975,-0.01996645
731.2152,0.01971687,-1.001016,0.5775638,-0.5324406,-0.2739975,-0.01996645
731.2301,0.02004405,-0.9930495,0.5767288,-0.5307661,-0.2739306,-0.01997227
731.2445,0.02036278,-0.9848297,0.5760307,-0.5291414,-0.2739579,-0.01997776
731.2592,0.02036278,-0.9848297,0.5760307,-0.5291414,-0.2739579,-0.01997776
731.2734,0.02068135,-0.9757288,0.574962,-0.5273238,-0.2734254,-0.01998467
731.2888,0.02099259,-0.9661273,0.5739799,-0.525503,-0.2728798,-0.01999155
731.3034,0.02129503,-0.9562607,0.573159,-0.5237423,-0.2724563,-0.01999803
731.3184,0.02129503,-0.9562607,0.573159,-0.5237423,-0.2724563,-0.01999803
731.3324,0.02158934,-0.9462747,0.5724699,-0.5220554,-0.2721595,-0.02000408
731.3482,0.02188426,-0.9354976,0.5713701,-0.5201826,-0.2712855,-0.0200116
731.3629,0.02217302,-0.9242827,0.5703307,-0.5183064,-0.2703848,-0.02001912
731.3777,0.02217302,-0.9242827,0.5703307,-0.5183064,-0.2703848,-0.02001912
731.3919,0.02245419,-0.9128483,0.5694384,-0.5164885,-0.2695991,-0.02002625
731.4077,0.02272826,-0.9013295,0.5686715,-0.5147434,-0.2689384,-0.02003295
731.4224,0.0229963,-0.8898097,0.5679912,-0.5130684,-0.2683792,-0.02003929
731.4371,0.0229963,-0.8898097,0.5679912,-0.5130684,-0.2683792,-0.02003929
731.4532,0.02325931,-0.8783402,0.5673661,-0.5114565,-0.2678962,-0.02004534
731.4666,0.02351807,-0.8669524,0.5667759,-0.5099001,-0.2674699,-0.02005114
731.4813,0.02377317,-0.8556652,0.5662087,-0.5083931,-0.2670873,-0.02005674
731.4964,0.02377317,-0.8556652,0.5662087,-0.5083931,-0.2670873,-0.02005674
731.5102,0.0240183,-0.8452517,0.5661814,-0.5071847,-0.2674404,-0.02006026
731.5255,0.02426044,-0.8354211,0.5661663,-0.5060827,-0.2679276,-0.02006331
731.5406,0.02450183,-0.8259928,0.5660469,-0.505015,-0.2683768,-0.02006638
731.5552,0.02450183,-0.8259928,0.5660469,-0.505015,-0.2683768,-0.02006638
731.5695,0.02473639,-0.8176155,0.5663589,-0.5042126,-0.2694662,-0.02006761
731.585,0.02496989,-0.8099219,0.5666051,-0.5034826,-0.2706081,-0.0200686
731.5999,0.02496989,-0.8099219,0.5666051,-0.5034826,-0.2706081,-0.0200686
731.6144,0.02520389,-0.8026833,0.5666967,-0.5027581,-0.2716511,-0.02006978
731.6295,0.02543831,-0.7957569,0.5666597,-0.502022,-0.2725843,-0.02007119
731.6445,0.02566641,-0.7898155,0.5670723,-0.5015292,-0.2741429,-0.02007079
731.6594,0.02566641,-0.7898155,0.5670723,-0.5015292,-0.2741429,-0.02007079
731.6733,0.02589295,-0.7845067,0.5674377,-0.5010962,-0.2757512,-0.02007015
731.6899,0.02611933,-0.7796111,0.5676597,-0.5006604,-0.2772572,-0.02006973
731.7037,0.02634557,-0.7749918,0.5677575,-0.5002063,-0.2786475,-0.02006956
731.7181,0.02634557,-0.7749918,0.5677575,-0.5002063,-0.2786475,-0.02006956
731.7321,0.02656526,-0.7713249,0.5683076,-0.4999895,-0.2806575,-0.02006755
731.7476,0.02678281,-0.768261,0.5688086,-0.4998262,-0.2827084,-0.02006532
731.7626,0.02699964,-0.7655821,0.5691611,-0.4996537,-0.2846462,-0.02006333
731.7772,0.02699964,-0.7655821,0.5691611,-0.4996537,-0.2846462,-0.02006333
731.7913,0.02721003,-0.7639142,0.5699201,-0.4997115,-0.2871688,-0.02005954
731.8068,0.02741827,-0.7628764,0.5705902,-0.4998105,-0.2896941,-0.02005563
731.8216,0.02762579,-0.7622316,0.5710821,-0.4998882,-0.2920731,-0.02005205
731.8365,0.02762579,-0.7622316,0.5710821,-0.4998882,-0.2920731,-0.02005205
731.8506,0.02783282,-0.7618318,0.5714221,-0.4999308,-0.2942971,-0.02004884
731.8661,0.02803328,-0.7623443,0.5721895,-0.5001956,-0.2971021,-0.02004379
731.881,0.02823018,-0.7634175,0.5728919,-0.5004991,-0.2999185,-0.02003859
731.8958,0.02823018,-0.7634175,0.5728919,-0.5004991,-0.2999185,-0.02003859
731.91,0.02842441,-0.7648315,0.5734314,-0.5007799,-0.3025939,-0.02003369
731.9264,0.02861641,-0.7664493,0.5738261,-0.5010239,-0.3051144,-0.02002918
731.9404,0.02880047,-0.7689473,0.574649,-0.5014893,-0.3082114,-0.02002277
731.9548,0.02880047,-0.7689473,0.574649,-0.5014893,-0.3082114,-0.02002277
731.9689,0.02897974,-0.7719769,0.575404,-0.5019902,-0.311312,-0.02001622
731.9842,0.02915593,-0.7753208,0.5759915,-0.5024649,-0.3142622,-0.02001001
731.999,0.02915593,-0.7753208,0.5759915,-0.5024649,-0.3142622,-0.02001001
732.0131,0.02932391,-0.7796053,0.5769585,-0.5031552,-0.3177517,-0.02000195
732.0286,0.02948742,-0.784451,0.5778171,-0.5038705,-0.3212062,-0.01999384
732.0434,0.02964838,-0.7896212,0.5784787,-0.5045489,-0.3244774,-0.01998617
732.0582,0.02964838,-0.7896212,0.5784787,-0.5045489,-0.3244774,-0.01998617
732.0724,0.02980766,-0.7949686,0.5789695,-0.5051777,-0.3275569,-0.01997901
732.0883,0.02995946,-0.8011631,0.5798599,-0.506017,-0.3311718,-0.01996995
732.1028,0.03010758,-0.8078527,0.5806651,-0.5068806,-0.3347599,-0.01996081
732.1176,0.03010758,-0.8078527,0.5806651,-0.5068806,-0.3347599,-0.01996081
732.1317,0.03025384,-0.8148181,0.5812891,-0.5077079,-0.3381713,-0.0199521
732.1472,0.03039899,-0.8219225,0.5817512,-0.5084853,-0.3413931,-0.01994389
732.1631,0.03053686,-0.8298427,0.5826105,-0.5094727,-0.3451424,-0.01993375
732.1771,0.03053686,-0.8298427,0.5826105,-0.5094727,-0.3451424,-0.01993375
732.1912,0.03067159,-0.8382312,0.5833837,-0.5104825,-0.348859,-0.01992355
732.2065,0.03080501,-0.8468714,0.5839745,-0.5114534,-0.3523926,-0.01991381
732.2209,0.03093782,-0.8556284,0.5844014,-0.5123717,-0.3557298,-0.01990462
732.2359,0.03093782,-0.8556284,0.5844014,-0.5123717,-0.3557298,-0.01990462
732.2512,0.03106345,-0.86518,0.585216,-0.5134972,-0.3595797,-0.01989348
732.2653,0.03118644,-0.8751798,0.5859404,-0.5146419,-0.3633876,-0.01988231
732.2802,0.03130867,-0.8854119,0.5864799,-0.5157443,-0.3670046,-0.01987164
732.2951,0.03130867,-0.8854119,0.5864799,-0.5157443,-0.3670046,-0.01987164
732.3094,0.03142364,-0.8965033,0.587359,-0.5170484,-0.3710969,-0.01985911
732.3248,0.03153428,-0.9080743,0.5881109,-0.5183603,-0.3751099,-0.01984666
732.3396,0.03153428,-0.9080743,0.5881109,-0.5183603,-0.3751099,-0.01984666
732.3536,0.03164219,-0.9198889,0.5886533,-0.5196189,-0.3789015,-0.01983483
732.3693,0.03174824,-0.9318004,0.5890141,-0.5208123,-0.3824657,-0.01982369
732.384,0.03184557,-0.9444799,0.5897365,-0.5222031,-0.3865025,-0.01981065
732.3998,0.03184557,-0.9444799,0.5897365,-0.5222031,-0.3865025,-0.01981065
732.4141,0.03193726,-0.9575752,0.5903592,-0.5236017,-0.3904717,-0.01979768
732.4283,0.03202517,-0.9708675,0.590793,-0.5249481,-0.3942304,-0.01978531
732.4431,0.03211047,-0.9842212,0.5910589,-0.5262302,-0.3977683,-0.01977362
732.4577,0.03211047,-0.9842212,0.5910589,-0.5262302,-0.3977683,-0.01977362
732.4718,0.03218607,-0.9983144,0.5916857,-0.5277097,-0.4017732,-0.01976003
732.4874,0.03225504,-1.012799,0.5922159,-0.5291955,-0.4057083,-0.01974652
732.5021,0.03231936,-1.027459,0.5925605,-0.5306272,-0.4094309,-0.01973365
732.5168,0.03231936,-1.027459,0.5925605,-0.5306272,-0.4094309,-0.01973365
732.531,0.03237219,-1.042922,0.5932212,-0.5322511,-0.4135855,-0.01971898
732.5467,0.0324167,-1.05881,0.5937514,-0.5338713,-0.4176364,-0.01970451
732.5621,0.03245511,-1.074885,0.5940744,-0.5354278,-0.4214479,-0.01969079
732.5765,0.03245511,-1.074885,0.5940744,-0.5354278,-0.4214479,-0.01969079
732.5906,0.03248911,-1.091004,0.5942191,-0.5369098,-0.4250159,-0.01967789
732.6063,0.03251221,-1.107838,0.5947022,-0.5385808,-0.429016,-0.01966316
732.6204,0.03253323,-1.125035,0.5950758,-0.5402512,-0.4329235,-0.01964861
732.6367,0.03253323,-1.125035,0.5950758,-0.5402512,-0.4329235,-0.01964861
732.6511,0.03255399,-1.142377,0.5952587,-0.5418612,-0.4366034,-0.0196348
732.665,0.03257512,-1.15973,0.5952749,-0.5433989,-0.4400487,-0.01962179
732.6799,0.03257512,-1.15973,0.5952749,-0.5433989,-0.4400487,-0.01962179
732.694,0.03259204,-1.177773,0.595623,-0.5451279,-0.4439207,-0.01960697
732.7095,0.0326091,-1.196159,0.5958657,-0.5468553,-0.4477014,-0.01959234
732.7242,0.0326269,-1.214673,0.5959232,-0.5485207,-0.4512562,-0.01957847
732.7394,0.0326269,-1.214673,0.5959232,-0.5485207,-0.4512562,-0.01957847
732.7532,0.03264061,-1.233943,0.5962684,-0.5503719,-0.4552044,-0.0195629
732.7689,0.03265467,-1.25359,0.5964754,-0.5522121,-0.4590296,-0.01954765
732.7834,0.03266964,-1.27338,0.5964766,-0.5539815,-0.4626042,-0.01953329
732.7983,0.03266964,-1.27338,0.5964766,-0.5539815,-0.4626042,-0.01953329
732.8127,0.03268539,-1.29317,0.5963041,-0.5556694,-0.4659271,-0.01951983
732.8286,0.03269688,-1.313624,0.5964396,-0.5575377,-0.4696412,-0.01950468
732.8432,0.03270873,-1.334393,0.5964659,-0.5593957,-0.4732485,-0.01948982
732.8599,0.03270873,-1.334393,0.5964659,-0.5593957,-0.4732485,-0.01948982
732.873,0.03272153,-1.355262,0.5963104,-0.5611851,-0.4766217,-0.0194758
732.8874,0.03273516,-1.376098,0.5959982,-0.5628948,-0.4797564,-0.01946267
732.9023,0.03288013,-1.384215,0.5884041,-0.5602532,-0.4726028,-0.01949186
732.9169,0.03288013,-1.384215,0.5884041,-0.5602532,-0.4726028,-0.01949186
732.931,0.03311719,-1.384482,0.5808571,-0.5565962,-0.4638006,-0.01952833
732.9465,0.03338649,-1.379909,0.5750237,-0.5529947,-0.4558885,-0.01956168
732.9612,0.0336422,-1.372381,0.5708285,-0.5497314,-0.4493031,-0.01958996
732.9762,0.0336422,-1.372381,0.5708285,-0.5497314,-0.4493031,-0.01958996
732.9902,0.03386773,-1.363073,0.5677923,-0.5468271,-0.4438406,-0.01961385
733.0057,0.03406411,-1.352711,0.5654701,-0.544227,-0.4391864,-0.01963451
733.0206,0.03423795,-1.341747,0.5635517,-0.5418655,-0.435078,-0.01965291
733.0353,0.03423795,-1.341747,0.5635517,-0.5418655,-0.435078,-0.01965291
733.0496,0.03439602,-1.33046,0.5693227,-0.5312489,-0.4379278,-0.03466873
733.0651,0.03454343,-1.319025,0.5726211,-0.5237378,-0.4389073,-0.04938979
733.0799,0.03454343,-1.319025,0.5726211,-0.5237378,-0.4389073,-0.04938979
733.0961,0.03468372,-1.307548,0.5746607,-0.5178214,-0.4388949,-0.06382222
733.1096,0.03481922,-1.296096,0.576092,-0.5127575,-0.4383964,-0.0779717
733.1244,0.0349514,-1.284711,0.5754851,-0.510047,-0.4361078,-0.08851846
733.1393,0.0349514,-1.284711,0.5754851,-0.510047,-0.4361078,-0.08851846
733.153,0.03508118,-1.273417,0.5753732,-0.5069834,-0.4342595,-0.0988583
733.1685,0.03520915,-1.262228,0.5755125,-0.503801,-0.432668,-0.1089952
733.1832,0.03533564,-1.251155,0.5757747,-0.500612,-0.4312314,-0.1189333
733.198,0.03533564,-1.251155,0.5757747,-0.500612,-0.4312314,-0.1189333
733.2122,0.03546087,-1.240202,0.5743193,-0.4993475,-0.4282963,-0.1253434
733.2276,0.03558498,-1.229371,0.5735231,-0.497495,-0.4259719,-0.1316276
733.2426,0.03570802,-1.218664,0.5730466,-0.4953927,-0.4239822,-0.1377884
733.2571,0.03570802,-1.218664,0.5730466,-0.4953927,-0.4239822,-0.1377884
733.2715,0.03583003,-1.20808,0.5709559,-0.4950889,-0.4205891,-0.1404953
733.2872,0.03595104,-1.197619,0.5695725,-0.4941179,-0.4178578,-0.1431488
733.3018,0.03607104,-1.187281,0.5685334,-0.4928459,-0.4154873,-0.1457502
733.3167,0.03607104,-1.187281,0.5685334,-0.4928459,-0.4154873,-0.1457502
733.3328,0.03619005,-1.177064,0.56766,-0.4914507,-0.4133216,-0.1483004
733.3463,0.03630803,-1.166967,0.565131,-0.4919115,-0.4097102,-0.1474674
733.3608,0.03642499,-1.156988,0.5632777,-0.4917136,-0.4067284,-0.1466506
733.3759,0.03642499,-1.156988,0.5632777,-0.4917136,-0.4067284,-0.1466506
733.3899,0.03654091,-1.147128,0.561762,-0.4912063,-0.4040955,-0.1458496
733.4053,0.03665579,-1.137383,0.5604169,-0.4905598,-0.4016654,-0.1450642
733.42,0.03676959,-1.127753,0.55747,-0.4917592,-0.3978315,-0.1409609
733.4348,0.03676959,-1.127753,0.55747,-0.4917592,-0.3978315,-0.1409609
733.449,0.03688233,-1.118237,0.5552011,-0.4922758,-0.3946249,-0.1369379
733.4645,0.03699398,-1.108833,0.5532787,-0.4924603,-0.3917706,-0.1329936
733.4792,0.03699398,-1.108833,0.5532787,-0.4924603,-0.3917706,-0.1329936
733.4937,0.03710453,-1.09954,0.5498922,-0.4943936,-0.3876362,-0.1257934
733.5092,0.03721397,-1.090357,0.5472222,-0.4955807,-0.3841645,-0.1187342
733.5241,0.0373223,-1.081282,0.5449228,-0.4963945,-0.3810672,-0.1118131
733.5388,0.0373223,-1.081282,0.5449228,-0.4963945,-0.3810672,-0.1118131
733.5527,0.03742951,-1.072315,0.5428233,-0.4970169,-0.3781949,-0.1050276
733.5693,0.03753558,-1.063453,0.5392645,-0.4994574,-0.374047,-0.09504186
733.5833,0.03764052,-1.054696,0.536377,-0.5011675,-0.3705156,-0.08525173
733.5978,0.03764052,-1.054696,0.536377,-0.5011675,-0.3705156,-0.08525173
733.6119,0.03774431,-1.046042,0.5338467,-0.5025026,-0.3673405,-0.07565337
733.6274,0.03784696,-1.037491,0.5315174,-0.5036364,-0.364386,-0.06624305
733.6422,0.03794845,-1.029041,0.5278113,-0.5065846,-0.3602302,-0.05368397
733.6568,0.03794845,-1.029041,0.5278113,-0.5065846,-0.3602302,-0.05368397
733.6708,0.03804878,-1.02069,0.5247617,-0.5087836,-0.3566726,-0.04137095
733.6863,0.03814796,-1.012439,0.5220678,-0.51059,-0.353466,-0.02929917
733.7012,0.03824598,-1.004285,0.5195798,-0.512178,-0.3504809,-0.01746392
733.7158,0.03824598,-1.004285,0.5195798,-0.512178,-0.3504809,-0.01746392
733.7299,0.03834283,-0.9962273,0.5158018,-0.5155739,-0.3463748,-0.002527446
733.7455,0.03843853,-0.9882652,0.5126616,-0.5182012,-0.3428459,0.01211634
733.7604,0.03853306,-0.9803972,0.5098723,-0.5204185,-0.3396601,0.02647319
733.7755,0.03853306,-0.9803972,0.5098723,-0.5204185,-0.3396601,0.02647319
733.7892,0.03862644,-0.9726223,0.5069677,-0.5228645,-0.3364062,0.04134079
733.8057,0.03871866,-0.9649395,0.5043232,-0.5250006,-0.333411,0.05591702
733.8203,0.03880973,-0.9573477,0.5018442,-0.5269506,-0.330593,0.0702076
733.8339,0.03880973,-0.9573477,0.5018442,-0.5269506,-0.330593,0.0702076
733.8481,0.03889965,-0.9498458,0.4994842,-0.5287753,-0.327909,0.08421811
733.8635,0.03898843,-0.9424327,0.4972202,-0.5305054,-0.3253355,0.09795403
733.8782,0.03898843,-0.9424327,0.4972202,-0.5305054,-0.3253355,0.09795403
733.8921,0.03907607,-0.9351075,0.4950409,-0.5321565,-0.3228599,0.1114207
733.9076,0.03916257,-0.927869,0.4929402,-0.5337371,-0.3204746,0.1246235
733.9222,0.03924794,-0.9207163,0.4909143,-0.5352521,-0.3181744,0.1375675
733.937,0.03924794,-0.9207163,0.4909143,-0.5352521,-0.3181744,0.1375675
733.951,0.03933218,-0.9136484,0.489255,-0.5362384,-0.3162165,0.1494658
733.9667,0.03941531,-0.9066643,0.4875554,-0.5373279,-0.3142458,0.1611308
733.9814,0.03949733,-0.899763,0.4858681,-0.5384414,-0.312302,0.1725672
733.9962,0.03949733,-0.899763,0.4858681,-0.5384414,-0.312302,0.1725672
734.0104,0.03957825,-0.8929435,0.4854271,-0.5375748,-0.3114738,0.1804462
734.0258,0.03965808,-0.8862049,0.4845898,-0.537366,-0.3103349,0.1881707
734.0405,0.03973682,-0.8795462,0.4835817,-0.5374635,-0.3090583,0.1957439
734.0562,0.03973682,-0.8795462,0.4835817,-0.5374635,-0.3090583,0.1957439
734.0702,0.03981447,-0.8729665,0.482516,-0.537697,-0.3077368,0.2031686
734.0848,0.03989106,-0.8664649,0.482639,-0.5360148,-0.3074714,0.2071145
734.0994,0.03989106,-0.8664649,0.482639,-0.5360148,-0.3074714,0.2071145
734.1133,0.03996658,-0.8600404,0.4823497,-0.5350371,-0.3068749,0.2109832
734.1287,0.04004104,-0.8536922,0.4818746,-0.5344009,-0.3061237,0.2147759
734.1434,0.04011446,-0.8474194,0.4813272,-0.5339295,-0.3053119,0.2184944
734.1583,0.04011446,-0.8474194,0.4813272,-0.5339295,-0.3053119,0.2184944
734.1724,0.04018684,-0.841221,0.4819513,-0.5315669,-0.3055414,0.2188067
734.1877,0.0402582,-0.8350962,0.4821534,-0.5299337,-0.3054299,0.2191129
734.2023,0.04032854,-0.8290441,0.482158,-0.5286653,-0.3051533,0.2194131
734.2173,0.04032854,-0.8290441,0.482158,-0.5286653,-0.3051533,0.2194131
734.2313,0.04039788,-0.8230639,0.4832772,-0.5256137,-0.3058701,0.2163742
734.2466,0.04046622,-0.8171548,0.4839377,-0.5233551,-0.3062112,0.2133948
734.2615,0.04053356,-0.8113158,0.4843785,-0.5215026,-0.3063651,0.2104739
734.2765,0.04053356,-0.8113158,0.4843785,-0.5215026,-0.3063651,0.2104739
734.2904,0.04059993,-0.8055462,0.4847194,-0.5198673,-0.3064322,0.2076102
734.3068,0.04066534,-0.7998451,0.4862417,-0.5163875,-0.3075553,0.2014695
734.3214,0.04072979,-0.7942118,0.4873154,-0.5136796,-0.3083115,0.1954491
734.335,0.04072979,-0.7942118,0.4873154,-0.5136796,-0.3083115,0.1954491
734.3492,0.04079329,-0.7886454,0.488169,-0.5113768,-0.3088815,0.1895468
734.3645,0.04085585,-0.7831452,0.4889174,-0.5092998,-0.3093613,0.1837602
734.3793,0.04085585,-0.7831452,0.4889174,-0.5092998,-0.3093613,0.1837602
734.3943,0.04091749,-0.7777104,0.4908759,-0.5053928,-0.3109293,0.1747539
734.4086,0.04097822,-0.7723402,0.4923691,-0.502272,-0.3121147,0.1659241
734.4233,0.04103804,-0.7670339,0.4936301,-0.4995715,-0.3131026,0.1572674
734.4379,0.04103804,-0.7670339,0.4936301,-0.4995715,-0.3131026,0.1572674
734.4517,0.04109697,-0.7617906,0.4960745,-0.495147,-0.3151602,0.1454472
734.4672,0.04115503,-0.7566097,0.4980108,-0.4915668,-0.3167933,0.1338588
734.4819,0.04121221,-0.7514904,0.4996917,-0.4884436,-0.3182051,0.1224975
734.4967,0.04121221,-0.7514904,0.4996917,-0.4884436,-0.3182051,0.1224975
734.5109,0.04126852,-0.746432,0.5012447,-0.4855875,-0.3195037,0.111359
734.5262,0.041324,-0.7414337,0.5040931,-0.4809439,-0.3219775,0.0971057
734.541,0.04137863,-0.736495,0.5064363,-0.4771171,-0.3240271,0.08313181
734.5557,0.04137863,-0.736495,0.5064363,-0.4771171,-0.3240271,0.08313181
734.572,0.04143244,-0.7316149,0.5085223,-0.4737406,-0.3258534,0.06943189
734.5861,0.04148542,-0.7267929,0.5104766,-0.4706344,-0.3275632,0.05600055
734.5999,0.04148542,-0.7267929,0.5104766,-0.4706344,-0.3275632,0.05600055
734.6139,0.04153761,-0.7220283,0.5137953,-0.4657584,-0.3305188,0.0395072
734.6292,0.041589,-0.7173204,0.5165834,-0.4617059,-0.3330247,0.02333719
734.6439,0.0416396,-0.7126685,0.5190996,-0.4581127,-0.3352926,0.007484172
734.6584,0.0416396,-0.7126685,0.5190996,-0.4581127,-0.3352926,0.007484172
734.6727,0.04168937,-0.7080719,0.5146789,-0.4635787,-0.3312075,0.00694109
734.6881,0.04173835,-0.7035301,0.5126696,-0.4661604,-0.329212,0.006408924
734.7026,0.04178657,-0.6990423,0.5117957,-0.4673375,-0.3282415,0.005887443
734.7171,0.04178657,-0.6990423,0.5117957,-0.4673375,-0.3282415,0.005887443
734.7314,0.04183405,-0.694608,0.5114532,-0.4678335,-0.3277833,0.005376368
734.7469,0.04188081,-0.6902264,0.5113525,-0.468002,-0.3275838,0.004875435
734.7614,0.04192685,-0.6858969,0.5113567,-0.4680153,-0.3275166,0.004384407
734.7764,0.04192685,-0.6858969,0.5113567,-0.4680153,-0.3275166,0.004384407
734.7904,0.04197218,-0.681619,0.5114023,-0.4679571,-0.327519,0.003903069
734.8057,0.04201681,-0.6773921,0.5114614,-0.4678682,-0.3275602,0.003431214
734.8203,0.04206075,-0.6732155,0.5115243,-0.4677688,-0.3276221,0.002968646
734.8361,0.04206075,-0.6732155,0.5115243,-0.4677688,-0.3276221,0.002968646
734.85,0.04210401,-0.6690886,0.5115881,-0.4676681,-0.3276994,0.002515184
734.8644,0.0421466,-0.6650109,0.511652,-0.4675703,-0.3277898,0.002070655
734.879,0.0421466,-0.6650109,0.511652,-0.4675703,-0.3277898,0.002070655
734.8931,0.04218853,-0.6609817,0.5115767,-0.4674391,-0.3281961,0.001635863
734.9085,0.04222981,-0.6570005,0.5112468,-0.4672949,-0.328723,0.001209905
734.923,0.04227044,-0.6530668,0.5106785,-0.4671519,-0.3292696,0.0007923612
734.9378,0.04227044,-0.6530668,0.5106785,-0.4671519,-0.3292696,0.0007923612
734.9516,0.04231045,-0.6491798,0.5099223,-0.4670162,-0.3298032,0.0003829903
734.9672,0.04234983,-0.6453392,0.5088915,-0.4668518,-0.3306212,-1.739411E-05
734.9818,0.0423886,-0.6415443,0.507512,-0.4666782,-0.3315305,-0.0004096767
734.9965,0.0423886,-0.6415443,0.507512,-0.4666782,-0.3315305,-0.0004096767
735.0105,0.04242676,-0.6377947,0.5058306,-0.4665091,-0.332435,-0.0007942518
735.026,0.04246433,-0.6340897,0.50392,-0.4663502,-0.333306,-0.001171341
735.041,0.04250132,-0.6304289,0.5017099,-0.4661642,-0.3344444,-0.001540093
735.0557,0.04250132,-0.6304289,0.5017099,-0.4661642,-0.3344444,-0.001540093
735.0697,0.04253772,-0.6268116,0.4991368,-0.4659706,-0.3356599,-0.001901377
735.0848,0.04257356,-0.6232375,0.4962545,-0.4657827,-0.3368581,-0.002255582
735.1005,0.04260883,-0.6197059,0.4931404,-0.465606,-0.3380118,-0.002602907
735.1144,0.04260883,-0.6197059,0.4931404,-0.465606,-0.3380118,-0.002602907
735.1285,0.04264356,-0.6162164,0.4897286,-0.4654029,-0.3394226,-0.002942473
735.1437,0.04267775,-0.6127685,0.4859575,-0.4651925,-0.3409014,-0.003275153
735.1583,0.04267775,-0.6127685,0.4859575,-0.4651925,-0.3409014,-0.003275153
735.1724,0.0427114,-0.6093617,0.4818823,-0.4649884,-0.3423543,-0.003601321
735.1877,0.04274452,-0.6059955,0.4774464,-0.4647563,-0.3440582,-0.003920136
735.202,0.04277713,-0.6026694,0.4726039,-0.4645174,-0.345817,-0.004232496
735.2169,0.04277713,-0.6026694,0.4726039,-0.4645174,-0.345817,-0.004232496
735.2309,0.04280923,-0.5993829,0.4674247,-0.4642858,-0.3475361,-0.004538762
735.2465,0.04284082,-0.5961356,0.4619985,-0.4640672,-0.3491896,-0.004839117
735.261,0.04287192,-0.592927,0.4562705,-0.463823,-0.3510797,-0.005132623
735.2761,0.04287192,-0.592927,0.4562705,-0.463823,-0.3510797,-0.005132623
735.29,0.04290254,-0.5897567,0.4501864,-0.4635726,-0.3530199,-0.005420159
735.3055,0.04293267,-0.5866241,0.4438049,-0.4633294,-0.3549182,-0.005702079
735.3204,0.04296234,-0.5835289,0.4372069,-0.4630992,-0.3567488,-0.00597856
735.335,0.04296234,-0.5835289,0.4372069,-0.4630992,-0.3567488,-0.00597856
735.3491,0.04299154,-0.5804706,0.4303317,-0.4628428,-0.3588122,-0.00624864
735.3655,0.04302029,-0.5774487,0.4231203,-0.4625795,-0.3609222,-0.0065132
735.3793,0.04302029,-0.5774487,0.4231203,-0.4625795,-0.3609222,-0.0065132
735.3933,0.04304858,-0.5744628,0.4156276,-0.4623234,-0.3629865,-0.006772596
735.4089,0.04307643,-0.5715126,0.4078002,-0.4620388,-0.3652798,-0.007025904
735.4235,0.04310385,-0.5685975,0.3995929,-0.4617473,-0.3676091,-0.007274044
735.4381,0.04310385,-0.5685975,0.3995929,-0.4617473,-0.3676091,-0.007274044
735.4521,0.04313084,-0.5657172,0.3910745,-0.4614637,-0.3698809,-0.007517362
735.4677,0.04315741,-0.5628712,0.3823334,-0.4611942,-0.3720698,-0.007756019
735.4821,0.04318357,-0.5600591,0.3733175,-0.4608984,-0.3744749,-0.007988982
735.4971,0.04318357,-0.5600591,0.3733175,-0.4608984,-0.3744749,-0.007988982
735.511,0.04320931,-0.5572805,0.3639728,-0.4605961,-0.3769131,-0.00821717
735.5264,0.04323466,-0.5545352,0.3543572,-0.4603017,-0.3792936,-0.008440916
735.5411,0.04325961,-0.5518225,0.3445497,-0.4600211,-0.3815911,-0.008660374
735.5562,0.04325961,-0.5518225,0.3445497,-0.4600211,-0.3815911,-0.008660374
735.5701,0.04328417,-0.5491421,0.3344921,-0.4597133,-0.3841024,-0.008874492
735.5853,0.04330834,-0.5464937,0.3241262,-0.4593983,-0.3866449,-0.00908419
735.6002,0.04333214,-0.5438769,0.3135055,-0.4590909,-0.3891278,-0.009289812
735.616,0.04333214,-0.5438769,0.3135055,-0.4590909,-0.3891278,-0.009289812
735.6303,0.04335558,-0.5412913,0.3025782,-0.4587537,-0.3918219,-0.009490345
735.6443,0.04337864,-0.5387365,0.2913,-0.4584091,-0.3945381,-0.009686753
735.6589,0.04337864,-0.5387365,0.2913,-0.4584091,-0.3945381,-0.009686753
735.673,0.04340135,-0.5362122,0.2797377,-0.4580728,-0.3971842,-0.009879365
735.6885,0.04342371,-0.533718,0.267978,-0.4577515,-0.3997352,-0.01006831
735.703,0.04344572,-0.5312535,0.2559704,-0.4574027,-0.4024854,-0.01025249
735.7177,0.04344572,-0.5312535,0.2559704,-0.4574027,-0.4024854,-0.01025249
735.7318,0.04346738,-0.5288184,0.2436623,-0.457047,-0.405256,-0.01043285
735.7472,0.04348871,-0.5264124,0.23111,-0.4566995,-0.4079578,-0.01060973
735.7621,0.04350971,-0.524035,0.2183907,-0.4563667,-0.4105657,-0.01078325
735.7771,0.04350971,-0.524035,0.2183907,-0.4563667,-0.4105657,-0.01078325
735.7908,0.04353039,-0.521686,0.2055736,-0.4560506,-0.4130787,-0.01095347
735.8066,0.04355074,-0.519365,0.192713,-0.4557512,-0.4155029,-0.01112045
735.8212,0.04357078,-0.5170716,0.1798487,-0.4554677,-0.417846,-0.01128423
735.8361,0.04357078,-0.5170716,0.1798487,-0.4554677,-0.417846,-0.01128423
735.85,0.0435905,-0.5148056,0.1670087,-0.455199,-0.4201147,-0.01144485
735.8663,0.04360992,-0.5125667,0.1542125,-0.4549442,-0.4223148,-0.01160236
735.8804,0.04362904,-0.5103544,0.1414733,-0.4547024,-0.4244506,-0.01175683
735.8949,0.04362904,-0.5103544,0.1414733,-0.4547024,-0.4244506,-0.01175683
735.909,0.04364786,-0.5081685,0.1288,-0.4544728,-0.4265258,-0.01190829
735.9242,0.04366639,-0.5060087,0.1161983,-0.4542547,-0.4285432,-0.01205681
735.9389,0.04366639,-0.5060087,0.1161983,-0.4542547,-0.4285432,-0.01205681
735.9528,0.04368464,-0.5038747,0.1036719,-0.4540479,-0.430505,-0.01220244
735.9683,0.04370259,-0.5017661,0.09122304,-0.4538516,-0.4324133,-0.01234524
735.9831,0.04372028,-0.4996826,0.07885309,-0.4536657,-0.4342697,-0.01248526
735.9978,0.04372028,-0.4996826,0.07885309,-0.4536657,-0.4342697,-0.01248526
736.0119,0.04373769,-0.497624,0.06656272,-0.4534897,-0.4360757,-0.01262256
736.0274,0.04375483,-0.49559,0.05435213,-0.4533234,-0.4378327,-0.01275719
736.0422,0.0437717,-0.4935802,0.04222128,-0.4531664,-0.4395418,-0.0128892
736.0571,0.0437717,-0.4935802,0.04222128,-0.4531664,-0.4395418,-0.0128892
736.071,0.04378832,-0.4915944,0.0301699,-0.4530184,-0.4412042,-0.01301865
736.0867,0.04380468,-0.4896323,0.01819762,-0.4528793,-0.4428211,-0.01314558
736.1014,0.04382078,-0.4876935,0.006303969,-0.4527488,-0.4443934,-0.01327006
736.117,0.04382078,-0.4876935,0.006303969,-0.4527488,-0.4443934,-0.01327006
736.131,0.04383663,-0.4857779,-0.005511568,-0.4526266,-0.4459222,-0.01339212
736.1455,0.04385224,-0.4838852,-0.01724954,-0.4525125,-0.4474083,-0.0135118
736.1602,0.04386761,-0.482015,-0.0289105,-0.4524063,-0.4488529,-0.01362917
736.1749,0.04386761,-0.482015,-0.0289105,-0.4524063,-0.4488529,-0.01362917
736.189,0.04388275,-0.4801671,-0.04049502,-0.4523078,-0.4502566,-0.01374427
736.2042,0.04389764,-0.4783413,-0.05200366,-0.4522167,-0.4516205,-0.01385713
736.2189,0.04389764,-0.4783413,-0.05200366,-0.4522167,-0.4516205,-0.01385713
736.233,0.04391231,-0.4765372,-0.06343699,-0.4521329,-0.4529454,-0.01396782
736.249,0.04392675,-0.4747547,-0.07479558,-0.4520561,-0.4542322,-0.01407637
736.2633,0.04394097,-0.4729934,-0.08607997,-0.4519861,-0.4554815,-0.01418281
736.2781,0.04394097,-0.4729934,-0.08607997,-0.4519861,-0.4554815,-0.01418281
736.2922,0.04395497,-0.4712531,-0.09729071,-0.4519228,-0.4566942,-0.01428721
736.3078,0.04396876,-0.4695336,-0.1084283,-0.4518659,-0.4578712,-0.01438958
736.3227,0.04398233,-0.4678346,-0.1194934,-0.4518153,-0.4590131,-0.01448999
736.3373,0.04398233,-0.4678346,-0.1194934,-0.4518153,-0.4590131,-0.01448999
736.3512,0.04399569,-0.4661559,-0.1304863,-0.4517707,-0.4601206,-0.01458846
736.3677,0.04400885,-0.4644971,-0.1414077,-0.451732,-0.4611945,-0.01468503
736.3816,0.0440218,-0.4628582,-0.1522579,-0.4516991,-0.4622355,-0.01477974
736.3961,0.0440218,-0.4628582,-0.1522579,-0.4516991,-0.4622355,-0.01477974
736.4102,0.04403456,-0.4612389,-0.1630377,-0.4516717,-0.4632443,-0.01487263
736.4256,0.04404711,-0.4596388,-0.1737473,-0.4516496,-0.4642215,-0.01496374
736.4405,0.04405948,-0.4580579,-0.1843872,-0.4516328,-0.4651677,-0.0150531
736.4549,0.04405948,-0.4580579,-0.1843872,-0.4516328,-0.4651677,-0.0150531
736.4689,0.04407165,-0.4564957,-0.194958,-0.451621,-0.4660836,-0.01514074
736.4844,0.04408364,-0.4549523,-0.2054601,-0.4516141,-0.4669699,-0.0152267
736.4997,0.04408364,-0.4549523,-0.2054601,-0.4516141,-0.4669699,-0.0152267
736.5134,0.04409544,-0.4534272,-0.2158939,-0.451612,-0.467827,-0.01531102
736.5319,0.04410706,-0.4519204,-0.2262599,-0.4516144,-0.4686557,-0.01539371
736.5453,0.0441185,-0.4504315,-0.2365585,-0.4516213,-0.4694564,-0.01547483
736.5583,0.0441185,-0.4504315,-0.2365585,-0.4516213,-0.4694564,-0.01547483
736.5732,0.04412977,-0.4489603,-0.2467901,-0.4516324,-0.4702298,-0.0155544
736.5881,0.04414086,-0.4475068,-0.2569552,-0.4516478,-0.4709764,-0.01563244
736.6027,0.04415178,-0.4460705,-0.2670541,-0.4516671,-0.4716967,-0.015709
736.6184,0.04415178,-0.4460705,-0.2670541,-0.4516671,-0.4716967,-0.015709
736.6326,0.04416254,-0.4446514,-0.2770874,-0.4516903,-0.4723912,-0.0157841
736.647,0.04417313,-0.4432493,-0.2870553,-0.4517173,-0.4730605,-0.01585777
736.6615,0.04418355,-0.4418638,-0.2969582,-0.451748,-0.4737051,-0.01593003
736.6764,0.04418355,-0.4418638,-0.2969582,-0.451748,-0.4737051,-0.01593003
736.6904,0.04419382,-0.4404949,-0.3067966,-0.4517821,-0.4743255,-0.01600092
736.7057,0.04420393,-0.4391423,-0.3165709,-0.4518196,-0.474922,-0.01607045
736.7204,0.04421388,-0.4378059,-0.3262814,-0.4518604,-0.4754953,-0.01613868
736.7352,0.04421388,-0.4378059,-0.3262814,-0.4518604,-0.4754953,-0.01613868
736.7492,0.04422368,-0.4364854,-0.3359284,-0.4519043,-0.4760457,-0.01620561
736.7648,0.04423333,-0.4351806,-0.3455125,-0.4519513,-0.4765738,-0.01627126
736.7796,0.04423333,-0.4351806,-0.3455125,-0.4519513,-0.4765738,-0.01627126
736.7935,0.04424283,-0.4338914,-0.3550338,-0.4520012,-0.4770799,-0.01633568
736.8098,0.04425218,-0.4326176,-0.3644929,-0.452054,-0.4775644,-0.01639887
736.8241,0.0442614,-0.431359,-0.37389,-0.4521094,-0.4780279,-0.01646088
736.8391,0.0442614,-0.431359,-0.37389,-0.4521094,-0.4780279,-0.01646088
736.8552,0.04427047,-0.4301154,-0.3832255,-0.4521675,-0.4784707,-0.01652171
736.8693,0.0442794,-0.4288867,-0.3924997,-0.4522281,-0.4788932,-0.01658139
736.8831,0.04428819,-0.4276726,-0.401713,-0.4522912,-0.4792958,-0.01663995
736.8979,0.04428819,-0.4276726,-0.401713,-0.4522912,-0.4792958,-0.01663995
736.9117,0.04429685,-0.426473,-0.4108657,-0.4523566,-0.4796789,-0.01669741
736.9272,0.04430537,-0.4252877,-0.4199582,-0.4524242,-0.4800429,-0.01675378
736.942,0.04431377,-0.4241165,-0.4289907,-0.452494,-0.4803881,-0.0168091
736.9567,0.04431377,-0.4241165,-0.4289907,-0.452494,-0.4803881,-0.0168091
736.9706,0.04432203,-0.4229594,-0.4379637,-0.4525659,-0.480715,-0.01686337
736.986,0.04433017,-0.421816,-0.4468774,-0.4526398,-0.4810238,-0.01691663
737.0008,0.04433819,-0.4206863,-0.4557322,-0.4527156,-0.481315,-0.0169689
737.0156,0.04433819,-0.4206863,-0.4557322,-0.4527156,-0.481315,-0.0169689
737.0298,0.04434608,-0.41957,-0.4645283,-0.4527932,-0.4815888,-0.01702018
737.0451,0.04435385,-0.4184671,-0.4732662,-0.4528726,-0.4818457,-0.01707051
737.0599,0.04435385,-0.4184671,-0.4732662,-0.4528726,-0.4818457,-0.01707051
737.0743,0.0443615,-0.4173774,-0.481946,-0.4529537,-0.4820859,-0.0171199
737.0897,0.04436903,-0.4163006,-0.4905681,-0.4530363,-0.4823097,-0.01716837
737.1055,0.04437645,-0.4152367,-0.4991329,-0.4531206,-0.4825175,-0.01721594
737.119,0.04437645,-0.4152367,-0.4991329,-0.4531206,-0.4825175,-0.01721594
737.1332,0.04438375,-0.4141855,-0.5076405,-0.4532062,-0.4827096,-0.01726262
737.1486,0.04439095,-0.4131468,-0.5160915,-0.4532933,-0.4828863,-0.01730844
737.1633,0.04439803,-0.4121205,-0.5244859,-0.4533818,-0.483048,-0.0173534
737.178,0.04439803,-0.4121205,-0.5244859,-0.4533818,-0.483048,-0.0173534
737.192,0.044405,-0.4111065,-0.5328242,-0.4534715,-0.4831948,-0.01739753
737.2075,0.04441187,-0.4101046,-0.5411065,-0.4535624,-0.4833271,-0.01744084
737.2223,0.04441863,-0.4091146,-0.5493333,-0.4536545,-0.4834451,-0.01748336
737.2371,0.04441863,-0.4091146,-0.5493333,-0.4536545,-0.4834451,-0.01748336
737.2511,0.04442529,-0.4081364,-0.5575048,-0.4537477,-0.4835492,-0.01752508
737.2667,0.04443184,-0.4071699,-0.5656214,-0.4538419,-0.4836396,-0.01756604
737.2813,0.04443829,-0.406215,-0.5736832,-0.4539372,-0.4837166,-0.01760624
737.2968,0.04443829,-0.406215,-0.5736832,-0.4539372,-0.4837166,-0.01760624
737.3107,0.04444465,-0.4052714,-0.5816905,-0.4540333,-0.4837805,-0.0176457
737.3258,0.04445091,-0.4043391,-0.5896438,-0.4541304,-0.4838315,-0.01768444
737.3406,0.04445707,-0.4034179,-0.5975431,-0.4542283,-0.4838699,-0.01772248
737.3565,0.04445707,-0.4034179,-0.5975431,-0.4542283,-0.4838699,-0.01772248
737.3705,0.04446313,-0.4025077,-0.6053889,-0.454327,-0.4838959,-0.01775981
737.3847,0.0444691,-0.4016084,-0.6131814,-0.4544265,-0.4839098,-0.01779646
737.3995,0.0444691,-0.4016084,-0.6131814,-0.4544265,-0.4839098,-0.01779646
737.4134,0.04447499,-0.4007198,-0.6209208,-0.4545266,-0.4839118,-0.01783244
737.4289,0.04448078,-0.3998418,-0.6286075,-0.4546275,-0.4839022,-0.01786777
737.4437,0.04448648,-0.3989742,-0.6362416,-0.4547289,-0.4838811,-0.01790245
737.4581,0.04448648,-0.3989742,-0.6362416,-0.4547289,-0.4838811,-0.01790245
737.4725,0.0444921,-0.3981171,-0.6438236,-0.4548309,-0.4838488,-0.0179365
737.488,0.04449762,-0.3972701,-0.6513536,-0.4549334,-0.4838057,-0.01796993
737.5026,0.04450307,-0.3964333,-0.658832,-0.4550365,-0.4837517,-0.01800275
737.5174,0.04450307,-0.3964333,-0.658832,-0.4550365,-0.4837517,-0.01800275
737.5316,0.04450843,-0.3956064,-0.6662589,-0.45514,-0.4836873,-0.01803498
737.5472,0.04451371,-0.3947894,-0.6736348,-0.4552439,-0.4836126,-0.01806663
737.5619,0.0445189,-0.3939822,-0.6809597,-0.4553482,-0.4835278,-0.0180977
737.5767,0.0445189,-0.3939822,-0.6809597,-0.4553482,-0.4835278,-0.0180977
737.593,0.04452402,-0.3931846,-0.6882341,-0.4554529,-0.4834331,-0.01812822
737.6074,0.04452905,-0.3923965,-0.6954581,-0.4555579,-0.4833287,-0.01815818
737.6208,0.04453401,-0.3916178,-0.7026321,-0.4556631,-0.4832149,-0.0181876
737.6356,0.04453401,-0.3916178,-0.7026321,-0.4556631,-0.4832149,-0.0181876
737.6495,0.0445389,-0.3908485,-0.7097563,-0.4557686,-0.4830918,-0.0182165
737.6646,0.04454371,-0.3900883,-0.7168308,-0.4558744,-0.4829597,-0.01824488
737.6794,0.04454371,-0.3900883,-0.7168308,-0.4558744,-0.4829597,-0.01824488
737.6935,0.04454844,-0.3893371,-0.7238561,-0.4559804,-0.4828185,-0.01827275
737.7089,0.0445531,-0.388595,-0.7308322,-0.4560866,-0.4826685,-0.01830013
737.7235,0.04455769,-0.3878616,-0.7377594,-0.4561929,-0.4825101,-0.01832702
737.7383,0.04455769,-0.3878616,-0.7377594,-0.4561929,-0.4825101,-0.01832702
737.7524,0.04456221,-0.3871371,-0.7446379,-0.4562994,-0.4823433,-0.01835342
737.7681,0.04456666,-0.3864212,-0.7513462,-0.4564568,-0.4818768,-0.01838076
737.7825,0.04457103,-0.3857138,-0.7577747,-0.456641,-0.4812906,-0.01840788
737.7974,0.04457103,-0.3857138,-0.7577747,-0.456641,-0.4812906,-0.01840788
737.8115,0.04457534,-0.3850149,-0.7639334,-0.4568334,-0.4806815,-0.01843452
737.8271,0.04457959,-0.3843243,-0.7698661,-0.4570255,-0.4800827,-0.01846061
737.842,0.04458376,-0.3836419,-0.7754968,-0.4572646,-0.4792098,-0.01848754
737.858,0.04458376,-0.3836419,-0.7754968,-0.4572646,-0.4792098,-0.01848754
737.8707,0.04458787,-0.3829677,-0.7807536,-0.4575256,-0.4782427,-0.0185142
737.8862,0.04459192,-0.3823015,-0.7856761,-0.4577902,-0.4772751,-0.01854033
737.9008,0.0445959,-0.3816433,-0.7903295,-0.4580503,-0.4763366,-0.01856588
737.9155,0.0445959,-0.3816433,-0.7903295,-0.4580503,-0.4763366,-0.01856588
737.9298,0.04459982,-0.3809929,-0.7946525,-0.4583536,-0.4751381,-0.01859224
737.945,0.04460368,-0.3803503,-0.7985833,-0.4586757,-0.4738584,-0.01861831
737.9597,0.04460368,-0.3803503,-0.7985833,-0.4586757,-0.4738584,-0.01861831
737.9738,0.04460747,-0.3797154,-0.802169,-0.4589984,-0.4725897,-0.01864384
737.9896,0.04461121,-0.379088,-0.8053567,-0.4593648,-0.4710647,-0.01867017
738.0042,0.04461489,-0.3784682,-0.8080999,-0.4597479,-0.4694704,-0.01869617
738.0186,0.04461489,-0.3784682,-0.8080999,-0.4597479,-0.4694704,-0.01869617
738.0326,0.0446185,-0.3778557,-0.8104604,-0.4601291,-0.4679008,-0.0187216
738.0483,0.04462206,-0.3772505,-0.8125211,-0.4605007,-0.4663835,-0.0187464
738.0632,0.04462557,-0.3766526,-0.8142323,-0.4609106,-0.4646235,-0.01877199
738.0778,0.04462557,-0.3766526,-0.8142323,-0.4609106,-0.4646235,-0.01877199
738.094,0.04462902,-0.3760618,-0.8155398,-0.4613345,-0.4628001,-0.01879727
738.1088,0.04463241,-0.3754781,-0.8164969,-0.461755,-0.4610052,-0.01882199
738.1221,0.04463575,-0.3749013,-0.8171796,-0.462165,-0.4592663,-0.01884612
738.1368,0.04463575,-0.3749013,-0.8171796,-0.462165,-0.4592663,-0.01884612
738.1508,0.04463904,-0.3743314,-0.8175318,-0.462612,-0.4572857,-0.01887101
738.166,0.04464227,-0.3737683,-0.8174937,-0.4630717,-0.4552456,-0.01889561
738.1808,0.04464545,-0.3732119,-0.8171162,-0.4635269,-0.453239,-0.01891966
738.1957,0.04464545,-0.3732119,-0.8171162,-0.4635269,-0.453239,-0.01891966
738.2098,0.04464858,-0.3726622,-0.8163477,-0.4640198,-0.4509908,-0.01894446
738.2249,0.04465166,-0.372119,-0.8151407,-0.464524,-0.4486928,-0.01896894
738.2399,0.04465166,-0.372119,-0.8151407,-0.464524,-0.4486928,-0.01896894
738.2538,0.04465469,-0.3715823,-0.8135597,-0.4650215,-0.4464403,-0.01899283
738.2693,0.04465767,-0.371052,-0.8116902,-0.4655051,-0.4442607,-0.01901611
738.284,0.0446606,-0.3705281,-0.8094818,-0.4660216,-0.4418502,-0.01904011
738.2989,0.0446606,-0.3705281,-0.8094818,-0.4660216,-0.4418502,-0.01904011
738.3129,0.04466349,-0.3700104,-0.8068779,-0.4665471,-0.4393939,-0.01906379
738.3285,0.04466632,-0.3694988,-0.8039336,-0.4670648,-0.4369855,-0.01908693
738.3444,0.04466911,-0.3689934,-0.8007272,-0.467568,-0.4346522,-0.01910945
738.3581,0.04466911,-0.3689934,-0.8007272,-0.467568,-0.4346522,-0.01910945
738.3723,0.04467185,-0.3684941,-0.7972014,-0.4681029,-0.4320873,-0.01913269
738.3876,0.04467455,-0.3680007,-0.7932936,-0.4686459,-0.4294792,-0.01915563
738.402,0.0446772,-0.3675131,-0.7890564,-0.4691802,-0.4269231,-0.01917802
738.4169,0.0446772,-0.3675131,-0.7890564,-0.4691802,-0.4269231,-0.01917802
738.431,0.04467981,-0.3670314,-0.7844374,-0.469747,-0.4241346,-0.0192011
738.4464,0.04468237,-0.3665555,-0.779387,-0.4703203,-0.4213125,-0.01922385
738.4611,0.04468489,-0.3660852,-0.7739717,-0.470883,-0.4185541,-0.01924602
738.476,0.04468489,-0.3660852,-0.7739717,-0.470883,-0.4185541,-0.01924602
738.4907,0.04468738,-0.3656206,-0.7682802,-0.4714284,-0.4158867,-0.01926756
738.5059,0.04468981,-0.3651614,-0.7622609,-0.4720017,-0.4129959,-0.01928975
738.5204,0.04469221,-0.3647078,-0.7558542,-0.4725795,-0.4100744,-0.01931164
738.5353,0.04469221,-0.3647078,-0.7558542,-0.4725795,-0.4100744,-0.01931164
738.5497,0.04469456,-0.3642596,-0.7491176,-0.473146,-0.407218,-0.01933296
738.5651,0.04469688,-0.3638167,-0.7421319,-0.4736948,-0.4044538,-0.01935367
738.5825,0.04469915,-0.3633792,-0.7348093,-0.4744881,-0.401507,-0.01937588
738.5956,0.04469915,-0.3633792,-0.7348093,-0.4744881,-0.401507,-0.01937588
738.6088,0.04470139,-0.3629468,-0.7271181,-0.4754086,-0.3985325,-0.01939741
738.6241,0.0447036,-0.3625196,-0.7191181,-0.4763725,-0.3956155,-0.01941823
738.639,0.0447036,-0.3625196,-0.7191181,-0.4763725,-0.3956155,-0.01941823
738.6532,0.04470576,-0.3620975,-0.7108848,-0.4773415,-0.3927833,-0.01943837
738.6683,0.04470789,-0.3616805,-0.7024855,-0.4782983,-0.3900401,-0.0194579
738.6832,0.04470998,-0.3612684,-0.6939734,-0.4792361,-0.3873822,-0.01947684
738.6981,0.04470998,-0.3612684,-0.6939734,-0.4792361,-0.3873822,-0.01947684
738.7121,0.04471203,-0.3608613,-0.6853884,-0.4801524,-0.3848038,-0.01949524
738.7277,0.04471405,-0.360459,-0.6767593,-0.4810469,-0.3822995,-0.01951314
738.7429,0.04471603,-0.3600615,-0.6681068,-0.4819199,-0.3798643,-0.01953055
738.7576,0.04471603,-0.3600615,-0.6681068,-0.4819199,-0.3798643,-0.01953055
738.7717,0.04471799,-0.3596688,-0.6594456,-0.482772,-0.3774946,-0.0195475
738.7874,0.0447199,-0.3592808,-0.6507861,-0.4836039,-0.3751874,-0.01956401
738.8016,0.04472179,-0.3588974,-0.6421358,-0.4844164,-0.3729403,-0.01958008
738.8177,0.04472179,-0.3588974,-0.6421358,-0.4844164,-0.3729403,-0.01958008
738.8318,0.04472364,-0.3585185,-0.6335002,-0.48521,-0.3707514,-0.01959574
738.8465,0.04472546,-0.3581443,-0.6248834,-0.4859853,-0.3686192,-0.01961098
738.8611,0.04472725,-0.3577744,-0.6162885,-0.4867428,-0.3665422,-0.01962584
738.8762,0.04472725,-0.3577744,-0.6162885,-0.4867428,-0.3665422,-0.01962584
738.8903,0.04472901,-0.357409,-0.6077179,-0.4874829,-0.3645192,-0.0196403
738.9053,0.04473073,-0.357048,-0.5991737,-0.4882061,-0.3625492,-0.0196544
738.92,0.04473243,-0.3566912,-0.5906574,-0.4889127,-0.3606313,-0.01966812
