JMolnar6/NonAnthroHands_User_Study/HandsLoggerWithURDF/tempdata/PID 0 (test)/files/Reachy_PID0_JointMotion_gesture_7_5.csv
Time,r_shoulder,r_shoulder_x,r_upper_arm,r_forearm,r_wrist,r_wrist2hand,
594.3119,-0.1175299,-0.3272554,0.4648861,-2.142128,-0.3570985,-0.01928557
594.327,-0.1176611,-0.327254,0.464897,-2.142208,-0.3571169,-0.01929971
594.3417,-0.1177907,-0.3272527,0.4649078,-2.142287,-0.3571349,-0.01931358
594.3569,-0.1177907,-0.3272527,0.4649078,-2.142287,-0.3571349,-0.01931358
594.3709,-0.1179189,-0.3272513,0.4649183,-2.142364,-0.3571526,-0.01932717
594.386,-0.1180456,-0.3272499,0.4649285,-2.142441,-0.3571699,-0.01934049
594.4017,-0.1181708,-0.3272486,0.4649385,-2.142518,-0.3571869,-0.01935356
594.4157,-0.1181708,-0.3272486,0.4649385,-2.142518,-0.3571869,-0.01935356
594.4296,-0.1182946,-0.3272473,0.4649483,-2.142593,-0.3572036,-0.01936637
594.4448,-0.1184169,-0.327246,0.4649578,-2.142668,-0.35722,-0.01937893
594.4596,-0.1184169,-0.327246,0.4649578,-2.142668,-0.35722,-0.01937893
594.4735,-0.1185379,-0.3272447,0.4649672,-2.142742,-0.3572361,-0.01939124
594.489,-0.1186574,-0.3272434,0.4649763,-2.142815,-0.3572518,-0.0194033
594.5036,-0.1187756,-0.3272422,0.4649852,-2.142887,-0.3572673,-0.01941514
594.5181,-0.1187756,-0.3272422,0.4649852,-2.142887,-0.3572673,-0.01941514
594.5322,-0.1188924,-0.3272409,0.4649939,-2.142959,-0.3572825,-0.01942673
594.5476,-0.1190079,-0.3272397,0.4650024,-2.14303,-0.3572974,-0.0194381
594.5623,-0.1191221,-0.3272384,0.4650107,-2.1431,-0.357312,-0.01944925
594.5772,-0.1191221,-0.3272384,0.4650107,-2.1431,-0.357312,-0.01944925
594.5911,-0.1192349,-0.3272372,0.4650187,-2.14317,-0.3573264,-0.01946018
594.6064,-0.1193464,-0.327236,0.4650266,-2.143238,-0.3573405,-0.0194709
594.6211,-0.1194566,-0.3272348,0.4650343,-2.143306,-0.3573543,-0.0194814
594.636,-0.1194566,-0.3272348,0.4650343,-2.143306,-0.3573543,-0.0194814
594.65,-0.1195656,-0.3272337,0.4650418,-2.143374,-0.3573679,-0.0194917
594.6663,-0.1196733,-0.3272325,0.4650492,-2.14344,-0.3573812,-0.0195018
594.6801,-0.1197798,-0.3272313,0.4650563,-2.143507,-0.3573943,-0.0195117
594.6948,-0.1197798,-0.3272313,0.4650563,-2.143507,-0.3573943,-0.0195117
594.7089,-0.1198851,-0.3272302,0.4650633,-2.143572,-0.3574071,-0.0195214
594.7239,-0.1199891,-0.3272291,0.4650701,-2.143636,-0.3574197,-0.01953091
594.7386,-0.1199891,-0.3272291,0.4650701,-2.143636,-0.3574197,-0.01953091
594.7527,-0.1200919,-0.327228,0.4650767,-2.1437,-0.3574321,-0.01954023
594.7681,-0.1201936,-0.3272269,0.4650832,-2.143764,-0.3574442,-0.01954937
594.7827,-0.1202941,-0.3272258,0.4650894,-2.143826,-0.3574561,-0.01955833
594.7974,-0.1202941,-0.3272258,0.4650894,-2.143826,-0.3574561,-0.01955833
594.8115,-0.1203934,-0.3272247,0.4650955,-2.143888,-0.3574678,-0.01956712
594.827,-0.1204916,-0.3272236,0.4651015,-2.14395,-0.3574793,-0.01957574
594.8419,-0.1205886,-0.3272226,0.4651073,-2.14401,-0.3574905,-0.01958418
594.8566,-0.1205886,-0.3272226,0.4651073,-2.14401,-0.3574905,-0.01958418
594.8707,-0.1206846,-0.3272215,0.465113,-2.14407,-0.3575016,-0.01959247
594.8864,-0.1207794,-0.3272205,0.4651185,-2.14413,-0.3575124,-0.01960058
594.9007,-0.1208731,-0.3272195,0.4651239,-2.144188,-0.3575231,-0.01960854
594.9176,-0.1208731,-0.3272195,0.4651239,-2.144188,-0.3575231,-0.01960854
594.9306,-0.1209658,-0.3272184,0.4651291,-2.144247,-0.3575336,-0.01961634
594.9451,-0.1210574,-0.3272174,0.4651341,-2.144304,-0.3575439,-0.01962399
594.9598,-0.1210574,-0.3272174,0.4651341,-2.144304,-0.3575439,-0.01962399
594.9739,-0.1211479,-0.3272164,0.4651391,-2.144361,-0.357554,-0.01963149
594.9894,-0.1212374,-0.3272155,0.4651439,-2.144417,-0.3575639,-0.01963884
595.0038,-0.1213259,-0.3272145,0.4651485,-2.144473,-0.3575736,-0.01964604
595.0184,-0.1213259,-0.3272145,0.4651485,-2.144473,-0.3575736,-0.01964604
595.0327,-0.1214133,-0.3272135,0.465153,-2.144528,-0.3575831,-0.01965311
595.0482,-0.1214997,-0.3272126,0.4651574,-2.144583,-0.3575925,-0.01966004
595.0627,-0.1215852,-0.3272116,0.4651617,-2.144637,-0.3576017,-0.01966682
595.0771,-0.1215852,-0.3272116,0.4651617,-2.144637,-0.3576017,-0.01966682
595.0914,-0.1216696,-0.3272107,0.4651659,-2.14469,-0.3576108,-0.01967348
595.1069,-0.1217531,-0.3272098,0.4651699,-2.144743,-0.3576196,-0.01968
595.1216,-0.1218356,-0.3272088,0.4651738,-2.144796,-0.3576284,-0.0196864
595.1364,-0.1218356,-0.3272088,0.4651738,-2.144796,-0.3576284,-0.0196864
595.1505,-0.1219172,-0.327208,0.4651776,-2.144847,-0.3576369,-0.01969267
595.1659,-0.1219978,-0.3272071,0.4651812,-2.144899,-0.3576453,-0.01969882
595.1816,-0.1220775,-0.3272062,0.4651848,-2.144949,-0.3576536,-0.01970484
595.1954,-0.1220775,-0.3272062,0.4651848,-2.144949,-0.3576536,-0.01970484
595.2095,-0.1221563,-0.3272053,0.4651883,-2.145,-0.3576617,-0.01971075
595.2248,-0.1222342,-0.3272044,0.4651916,-2.145049,-0.3576697,-0.01971655
595.2397,-0.1222342,-0.3272044,0.4651916,-2.145049,-0.3576697,-0.01971655
595.2535,-0.1223112,-0.3272036,0.4651949,-2.145098,-0.3576775,-0.01972223
595.269,-0.1223873,-0.3272027,0.465198,-2.145147,-0.3576852,-0.0197278
595.2834,-0.1224625,-0.3272019,0.465201,-2.145195,-0.3576928,-0.01973325
595.2984,-0.1224625,-0.3272019,0.465201,-2.145195,-0.3576928,-0.01973325
595.3136,-0.1218096,-0.3271987,0.4650341,-2.145628,-0.3576954,-0.01973832
595.3279,-0.1207013,-0.3271943,0.4647941,-2.146173,-0.3577462,-0.01974334
595.3428,-0.1193112,-0.3271896,0.4645458,-2.146724,-0.3578179,-0.01974831
595.3577,-0.1193112,-0.3271896,0.4645458,-2.146724,-0.3578179,-0.01974831
595.3719,-0.1177494,-0.3271847,0.4643132,-2.147244,-0.3578923,-0.01975321
595.3873,-0.1168146,-0.3271822,0.4642713,-2.147339,-0.3579681,-0.01975832
595.4019,-0.1162781,-0.327181,0.464321,-2.147285,-0.3579898,-0.01976328
595.4188,-0.1162781,-0.327181,0.464321,-2.147285,-0.3579898,-0.01976328
595.4318,-0.1159945,-0.3271804,0.4643939,-2.147195,-0.357985,-0.01976809
595.4463,-0.1158712,-0.3271799,0.4644625,-2.147111,-0.3579731,-0.01977279
595.4611,-0.1165765,-0.3271809,0.4646895,-2.14666,-0.3579669,-0.01977768
595.4756,-0.1165765,-0.3271809,0.4646895,-2.14666,-0.3579669,-0.01977768
595.4897,-0.1178003,-0.3271823,0.4649784,-2.146114,-0.3579149,-0.0197824
595.505,-0.1193452,-0.3271835,0.4652669,-2.145578,-0.3578443,-0.01978698
595.5199,-0.1193452,-0.3271835,0.4652669,-2.145578,-0.3578443,-0.01978698
595.5338,-0.1218139,-0.3271867,0.4657032,-2.144699,-0.357778,-0.01979172
595.5493,-0.1248536,-0.3271901,0.4661875,-2.143753,-0.357668,-0.0197963
595.5641,-0.1282398,-0.3271929,0.4666584,-2.142843,-0.3575431,-0.01980073
595.5787,-0.1282398,-0.3271929,0.4666584,-2.142843,-0.3575431,-0.01980073
595.5928,-0.1318297,-0.3271949,0.467096,-2.141997,-0.3574207,-0.01980503
595.6085,-0.1362612,-0.3271983,0.4676697,-2.14083,-0.3573104,-0.01980951
595.6234,-0.1412036,-0.3272014,0.468287,-2.139607,-0.3571599,-0.01981383
595.6384,-0.1412036,-0.3272014,0.468287,-2.139607,-0.3571599,-0.01981383
595.6522,-0.1464466,-0.3272033,0.4688888,-2.138426,-0.3569955,-0.01981799
595.6685,-0.1518569,-0.327204,0.4694555,-2.137314,-0.3568341,-0.01982205
595.6832,-0.158078,-0.3272058,0.4701563,-2.135888,-0.3566836,-0.01982627
595.697,-0.158078,-0.3272058,0.4701563,-2.135888,-0.3566836,-0.01982627
595.711,-0.1647832,-0.3272068,0.4708974,-2.134411,-0.3564933,-0.01983034
595.7263,-0.1717647,-0.327207,0.4716194,-2.132982,-0.3562905,-0.01983426
595.7411,-0.1788909,-0.3272066,0.4723027,-2.131631,-0.3560919,-0.01983806
595.7559,-0.1788909,-0.3272066,0.4723027,-2.131631,-0.3560919,-0.01983806
595.7699,-0.1868066,-0.3272071,0.4731171,-2.129972,-0.3559027,-0.01984203
595.7852,-0.1951857,-0.3272069,0.4739674,-2.128271,-0.3556751,-0.01984584
595.8,-0.1951857,-0.3272069,0.4739674,-2.128271,-0.3556751,-0.01984584
595.814,-0.2038212,-0.327206,0.4747943,-2.126625,-0.3554364,-0.01984951
595.8297,-0.2133102,-0.3272057,0.47575,-2.124679,-0.3552011,-0.01985332
595.8443,-0.2232963,-0.3272046,0.4767327,-2.122706,-0.3549282,-0.01985696
595.8596,-0.2232963,-0.3272046,0.4767327,-2.122706,-0.3549282,-0.01985696
595.8734,-0.2335532,-0.3272024,0.4776828,-2.120805,-0.3546468,-0.01986047
595.8891,-0.2439375,-0.3271992,0.4785828,-2.119003,-0.3543732,-0.01986385
595.9055,-0.2550867,-0.3271969,0.4796037,-2.116916,-0.3541083,-0.01986739
595.9196,-0.2550867,-0.3271969,0.4796037,-2.116916,-0.3541083,-0.01986739
595.9335,-0.2666704,-0.3271936,0.4806493,-2.114805,-0.3538082,-0.01987077
595.9481,-0.2784788,-0.3271884,0.4816623,-2.112768,-0.3535005,-0.01987401
595.9627,-0.290379,-0.3271813,0.482625,-2.110831,-0.3532008,-0.01987715
595.9774,-0.290379,-0.3271813,0.482625,-2.110831,-0.3532008,-0.01987715
595.9914,-0.3030154,-0.3271752,0.4837082,-2.108611,-0.3529073,-0.01988042
596.0069,-0.316062,-0.3271675,0.4848136,-2.106371,-0.3525795,-0.01988354
596.0217,-0.3293118,-0.3271577,0.4858839,-2.104208,-0.3522456,-0.01988652
596.0365,-0.3293118,-0.3271577,0.4858839,-2.104208,-0.3522456,-0.01988652
596.0505,-0.3433622,-0.3271483,0.4870729,-2.101766,-0.3519119,-0.01988962
596.0659,-0.3578572,-0.3271366,0.4882757,-2.099318,-0.3515452,-0.01989255
596.0809,-0.3725711,-0.3271222,0.4894348,-2.096962,-0.3511752,-0.01989537
596.0957,-0.3725711,-0.3271222,0.4894348,-2.096962,-0.3511752,-0.01989537
596.1099,-0.3873609,-0.3271054,0.4905342,-2.094724,-0.3508173,-0.01989807
596.1254,-0.4028648,-0.3270892,0.4917462,-2.092222,-0.3504633,-0.0199009
596.1401,-0.4187528,-0.327071,0.4929704,-2.089715,-0.3500792,-0.01990357
596.1559,-0.4187528,-0.327071,0.4929704,-2.089715,-0.3500792,-0.01990357
596.17,-0.4348157,-0.3270502,0.4941515,-2.0873,-0.3496932,-0.01990612
596.1843,-0.4509213,-0.3270273,0.4952736,-2.085002,-0.3493197,-0.01990858
596.199,-0.4509213,-0.3270273,0.4952736,-2.085002,-0.3493197,-0.01990858
596.2129,-0.4677144,-0.3270053,0.4965086,-2.082442,-0.3489473,-0.01991113
596.2286,-0.4848697,-0.3269813,0.4977539,-2.079878,-0.3485461,-0.01991356
596.2431,-0.5021806,-0.3269549,0.4989545,-2.077409,-0.3481447,-0.01991586
596.258,-0.5021806,-0.3269549,0.4989545,-2.077409,-0.3481447,-0.01991586
596.2722,-0.5202453,-0.3269288,0.5002661,-2.074679,-0.3477392,-0.01991824
596.2875,-0.5387081,-0.3269,0.5015801,-2.071959,-0.3473069,-0.01992049
596.3023,-0.5573439,-0.3268681,0.5028415,-2.069347,-0.3468774,-0.01992262
596.3168,-0.5573439,-0.3268681,0.5028415,-2.069347,-0.3468774,-0.01992262
596.331,-0.5760103,-0.3268338,0.5040362,-2.066868,-0.3464643,-0.01992466
596.3466,-0.5953459,-0.3268001,0.5053372,-2.064142,-0.3460498,-0.01992678
596.3615,-0.6150213,-0.3267642,0.5066398,-2.061427,-0.3456113,-0.01992878
596.3762,-0.6150213,-0.3267642,0.5066398,-2.061427,-0.3456113,-0.01992878
596.3901,-0.6348279,-0.3267256,0.5078913,-2.058817,-0.3451769,-0.01993067
596.4067,-0.6546339,-0.3266849,0.5090777,-2.056339,-0.3447593,-0.01993247
596.4205,-0.6750847,-0.3266452,0.5103711,-2.053613,-0.3443373,-0.01993436
596.4351,-0.6750847,-0.3266452,0.5103711,-2.053613,-0.3443373,-0.01993436
596.4492,-0.6958553,-0.3266035,0.511665,-2.050899,-0.343893,-0.01993612
596.4643,-0.7167399,-0.3265593,0.512907,-2.048291,-0.3434543,-0.01993779
596.4791,-0.7167399,-0.3265593,0.512907,-2.048291,-0.3434543,-0.01993779
596.4937,-0.7378296,-0.3265138,0.5141351,-2.045702,-0.3430254,-0.01993942
596.5085,-0.7589598,-0.3264666,0.5153165,-2.043214,-0.3426047,-0.01994097
596.5232,-0.780027,-0.3264183,0.5164391,-2.040848,-0.3422003,-0.01994245
596.5382,-0.780027,-0.3264183,0.5164391,-2.040848,-0.3422003,-0.01994245
596.5521,-0.8009664,-0.3263694,0.5175034,-2.038606,-0.3418146,-0.01994388
596.5677,-0.8217376,-0.3263208,0.5185136,-2.036481,-0.3414472,-0.01994525
596.5823,-0.8423162,-0.3262729,0.5194741,-2.034465,-0.3410967,-0.01994657
596.5974,-0.8423162,-0.3262729,0.5194741,-2.034465,-0.3410967,-0.01994657
596.6113,-0.8626875,-0.3262261,0.5203892,-2.032549,-0.3407619,-0.01994784
596.6273,-0.8828433,-0.3261808,0.521262,-2.030728,-0.3404416,-0.01994907
596.6418,-0.9027793,-0.3261371,0.5220951,-2.028996,-0.3401351,-0.01995025
596.6577,-0.9027793,-0.3261371,0.5220951,-2.028996,-0.3401351,-0.01995025
596.6719,-0.9224938,-0.326095,0.5228905,-2.027349,-0.3398415,-0.01995138
596.6862,-0.9419864,-0.3260548,0.5236499,-2.025785,-0.3395605,-0.01995248
596.7004,-0.9612582,-0.3260163,0.5243748,-2.0243,-0.3392915,-0.01995354
596.7154,-0.9612582,-0.3260163,0.5243748,-2.0243,-0.3392915,-0.01995354
596.7294,-0.9803104,-0.3259796,0.5250663,-2.022892,-0.3390342,-0.01995456
596.7448,-0.9991449,-0.3259447,0.5257257,-2.021558,-0.3387883,-0.01995554
596.7596,-0.9991449,-0.3259447,0.5257257,-2.021558,-0.3387883,-0.01995554
596.7737,-1.017764,-0.3259115,0.5263538,-2.020297,-0.3385535,-0.01995649
596.7894,-1.036169,-0.32588,0.5269517,-2.019107,-0.3383295,-0.01995741
596.8039,-1.054364,-0.3258502,0.5275202,-2.017986,-0.3381161,-0.01995829
596.8187,-1.054364,-0.3258502,0.5275202,-2.017986,-0.3381161,-0.01995829
596.8326,-1.072349,-0.3258219,0.5280603,-2.016932,-0.3379129,-0.01995915
596.8484,-1.090128,-0.3257953,0.5285727,-2.015944,-0.3377198,-0.01995998
596.8635,-1.107703,-0.3257702,0.5290583,-2.01502,-0.3375365,-0.01996078
596.8779,-1.107703,-0.3257702,0.5290583,-2.01502,-0.3375365,-0.01996078
596.8942,-1.125075,-0.3257465,0.5295178,-2.014159,-0.3373627,-0.01996155
596.9086,-1.142249,-0.3257243,0.529952,-2.013359,-0.3371983,-0.01996229
596.9219,-1.159224,-0.3257035,0.5303615,-2.012618,-0.3370431,-0.01996301
596.9369,-1.159224,-0.3257035,0.5303615,-2.012618,-0.3370431,-0.01996301
596.9508,-1.176005,-0.325684,0.5307471,-2.011935,-0.3368967,-0.01996371
596.9661,-1.192593,-0.3256659,0.5311095,-2.011309,-0.336759,-0.01996438
596.9807,-1.20899,-0.325649,0.5314493,-2.010738,-0.3366297,-0.01996503
596.9952,-1.20899,-0.325649,0.5314493,-2.010738,-0.3366297,-0.01996503
597.0096,-1.225199,-0.3256333,0.5317671,-2.010221,-0.3365087,-0.01996566
597.0248,-1.241222,-0.3256188,0.5320637,-2.009757,-0.3363958,-0.01996627
597.0397,-1.241222,-0.3256188,0.5320637,-2.009757,-0.3363958,-0.01996627
597.0536,-1.25706,-0.3256055,0.5323395,-2.009343,-0.3362907,-0.01996686
597.0692,-1.272717,-0.3255933,0.5325951,-2.00898,-0.3361933,-0.01996744
597.084,-1.287972,-0.3255814,0.5327802,-2.008779,-0.3361141,-0.01996797
597.0988,-1.287972,-0.3255814,0.5327802,-2.008779,-0.3361141,-0.01996797
597.1128,-1.302912,-0.3255709,0.532931,-2.008659,-0.3360524,-0.0199685
597.1284,-1.31759,-0.3255619,0.533064,-2.008586,-0.3359997,-0.01996901
597.1443,-1.332043,-0.3255545,0.5331846,-2.008549,-0.3359528,-0.01996952
597.159,-1.332043,-0.3255545,0.5331846,-2.008549,-0.3359528,-0.01996952
597.173,-1.345565,-0.3255463,0.5331256,-2.00892,-0.3359464,-0.01996993
597.1874,-1.358446,-0.32554,0.5330046,-2.009432,-0.3359779,-0.01997037
597.2018,-1.370869,-0.3255366,0.5328736,-2.009982,-0.3360207,-0.01997082
597.2167,-1.370869,-0.3255366,0.5328736,-2.009982,-0.3360207,-0.01997082
597.2307,-1.382225,-0.3255335,0.5325797,-2.01091,-0.3361,-0.01997118
597.2459,-1.392861,-0.3255325,0.5322419,-2.011942,-0.3362109,-0.01997156
597.2605,-1.403001,-0.325533,0.5319104,-2.012978,-0.3363267,-0.01997196
597.2755,-1.403001,-0.325533,0.5319104,-2.012978,-0.3363267,-0.01997196
597.2896,-1.412786,-0.3255346,0.5315971,-2.013987,-0.3364383,-0.01997235
597.3052,-1.421579,-0.3255357,0.5311324,-2.015341,-0.3365792,-0.01997264
597.3197,-1.421579,-0.3255357,0.5311324,-2.015341,-0.3365792,-0.01997264
597.3336,-1.429712,-0.3255378,0.5306296,-2.016783,-0.3367489,-0.01997297
597.3492,-1.437394,-0.325541,0.5301369,-2.018216,-0.3369223,-0.01997331
597.364,-1.444761,-0.325546,0.5296661,-2.019612,-0.3370906,-0.01997364
597.3788,-1.444761,-0.325546,0.5296661,-2.019612,-0.3370906,-0.01997364
597.3928,-1.451171,-0.3255504,0.5290475,-2.021343,-0.3372853,-0.01997387
597.4092,-1.456953,-0.3255562,0.528394,-2.023152,-0.3375083,-0.01997415
597.423,-1.462314,-0.3255642,0.5277545,-2.024942,-0.3377341,-0.01997443
597.4376,-1.462314,-0.3255642,0.5277545,-2.024942,-0.3377341,-0.01997443
597.4517,-1.466661,-0.3255717,0.5269722,-2.027059,-0.3379851,-0.01997461
597.4666,-1.470352,-0.3255805,0.526163,-2.029236,-0.3382625,-0.01997483
597.4813,-1.473614,-0.325591,0.5253763,-2.031375,-0.33854,-0.01997506
597.4961,-1.473614,-0.325591,0.5253763,-2.031375,-0.33854,-0.01997506
597.5101,-1.476592,-0.3256031,0.5246232,-2.033448,-0.338808,-0.01997529
597.5253,-1.478652,-0.325614,0.5237323,-2.035831,-0.3390947,-0.01997541
597.5405,-1.480126,-0.3256252,0.5228145,-2.038268,-0.3394076,-0.01997557
597.5551,-1.480126,-0.3256252,0.5228145,-2.038268,-0.3394076,-0.01997557
597.5691,-1.481223,-0.3256369,0.5219191,-2.040661,-0.3397208,-0.01997574
597.5844,-1.48208,-0.3256493,0.5210583,-2.042984,-0.3400245,-0.01997591
597.5991,-1.48208,-0.3256493,0.5210583,-2.042984,-0.3400245,-0.01997591
597.6132,-1.482056,-0.3256598,0.5200611,-2.045612,-0.3403437,-0.01997596
597.629,-1.481477,-0.3256696,0.5190379,-2.048286,-0.3406894,-0.01997604
597.6434,-1.480551,-0.3256793,0.5180389,-2.050911,-0.3410354,-0.01997615
597.66,-1.479411,-0.3256889,0.517077,-2.053458,-0.3413711,-0.01997626
597.674,-1.479411,-0.3256889,0.517077,-2.053458,-0.3413711,-0.01997626
597.688,-1.477412,-0.3256962,0.515981,-2.056303,-0.3417183,-0.01997622
597.702,-1.474883,-0.3257022,0.51486,-2.059188,-0.3420922,-0.01997623
597.7167,-1.474883,-0.3257022,0.51486,-2.059188,-0.3420922,-0.01997623
597.7305,-1.472029,-0.3257074,0.5137655,-2.062015,-0.3424662,-0.01997626
597.7459,-1.468256,-0.3257098,0.5125408,-2.065135,-0.3428503,-0.01997614
597.7606,-1.463919,-0.325711,0.5112975,-2.068279,-0.3432603,-0.01997608
597.7753,-1.463919,-0.325711,0.5112975,-2.068279,-0.3432603,-0.01997608
597.7894,-1.459246,-0.3257118,0.5100878,-2.071349,-0.3436686,-0.01997603
597.8048,-1.454382,-0.3257124,0.5089246,-2.074319,-0.3440637,-0.01997599
597.8198,-1.454382,-0.3257124,0.5089246,-2.074319,-0.3440637,-0.01997599
597.8336,-1.448689,-0.3257115,0.5076353,-2.077567,-0.344461,-0.01997578
597.8493,-1.442498,-0.3257094,0.5063254,-2.080836,-0.3448843,-0.01997561
597.864,-1.436021,-0.3257066,0.5050474,-2.084029,-0.345307,-0.01997548
597.8792,-1.436021,-0.3257066,0.5050474,-2.084029,-0.345307,-0.01997548
597.8931,-1.428662,-0.3257008,0.5036448,-2.0875,-0.3457311,-0.01997516
597.9083,-1.420779,-0.3256927,0.502226,-2.090979,-0.3461812,-0.0199749
597.9241,-1.4126,-0.3256831,0.5008449,-2.09437,-0.3466294,-0.01997467
597.9381,-1.4126,-0.3256831,0.5008449,-2.09437,-0.3466294,-0.01997467
597.9518,-1.404268,-0.3256723,0.4995152,-2.097645,-0.3470633,-0.01997444
597.9675,-1.395148,-0.3256584,0.4980648,-2.101186,-0.3474895,-0.01997401
597.9818,-1.385569,-0.3256421,0.496595,-2.104735,-0.3479421,-0.01997364
597.9979,-1.385569,-0.3256421,0.496595,-2.104735,-0.3479421,-0.01997364
598.0105,-1.375742,-0.325624,0.4951601,-2.108195,-0.3483945,-0.01997329
598.0258,-1.3658,-0.3256046,0.4937752,-2.11154,-0.3488337,-0.01997297
598.0407,-1.355099,-0.3255823,0.4922698,-2.11515,-0.3492605,-0.01997241
598.0553,-1.355099,-0.3255823,0.4922698,-2.11515,-0.3492605,-0.01997241
598.0693,-1.343966,-0.3255573,0.4907429,-2.118766,-0.349715,-0.01997191
598.0848,-1.332607,-0.3255304,0.4892505,-2.122291,-0.3501707,-0.01997144
598.0994,-1.332607,-0.3255304,0.4892505,-2.122291,-0.3501707,-0.01997144
598.1136,-1.320426,-0.3254998,0.4876395,-2.12608,-0.3506141,-0.01997075
598.1292,-1.307778,-0.325466,0.4860119,-2.129861,-0.3510851,-0.01997011
598.1439,-1.29489,-0.3254297,0.4844247,-2.133538,-0.3515564,-0.01996952
598.1586,-1.29489,-0.3254297,0.4844247,-2.133538,-0.3515564,-0.01996952
598.1747,-1.281905,-0.3253919,0.4828942,-2.137082,-0.3520132,-0.01996895
598.189,-1.268184,-0.3253508,0.4812505,-2.140879,-0.3524467,-0.01996811
598.2029,-1.254059,-0.3253067,0.4795866,-2.144669,-0.3529077,-0.01996733
598.2174,-1.254059,-0.3253067,0.4795866,-2.144669,-0.3529077,-0.01996733
598.2313,-1.239739,-0.3252605,0.4779597,-2.148354,-0.3533709,-0.0199666
598.2468,-1.225355,-0.3252128,0.4763874,-2.15191,-0.3538212,-0.0199659
598.2614,-1.210263,-0.3251621,0.4747021,-2.155719,-0.3542435,-0.01996491
598.2761,-1.210263,-0.3251621,0.4747021,-2.155719,-0.3542435,-0.01996491
598.2903,-1.19479,-0.3251085,0.4729941,-2.159519,-0.3546944,-0.01996397
598.3058,-1.179142,-0.3250528,0.4713218,-2.163215,-0.3551494,-0.01996309
598.3205,-1.163448,-0.3249958,0.4697045,-2.166778,-0.3555925,-0.01996225
598.3361,-1.163448,-0.3249958,0.4697045,-2.166778,-0.3555925,-0.01996225
598.3495,-1.147064,-0.3249359,0.4679763,-2.170594,-0.3560023,-0.01996109
598.3648,-1.130314,-0.3248731,0.4662239,-2.174398,-0.3564414,-0.01996
598.3798,-1.130314,-0.3248731,0.4662239,-2.174398,-0.3564414,-0.01996
598.3936,-1.113404,-0.3248082,0.4645068,-2.178094,-0.3568862,-0.01995897
598.4095,-1.095737,-0.3247397,0.4626793,-2.18204,-0.3572998,-0.01995763
598.425,-1.077666,-0.3246676,0.4608317,-2.185963,-0.3577436,-0.01995636
598.4398,-1.077666,-0.3246676,0.4608317,-2.185963,-0.3577436,-0.01995636
598.4529,-1.059418,-0.3245926,0.4589708,-2.188345,-0.3583123,-0.0199536
598.4681,-1.041135,-0.3245161,0.4571546,-2.189062,-0.3589276,-0.01995046
598.4828,-1.022178,-0.3244365,0.4552475,-2.189066,-0.3594964,-0.01994726
598.4974,-1.022178,-0.3244365,0.4552475,-2.189066,-0.3594964,-0.01994726
598.5114,-1.002876,-0.3243538,0.4533336,-2.188626,-0.3600741,-0.01994452
598.5267,-0.9834385,-0.3242689,0.4514725,-2.188062,-0.3606366,-0.01994227
598.5416,-0.9639969,-0.3241827,0.4496838,-2.187587,-0.3611721,-0.01994038
598.5564,-0.9639969,-0.3241827,0.4496838,-2.187587,-0.3611721,-0.01994038
598.5707,-0.9439062,-0.324094,0.4478015,-2.18767,-0.3616608,-0.01993836
598.586,-0.9234914,-0.3240024,0.4458999,-2.187879,-0.3621917,-0.01993636
598.6006,-0.9029581,-0.3239089,0.4440407,-2.187991,-0.3627442,-0.01993438
598.6154,-0.9029581,-0.3239089,0.4440407,-2.187991,-0.3627442,-0.01993438
598.6296,-0.8817084,-0.3238119,0.4420837,-2.188344,-0.3632734,-0.01993212
598.6451,-0.8600972,-0.3237113,0.440115,-2.188565,-0.3638474,-0.01992987
598.6597,-0.8600972,-0.3237113,0.440115,-2.188565,-0.3638474,-0.01992987
598.676,-0.8383489,-0.3236079,0.4381989,-2.188555,-0.3644357,-0.01992773
598.6904,-0.8166053,-0.3235031,0.4363594,-2.188375,-0.3650121,-0.01992576
598.7042,-0.794228,-0.3233957,0.434433,-2.188518,-0.3655465,-0.01992363
598.7188,-0.794228,-0.3233957,0.434433,-2.188518,-0.3655465,-0.01992363
598.7327,-0.7715458,-0.3232853,0.4324956,-2.188649,-0.3661172,-0.01992154
598.748,-0.7487668,-0.3231729,0.4306076,-2.188643,-0.3667016,-0.01991957
598.7628,-0.7260221,-0.3230596,0.4287925,-2.18851,-0.3672767,-0.01991774
598.7776,-0.7260221,-0.3230596,0.4287925,-2.18851,-0.3672767,-0.01991774
598.7916,-0.7026665,-0.3229442,0.4268876,-2.188705,-0.3678145,-0.0199157
598.8072,-0.6790246,-0.3228263,0.4249703,-2.188871,-0.3683907,-0.01991369
598.822,-0.6553014,-0.3227066,0.4231019,-2.188878,-0.3689812,-0.01991178
598.8369,-0.6553014,-0.3227066,0.4231019,-2.188878,-0.3689812,-0.01991178
598.8508,-0.6310708,-0.3225845,0.4211795,-2.189041,-0.3695497,-0.01990973
598.8663,-0.6066225,-0.3224599,0.4192699,-2.189113,-0.3701438,-0.01990776
598.881,-0.5821396,-0.3223338,0.4174199,-2.189036,-0.3707413,-0.01990591
598.8961,-0.5821396,-0.3223338,0.4174199,-2.189036,-0.3707413,-0.01990591
598.9102,-0.5577374,-0.3222074,0.4156459,-2.188853,-0.3713237,-0.01990423
598.9266,-0.5334879,-0.322082,0.4139482,-2.188636,-0.371884,-0.01990271
598.9406,-0.5094361,-0.3219588,0.4123211,-2.188437,-0.3724217,-0.01990136
598.9552,-0.5094361,-0.3219588,0.4123211,-2.188437,-0.3724217,-0.01990136
598.9693,-0.4856094,-0.3218386,0.410758,-2.18828,-0.3729399,-0.01990013
598.9845,-0.462024,-0.3217221,0.4092532,-2.188164,-0.3734415,-0.01989899
598.9993,-0.462024,-0.3217221,0.4092532,-2.188164,-0.3734415,-0.01989899
599.0135,-0.4386892,-0.3216098,0.4078025,-2.188075,-0.3739291,-0.01989793
599.029,-0.4156099,-0.3215019,0.4064028,-2.187998,-0.3744038,-0.01989693
599.0437,-0.3927879,-0.3213986,0.4050517,-2.187923,-0.3748665,-0.019896
599.0585,-0.3927879,-0.3213986,0.4050517,-2.187923,-0.3748665,-0.019896
599.0728,-0.3702235,-0.3213,0.4037475,-2.187846,-0.3753173,-0.01989513
599.0883,-0.3479157,-0.3212062,0.4024885,-2.187765,-0.3757562,-0.01989433
599.1029,-0.3258627,-0.321117,0.4012735,-2.187682,-0.3761834,-0.0198936
599.1184,-0.3258627,-0.321117,0.4012735,-2.187682,-0.3761834,-0.0198936
599.1318,-0.3040624,-0.3210326,0.4001013,-2.187599,-0.376599,-0.01989294
599.1476,-0.2888861,-0.3209732,0.4004331,-2.184042,-0.3771001,-0.01989555
599.1672,-0.2779402,-0.3209476,0.4015307,-2.180729,-0.3770501,-0.0198993
599.1769,-0.2779402,-0.3209476,0.4015307,-2.180729,-0.3770501,-0.0198993
599.1909,-0.2697024,-0.3209496,0.4027809,-2.178648,-0.3767322,-0.01990284
599.2065,-0.2632034,-0.3209696,0.4039209,-2.177399,-0.3763923,-0.01990556
599.2213,-0.2578259,-0.3210026,0.4049093,-2.176705,-0.3760945,-0.01990789
599.2358,-0.2578259,-0.3210026,0.4049093,-2.176705,-0.3760945,-0.01990789
599.2498,-0.2531767,-0.3210444,0.4057676,-2.176377,-0.3758449,-0.01991
599.2653,-0.2490052,-0.3210918,0.4065284,-2.176283,-0.3756347,-0.01991199
599.2801,-0.245152,-0.3211428,0.4072199,-2.176338,-0.3754532,-0.01991389
599.2953,-0.245152,-0.3211428,0.4072199,-2.176338,-0.3754532,-0.01991389
599.309,-0.241553,-0.3338004,0.4069264,-2.179592,-0.3791189,-0.01992451
599.3243,-0.2382101,-0.3540803,0.407332,-2.183673,-0.3825251,-0.01993356
599.3394,-0.2382101,-0.3540803,0.407332,-2.183673,-0.3825251,-0.01993356
599.3534,-0.2350805,-0.3789242,0.4081311,-2.187119,-0.385373,-0.01993999
599.3694,-0.2321121,-0.4056953,0.4090809,-2.188558,-0.3876464,-0.01994339
599.3834,-0.2292598,-0.4335287,0.4100062,-2.188402,-0.3896587,-0.01994616
599.398,-0.2292598,-0.4335287,0.4100062,-2.188402,-0.3896587,-0.01994616
599.4142,-0.226492,-0.4618889,0.4109087,-2.187474,-0.3914614,-0.01994918
599.4276,-0.2237875,-0.4904441,0.411792,-2.186469,-0.3930849,-0.01995262
599.4424,-0.2211289,-0.5182271,0.4127083,-2.185568,-0.3943299,-0.01995576
599.4571,-0.2211289,-0.5182271,0.4127083,-2.185568,-0.3943299,-0.01995576
599.4711,-0.2185051,-0.5454106,0.4135403,-2.185055,-0.395494,-0.01995915
599.4865,-0.2159108,-0.5721022,0.4142998,-2.184911,-0.3966353,-0.01996261
599.5011,-0.2133434,-0.5983692,0.4150088,-2.184984,-0.3977633,-0.01996595
599.516,-0.2133434,-0.5983692,0.4150088,-2.184984,-0.3977633,-0.01996595
599.53,-0.2107972,-0.6234928,0.4157456,-2.184927,-0.3986338,-0.01996856
599.5457,-0.2082699,-0.6478009,0.416418,-2.184855,-0.3994904,-0.0199712
599.5605,-0.2057614,-0.6714972,0.4170492,-2.18481,-0.4003509,-0.01997388
599.5753,-0.2057614,-0.6714972,0.4170492,-2.18481,-0.4003509,-0.01997388
599.5895,-0.2032677,-0.6939475,0.4177213,-2.184602,-0.400962,-0.01997599
599.6049,-0.2007877,-0.7155324,0.418339,-2.184426,-0.4015647,-0.01997824
599.62,-0.1983227,-0.7364884,0.4189214,-2.184345,-0.4021787,-0.01998059
599.6345,-0.1983227,-0.7364884,0.4189214,-2.184345,-0.4021787,-0.01998059
599.6512,-0.1958746,-0.7569629,0.4194872,-2.184342,-0.4027931,-0.01998293
599.6647,-0.1934395,-0.7762865,0.4201051,-2.18418,-0.4031582,-0.01998465
599.6787,-0.1934395,-0.7762865,0.4201051,-2.18418,-0.4031582,-0.01998465
599.6927,-0.1910161,-0.7948186,0.4206733,-2.184036,-0.4035186,-0.01998648
599.7081,-0.1886059,-0.8127821,0.4212088,-2.183969,-0.403895,-0.01998841
599.7228,-0.1862111,-0.8303156,0.4217297,-2.183968,-0.404277,-0.01999035
599.7379,-0.1862111,-0.8303156,0.4217297,-2.183968,-0.404277,-0.01999035
599.7518,-0.1838273,-0.8467442,0.4223035,-2.183802,-0.4044155,-0.01999167
599.7674,-0.1814528,-0.8624242,0.4228281,-2.183655,-0.4045554,-0.01999313
599.782,-0.1790893,-0.8775759,0.4233205,-2.183589,-0.4047177,-0.01999469
599.7968,-0.1790893,-0.8775759,0.4233205,-2.183589,-0.4047177,-0.01999469
599.8111,-0.1767325,-0.8915744,0.4238568,-2.183398,-0.4046535,-0.01999573
599.8265,-0.1743811,-0.9048072,0.4243402,-2.183261,-0.4046045,-0.01999691
599.8412,-0.1720375,-0.9175134,0.4247905,-2.183221,-0.4045892,-0.01999822
599.856,-0.1720375,-0.9175134,0.4247905,-2.183221,-0.4045892,-0.01999822
599.8702,-0.169705,-0.9298413,0.4252276,-2.183251,-0.4045949,-0.01999954
599.8856,-0.1673792,-0.941121,0.4257185,-2.183111,-0.4043721,-0.02000025
599.9013,-0.1650583,-0.9517128,0.4261609,-2.182982,-0.404164,-0.02000112
599.9149,-0.1650583,-0.9517128,0.4261609,-2.182982,-0.404164,-0.02000112
599.929,-0.1627447,-0.9618386,0.4265727,-2.182928,-0.4039902,-0.02000211
599.9445,-0.1604417,-0.9716354,0.4269726,-2.18294,-0.4038391,-0.02000313
599.9594,-0.1604417,-0.9716354,0.4269726,-2.18294,-0.4038391,-0.02000313
599.9733,-0.1581448,-0.9804263,0.4274265,-2.182785,-0.4034627,-0.02000357
599.9888,-0.1558517,-0.9885674,0.4278316,-2.182651,-0.4031053,-0.02000417
600.0035,-0.1535648,-0.9962778,0.4282058,-2.1826,-0.4027869,-0.02000491
600.0184,-0.1535648,-0.9962778,0.4282058,-2.1826,-0.4027869,-0.02000491
600.0325,-0.15128,-1.00293,0.4286244,-2.182422,-0.4022596,-0.02000514
600.048,-0.1489954,-1.008912,0.4289905,-2.182298,-0.4017641,-0.02000556
600.0627,-0.1467145,-1.014461,0.4293249,-2.182273,-0.4013174,-0.02000611
600.0776,-0.1467145,-1.014461,0.4293249,-2.182273,-0.4013174,-0.02000611
600.0934,-0.1444419,-1.019723,0.4296487,-2.182317,-0.4009058,-0.02000669
600.1073,-0.1421739,-1.024026,0.4300277,-2.182188,-0.4002808,-0.0200067
600.1218,-0.139908,-1.027729,0.4303591,-2.18207,-0.3996849,-0.02000687
600.1378,-0.139908,-1.027729,0.4303591,-2.18207,-0.3996849,-0.02000687
600.1516,-0.1376473,-1.031054,0.4306613,-2.182028,-0.3991368,-0.02000719
600.1661,-0.1353964,-1.034134,0.4309539,-2.182046,-0.3986243,-0.02000755
600.1808,-0.1331514,-1.036292,0.4313025,-2.1819,-0.3978995,-0.02000737
600.1954,-0.1331514,-1.036292,0.4313025,-2.1819,-0.3978995,-0.02000737
600.2097,-0.1309094,-1.037882,0.4316013,-2.181726,-0.3972111,-0.0200073
600.225,-0.1286735,-1.039122,0.4318699,-2.181567,-0.3965769,-0.02000734
600.2398,-0.1286735,-1.039122,0.4318699,-2.181567,-0.3965769,-0.02000734
600.254,-0.1264402,-1.039384,0.4321851,-2.181235,-0.3957465,-0.02000691
600.2693,-0.1242075,-1.039063,0.4324466,-2.180877,-0.3949668,-0.02000662
600.2841,-0.1219892,-1.038382,0.4326865,-2.180536,-0.3942438,-0.02000645
600.299,-0.1219892,-1.038382,0.4326865,-2.180536,-0.3942438,-0.02000645
600.3129,-0.1197986,-1.037488,0.4329295,-2.180219,-0.3935605,-0.02000635
600.3288,-0.1176318,-1.035708,0.4332374,-2.179729,-0.3926698,-0.02000573
600.3432,-0.1155079,-1.0334,0.4335172,-2.179201,-0.3918163,-0.02000524
600.3582,-0.1155079,-1.0334,0.4335172,-2.179201,-0.3918163,-0.02000524
600.3723,-0.1134301,-1.030783,0.4337838,-2.178687,-0.3910168,-0.02000486
600.3887,-0.1113957,-1.027991,0.4340504,-2.1782,-0.3902575,-0.02000454
600.4022,-0.109392,-1.024342,0.4343742,-2.177543,-0.3892965,-0.02000374
600.4172,-0.109392,-1.024342,0.4343742,-2.177543,-0.3892965,-0.02000374
600.431,-0.1074323,-1.020192,0.4346633,-2.176853,-0.3883775,-0.02000306
600.4465,-0.1055169,-1.015755,0.4349338,-2.176183,-0.387517,-0.0200025
600.4611,-0.1036417,-1.011163,0.4352005,-2.175544,-0.3867007,-0.02000203
600.4761,-0.1036417,-1.011163,0.4352005,-2.175544,-0.3867007,-0.02000203
600.4902,-0.1017937,-1.005736,0.4355201,-2.174739,-0.3856894,-0.02000109
600.5057,-0.09998521,-0.9998248,0.4358026,-2.173907,-0.3847241,-0.02000027
600.5206,-0.09821634,-0.9936461,0.4360649,-2.173097,-0.3838205,-0.01999959
600.5353,-0.09821634,-0.9936461,0.4360649,-2.173097,-0.3838205,-0.01999959
600.5495,-0.09647527,-0.986569,0.4363721,-2.172126,-0.3827392,-0.01999848
600.5649,-0.09477326,-0.9789776,0.4366402,-2.171134,-0.3817143,-0.01999753
600.5798,-0.09477326,-0.9789776,0.4366402,-2.171134,-0.3817143,-0.01999753
600.5939,-0.09310964,-0.9711058,0.4368878,-2.170175,-0.3807578,-0.01999673
600.6095,-0.09148005,-0.9630968,0.4371302,-2.169261,-0.3798534,-0.01999603
600.6252,-0.08987205,-0.9542764,0.4374216,-2.16819,-0.3787678,-0.01999488
600.639,-0.08987205,-0.9542764,0.4374216,-2.16819,-0.3787678,-0.01999488
600.6531,-0.08829631,-0.9450011,0.4376746,-2.1671,-0.3777357,-0.01999388
600.6683,-0.08675278,-0.9354884,0.4379063,-2.166043,-0.3767707,-0.01999302
600.6831,-0.08523806,-0.9258715,0.4381318,-2.165031,-0.3758582,-0.01999226
600.698,-0.08523806,-0.9258715,0.4381318,-2.165031,-0.3758582,-0.01999226
600.7122,-0.08374101,-0.9154701,0.4384034,-2.163863,-0.3747698,-0.01999108
600.7278,-0.08227187,-0.9046363,0.4386357,-2.162678,-0.3737371,-0.01999005
600.7424,-0.08083095,-0.8935851,0.4388464,-2.161528,-0.3727727,-0.01998917
600.7574,-0.08083095,-0.8935851,0.4388464,-2.161528,-0.3727727,-0.01998917
600.7717,-0.07941542,-0.8824486,0.4390507,-2.160425,-0.371862,-0.01998839
600.787,-0.07802198,-0.8713071,0.4392546,-2.159368,-0.3709933,-0.01998766
600.8018,-0.07664787,-0.8602103,0.4394593,-2.158353,-0.3701593,-0.01998698
600.8166,-0.07664787,-0.8602103,0.4394593,-2.158353,-0.3701593,-0.01998698
600.8309,-0.07529101,-0.8491881,0.4396644,-2.157375,-0.369356,-0.01998634
600.8462,-0.07395658,-0.8390205,0.4398266,-2.156628,-0.368789,-0.0199862
600.8619,-0.07263234,-0.8294173,0.4400278,-2.155967,-0.3682257,-0.01998597
600.8759,-0.07263234,-0.8294173,0.4400278,-2.155967,-0.3682257,-0.01998597
600.89,-0.07131512,-0.8202003,0.4402492,-2.155331,-0.3676495,-0.01998567
600.9053,-0.07000516,-0.811259,0.4404748,-2.154701,-0.3670712,-0.01998533
600.9202,-0.06871001,-0.803287,0.4406562,-2.154275,-0.3667052,-0.01998544
600.9347,-0.06871001,-0.803287,0.4406562,-2.154275,-0.3667052,-0.01998544
600.9489,-0.06742094,-0.7959412,0.4408729,-2.153908,-0.3663285,-0.01998546
600.9644,-0.06613655,-0.7890103,0.4411067,-2.153548,-0.3659287,-0.01998538
600.9794,-0.06613655,-0.7890103,0.4411067,-2.153548,-0.3659287,-0.01998538
600.9937,-0.0648642,-0.783125,0.4413012,-2.153379,-0.365723,-0.01998571
601.0092,-0.06359635,-0.7779045,0.4415312,-2.153256,-0.365495,-0.01998592
601.0241,-0.06233221,-0.7731134,0.441777,-2.153127,-0.3652356,-0.01998603
601.0389,-0.06233221,-0.7731134,0.441777,-2.153127,-0.3652356,-0.01998603
601.053,-0.06107335,-0.7686059,0.4420236,-2.152978,-0.3649592,-0.01998609
601.0686,-0.05982782,-0.7650537,0.4422242,-2.15301,-0.3648804,-0.01998657
601.0854,-0.05858885,-0.7621014,0.4424586,-2.153085,-0.36478,-0.01998694
601.0991,-0.05858885,-0.7621014,0.4424586,-2.153085,-0.36478,-0.01998694
601.1121,-0.05735542,-0.7595289,0.442709,-2.153149,-0.3646467,-0.01998721
601.1277,-0.05612865,-0.7572005,0.4429607,-2.153191,-0.3644937,-0.01998743
601.1483,-0.05491606,-0.7557934,0.443167,-2.153412,-0.3645349,-0.01998806
601.1567,-0.05491606,-0.7557934,0.443167,-2.153412,-0.3645349,-0.01998806
601.1714,-0.05371106,-0.7549564,0.4434075,-2.153671,-0.3645513,-0.01998858
601.1868,-0.0525124,-0.754472,0.4436645,-2.153917,-0.3645314,-0.01998899
601.2016,-0.05132089,-0.7542058,0.4439231,-2.154135,-0.3644882,-0.01998934
601.2167,-0.05132089,-0.7542058,0.4439231,-2.154135,-0.3644882,-0.01998934
601.231,-0.05014373,-0.7548329,0.4441363,-2.154528,-0.3646354,-0.0199901
601.2461,-0.04898127,-0.7560067,0.4443871,-2.154951,-0.364755,-0.01999075
601.2609,-0.04783491,-0.7575103,0.4446585,-2.155354,-0.3648338,-0.01999128
601.2761,-0.04783491,-0.7575103,0.4446585,-2.155354,-0.3648338,-0.01999128
601.2906,-0.04671044,-0.759971,0.4448922,-2.155926,-0.3650907,-0.01999218
601.3055,-0.04560712,-0.7630073,0.4451665,-2.156519,-0.3653097,-0.01999295
601.321,-0.04452304,-0.7663831,0.4454608,-2.157082,-0.3654815,-0.01999359
601.335,-0.04452304,-0.7663831,0.4454608,-2.157082,-0.3654815,-0.01999359
601.3491,-0.04345619,-0.7699518,0.4457579,-2.157604,-0.365621,-0.01999415
601.3644,-0.04241079,-0.774385,0.4460073,-2.15829,-0.3659481,-0.01999513
601.3791,-0.04241079,-0.774385,0.4460073,-2.15829,-0.3659481,-0.01999513
601.3932,-0.04138495,-0.7793285,0.4462941,-2.158998,-0.366241,-0.01999598
601.4089,-0.04037635,-0.7845632,0.4466002,-2.159676,-0.3664873,-0.0199967
601.4236,-0.03938298,-0.7899534,0.4469092,-2.160314,-0.3667004,-0.01999735
601.4387,-0.03938298,-0.7899534,0.4469092,-2.160314,-0.3667004,-0.01999735
601.4528,-0.03840934,-0.7961766,0.4471699,-2.161115,-0.367102,-0.01999841
601.4681,-0.03745329,-0.8028833,0.4474684,-2.161937,-0.3674681,-0.01999935
601.4829,-0.03651258,-0.8098571,0.4477868,-2.162727,-0.3677853,-0.02000014
601.4978,-0.03651258,-0.8098571,0.4477868,-2.162727,-0.3677853,-0.02000014
601.512,-0.03559165,-0.8177254,0.4480631,-2.163677,-0.3682801,-0.02000133
601.5272,-0.03468777,-0.826108,0.4483793,-2.16464,-0.3687312,-0.02000236
601.5421,-0.03379843,-0.8347691,0.4487155,-2.165564,-0.3691275,-0.02000325
601.5581,-0.03379843,-0.8347691,0.4487155,-2.165564,-0.3691275,-0.02000325
601.5721,-0.03292168,-0.8435625,0.4490547,-2.166437,-0.3694839,-0.02000406
601.5864,-0.03206267,-0.8531597,0.4493424,-2.167466,-0.3700292,-0.02000529
601.601,-0.03121864,-0.8632079,0.449668,-2.168507,-0.370535,-0.02000638
601.6158,-0.03121864,-0.8632079,0.449668,-2.168507,-0.370535,-0.02000638
601.6301,-0.03038731,-0.8734883,0.4500142,-2.16951,-0.3709867,-0.02000733
601.6454,-0.029567,-0.8838655,0.4503643,-2.170464,-0.3713979,-0.02000819
601.6604,-0.02876348,-0.8950174,0.450662,-2.171573,-0.3720006,-0.02000948
601.6752,-0.02876348,-0.8950174,0.450662,-2.171573,-0.3720006,-0.02000948
601.6895,-0.0279737,-0.9065958,0.4509987,-2.172694,-0.372563,-0.02001063
601.705,-0.02719539,-0.9183845,0.451357,-2.173776,-0.3730694,-0.02001163
601.7197,-0.02719539,-0.9183845,0.451357,-2.173776,-0.3730694,-0.02001163
601.7337,-0.02643426,-0.9310116,0.4516694,-2.175011,-0.373757,-0.02001304
601.7493,-0.02568653,-0.9440979,0.4520233,-2.176252,-0.3743965,-0.02001428
601.7642,-0.02494968,-0.9574081,0.4523992,-2.177445,-0.374974,-0.02001537
601.7788,-0.02494968,-0.9574081,0.4523992,-2.177445,-0.374974,-0.02001537
601.7947,-0.02422208,-0.9707963,0.4527794,-2.17858,-0.3755047,-0.02001636
601.8093,-0.02351046,-0.9849344,0.4531034,-2.179864,-0.3762296,-0.02001779
601.8229,-0.02281081,-0.9994707,0.4534669,-2.181154,-0.3769113,-0.02001907
601.8378,-0.02281081,-0.9994707,0.4534669,-2.181154,-0.3769113,-0.02001907
601.8519,-0.02212069,-1.014187,0.453853,-2.1824,-0.3775324,-0.0200202
601.8671,-0.02143874,-1.028948,0.4542392,-2.183458,-0.3781175,-0.02002107
601.8818,-0.0207724,-1.044432,0.4545563,-2.184224,-0.3789311,-0.02002198
601.8967,-0.0207724,-1.044432,0.4545563,-2.184224,-0.3789311,-0.02002198
601.9107,-0.02011704,-1.060292,0.4549151,-2.184514,-0.3797128,-0.02002257
601.9265,-0.0194702,-1.076313,0.4553097,-2.184435,-0.3804205,-0.02002303
601.9413,-0.01883061,-1.092361,0.4557244,-2.184184,-0.3810558,-0.02002352
601.9562,-0.01883061,-1.092361,0.4557244,-2.184184,-0.3810558,-0.02002352
601.9703,-0.01820642,-1.109115,0.456092,-2.184132,-0.3818645,-0.02002459
601.9857,-0.01759222,-1.12623,0.456502,-2.184139,-0.3826167,-0.02002552
602.0005,-0.0169855,-1.14349,0.4569346,-2.184133,-0.3832986,-0.02002625
602.0151,-0.0169855,-1.14349,0.4569346,-2.184133,-0.3832986,-0.02002625
602.0316,-0.01639433,-1.161525,0.4573179,-2.184304,-0.384158,-0.02002739
602.046,-0.01581232,-1.179956,0.4577411,-2.184437,-0.3849633,-0.02002828
602.0594,-0.01581232,-1.179956,0.4577411,-2.184437,-0.3849633,-0.02002828
602.0737,-0.01523681,-1.19855,0.4581871,-2.18446,-0.3856962,-0.02002895
602.0894,-0.01466682,-1.21716,0.4586403,-2.184395,-0.386367,-0.02002951
602.1038,-0.01411177,-1.236459,0.4590391,-2.1845,-0.3872201,-0.02003057
602.1185,-0.01411177,-1.236459,0.4590391,-2.1845,-0.3872201,-0.02003057
602.1326,-0.01356452,-1.256097,0.4594757,-2.18459,-0.3880214,-0.0200314
602.1481,-0.01302257,-1.275857,0.4599343,-2.1846,-0.3887518,-0.02003204
602.163,-0.01248518,-1.295603,0.4603992,-2.184542,-0.3894216,-0.02003258
602.178,-0.01248518,-1.295603,0.4603992,-2.184542,-0.3894216,-0.02003258
602.1934,-0.0119624,-1.316007,0.4608102,-2.184659,-0.3902727,-0.02003358
602.2075,-0.01144611,-1.336726,0.4612573,-2.184762,-0.3910736,-0.02003436
602.2222,-0.01093391,-1.357548,0.4617253,-2.18478,-0.3918044,-0.02003494
602.2372,-0.01093391,-1.357548,0.4617253,-2.18478,-0.3918044,-0.02003494
602.2511,-0.01025016,-1.365734,0.4630838,-2.181234,-0.3886058,-0.02002684
602.2662,-0.0095005,-1.36609,0.4636887,-2.177672,-0.3855953,-0.02002181
602.2819,-0.008689595,-1.361655,0.4637386,-2.174566,-0.3832923,-0.02001849
602.2959,-0.008689595,-1.361655,0.4637386,-2.174566,-0.3832923,-0.02001849
602.3099,-0.007904183,-1.354311,0.4636313,-2.171965,-0.3814772,-0.02001617
602.3251,-0.007175189,-1.345227,0.4635418,-2.169785,-0.3799429,-0.02001428
602.3401,-0.006500155,-1.335118,0.4635117,-2.167923,-0.3785713,-0.02001257
602.3549,-0.006500155,-1.335118,0.4635117,-2.167923,-0.3785713,-0.02001257
602.3688,-0.00586684,-1.324425,0.463534,-2.166287,-0.3773026,-0.02001095
602.3841,-0.005263278,-1.313421,0.463592,-2.164813,-0.3761069,-0.02000939
602.399,-0.005263278,-1.313421,0.463592,-2.164813,-0.3761069,-0.02000939
602.4133,-0.004680459,-1.302272,0.4636785,-2.163455,-0.3749774,-0.0200079
602.4288,-0.004112275,-1.291083,0.4637849,-2.16218,-0.3738939,-0.02000646
602.4435,-0.003554778,-1.279917,0.463901,-2.160969,-0.3728497,-0.02000507
602.4583,-0.003554778,-1.279917,0.463901,-2.160969,-0.3728497,-0.02000507
602.4727,-0.00300546,-1.268815,0.4633005,-2.159726,-0.3709401,-0.02000097
602.4883,-0.002462797,-1.257799,0.4618757,-2.158509,-0.3691975,-0.01999739
602.5027,-0.001925842,-1.246885,0.4600008,-2.157345,-0.367698,-0.01999448
602.5185,-0.001925842,-1.246885,0.4600008,-2.157345,-0.367698,-0.01999448
602.5323,-0.001394015,-1.236081,0.4579251,-2.156234,-0.3663583,-0.01999201
602.5471,-0.0008669459,-1.225392,0.455045,-2.15509,-0.3642135,-0.01998705
602.5616,-0.0003444437,-1.21482,0.4513197,-2.153975,-0.3622741,-0.01998272
602.5766,-0.0003444437,-1.21482,0.4513197,-2.153975,-0.3622741,-0.01998272
602.5906,0.0001736041,-1.204366,0.4471558,-2.152913,-0.360597,-0.01997913
602.6062,0.0006872615,-1.194031,0.4428149,-2.151907,-0.3590907,-0.01997601
602.621,0.001196581,-1.183813,0.4376893,-2.150869,-0.3567862,-0.01997046
602.6357,0.001196581,-1.183813,0.4376893,-2.150869,-0.3567862,-0.01997046
602.6497,0.001701555,-1.173712,0.4317446,-2.149863,-0.3547005,-0.01996556
602.6652,0.002202176,-1.163728,0.4253929,-2.148913,-0.3528851,-0.01996144
602.6801,0.002698437,-1.153859,0.4188961,-2.14802,-0.3512467,-0.01995779
602.6951,0.002698437,-1.153859,0.4188961,-2.14802,-0.3512467,-0.01995779
602.7093,0.003190344,-1.144104,0.4116378,-2.147098,-0.3488147,-0.01995177
602.7247,0.003677869,-1.134462,0.4035876,-2.146211,-0.3466132,-0.01994644
602.7401,0.00416099,-1.124931,0.3951617,-2.145382,-0.3446887,-0.01994189
602.7553,0.00416099,-1.124931,0.3951617,-2.145382,-0.3446887,-0.01994189
602.7695,0.004639714,-1.11551,0.3858707,-2.144534,-0.3420392,-0.01993519
602.7836,0.005114012,-1.106199,0.3757575,-2.143728,-0.3396623,-0.0199293
602.7984,0.005114012,-1.106199,0.3757575,-2.143728,-0.3396623,-0.0199293
602.8126,0.005583867,-1.096996,0.3652737,-2.142986,-0.3375844,-0.01992425
602.8285,0.00604927,-1.087899,0.3546953,-2.142305,-0.3357018,-0.01991973
602.843,0.006510233,-1.078909,0.3433981,-2.141603,-0.3330383,-0.01991295
602.8578,0.006510233,-1.078909,0.3433981,-2.141603,-0.3330383,-0.01991295
602.8719,0.006966733,-1.070022,0.3313607,-2.140941,-0.3306267,-0.01990692
602.8878,0.007418761,-1.061239,0.3190061,-2.140341,-0.3285053,-0.01990171
602.9023,0.007866315,-1.052558,0.306596,-2.1398,-0.3265771,-0.01989702
602.9169,0.007866315,-1.052558,0.306596,-2.1398,-0.3265771,-0.01989702
602.9313,0.008309411,-1.043977,0.2934935,-2.139238,-0.3238683,-0.01989011
602.9468,0.008748037,-1.035497,0.2796775,-2.138717,-0.3214181,-0.01988396
602.9613,0.00918219,-1.027116,0.2655722,-2.138256,-0.3192621,-0.01987863
602.9763,0.00918219,-1.027116,0.2655722,-2.138256,-0.3192621,-0.01987863
602.9925,0.009611891,-1.018832,0.2506717,-2.137781,-0.3163927,-0.0198713
603.0059,0.01003713,-1.010644,0.2350266,-2.137353,-0.3138206,-0.01986485
603.0206,0.01045792,-1.002552,0.2190952,-2.13699,-0.3115625,-0.01985927
603.0352,0.01045792,-1.002552,0.2190952,-2.13699,-0.3115625,-0.01985927
603.0494,0.01087426,-0.9945545,0.2031526,-2.136687,-0.3095121,-0.01985424
603.0646,0.01128618,-0.9866502,0.1865585,-2.136366,-0.3066911,-0.01984713
603.0796,0.01128618,-0.9866502,0.1865585,-2.136366,-0.3066911,-0.01984713
603.0936,0.01169369,-0.9788382,0.1692974,-2.136089,-0.3041437,-0.0198408
603.1091,0.01209679,-0.9711174,0.1517986,-2.135872,-0.3019002,-0.01983529
603.1239,0.01249549,-0.9634869,0.1343233,-2.135712,-0.2998609,-0.01983033
603.1395,0.01249549,-0.9634869,0.1343233,-2.135712,-0.2998609,-0.01983033
603.1531,0.01288983,-0.9559456,0.1162212,-2.135533,-0.2970504,-0.01982334
603.1687,0.01327982,-0.9484924,0.09747568,-2.135396,-0.2945171,-0.01981713
603.1833,0.01366548,-0.9411265,0.0785163,-2.135317,-0.2922899,-0.01981175
603.1982,0.01366548,-0.9411265,0.0785163,-2.135317,-0.2922899,-0.01981175
603.2123,0.01404683,-0.9338468,0.05882734,-2.135224,-0.2893577,-0.01980455
603.2288,0.01442389,-0.9266524,0.03846256,-2.135178,-0.2867387,-0.01979823
603.2426,0.01479668,-0.9195423,0.01788425,-2.135191,-0.2844442,-0.01979277
603.257,0.01479668,-0.9195423,0.01788425,-2.135191,-0.2844442,-0.01979277
603.2714,0.01516522,-0.9125155,-0.002633387,-2.13526,-0.2823661,-0.01978788
603.287,0.01552956,-0.9055711,-0.02373902,-2.13531,-0.2795252,-0.01978109
603.3016,0.0158897,-0.8987082,-0.04544638,-2.135402,-0.2769712,-0.01977508
603.3163,0.0158897,-0.8987082,-0.04544638,-2.135402,-0.2769712,-0.01977508
603.3304,0.01624568,-0.8919258,-0.06732345,-2.135548,-0.2747304,-0.01976989
603.3457,0.01659752,-0.885223,-0.08910972,-2.135745,-0.2727019,-0.01976526
603.3609,0.01694525,-0.8785989,-0.1106829,-2.135984,-0.2708204,-0.01976101
603.3759,0.01694525,-0.8785989,-0.1106829,-2.135984,-0.2708204,-0.01976101
603.3897,0.0172889,-0.8720527,-0.1319907,-2.136262,-0.2690537,-0.01975707
603.4052,0.0176285,-0.8655835,-0.1530125,-2.136575,-0.2673858,-0.01975339
603.4199,0.0176285,-0.8655835,-0.1530125,-2.136575,-0.2673858,-0.01975339
603.4343,0.01796408,-0.8591903,-0.1737417,-2.136917,-0.2658079,-0.01974995
603.4495,0.01829568,-0.8528723,-0.1941776,-2.137288,-0.2643152,-0.01974674
603.4651,0.01862333,-0.8466286,-0.2143223,-2.137685,-0.2629039,-0.01974373
603.4799,0.01862333,-0.8466286,-0.2143223,-2.137685,-0.2629039,-0.01974373
603.493,0.01894706,-0.8404585,-0.2341787,-2.138105,-0.2615712,-0.01974092
603.5087,0.01926691,-0.8343609,-0.2537504,-2.138548,-0.2603146,-0.01973831
603.5231,0.01958291,-0.8283352,-0.273041,-2.139011,-0.2591316,-0.01973589
603.5386,0.01958291,-0.8283352,-0.273041,-2.139011,-0.2591316,-0.01973589
603.5519,0.0198951,-0.8223804,-0.2920542,-2.139493,-0.2580201,-0.01973364
603.5676,0.02020352,-0.8164959,-0.3107937,-2.139993,-0.2569779,-0.01973157
603.5821,0.02050819,-0.8106807,-0.3292632,-2.140509,-0.2560028,-0.01972966
603.597,0.02050819,-0.8106807,-0.3292632,-2.140509,-0.2560028,-0.01972966
603.6111,0.02080916,-0.8049341,-0.3474663,-2.141039,-0.2550928,-0.01972792
603.6267,0.02110646,-0.7992553,-0.3654068,-2.141583,-0.254246,-0.01972633
603.6416,0.02140012,-0.7936434,-0.3830881,-2.142138,-0.2534603,-0.01972487
603.6564,0.02140012,-0.7936434,-0.3830881,-2.142138,-0.2534603,-0.01972487
603.6705,0.0216902,-0.7880978,-0.4005139,-2.142705,-0.2527341,-0.01972356
603.6858,0.02197671,-0.7826176,-0.4176878,-2.143281,-0.2520653,-0.01972239
603.7025,0.0222597,-0.7772022,-0.4346131,-2.143866,-0.2514522,-0.01972135
603.716,0.0222597,-0.7772022,-0.4346131,-2.143866,-0.2514522,-0.01972135
603.7293,0.02253921,-0.7718507,-0.4512934,-2.144458,-0.2508932,-0.01972043
603.7448,0.02281527,-0.7665624,-0.4677321,-2.145057,-0.2503865,-0.01971962
603.7594,0.02281527,-0.7665624,-0.4677321,-2.145057,-0.2503865,-0.01971962
603.7738,0.02308792,-0.7613366,-0.4839326,-2.145662,-0.2499305,-0.01971894
603.7891,0.02335719,-0.7561726,-0.4998983,-2.146271,-0.2495236,-0.01971836
603.804,0.02362313,-0.7510696,-0.5156324,-2.146883,-0.2491643,-0.0197179
603.8185,0.02362313,-0.7510696,-0.5156324,-2.146883,-0.2491643,-0.0197179
603.8328,0.02388577,-0.746027,-0.5311382,-2.147499,-0.2488511,-0.01971753
603.8484,0.02414515,-0.741044,-0.546419,-2.148117,-0.2485825,-0.01971726
603.8632,0.0244013,-0.7361199,-0.561478,-2.148736,-0.248357,-0.01971708
603.8782,0.0244013,-0.7361199,-0.561478,-2.148736,-0.248357,-0.01971708
603.8922,0.02465426,-0.7312541,-0.5763182,-2.149356,-0.2481733,-0.01971699
603.9079,0.02490407,-0.7264459,-0.5909429,-2.149975,-0.2480301,-0.01971699
603.9222,0.02515076,-0.7216945,-0.6053551,-2.150594,-0.2479259,-0.01971708
603.9393,0.02515076,-0.7216945,-0.6053551,-2.150594,-0.2479259,-0.01971708
603.9522,0.02539437,-0.7169995,-0.6195579,-2.151212,-0.2478596,-0.01971724
603.9667,0.02563493,-0.71236,-0.6335543,-2.151828,-0.2478298,-0.01971748
603.9812,0.02587249,-0.7077755,-0.6473472,-2.152442,-0.2478354,-0.01971779
603.9959,0.02587249,-0.7077755,-0.6473472,-2.152442,-0.2478354,-0.01971779
604.0103,0.02610707,-0.7032452,-0.6609395,-2.153052,-0.2478752,-0.01971817
604.0257,0.02633871,-0.6987687,-0.6743341,-2.153659,-0.247948,-0.01971862
604.0403,0.02656745,-0.6943452,-0.6875339,-2.154263,-0.2480526,-0.01971913
604.0551,0.02656745,-0.6943452,-0.6875339,-2.154263,-0.2480526,-0.01971913
604.0693,0.02679332,-0.6899741,-0.7005417,-2.154862,-0.2481881,-0.0197197
604.0847,0.02701635,-0.6856548,-0.7133603,-2.155456,-0.2483533,-0.01972034
604.0998,0.02701635,-0.6856548,-0.7133603,-2.155456,-0.2483533,-0.01972034
604.1138,0.02723659,-0.6813866,-0.7259924,-2.156046,-0.2485472,-0.01972103
604.1293,0.02745406,-0.6771691,-0.7384406,-2.15663,-0.2487687,-0.01972177
604.1443,0.02766879,-0.6730016,-0.7507077,-2.157208,-0.2490169,-0.01972257
604.159,0.02766879,-0.6730016,-0.7507077,-2.157208,-0.2490169,-0.01972257
604.1732,0.02788083,-0.6688836,-0.7627963,-2.15778,-0.2492908,-0.01972341
604.1898,0.0280902,-0.6648144,-0.774709,-2.158346,-0.2495895,-0.01972431
604.2033,0.02829694,-0.6607935,-0.7864482,-2.158906,-0.2499121,-0.01972525
604.218,0.02829694,-0.6607935,-0.7864482,-2.158906,-0.2499121,-0.01972525
604.2321,0.02850107,-0.6568202,-0.7980166,-2.159458,-0.2502576,-0.01972623
604.2477,0.02870264,-0.6528941,-0.8094166,-2.160004,-0.2506253,-0.01972726
604.2624,0.02890167,-0.6490147,-0.8206506,-2.160542,-0.2510142,-0.01972832
604.2775,0.02890167,-0.6490147,-0.8206506,-2.160542,-0.2510142,-0.01972832
604.2928,0.0290982,-0.6451812,-0.8317211,-2.161073,-0.2514235,-0.01972942
604.3073,0.02929226,-0.6413933,-0.8426304,-2.161597,-0.2518525,-0.01973056
604.3217,0.02948387,-0.6376503,-0.8533809,-2.162112,-0.2523003,-0.01973173
604.3365,0.02948387,-0.6376503,-0.8533809,-2.162112,-0.2523003,-0.01973173
604.3506,0.02967306,-0.6339518,-0.8639749,-2.16262,-0.2527663,-0.01973294
604.3661,0.02985988,-0.6302972,-0.8744146,-2.163119,-0.2532495,-0.01973418
604.381,0.03004435,-0.626686,-0.8847022,-2.16361,-0.2537494,-0.01973545
604.3958,0.03004435,-0.626686,-0.8847022,-2.16361,-0.2537494,-0.01973545
604.4123,0.03022649,-0.6231177,-0.8948401,-2.164094,-0.2542653,-0.01973674
604.4263,0.03040634,-0.6195918,-0.9048303,-2.164569,-0.2547964,-0.01973806
604.4402,0.03058392,-0.6161077,-0.9146751,-2.165035,-0.255342,-0.01973941
604.4548,0.03058392,-0.6161077,-0.9146751,-2.165035,-0.255342,-0.01973941
604.4688,0.03075927,-0.6126651,-0.9243764,-2.165493,-0.2559016,-0.01974079
604.4842,0.03093242,-0.6092633,-0.9339365,-2.165943,-0.2564745,-0.01974218
604.4992,0.03093242,-0.6092633,-0.9339365,-2.165943,-0.2564745,-0.01974218
604.5132,0.03110338,-0.605902,-0.9433574,-2.166384,-0.2570601,-0.0197436
604.5287,0.0312722,-0.6025806,-0.9526411,-2.166816,-0.2576578,-0.01974504
604.5438,0.03143889,-0.5992987,-0.9617895,-2.16724,-0.258267,-0.0197465
604.5586,0.03143889,-0.5992987,-0.9617895,-2.16724,-0.258267,-0.0197465
604.573,0.03160349,-0.5960558,-0.9708047,-2.167656,-0.2588871,-0.01974798
604.5883,0.03176601,-0.5928515,-0.9796886,-2.168062,-0.2595176,-0.01974948
604.6031,0.03192649,-0.5896852,-0.9884431,-2.16846,-0.260158,-0.01975099
604.6179,0.03192649,-0.5896852,-0.9884431,-2.16846,-0.260158,-0.01975099
604.632,0.03208495,-0.5865566,-0.99707,-2.168849,-0.2608077,-0.01975253
604.6484,0.03224143,-0.5834652,-1.005571,-2.16923,-0.2614663,-0.01975407
604.6623,0.03239593,-0.5804105,-1.013949,-2.169602,-0.2621332,-0.01975563
604.6769,0.03239593,-0.5804105,-1.013949,-2.169602,-0.2621332,-0.01975563
604.691,0.0325485,-0.5773922,-1.022204,-2.169966,-0.2628079,-0.01975721
604.7066,0.03269915,-0.5744098,-1.030339,-2.170321,-0.2634901,-0.01975879
604.7212,0.03284791,-0.5714628,-1.038356,-2.170668,-0.2641792,-0.01976039
604.7358,0.03284791,-0.5714628,-1.038356,-2.170668,-0.2641792,-0.01976039
604.7501,0.0329948,-0.5685509,-1.046255,-2.171006,-0.2648748,-0.019762
604.7656,0.03313985,-0.5656736,-1.05404,-2.171336,-0.2655766,-0.01976362
604.7805,0.03328308,-0.5628306,-1.061711,-2.171658,-0.266284,-0.01976525
604.7953,0.03328308,-0.5628306,-1.061711,-2.171658,-0.266284,-0.01976525
604.8094,0.03342451,-0.5600213,-1.06927,-2.171971,-0.2669966,-0.01976689
604.825,0.03356417,-0.5572456,-1.07672,-2.172276,-0.2677141,-0.01976854
604.8401,0.03370208,-0.5545028,-1.08406,-2.172573,-0.2684362,-0.01977019
604.8547,0.03370208,-0.5545028,-1.08406,-2.172573,-0.2684362,-0.01977019
604.8687,0.03383827,-0.5517927,-1.091294,-2.172862,-0.2691623,-0.01977185
604.8851,0.03397275,-0.5491148,-1.098422,-2.173143,-0.2698923,-0.01977352
604.8998,0.03397275,-0.5491148,-1.098422,-2.173143,-0.2698923,-0.01977352
604.913,0.03410554,-0.5464688,-1.105446,-2.173416,-0.2706257,-0.01977519
604.9283,0.03423668,-0.5438543,-1.112368,-2.173682,-0.2713621,-0.01977687
604.9433,0.03436617,-0.5412709,-1.119188,-2.173939,-0.2721014,-0.01977855
604.9578,0.03436617,-0.5412709,-1.119188,-2.173939,-0.2721014,-0.01977855
604.9721,0.03449405,-0.5387183,-1.12591,-2.174189,-0.2728431,-0.01978023
604.9875,0.03462032,-0.536196,-1.132533,-2.174431,-0.273587,-0.01978192
605.0022,0.03474502,-0.5337037,-1.139059,-2.174666,-0.2743327,-0.01978362
605.0173,0.03474502,-0.5337037,-1.139059,-2.174666,-0.2743327,-0.01978362
605.0314,0.03486816,-0.5312412,-1.145491,-2.174894,-0.27508,-0.01978531
605.0471,0.03498976,-0.5288079,-1.151828,-2.175114,-0.2758285,-0.01978701
605.0616,0.03510985,-0.5264037,-1.158073,-2.175327,-0.2765781,-0.01978871
605.0765,0.03510985,-0.5264037,-1.158073,-2.175327,-0.2765781,-0.01978871
605.0906,0.03522843,-0.524028,-1.164227,-2.175532,-0.2773285,-0.01979041
605.1061,0.03534554,-0.5216807,-1.170291,-2.175731,-0.2780794,-0.01979211
605.1215,0.03546119,-0.5193612,-1.176267,-2.175923,-0.2788305,-0.01979381
605.1357,0.03546119,-0.5193612,-1.176267,-2.175923,-0.2788305,-0.01979381
605.1497,0.0355754,-0.5170694,-1.182155,-2.176108,-0.2795817,-0.01979551
605.165,0.03568818,-0.5148049,-1.187958,-2.176286,-0.2803327,-0.01979721
605.1797,0.03568818,-0.5148049,-1.187958,-2.176286,-0.2803327,-0.01979721
605.1937,0.03579956,-0.5125673,-1.193675,-2.176458,-0.2810832,-0.01979891
605.2098,0.03590955,-0.5103564,-1.199309,-2.176623,-0.2818332,-0.01980061
605.2242,0.03601818,-0.5081719,-1.204861,-2.176782,-0.2825823,-0.01980231
605.2391,0.03601818,-0.5081719,-1.204861,-2.176782,-0.2825823,-0.01980231
605.2531,0.03612545,-0.5060133,-1.210331,-2.176934,-0.2833304,-0.01980401
605.2688,0.03623139,-0.5038804,-1.215722,-2.177081,-0.2840773,-0.0198057
605.2834,0.03633601,-0.501773,-1.221034,-2.177221,-0.2848232,-0.01980739
605.2983,0.03633601,-0.501773,-1.221034,-2.177221,-0.2848232,-0.01980739
605.3124,0.03643933,-0.4996907,-1.226267,-2.177355,-0.2855676,-0.01980908
605.3279,0.03654137,-0.4976331,-1.231423,-2.177483,-0.28631,-0.01981077
605.3429,0.03664215,-0.4956001,-1.236504,-2.177605,-0.2870505,-0.01981245
605.3586,0.03664215,-0.4956001,-1.236504,-2.177605,-0.2870505,-0.01981245
605.3728,0.03674167,-0.4935913,-1.240807,-2.177788,-0.2886862,-0.01981641
605.387,0.03683995,-0.4916064,-1.244214,-2.17798,-0.2901965,-0.01982002
605.4017,0.03693701,-0.4896452,-1.247097,-2.17816,-0.2914935,-0.01982309
605.4163,0.03693701,-0.4896452,-1.247097,-2.17816,-0.2914935,-0.01982309
605.4305,0.03703287,-0.4877073,-1.249007,-2.17839,-0.2935537,-0.01982813
605.446,0.03712754,-0.4857926,-1.249953,-2.178623,-0.2954186,-0.01983265
605.4607,0.03722103,-0.4839006,-1.250365,-2.178836,-0.2970316,-0.01983653
605.4756,0.03722103,-0.4839006,-1.250365,-2.178836,-0.2970316,-0.01983653
605.4899,0.03731336,-0.4820312,-1.25052,-2.179029,-0.2984871,-0.01984003
605.5056,0.03740456,-0.4801841,-1.249859,-2.179271,-0.3007486,-0.01984563
605.52,0.03749463,-0.478359,-1.248325,-2.179517,-0.3028348,-0.01985077
605.5349,0.03749463,-0.478359,-1.248325,-2.179517,-0.3028348,-0.01985077
605.5491,0.03758358,-0.4765556,-1.246315,-2.179745,-0.3046724,-0.01985527
605.5646,0.03767143,-0.4747737,-1.244092,-2.179951,-0.306348,-0.01985937
605.5795,0.03767143,-0.4747737,-1.244092,-2.179951,-0.306348,-0.01985937
605.5955,0.03775821,-0.473013,-1.241091,-2.180208,-0.3088211,-0.0198656
605.6092,0.03784391,-0.4712734,-1.237255,-2.18047,-0.3111117,-0.01987135
605.6238,0.03792855,-0.4695544,-1.232974,-2.180713,-0.3131449,-0.01987642
605.6385,0.03792855,-0.4695544,-1.232974,-2.180713,-0.3131449,-0.01987642
605.6525,0.03801215,-0.467856,-1.227817,-2.181003,-0.3159014,-0.01988348
605.668,0.03809472,-0.4661777,-1.221794,-2.181295,-0.3184337,-0.01988994
605.6827,0.03817628,-0.4645195,-1.215332,-2.181565,-0.3206837,-0.01989565
605.6975,0.03817628,-0.4645195,-1.215332,-2.181565,-0.3206837,-0.01989565
605.7117,0.03825683,-0.462881,-1.208706,-2.181808,-0.3227457,-0.01990089
605.7274,0.0383364,-0.4612621,-1.201365,-2.1821,-0.325582,-0.0199083
605.7422,0.03841499,-0.4596624,-1.193249,-2.182376,-0.3282219,-0.01991514
605.7571,0.03841499,-0.4596624,-1.193249,-2.182376,-0.3282219,-0.01991514
605.7712,0.03849261,-0.4580818,-1.184751,-2.182522,-0.330595,-0.01992118
605.7867,0.03856929,-0.4565201,-1.176129,-2.182539,-0.3327818,-0.01992671
605.8016,0.03864503,-0.4549769,-1.166824,-2.182553,-0.3357358,-0.01993446
605.8161,0.03864503,-0.4549769,-1.166824,-2.182553,-0.3357358,-0.01993446
605.8325,0.03871983,-0.4534522,-1.156772,-2.182545,-0.3384859,-0.01994166
605.8458,0.03879373,-0.4519456,-1.146361,-2.182507,-0.3409542,-0.01994813
605.8601,0.03886672,-0.450457,-1.13585,-2.182453,-0.343225,-0.01995409
605.8755,0.03886672,-0.450457,-1.13585,-2.182453,-0.343225,-0.01995409
605.8893,0.03893882,-0.4489861,-1.124683,-2.182478,-0.346256,-0.01996231
605.905,0.03901005,-0.4475328,-1.112798,-2.182515,-0.3490801,-0.01996993
605.9197,0.03901005,-0.4475328,-1.112798,-2.182515,-0.3490801,-0.01996993
605.9336,0.0390804,-0.4460968,-1.100581,-2.18252,-0.3516191,-0.01997675
605.9492,0.0391499,-0.4446779,-1.087602,-2.18257,-0.354849,-0.01998564
605.9641,0.03921855,-0.4432759,-1.07387,-2.182604,-0.3578323,-0.01999382
605.9789,0.03921855,-0.4432759,-1.07387,-2.182604,-0.3578323,-0.01999382
605.9931,0.03928637,-0.4418906,-1.059804,-2.182591,-0.3605072,-0.02000112
606.0087,0.03935336,-0.4405218,-1.045677,-2.182545,-0.3629657,-0.02000787
606.0236,0.03941955,-0.4391693,-1.030942,-2.182566,-0.3661676,-0.02001691
606.0383,0.03941955,-0.4391693,-1.030942,-2.182566,-0.3661676,-0.02001691
606.0522,0.03948493,-0.4378329,-1.015538,-2.182596,-0.3691509,-0.0200253
606.0687,0.03954951,-0.4365125,-0.99985,-2.182592,-0.3718372,-0.02003284
606.0824,0.03961332,-0.4352078,-0.9841352,-2.182557,-0.3743102,-0.02003981
606.0974,0.03961332,-0.4352078,-0.9841352,-2.182557,-0.3743102,-0.02003981
606.1115,0.03967635,-0.4339187,-0.9678409,-2.182588,-0.3775254,-0.02004911
606.1266,0.03973863,-0.4326449,-0.9509027,-2.182623,-0.3805205,-0.02005773
606.1418,0.03980014,-0.4313863,-0.9337025,-2.182619,-0.3832159,-0.02006548
606.1563,0.03980014,-0.4313863,-0.9337025,-2.182619,-0.3832159,-0.02006548
606.1706,0.03986092,-0.4301427,-0.9158147,-2.182663,-0.3865853,-0.02007538
606.1858,0.03992097,-0.4289139,-0.8972452,-2.182693,-0.3896963,-0.02008447
606.2006,0.03998029,-0.4276997,-0.878409,-2.182675,-0.3924859,-0.02009263
606.2157,0.03998029,-0.4276997,-0.878409,-2.182675,-0.3924859,-0.02009263
606.2299,0.0400389,-0.4265001,-0.8595778,-2.182622,-0.395045,-0.02010015
606.2452,0.0400968,-0.4253147,-0.8408961,-2.182557,-0.3974324,-0.02010724
606.2601,0.04015402,-0.4241434,-0.8224276,-2.1825,-0.3996966,-0.02011403
606.275,0.04015402,-0.4241434,-0.8224276,-2.1825,-0.3996966,-0.02011403
606.289,0.04021055,-0.4229861,-0.8041948,-2.182459,-0.4018585,-0.02012056
606.3055,0.04026639,-0.4218426,-0.7862048,-2.182432,-0.4039281,-0.02012686
606.3194,0.04026639,-0.4218426,-0.7862048,-2.182432,-0.4039281,-0.02012686
606.3336,0.04032157,-0.4207127,-0.7684587,-2.182414,-0.405911,-0.02013293
606.3488,0.04037609,-0.4195963,-0.750955,-2.1824,-0.4078108,-0.02013878
606.3635,0.04042996,-0.4184932,-0.7336912,-2.182384,-0.4096303,-0.0201444
606.3785,0.04042996,-0.4184932,-0.7336912,-2.182384,-0.4096303,-0.0201444
606.3925,0.04048309,-0.4174033,-0.7171029,-2.171717,-0.4123508,-0.02013517
606.4094,0.04053557,-0.4163264,-0.7005233,-2.155013,-0.414872,-0.02013195
606.4227,0.04058743,-0.4152623,-0.6839315,-2.135587,-0.4170644,-0.02013112
606.4376,0.04058743,-0.4152623,-0.6839315,-2.135587,-0.4170644,-0.02013112
606.4519,0.04063871,-0.4142109,-0.6673864,-2.11502,-0.4189929,-0.02013132
606.4673,0.04068939,-0.413172,-0.650962,-2.092828,-0.4208131,-0.02013041
606.4822,0.04073951,-0.4121454,-0.6346051,-2.069909,-0.4224182,-0.02013029
606.4974,0.04073951,-0.4121454,-0.6346051,-2.069909,-0.4224182,-0.02013029
606.5114,0.04078906,-0.4111311,-0.6183318,-2.046818,-0.4238154,-0.02013046
606.5287,0.04083807,-0.4101287,-0.6021605,-2.023817,-0.4250219,-0.02013071
606.5427,0.04088651,-0.4091383,-0.5861332,-1.999789,-0.426138,-0.02012957
606.5566,0.04088651,-0.4091383,-0.5861332,-1.999789,-0.426138,-0.02012957
606.5708,0.0409344,-0.4081596,-0.570212,-1.975332,-0.4270506,-0.02012891
606.586,0.04098176,-0.4071926,-0.5544168,-1.950855,-0.4277724,-0.02012841
606.6005,0.0410286,-0.406237,-0.5387638,-1.926555,-0.42832,-0.02012795
606.6156,0.0410286,-0.406237,-0.5387638,-1.926555,-0.42832,-0.02012795
606.6298,0.04107489,-0.4052928,-0.5232807,-1.901278,-0.4287722,-0.02012623
606.6452,0.04112067,-0.4043598,-0.5079468,-1.875608,-0.42904,-0.02012492
606.6602,0.04116594,-0.4034379,-0.4927782,-1.849948,-0.4291428,-0.02012376
606.6751,0.04116594,-0.4034379,-0.4927782,-1.849948,-0.4291428,-0.02012376
606.6894,0.0412107,-0.4025269,-0.4777943,-1.823247,-0.4291449,-0.02012151
606.7049,0.04125495,-0.4016268,-0.4629855,-1.796134,-0.4289832,-0.02011968
606.7195,0.04125495,-0.4016268,-0.4629855,-1.796134,-0.4289832,-0.02011968
606.7335,0.04129871,-0.4007373,-0.4483628,-1.769038,-0.4286775,-0.02011804
606.7491,0.04134199,-0.3998584,-0.4339329,-1.742157,-0.4282428,-0.02011647
606.765,0.04138478,-0.3989899,-0.4197011,-1.71544,-0.427694,-0.02011482
606.7787,0.04138478,-0.3989899,-0.4197011,-1.71544,-0.427694,-0.02011482
606.7927,0.04142708,-0.3981318,-0.4056703,-1.688993,-0.4270366,-0.02011323
606.8083,0.04146891,-0.3972839,-0.3918438,-1.662878,-0.4262805,-0.02011167
606.8229,0.04151026,-0.396446,-0.3782235,-1.637123,-0.4254343,-0.02011013
606.8379,0.04151026,-0.396446,-0.3782235,-1.637123,-0.4254343,-0.02011013
606.8519,0.04155114,-0.3956181,-0.3648111,-1.611738,-0.4245055,-0.0201086
606.8673,0.04159154,-0.3948001,-0.3516074,-1.586727,-0.4235012,-0.02010715
606.8821,0.04163146,-0.3939918,-0.3386129,-1.562087,-0.4224274,-0.02010577
606.897,0.04163146,-0.3939918,-0.3386129,-1.562087,-0.4224274,-0.02010577
606.9113,0.04167092,-0.3931931,-0.3258279,-1.537816,-0.42129,-0.02010443
606.9268,0.04170991,-0.392404,-0.3132521,-1.513909,-0.420094,-0.02010312
606.9417,0.04174843,-0.3916242,-0.3008851,-1.490363,-0.4188442,-0.02010179
606.9566,0.04174843,-0.3916242,-0.3008851,-1.490363,-0.4188442,-0.02010179
606.9708,0.04178648,-0.3908538,-0.2887264,-1.467172,-0.4175449,-0.02010046
606.9861,0.04182407,-0.3900925,-0.2767751,-1.444332,-0.4162,-0.02009913
607.0013,0.0418612,-0.3893404,-0.2650304,-1.421838,-0.4148129,-0.02009783
607.0156,0.0418612,-0.3893404,-0.2650304,-1.421838,-0.4148129,-0.02009783
607.0298,0.04189786,-0.3885972,-0.2534912,-1.399686,-0.4133867,-0.02009657
607.0449,0.04193406,-0.3878629,-0.2421566,-1.37787,-0.4119243,-0.02009536
607.0598,0.04193406,-0.3878629,-0.2421566,-1.37787,-0.4119243,-0.02009536
607.0739,0.04196981,-0.3871374,-0.2310255,-1.356387,-0.4104285,-0.02009417
607.0895,0.0420051,-0.3864205,-0.2200967,-1.335232,-0.4089018,-0.02009303
607.1042,0.04203995,-0.3857123,-0.209369,-1.3144,-0.4073468,-0.02009193
607.1189,0.04203995,-0.3857123,-0.209369,-1.3144,-0.4073468,-0.02009193
607.1333,0.04207435,-0.3850125,-0.1988411,-1.293887,-0.4057662,-0.02009088
607.1489,0.0421083,-0.3843211,-0.1885117,-1.273687,-0.404163,-0.02008986
607.1638,0.04214182,-0.383638,-0.178379,-1.253798,-0.4025403,-0.02008887
607.1787,0.04214182,-0.383638,-0.178379,-1.253798,-0.4025403,-0.02008887
607.1928,0.04217491,-0.382963,-0.1684415,-1.234214,-0.4009016,-0.02008791
607.2085,0.04220757,-0.3822962,-0.1586969,-1.214931,-0.3992503,-0.02008697
607.2244,0.0422398,-0.3816373,-0.1491434,-1.195944,-0.3975901,-0.02008605
607.2382,0.0422398,-0.3816373,-0.1491434,-1.195944,-0.3975901,-0.02008605
607.2521,0.04227161,-0.3809863,-0.1397785,-1.17725,-0.3959248,-0.02008515
607.2676,0.042303,-0.3803431,-0.1305997,-1.158844,-0.3942581,-0.02008425
607.2823,0.04233398,-0.3797077,-0.1216045,-1.140723,-0.3925933,-0.02008336
607.2979,0.04233398,-0.3797077,-0.1216045,-1.140723,-0.3925933,-0.02008336
607.311,0.04236456,-0.3790798,-0.1127903,-1.122881,-0.3909339,-0.02008247
607.3265,0.04239473,-0.3784595,-0.1041542,-1.105315,-0.3892832,-0.02008158
607.3414,0.04242451,-0.3778466,-0.09569338,-1.088021,-0.387644,-0.0200807
607.3565,0.04242451,-0.3778466,-0.09569338,-1.088021,-0.387644,-0.0200807
607.3705,0.0424539,-0.377241,-0.08740506,-1.070995,-0.3860191,-0.02007981
607.386,0.04248291,-0.3766427,-0.07928634,-1.054234,-0.3844111,-0.02007891
607.4008,0.04251153,-0.3760516,-0.0713343,-1.037732,-0.3828222,-0.02007801
607.4155,0.04251153,-0.3760516,-0.0713343,-1.037732,-0.3828222,-0.02007801
607.4301,0.04253978,-0.3754675,-0.06354607,-1.021486,-0.3812546,-0.0200771
607.4451,0.04256766,-0.3748905,-0.05591874,-1.005493,-0.3797101,-0.02007617
607.4611,0.04259518,-0.3743204,-0.04844944,-0.9897488,-0.3781905,-0.02007524
607.4749,0.04259518,-0.3743204,-0.04844944,-0.9897488,-0.3781905,-0.02007524
607.489,0.04262233,-0.3737571,-0.04113531,-0.9742494,-0.3766971,-0.02007429
607.5045,0.04264913,-0.3732005,-0.03397351,-0.9589913,-0.3752314,-0.02007334
607.519,0.04264913,-0.3732005,-0.03397351,-0.9589913,-0.3752314,-0.02007334
607.5333,0.04267558,-0.3726507,-0.02696122,-0.943971,-0.3737946,-0.02007237
607.5487,0.04270168,-0.3721074,-0.02009566,-0.9291847,-0.3723876,-0.02007138
607.5634,0.04272745,-0.3715706,-0.01337406,-0.9146291,-0.3710113,-0.02007038
607.5785,0.04272745,-0.3715706,-0.01337406,-0.9146291,-0.3710113,-0.02007038
607.5927,0.04275287,-0.3710402,-0.006793704,-0.9003006,-0.3696665,-0.02006937
607.6085,0.04277797,-0.3705162,-0.0003518839,-0.8861958,-0.3683539,-0.02006834
607.6233,0.04280274,-0.3699985,0.005954062,-0.8723112,-0.367074,-0.0200673
607.6382,0.04280274,-0.3699985,0.005954062,-0.8723112,-0.367074,-0.0200673
607.6523,0.04282719,-0.369487,0.01212677,-0.8586436,-0.3658272,-0.02006624
607.6677,0.04285132,-0.3689816,0.01816883,-0.8451896,-0.3646138,-0.02006517
607.6835,0.04287513,-0.3684823,0.02408281,-0.831946,-0.3634342,-0.02006407
607.698,0.04287513,-0.3684823,0.02408281,-0.831946,-0.3634342,-0.02006407
607.7115,0.04289864,-0.3679889,0.02987123,-0.8189095,-0.3622885,-0.02006296
607.7269,0.04292185,-0.3675015,0.03553661,-0.8060769,-0.3611768,-0.02006184
607.7416,0.04294475,-0.3670199,0.04108138,-0.7934453,-0.3600992,-0.02006069
607.7565,0.04294475,-0.3670199,0.04108138,-0.7934453,-0.3600992,-0.02006069
607.7708,0.04296736,-0.366544,0.04650797,-0.7810114,-0.3590556,-0.02005953
607.7861,0.04298968,-0.3660739,0.05181877,-0.7687722,-0.358046,-0.02005835
607.8011,0.04301171,-0.3656094,0.05701615,-0.7567248,-0.3570702,-0.02005715
607.816,0.04301171,-0.3656094,0.05701615,-0.7567248,-0.3570702,-0.02005715
607.8303,0.04303346,-0.3651505,0.0621024,-0.7448662,-0.3561281,-0.02005593
607.8458,0.04305493,-0.364697,0.06707983,-0.7331934,-0.3552194,-0.02005469
607.8606,0.04307612,-0.364249,0.07195067,-0.7217036,-0.3543439,-0.02005344
607.8759,0.04307612,-0.364249,0.07195067,-0.7217036,-0.3543439,-0.02005344
607.8899,0.04309704,-0.3638063,0.07671715,-0.710394,-0.3535013,-0.02005216
607.9066,0.04311769,-0.363369,0.08138145,-0.6992618,-0.3526914,-0.02005085
607.9211,0.04313808,-0.3629369,0.08594571,-0.6883042,-0.3519136,-0.02004952
607.9351,0.04313808,-0.3629369,0.08594571,-0.6883042,-0.3519136,-0.02004952
607.9492,0.04315821,-0.3625099,0.09041204,-0.6775185,-0.3511678,-0.02004817
607.9644,0.04317809,-0.3620881,0.09478253,-0.6669022,-0.3504534,-0.0200468
607.9792,0.04317809,-0.3620881,0.09478253,-0.6669022,-0.3504534,-0.0200468
607.9933,0.04319771,-0.3616713,0.09905922,-0.6564524,-0.34977,-0.0200454
608.0089,0.04321708,-0.3612595,0.1032441,-0.6461667,-0.3491173,-0.02004398
608.0237,0.0432362,-0.3608526,0.1073392,-0.6360425,-0.3484947,-0.02004253
608.0389,0.0432362,-0.3608526,0.1073392,-0.6360425,-0.3484947,-0.02004253
608.0527,0.04325509,-0.3604506,0.1113465,-0.6260774,-0.3479019,-0.02004106
608.0684,0.04327373,-0.3600534,0.1152678,-0.6162686,-0.3473382,-0.02003956
608.0831,0.04329214,-0.3596609,0.119105,-0.606614,-0.3468032,-0.02003803
608.098,0.04329214,-0.3596609,0.119105,-0.606614,-0.3468032,-0.02003803
608.1122,0.04331031,-0.3592732,0.12286,-0.597111,-0.3462965,-0.02003648
608.1276,0.04332826,-0.3588901,0.1265347,-0.5877574,-0.3458175,-0.02003489
608.1435,0.04334597,-0.3585115,0.1301307,-0.5785508,-0.3453657,-0.02003327
608.1573,0.04334597,-0.3585115,0.1301307,-0.5785508,-0.3453657,-0.02003327
608.1715,0.04336347,-0.3581375,0.1336499,-0.5694888,-0.3449406,-0.02003163
608.1866,0.04338074,-0.357768,0.1370941,-0.5605693,-0.3445416,-0.02002995
608.2012,0.0433978,-0.3574029,0.1404648,-0.5517899,-0.3441684,-0.02002824
608.216,0.0433978,-0.3574029,0.1404648,-0.5517899,-0.3441684,-0.02002824
608.2303,0.04341464,-0.3570422,0.1437638,-0.5431486,-0.3438202,-0.02002649
608.2457,0.04343127,-0.3566858,0.1470077,-0.5347877,-0.3435175,-0.02002504
608.2605,0.0434477,-0.3563336,0.150182,-0.5266426,-0.3432399,-0.02002342
608.2754,0.0434477,-0.3563336,0.150182,-0.5266426,-0.3432399,-0.02002342
608.2897,0.04346392,-0.3559856,0.1532852,-0.518666,-0.3429812,-0.02002171
608.3052,0.04347994,-0.3556418,0.1563202,-0.5108345,-0.3427412,-0.02001995
608.3202,0.04349577,-0.3553022,0.159428,-0.5043634,-0.3427045,-0.0200213
608.3357,0.04349577,-0.3553022,0.159428,-0.5043634,-0.3427045,-0.0200213
608.3491,0.04351141,-0.3549666,0.162465,-0.4987155,-0.342698,-0.02002132
608.3655,0.04352686,-0.3546349,0.1654039,-0.4935034,-0.3426717,-0.02002081
608.3803,0.04354212,-0.3543073,0.1682577,-0.4885401,-0.3426264,-0.02002006
608.3941,0.04354212,-0.3543073,0.1682577,-0.4885401,-0.3426264,-0.02002006
608.4084,0.0435572,-0.3539836,0.1711885,-0.4849632,-0.3427626,-0.02002268
608.4236,0.04357211,-0.3536637,0.1740547,-0.4821984,-0.3429107,-0.0200238
608.4385,0.04357211,-0.3536637,0.1740547,-0.4821984,-0.3429107,-0.0200238
608.4526,0.04358682,-0.3533477,0.1768323,-0.4798404,-0.3430248,-0.02002433
608.4682,0.04360138,-0.3530355,0.1796855,-0.478922,-0.3433015,-0.0200282
608.4828,0.04361575,-0.352727,0.1824741,-0.4788194,-0.3435711,-0.02003044
608.498,0.04361575,-0.352727,0.1824741,-0.4788194,-0.3435711,-0.02003044
608.5121,0.04362996,-0.3524221,0.1851787,-0.4791036,-0.3437922,-0.02003199
608.5276,0.04364398,-0.3521209,0.1878185,-0.4795687,-0.3439725,-0.02003325
608.5438,0.04365785,-0.3518233,0.1905622,-0.4813434,-0.3443203,-0.020038
608.5576,0.04365785,-0.3518233,0.1905622,-0.4813434,-0.3443203,-0.020038
608.572,0.04367156,-0.3515292,0.1932631,-0.4838503,-0.3446629,-0.02004109
608.5872,0.04368509,-0.3512387,0.1958973,-0.4866829,-0.3449564,-0.02004348
608.6028,0.04369847,-0.3509516,0.1984803,-0.4896464,-0.3452065,-0.02004553
608.6168,0.04369847,-0.3509516,0.1984803,-0.4896464,-0.3452065,-0.02004553
608.6307,0.04371181,-0.350668,0.2022995,-0.5033391,-0.3470867,-0.02007782
608.6459,0.04372503,-0.3503878,0.205932,-0.5231035,-0.3489665,-0.02009614
608.6608,0.04373808,-0.350111,0.2091326,-0.5455787,-0.3504242,-0.02010837
608.6756,0.04373808,-0.350111,0.2091326,-0.5455787,-0.3504242,-0.02010837
608.69,0.04375096,-0.3498375,0.21204,-0.5691552,-0.3515054,-0.02011764
608.7054,0.04376366,-0.3495672,0.2148086,-0.5930617,-0.3523239,-0.02012522
608.7223,0.0437762,-0.3493001,0.2175384,-0.6169297,-0.3529694,-0.02013163
608.7354,0.0437762,-0.3493001,0.2175384,-0.6169297,-0.3529694,-0.02013163
608.7493,0.0437886,-0.3490362,0.2202814,-0.640584,-0.3534993,-0.02013714
608.765,0.04380084,-0.3487755,0.2256261,-0.6639243,-0.357685,-0.02014661
608.7801,0.04381295,-0.3485178,0.2314335,-0.6869082,-0.363269,-0.02015189
608.7947,0.04381295,-0.3485178,0.2314335,-0.6869082,-0.363269,-0.02015189
608.809,0.04382494,-0.3482633,0.2369335,-0.7095362,-0.3691706,-0.02015573
608.8254,0.04383679,-0.3480117,0.2420152,-0.7318166,-0.375043,-0.02015896
608.8392,0.04383679,-0.3480117,0.2420152,-0.7318166,-0.375043,-0.02015896
608.8533,0.04384854,-0.3477631,0.2456485,-0.7537656,-0.3790095,-0.02016029
608.8688,0.04386016,-0.3475174,0.2489279,-0.7753906,-0.382233,-0.02016275
608.8837,0.04387166,-0.3472747,0.2522126,-0.7966886,-0.3852318,-0.02016519
608.8986,0.04387166,-0.3472747,0.2522126,-0.7966886,-0.3852318,-0.02016519
608.9127,0.04388306,-0.3470348,0.2544722,-0.8176666,-0.386235,-0.02016609
608.9281,0.04389434,-0.3467977,0.2567489,-0.8383304,-0.3866297,-0.02016794
608.9429,0.0439055,-0.3465634,0.2592567,-0.8586736,-0.3869348,-0.02016962
608.958,0.0439055,-0.3465634,0.2592567,-0.8586736,-0.3869348,-0.02016962
608.9725,0.04391656,-0.346332,0.2619397,-0.8786939,-0.387259,-0.02017095
608.9879,0.04392752,-0.3461032,0.2636809,-0.898403,-0.3854985,-0.02017114
609.0025,0.04393837,-0.3458771,0.265561,-0.917812,-0.3832752,-0.02017214
609.0175,0.04393837,-0.3458771,0.265561,-0.917812,-0.3832752,-0.02017214
609.0316,0.04394912,-0.3456537,0.2677104,-0.9369144,-0.3810707,-0.02017291
609.0482,0.04395976,-0.345433,0.2700369,-0.9557084,-0.3789463,-0.02017337
609.062,0.04397031,-0.3452148,0.2714789,-0.9742061,-0.374601,-0.02017313
609.0768,0.04397031,-0.3452148,0.2714789,-0.9742061,-0.374601,-0.02017313
609.0908,0.04398075,-0.3449993,0.2731572,-0.9924202,-0.3699628,-0.02017349
609.1063,0.0439911,-0.3447862,0.2751119,-1.010342,-0.3654383,-0.02017359
609.121,0.04400135,-0.3445757,0.2772291,-1.027971,-0.3610431,-0.02017342
609.136,0.04400135,-0.3445757,0.2772291,-1.027971,-0.3610431,-0.02017342
609.1501,0.04401151,-0.3443677,0.2785339,-1.045319,-0.3543122,-0.02017292
609.1657,0.04402157,-0.344162,0.2801417,-1.062399,-0.347475,-0.02017278
609.1807,0.04403153,-0.3439589,0.282006,-1.079201,-0.3408235,-0.02017236
609.1955,0.04403153,-0.3439589,0.282006,-1.079201,-0.3408235,-0.02017236
609.21,0.04404141,-0.3437581,0.283184,-1.095732,-0.3318092,-0.02017178
609.2253,0.0440512,-0.3435597,0.2847205,-1.112004,-0.322845,-0.02017132
609.2403,0.04406089,-0.3433636,0.2865048,-1.128008,-0.3141209,-0.02017058
609.2549,0.04406089,-0.3433636,0.2865048,-1.128008,-0.3141209,-0.02017058
609.2712,0.04407049,-0.3431699,0.2884222,-1.143746,-0.3056047,-0.02016961
609.2848,0.04408001,-0.3429784,0.2897,-1.159226,-0.2946668,-0.02016876
609.2994,0.04408001,-0.3429784,0.2897,-1.159226,-0.2946668,-0.02016876
609.3134,0.04408944,-0.3427892,0.2913129,-1.174463,-0.2839167,-0.02016782
609.3291,0.04409878,-0.3426022,0.2931247,-1.189448,-0.2734369,-0.02016664
609.3439,0.04410803,-0.3424174,0.2950433,-1.204185,-0.2631955,-0.02016529
609.3588,0.04410803,-0.3424174,0.2950433,-1.204185,-0.2631955,-0.02016529
609.3732,0.0441172,-0.3422348,0.2964256,-1.218678,-0.2505419,-0.02016413
609.3887,0.04412628,-0.3420544,0.2981126,-1.232943,-0.2381741,-0.02016276
609.4034,0.04413528,-0.3418761,0.2999613,-1.246973,-0.2261014,-0.02016119
609.4182,0.04413528,-0.3418761,0.2999613,-1.246973,-0.2261014,-0.02016119
609.4325,0.0441442,-0.3416998,0.3013819,-1.260769,-0.2116685,-0.02015976
609.4478,0.04415303,-0.3415257,0.3030891,-1.274346,-0.1975804,-0.0201581
609.4629,0.04416177,-0.3413536,0.3049415,-1.287698,-0.1838164,-0.02015624
609.4776,0.04416177,-0.3413536,0.3049415,-1.287698,-0.1838164,-0.02015624
609.4939,0.04417044,-0.3411836,0.3068718,-1.300831,-0.1703522,-0.02015425
609.5074,0.04417902,-0.3410155,0.3084376,-1.313744,-0.1545721,-0.02015239
609.5219,0.04418752,-0.3408495,0.3102285,-1.326452,-0.1391598,-0.02015033
609.5369,0.04418752,-0.3408495,0.3102285,-1.326452,-0.1391598,-0.02015033
609.5507,0.04419594,-0.3406854,0.3121297,-1.338953,-0.1240864,-0.02014814
609.5662,0.04420428,-0.3405232,0.3140892,-1.351251,-0.1093327,-0.02014586
609.5811,0.04421255,-0.3403629,0.3157611,-1.363344,-0.09231503,-0.02014365
609.5958,0.04421255,-0.3403629,0.3157611,-1.363344,-0.09231503,-0.02014365
609.6104,0.04422073,-0.3402046,0.317611,-1.375247,-0.07567602,-0.02014132
609.6257,0.04422883,-0.3400481,0.3195457,-1.386959,-0.05938978,-0.02013891
609.6407,0.04423686,-0.3398934,0.3215238,-1.398484,-0.04344083,-0.02013646
609.6555,0.04423686,-0.3398934,0.3215238,-1.398484,-0.04344083,-0.02013646
609.6696,0.04424481,-0.3397406,0.3232805,-1.409817,-0.02527193,-0.02013405
609.6855,0.04425268,-0.3395896,0.3251744,-1.420975,-0.007489411,-0.02013158
609.7,0.04426047,-0.3394404,0.3271321,-1.431957,0.009926522,-0.0201291
609.7148,0.04426047,-0.3394404,0.3271321,-1.431957,0.009926522,-0.0201291
609.7301,0.04426819,-0.3392929,0.3289256,-1.442759,0.02952124,-0.02012663
609.7444,0.04427584,-0.3391472,0.3308363,-1.453394,0.04871,-0.02012416
609.7593,0.04427584,-0.3391472,0.3308363,-1.453394,0.04871,-0.02012416
609.7737,0.0442834,-0.3390031,0.3328006,-1.463866,0.06750935,-0.02012171
609.7889,0.04429089,-0.3388608,0.3347905,-1.474177,0.08593079,-0.02011929
609.8038,0.04429831,-0.3387202,0.3366571,-1.484321,0.1065038,-0.0201169
609.8185,0.04429831,-0.3387202,0.3366571,-1.484321,0.1065038,-0.0201169
609.8327,0.04430566,-0.3385812,0.3386043,-1.494313,0.1266614,-0.02011458
609.8483,0.04431292,-0.3384439,0.3405872,-1.504156,0.1464161,-0.02011233
609.863,0.04432011,-0.3383083,0.3425856,-1.513852,0.1657779,-0.02011015
609.8782,0.04432011,-0.3383083,0.3425856,-1.513852,0.1657779,-0.02011015
609.8923,0.04432724,-0.3381742,0.3445084,-1.523395,0.1872683,-0.02010803
609.9078,0.04433428,-0.3380417,0.3464837,-1.5328,0.2083317,-0.02010602
609.9225,0.04434126,-0.3379108,0.3484809,-1.542068,0.2289783,-0.02010412
609.9374,0.04434126,-0.3379108,0.3484809,-1.542068,0.2289783,-0.02010412
609.9537,0.04434817,-0.3377814,0.350442,-1.551194,0.2517274,-0.0201023
609.9669,0.044355,-0.3376535,0.3524395,-1.560191,0.2740281,-0.02010064
609.9817,0.04436176,-0.3375272,0.3544512,-1.569061,0.2958899,-0.02009911
609.9965,0.04436176,-0.3375272,0.3544512,-1.569061,0.2958899,-0.02009911
610.0107,0.04436845,-0.3374024,0.3564668,-1.577807,0.317322,-0.02009771
610.0264,0.04437507,-0.337279,0.3584852,-1.586425,0.340843,-0.02009645
610.0409,0.04438162,-0.3371571,0.3605144,-1.594925,0.3639033,-0.02009535
610.0558,0.04438162,-0.3371571,0.3605144,-1.594925,0.3639033,-0.02009535
610.07,0.0443881,-0.3370367,0.3625456,-1.603309,0.386512,-0.0200944
610.0857,0.0443945,-0.3369177,0.3645742,-1.61158,0.4086784,-0.0200936
610.1006,0.04440084,-0.3368001,0.3665975,-1.61974,0.4304112,-0.02009294
610.1154,0.04440084,-0.3368001,0.3665975,-1.61974,0.4304112,-0.02009294
610.1296,0.04440711,-0.336684,0.368614,-1.627792,0.4517195,-0.02009243
610.1451,0.0444133,-0.3365692,0.3706224,-1.635736,0.4726117,-0.02009205
610.1602,0.04441943,-0.3364557,0.3726216,-1.643576,0.4930964,-0.0200918
610.1759,0.04441943,-0.3364557,0.3726216,-1.643576,0.4930964,-0.0200918
610.1899,0.04442548,-0.3363437,0.3745158,-1.651313,0.5106637,-0.02009157
610.2045,0.04443146,-0.336233,0.3764213,-1.658948,0.5278904,-0.02009148
610.2191,0.04443146,-0.336233,0.3764213,-1.658948,0.5278904,-0.02009148
610.2333,0.04443738,-0.3361236,0.3783239,-1.66648,0.5447825,-0.02009149
610.2488,0.04444322,-0.3360155,0.380089,-1.673912,0.5588225,-0.02009145
610.2635,0.044449,-0.3359087,0.3818769,-1.681242,0.572593,-0.02009153
610.2783,0.044449,-0.3359087,0.3818769,-1.681242,0.572593,-0.02009153
610.2926,0.04445471,-0.3358031,0.3836656,-1.688472,0.5860974,-0.0200917
610.3083,0.04446036,-0.3356988,0.385445,-1.695603,0.5993402,-0.02009194
610.3234,0.04446593,-0.3355958,0.3870387,-1.702633,0.6097929,-0.02009204
610.3383,0.04446593,-0.3355958,0.3870387,-1.702633,0.6097929,-0.02009204
610.3522,0.04447144,-0.3354941,0.3886691,-1.709564,0.6200493,-0.02009225
610.368,0.04447689,-0.3353935,0.3903055,-1.716398,0.6301098,-0.02009252
610.3824,0.04448227,-0.3352941,0.3919341,-1.723136,0.6399766,-0.02009284
610.3985,0.04448227,-0.3352941,0.3919341,-1.723136,0.6399766,-0.02009284
610.4126,0.04448758,-0.3351959,0.3933334,-1.729774,0.647108,-0.02009295
610.4272,0.04449283,-0.3350989,0.3947856,-1.736315,0.6541115,-0.02009316
610.4421,0.04449802,-0.3350031,0.3962508,-1.742762,0.6609842,-0.02009343
610.4565,0.04449802,-0.3350031,0.3962508,-1.742762,0.6609842,-0.02009343
610.4709,0.04450314,-0.3349084,0.3974637,-1.74911,0.6651718,-0.02009344
610.4863,0.0445082,-0.3348148,0.3987461,-1.755361,0.6692922,-0.02009356
610.5013,0.04451321,-0.3347224,0.4000493,-1.761522,0.6733393,-0.02009373
610.5159,0.04451321,-0.3347224,0.4000493,-1.761522,0.6733393,-0.02009373
610.5303,0.04451815,-0.3346311,0.4013514,-1.767591,0.6773109,-0.02009394
610.5457,0.04452302,-0.3345408,0.4023531,-1.773564,0.6786398,-0.02009381
610.5606,0.04452784,-0.3344516,0.4034386,-1.779443,0.6799599,-0.02009379
610.5757,0.04452784,-0.3344516,0.4034386,-1.779443,0.6799599,-0.02009379
610.5897,0.0445326,-0.3343635,0.4045521,-1.785233,0.681263,-0.02009383
610.6054,0.0445373,-0.3342765,0.4056688,-1.790936,0.6825446,-0.02009389
610.6213,0.04454194,-0.3341905,0.4064469,-1.796546,0.6812238,-0.02009358
610.6349,0.04454194,-0.3341905,0.4064469,-1.796546,0.6812238,-0.02009358
610.6492,0.04454652,-0.3341056,0.4073268,-1.802063,0.6799483,-0.02009338
610.6644,0.04455104,-0.3340216,0.4082446,-1.807495,0.6787088,-0.02009323
610.6791,0.04455104,-0.3340216,0.4082446,-1.807495,0.6787088,-0.02009323
610.6954,0.0445555,-0.3339387,0.4088109,-1.812835,0.6749106,-0.0200927
610.709,0.04455991,-0.3338568,0.4094994,-1.818086,0.6712084,-0.0200923
610.7237,0.04456427,-0.3337758,0.4102369,-1.823255,0.6675922,-0.02009195
610.7388,0.04456427,-0.3337758,0.4102369,-1.823255,0.6675922,-0.02009195
610.7526,0.04456857,-0.3336958,0.4109896,-1.828345,0.6640526,-0.02009163
610.7685,0.04457281,-0.3336168,0.4113441,-1.833346,0.6579874,-0.02009088
610.7832,0.044577,-0.3335387,0.4118333,-1.838259,0.6520609,-0.02009024
610.7983,0.044577,-0.3335387,0.4118333,-1.838259,0.6520609,-0.02009024
610.8129,0.04458113,-0.3334616,0.4123799,-1.843095,0.6462664,-0.02008967
610.8279,0.04458522,-0.3333853,0.4129473,-1.847855,0.6405924,-0.02008912
610.8428,0.04458924,-0.33331,0.413085,-1.852531,0.6324283,-0.02008813
610.8585,0.04458924,-0.33331,0.413085,-1.852531,0.6324283,-0.02008813
610.8718,0.04459321,-0.3332357,0.413375,-1.857122,0.6244418,-0.02008723
610.8874,0.04459714,-0.3331621,0.4137339,-1.861639,0.6166313,-0.02008641
610.9019,0.04460102,-0.3330895,0.4141209,-1.866085,0.6089825,-0.02008562
610.9166,0.04460102,-0.3330895,0.4141209,-1.866085,0.6089825,-0.02008562
610.9307,0.04460484,-0.3330178,0.4140497,-1.870452,0.5988793,-0.02008439
610.9462,0.04460861,-0.3329469,0.4141481,-1.874736,0.5889875,-0.02008323
610.9609,0.04461234,-0.3328768,0.414327,-1.878951,0.5793129,-0.02008217
610.9761,0.04461234,-0.3328768,0.414327,-1.878951,0.5793129,-0.02008217
610.9902,0.04461601,-0.3328077,0.4140496,-1.88309,0.5672291,-0.02008069
611.0058,0.04461963,-0.3327393,0.4139642,-1.887149,0.5553942,-0.02007928
611.0206,0.04462321,-0.3326717,0.4139731,-1.891143,0.543819,-0.02007799
611.0355,0.04462321,-0.3326717,0.4139731,-1.891143,0.543819,-0.02007799
611.0499,0.04462675,-0.332605,0.4140261,-1.895076,0.5324839,-0.02007674
611.0654,0.04463023,-0.3325391,0.4135797,-1.898937,0.5187674,-0.02007508
611.0806,0.04463366,-0.3324739,0.413332,-1.902722,0.5053227,-0.02007345
611.0951,0.04463366,-0.3324739,0.413332,-1.902722,0.5053227,-0.02007345
611.1093,0.04463706,-0.3324095,0.4131863,-1.906445,0.4921723,-0.02007194
611.1245,0.04464041,-0.3323459,0.4130906,-1.910112,0.4792949,-0.02007048
611.1396,0.04464041,-0.3323459,0.4130906,-1.910112,0.4792949,-0.02007048
611.1535,0.04464372,-0.3322831,0.4124733,-1.913712,0.4640692,-0.02006866
611.169,0.04464697,-0.3322211,0.4120687,-1.91724,0.449137,-0.02006685
611.1838,0.04465019,-0.3321597,0.4117773,-1.920712,0.4345325,-0.02006517
611.1988,0.04465019,-0.3321597,0.4117773,-1.920712,0.4345325,-0.02006517
611.213,0.04465336,-0.3320992,0.4109758,-1.924122,0.4176251,-0.0200632
611.2286,0.04465649,-0.3320393,0.4104091,-1.927464,0.401042,-0.02006123
611.2435,0.04465958,-0.3319802,0.4099699,-1.930754,0.3848238,-0.02005943
611.2582,0.04465958,-0.3319802,0.4099699,-1.930754,0.3848238,-0.02005943
611.2728,0.04466264,-0.3319218,0.4095964,-1.933995,0.3689442,-0.02005771
611.288,0.04466564,-0.3318641,0.4086704,-1.937183,0.3507838,-0.02005573
611.3039,0.0446686,-0.331807,0.4079809,-1.940306,0.3329599,-0.02005374
611.3175,0.0446686,-0.331807,0.4079809,-1.940306,0.3329599,-0.02005374
611.3314,0.04467154,-0.3317507,0.4074246,-1.94338,0.3155277,-0.02005193
611.347,0.04467443,-0.331695,0.4069385,-1.946411,0.2984598,-0.02005022
611.3618,0.04467728,-0.33164,0.4058821,-1.949395,0.2791401,-0.02004832
611.3767,0.04467728,-0.33164,0.4058821,-1.949395,0.2791401,-0.02004832
611.3907,0.04468009,-0.3315857,0.4050725,-1.952319,0.2601704,-0.02004642
611.4065,0.04468286,-0.331532,0.4044055,-1.9552,0.2416184,-0.0200447
611.4211,0.04468561,-0.331479,0.4038146,-1.958041,0.2234552,-0.0200431
611.4362,0.04468561,-0.331479,0.4038146,-1.958041,0.2234552,-0.0200431
611.4503,0.04468834,-0.3314265,0.4047361,-1.960845,0.2116693,-0.020042
611.4657,0.04469103,-0.3313747,0.4051777,-1.963642,0.2002361,-0.02004113
611.4807,0.04469369,-0.3313235,0.4053613,-1.966403,0.1889391,-0.02004012
611.4956,0.04469369,-0.3313235,0.4053613,-1.966403,0.1889391,-0.02004012
611.5098,0.04469631,-0.3312729,0.4054393,-1.969122,0.1778233,-0.02003905
611.5262,0.0446989,-0.3312229,0.4054782,-1.971797,0.1669108,-0.02003799
611.5401,0.04470145,-0.3311735,0.4055063,-1.97443,0.1562085,-0.02003696
611.5548,0.04470145,-0.3311735,0.4055063,-1.97443,0.1562085,-0.02003696
611.569,0.04470397,-0.3311248,0.4055355,-1.977023,0.1457171,-0.02003596
611.5844,0.0447065,-0.3310766,0.4042069,-1.970392,0.1348056,-0.03503457
611.5992,0.0447065,-0.3310766,0.4042069,-1.970392,0.1348056,-0.03503457
611.6133,0.04470903,-0.331029,0.4036104,-1.966929,0.124421,-0.04973926
611.6288,0.04471153,-0.3309819,0.4033325,-1.965051,0.1143923,-0.06415571
611.6436,0.044714,-0.3309355,0.4032052,-1.963979,0.1046389,-0.07828953
611.6586,0.044714,-0.3309355,0.4032052,-1.963979,0.1046389,-0.07828953
611.673,0.04471643,-0.3308896,0.4033772,-1.965382,0.09522169,-0.08882081
611.6885,0.04471882,-0.3308442,0.4034846,-1.966309,0.08597521,-0.09914561
611.7036,0.04472119,-0.3307993,0.4035844,-1.967025,0.07691567,-0.109268
611.7183,0.04472119,-0.3307993,0.4035844,-1.967025,0.07691567,-0.109268
611.7322,0.04472351,-0.330755,0.4038584,-1.969712,0.06811965,-0.1158586
611.7489,0.04472579,-0.3307112,0.4040597,-1.971656,0.05947555,-0.1223201
611.7626,0.04472804,-0.3306679,0.4042442,-1.973244,0.05099989,-0.1286549
611.7774,0.04472804,-0.3306679,0.4042442,-1.973244,0.05099989,-0.1286549
611.7914,0.04473027,-0.3306252,0.4044338,-1.974663,0.04269917,-0.1348654
611.8072,0.04473246,-0.330583,0.4047248,-1.978066,0.03461029,-0.1376209
611.8218,0.04473461,-0.3305412,0.4049671,-1.980713,0.02666622,-0.1403224
611.8367,0.04473461,-0.3305412,0.4049671,-1.980713,0.02666622,-0.1403224
611.8508,0.04473674,-0.3305,0.4051968,-1.982983,0.01887581,-0.142971
611.8661,0.04473883,-0.3304592,0.405428,-1.985063,0.01124207,-0.1455676
611.8812,0.04474089,-0.330419,0.4056886,-1.989103,0.003768807,-0.1447801
611.8962,0.04474089,-0.330419,0.4056886,-1.989103,0.003768807,-0.1447801
611.9103,0.04474292,-0.3303792,0.4059226,-1.99236,-0.003566058,-0.144008
611.9257,0.04474492,-0.3303399,0.4061497,-1.995217,-0.01075945,-0.143251
611.9407,0.0447469,-0.330301,0.4063771,-1.997858,-0.0178114,-0.1425089
611.9556,0.0447469,-0.330301,0.4063771,-1.997858,-0.0178114,-0.1425089
611.9696,0.04474884,-0.3302627,0.4065688,-2.002436,-0.02475031,-0.1384481
611.9863,0.04475074,-0.3302248,0.4067569,-2.006208,-0.03155458,-0.1344669
611.9998,0.04475074,-0.3302248,0.4067569,-2.006208,-0.03155458,-0.1344669
612.0141,0.04475262,-0.3301873,0.4069458,-2.009556,-0.03822637,-0.1305638
612.0295,0.04475447,-0.3301503,0.407054,-2.014728,-0.04481853,-0.1234039
612.0441,0.04475628,-0.3301137,0.4071761,-2.019027,-0.05127732,-0.1163845
612.0595,0.04475628,-0.3301137,0.4071761,-2.019027,-0.05127732,-0.1163845
612.0733,0.04475807,-0.3300776,0.4073052,-2.022861,-0.05760892,-0.1095027
612.0892,0.04475983,-0.3300419,0.4074369,-2.026425,-0.06381864,-0.1027559
612.1041,0.04476156,-0.3300067,0.4074316,-2.031876,-0.06999134,-0.09280805
612.1185,0.04476156,-0.3300067,0.4074316,-2.031876,-0.06999134,-0.09280805
612.1328,0.04476326,-0.3299718,0.4074638,-2.036479,-0.07602953,-0.08305531
612.1483,0.04476493,-0.3299374,0.4075128,-2.040617,-0.08194448,-0.07349382
612.1632,0.04476658,-0.3299034,0.4075682,-2.04448,-0.08774441,-0.06411982
612.178,0.04476658,-0.3299034,0.4075682,-2.04448,-0.08774441,-0.06411982
612.1921,0.04476819,-0.3298698,0.4074348,-2.050212,-0.09354691,-0.05159638
612.2087,0.04476978,-0.3298367,0.4073633,-2.055084,-0.09921058,-0.03931852
612.2225,0.04477134,-0.3298039,0.4073195,-2.059478,-0.1047524,-0.0272814
612.2372,0.04477134,-0.3298039,0.4073195,-2.059478,-0.1047524,-0.0272814
612.2513,0.04477286,-0.3297715,0.4070573,-2.065631,-0.1103209,-0.01214708
612.2666,0.04477436,-0.3297395,0.4068785,-2.070865,-0.1157438,0.002690488
612.2814,0.04477584,-0.3297079,0.4067373,-2.075582,-0.1210439,0.01723712
612.2963,0.04477584,-0.3297079,0.4067373,-2.075582,-0.1210439,0.01723712
612.3104,0.04477729,-0.3296766,0.4066126,-2.079982,-0.1262354,0.03149853
612.3259,0.04477872,-0.3296458,0.4064292,-2.084649,-0.1313657,0.04627239
612.3407,0.04478012,-0.3296153,0.4062744,-2.088974,-0.1363853,0.06075655
612.3558,0.04478012,-0.3296153,0.4062744,-2.088974,-0.1363853,0.06075655
612.37,0.0447815,-0.3295852,0.4061339,-2.093069,-0.1413026,0.07495672
612.3858,0.04478286,-0.3295555,0.4060017,-2.096989,-0.1461227,0.08887846
612.4003,0.0447842,-0.3295261,0.4058754,-2.100762,-0.1508486,0.1025272
612.4149,0.0447842,-0.3295261,0.4058754,-2.100762,-0.1508486,0.1025272
612.4315,0.04478552,-0.3294971,0.4057546,-2.104404,-0.155482,0.1159083
612.4447,0.04478682,-0.3294685,0.4056394,-2.107924,-0.1600244,0.1290271
612.4595,0.04478682,-0.3294685,0.4056394,-2.107924,-0.1600244,0.1290271
612.4739,0.0447881,-0.3294401,0.4056159,-2.110844,-0.1644237,0.1410965
612.4893,0.04478937,-0.3294122,0.4055663,-2.113822,-0.1687527,0.1529293
612.5042,0.04479061,-0.3293846,0.4055092,-2.116778,-0.1730033,0.1645301
612.5186,0.04479061,-0.3293846,0.4055092,-2.116778,-0.1730033,0.1645301
612.5328,0.04479184,-0.3293573,0.4054532,-2.119674,-0.1771718,0.1759034
612.5484,0.04479305,-0.3293303,0.4058043,-2.120461,-0.1810055,0.1837204
612.5636,0.04479426,-0.3293037,0.4060062,-2.121877,-0.1848457,0.1913842
612.5781,0.04479426,-0.3293037,0.4060062,-2.121877,-0.1848457,0.1913842
612.5925,0.04479545,-0.3292774,0.406147,-2.123567,-0.1886473,0.1988977
612.6081,0.04479662,-0.3292514,0.4062658,-2.125358,-0.1923888,0.2062638
612.6232,0.04479778,-0.3292257,0.4068168,-2.12514,-0.195787,0.2101523
612.6379,0.04479778,-0.3292257,0.4068168,-2.12514,-0.195787,0.2101523
612.6516,0.04479894,-0.3292004,0.4071975,-2.125613,-0.1992116,0.2139645
612.6685,0.04480008,-0.3291753,0.4075069,-2.126404,-0.202611,0.2177019
612.6819,0.0448012,-0.3291506,0.4077888,-2.127333,-0.2059606,0.2213661
612.6969,0.0448012,-0.3291506,0.4077888,-2.127333,-0.2059606,0.2213661
612.7109,0.04480232,-0.3291261,0.4085304,-2.126292,-0.2089569,0.2216251
612.7263,0.04480343,-0.3291019,0.4090841,-2.12597,-0.2119965,0.2218791
612.7412,0.04480452,-0.329078,0.4095575,-2.125995,-0.2150229,0.2221281
612.756,0.04480452,-0.329078,0.4095575,-2.125995,-0.2150229,0.2221281
612.7702,0.04480562,-0.3290545,0.410486,-2.124168,-0.2177051,0.2190389
612.7855,0.0448067,-0.3290312,0.411205,-2.123128,-0.2204492,0.2160103
612.8003,0.04480778,-0.3290081,0.4118323,-2.122479,-0.2231924,0.213041
612.8154,0.04480778,-0.3290081,0.4118323,-2.122479,-0.2231924,0.213041
612.8296,0.04480884,-0.3289854,0.4124194,-2.12203,-0.2259052,0.21013
612.8451,0.0448099,-0.3289629,0.4134999,-2.119674,-0.2282576,0.2039428
612.8633,0.04481095,-0.3289407,0.414364,-2.118085,-0.2306804,0.1978769
612.8762,0.04481095,-0.3289407,0.414364,-2.118085,-0.2306804,0.1978769
612.8914,0.04481199,-0.3289188,0.4151309,-2.116889,-0.2331105,0.19193
612.9047,0.04481303,-0.3288971,0.4158526,-2.115905,-0.2355181,0.1860996
612.9194,0.04481303,-0.3288971,0.4158526,-2.115905,-0.2355181,0.1860996
612.933,0.04481405,-0.3288757,0.417083,-2.113035,-0.2375635,0.1770504
612.9485,0.04481508,-0.3288545,0.4180831,-2.110949,-0.2396915,0.1681786
612.9634,0.0448161,-0.3288336,0.4189775,-2.109274,-0.2418367,0.1594807
612.9783,0.0448161,-0.3288336,0.4189775,-2.109274,-0.2418367,0.1594807
612.9925,0.04481711,-0.3288129,0.4203643,-2.105824,-0.2436364,0.1476201
613.008,0.04481812,-0.3287925,0.4215004,-2.103219,-0.2455345,0.1359921
613.0229,0.04481912,-0.3287723,0.4225194,-2.101065,-0.2474608,0.1245921
613.0378,0.04481912,-0.3287723,0.4225194,-2.101065,-0.2474608,0.1245921
613.0519,0.04482012,-0.3287524,0.4234797,-2.099169,-0.2493809,0.1134156
613.0675,0.04482111,-0.3287327,0.4249638,-2.095437,-0.2509437,0.09912505
613.0823,0.0448221,-0.3287132,0.4261954,-2.092523,-0.2526073,0.0851147
613.097,0.0448221,-0.3287132,0.4261954,-2.092523,-0.2526073,0.0851147
613.1111,0.04482309,-0.3286939,0.4273062,-2.090056,-0.2543041,0.07137905
613.1277,0.04482406,-0.3286749,0.4283542,-2.087853,-0.2560002,0.05791272
613.1434,0.04409711,-0.3286585,0.4275519,-2.092425,-0.258815,0.05638434
613.1567,0.04409711,-0.3286585,0.4275519,-2.092425,-0.258815,0.05638434
613.1703,0.04291525,-0.3286433,0.4275822,-2.09455,-0.2611369,0.05488614
613.1854,0.04145217,-0.3286287,0.4279524,-2.095535,-0.263202,0.0534174
613.2003,0.0398183,-0.3286141,0.4284475,-2.095999,-0.2651366,0.05197749
613.2153,0.0398183,-0.3286141,0.4284475,-2.095999,-0.2651366,0.05197749
613.2294,0.03808384,-0.3285996,0.428981,-2.096234,-0.266997,0.0505658
613.2448,0.03629335,-0.3285851,0.42952,-2.096375,-0.2688071,0.04918178
613.2595,0.03629335,-0.3285851,0.42952,-2.096375,-0.2688071,0.04918178
613.274,0.03447511,-0.3285705,0.4300533,-2.096482,-0.270577,0.0478249
613.2897,0.03264704,-0.3285559,0.4305778,-2.096582,-0.2723107,0.04649461
613.3046,0.03082044,-0.3285414,0.4310934,-2.096687,-0.2740102,0.04519041
613.3195,0.03082044,-0.3285414,0.4310934,-2.096687,-0.2740102,0.04519041
613.3334,0.02900241,-0.3285269,0.4316005,-2.0968,-0.2756762,0.04391177
613.3499,0.02719738,-0.3285125,0.4320999,-2.096923,-0.2773094,0.0426582
613.3639,0.0254081,-0.3284982,0.4325922,-2.097055,-0.2789103,0.04142922
613.3787,0.0254081,-0.3284982,0.4325922,-2.097055,-0.2789103,0.04142922
613.3927,0.02363621,-0.3284841,0.4330778,-2.097197,-0.2804795,0.04022434
613.4084,0.02188268,-0.3284701,0.433557,-2.097347,-0.2820174,0.03904308
613.4231,0.02014805,-0.3284561,0.43403,-2.097504,-0.2835248,0.03788498
613.4379,0.02014805,-0.3284561,0.43403,-2.097504,-0.2835248,0.03788498
613.452,0.01843257,-0.3284424,0.434497,-2.09767,-0.2850021,0.03674959
