JMolnar6/NonAnthroHands_User_Study/HandsLoggerWithURDF/tempdata/PID 0 (test)/files/Reachy_PID0_JointMotion_gesture_11_52.csv
Time,r_shoulder,r_shoulder_x,r_upper_arm,r_forearm,r_wrist,r_wrist2hand,
748.6684,-0.8554076,-1.417802E-09,NaN,-0.3632208,-1.326556E-07,NaN,1.151269,-5.138541E-07,NaN,-0.6776785,2.115493E-05,0.4322211,8.187637E-08,NaN,NaN,-0.01020839,2.235169E-10,-7.890603E-07,-1.107237E-07,-1.808174E-09,-2.861022E-08
748.6804,-0.8530439,-1.417106E-09,NaN,-0.3623993,-1.326551E-07,NaN,1.151084,-5.139495E-07,NaN,-0.6744992,2.115533E-05,0.4335096,8.197552E-08,NaN,NaN,-0.01003802,2.188603E-10,-7.926366E-07,-1.107234E-07,1.768105E-09,-2.622604E-08
748.6962,-0.8530439,-1.417106E-09,NaN,-0.3623993,-1.326551E-07,NaN,1.151084,-5.139495E-07,NaN,-0.6744992,2.115533E-05,0.4335096,8.197552E-08,NaN,NaN,-0.01003802,2.188603E-10,-7.926366E-07,-1.107234E-07,1.768105E-09,-2.622604E-08
748.7104,-0.8506227,-1.416411E-09,NaN,-0.3615584,-1.326546E-07,NaN,1.150926,-5.140433E-07,NaN,-0.6712103,2.115572E-05,0.4348271,8.207267E-08,NaN,NaN,-0.009871085,2.142037E-10,-7.962129E-07,-1.107232E-07,1.768105E-09,-2.861022E-08
748.7247,-0.8481761,-1.415715E-09,NaN,-0.3607097,-1.326541E-07,NaN,1.150818,-5.141356E-07,NaN,-0.6678971,2.115612E-05,0.4361205,8.216785E-08,NaN,NaN,-0.009707524,2.09547E-10,-7.926366E-07,-1.107229E-07,4.152291E-09,-2.622604E-08
748.7397,-0.8481761,-1.415715E-09,NaN,-0.3607097,-1.326541E-07,NaN,1.150818,-5.141356E-07,NaN,-0.6678971,2.115612E-05,0.4361205,8.216785E-08,NaN,NaN,-0.009707524,2.09547E-10,-7.926366E-07,-1.107229E-07,4.152291E-09,-2.622604E-08
748.7535,-0.8459368,-1.415019E-09,NaN,-0.359937,-1.326536E-07,NaN,1.151105,-5.142235E-07,NaN,-0.6650878,2.115651E-05,0.4368953,8.225829E-08,NaN,NaN,-0.009631335,2.09547E-10,-7.830998E-07,-1.107227E-07,-1.808173E-09,-2.861022E-08
748.7689,-0.8438362,-1.414324E-09,NaN,-0.3592138,-1.326532E-07,NaN,1.151524,-5.143097E-07,NaN,-0.662636,2.115689E-05,0.4374302,8.234689E-08,NaN,NaN,-0.009556741,2.09547E-10,-7.747552E-07,-1.107224E-07,5.760126E-10,-2.622604E-08
748.7836,-0.8418312,-1.413629E-09,NaN,-0.358524,-1.326527E-07,NaN,1.151947,-5.143943E-07,NaN,-0.660373,2.115728E-05,0.4378824,8.243371E-08,NaN,NaN,-0.009483574,2.048904E-10,-7.640263E-07,-1.107222E-07,-6.576545E-09,-2.861022E-08
748.7983,-0.8418312,-1.413629E-09,NaN,-0.358524,-1.326527E-07,NaN,1.151947,-5.143943E-07,NaN,-0.660373,2.115728E-05,0.4378824,8.243371E-08,NaN,NaN,-0.009483574,2.048904E-10,-7.640263E-07,-1.107222E-07,-6.576545E-09,-2.861022E-08
748.8126,-0.840107,-1.412934E-09,NaN,-0.3579344,-1.326522E-07,NaN,1.15269,-5.144774E-07,NaN,-0.6587049,2.115766E-05,0.4378316,8.251877E-08,NaN,NaN,-0.009495895,2.09547E-10,-7.425687E-07,-1.10722E-07,-6.576545E-09,-2.622604E-08
748.8278,-0.8385653,-1.412239E-09,NaN,-0.3574085,-1.326517E-07,NaN,1.153501,-5.145588E-07,NaN,-0.6574267,2.115805E-05,0.4375726,8.26021E-08,NaN,NaN,-0.009507949,2.142037E-10,-7.234952E-07,-1.107217E-07,-3.000266E-09,-2.861022E-08
748.8427,-0.8371444,-1.411545E-09,NaN,-0.3569237,-1.326513E-07,NaN,1.154267,-5.146387E-07,NaN,-0.656342,2.115843E-05,0.4372633,8.268375E-08,NaN,NaN,-0.009519643,2.188603E-10,-7.020375E-07,-1.107215E-07,-3.000266E-09,-2.622604E-08
748.8575,-0.8371444,-1.411545E-09,NaN,-0.3569237,-1.326513E-07,NaN,1.154267,-5.146387E-07,NaN,-0.656342,2.115843E-05,0.4372633,8.268375E-08,NaN,NaN,-0.009519643,2.188603E-10,-7.020375E-07,-1.107215E-07,-3.000266E-09,-2.622604E-08
748.8716,-0.8358051,-1.410852E-09,NaN,-0.3564662,-1.32651E-07,NaN,1.154969,-5.146292E-07,NaN,-0.6553561,2.115884E-05,0.4369572,8.26759E-08,NaN,NaN,-0.009530997,2.048904E-10,-6.853483E-07,-1.107194E-07,-6.576545E-09,-2.861022E-08
748.8874,-0.8347348,-1.410158E-09,NaN,-0.3561042,-1.326503E-07,NaN,1.155966,-5.14775E-07,NaN,-0.6549121,2.115925E-05,0.4361909,8.282333E-08,NaN,NaN,-0.009626172,1.955772E-10,-6.638906E-07,-1.10717E-07,-5.384452E-09,-2.622604E-08
748.9023,-0.8338375,-1.409465E-09,NaN,-0.3558023,-1.326493E-07,NaN,1.157021,-5.149997E-07,NaN,-0.6548229,2.115967E-05,0.4352399,8.304962E-08,NaN,NaN,-0.009719441,1.86264E-10,-6.376646E-07,-1.107144E-07,-7.768637E-09,-2.861022E-08
748.9167,-0.8338375,-1.409465E-09,NaN,-0.3558023,-1.326493E-07,NaN,1.157021,-5.149997E-07,NaN,-0.6548229,2.115967E-05,0.4352399,8.304962E-08,NaN,NaN,-0.009719441,1.86264E-10,-6.376646E-07,-1.107144E-07,-7.768637E-09,-2.861022E-08
748.9328,-0.8330523,-1.408772E-09,NaN,-0.3555384,-1.326482E-07,NaN,1.158024,-5.152622E-07,NaN,-0.6549012,2.116009E-05,0.4342545,8.331373E-08,NaN,NaN,-0.009810751,1.722941E-10,-6.185911E-07,-1.107117E-07,-1.808173E-09,-2.622604E-08
748.9473,-0.8323407,-1.408079E-09,NaN,-0.3552991,-1.326461E-07,NaN,1.158956,-5.155605E-07,NaN,-0.6550567,2.11605E-05,0.4332857,8.344338E-08,NaN,NaN,-0.009900155,1.769507E-10,-5.983255E-07,-1.107114E-07,-4.192359E-09,-2.622604E-08
748.961,-0.8318906,-1.407386E-09,NaN,-0.3551527,-1.326442E-07,NaN,1.160178,-5.158589E-07,NaN,-0.6557349,2.116092E-05,0.4318685,8.344873E-08,NaN,NaN,-0.01007183,1.722941E-10,-5.720995E-07,-1.107115E-07,-7.768637E-09,-2.622604E-08
748.9756,-0.8318906,-1.407386E-09,NaN,-0.3551527,-1.326442E-07,NaN,1.160178,-5.158589E-07,NaN,-0.6557349,2.116092E-05,0.4318685,8.344873E-08,NaN,NaN,-0.01007183,1.722941E-10,-5.720995E-07,-1.107115E-07,-7.768637E-09,-2.622604E-08
748.9896,-0.8316063,-1.406693E-09,NaN,-0.3550639,-1.326426E-07,NaN,1.161449,-5.161572E-07,NaN,-0.6567498,2.116135E-05,0.430279,8.336335E-08,NaN,NaN,-0.01024008,1.722941E-10,-5.411051E-07,-1.107118E-07,-7.768637E-09,-2.622604E-08
749.005,-0.8314273,-1.406E-09,NaN,-0.355011,-1.326411E-07,NaN,1.162659,-5.164555E-07,NaN,-0.6579148,2.116178E-05,0.4286677,8.321194E-08,NaN,NaN,-0.0104049,1.722941E-10,-5.124949E-07,-1.107122E-07,-1.253701E-08,-2.622604E-08
749.0198,-0.8314273,-1.406E-09,NaN,-0.355011,-1.326411E-07,NaN,1.162659,-5.164555E-07,NaN,-0.6579148,2.116178E-05,0.4286677,8.321194E-08,NaN,NaN,-0.0104049,1.722941E-10,-5.124949E-07,-1.107122E-07,-1.253701E-08,-2.622604E-08
749.0339,-0.8315263,-1.405307E-09,NaN,-0.3550562,-1.326397E-07,NaN,1.164141,-5.167538E-07,NaN,-0.6596283,2.11622E-05,0.4266071,8.301261E-08,NaN,NaN,-0.01065043,1.769507E-10,-4.791163E-07,-1.107126E-07,-1.492119E-08,-2.622604E-08
749.0496,-0.8317996,-1.404614E-09,NaN,-0.3551615,-1.326391E-07,NaN,1.165645,-5.17148E-07,NaN,-0.661682,2.116265E-05,0.4243875,8.300905E-08,NaN,NaN,-0.01089105,1.629809E-10,-4.421614E-07,-1.107106E-07,-1.611329E-08,-2.861022E-08
749.0639,-0.8321811,-1.40392E-09,NaN,-0.3553033,-1.326384E-07,NaN,1.167066,-5.176203E-07,NaN,-0.6638787,2.116308E-05,0.4221628,8.316348E-08,NaN,NaN,-0.01112676,1.629809E-10,-4.099749E-07,-1.107082E-07,-1.253701E-08,-2.622604E-08
749.079,-0.8321811,-1.40392E-09,NaN,-0.3553033,-1.326384E-07,NaN,1.167066,-5.176203E-07,NaN,-0.6638787,2.116308E-05,0.4221628,8.316348E-08,NaN,NaN,-0.01112676,1.629809E-10,-4.099749E-07,-1.107082E-07,-1.253701E-08,-2.622604E-08
749.0928,-0.8326288,-1.403227E-09,NaN,-0.3554668,-1.326365E-07,NaN,1.168388,-5.181316E-07,NaN,-0.6661234,2.116351E-05,0.4199835,8.325461E-08,NaN,NaN,-0.01135769,1.676375E-10,-3.801726E-07,-1.10708E-07,-1.611329E-08,-2.622604E-08
749.1085,-0.8333287,-1.402533E-09,NaN,-0.3557199,-1.326348E-07,NaN,1.169977,-5.186429E-07,NaN,-0.6688601,2.116394E-05,0.4173777,8.327103E-08,NaN,NaN,-0.01166797,1.676375E-10,-3.396414E-07,-1.107082E-07,-1.492119E-08,-2.622604E-08
749.1252,-0.8341838,-1.40184E-09,NaN,-0.3560266,-1.326332E-07,NaN,1.171584,-5.191542E-07,NaN,-0.6719021,2.116437E-05,0.4146283,8.323291E-08,NaN,NaN,-0.01197209,1.676375E-10,-3.003024E-07,-1.107085E-07,-1.492119E-08,-2.622604E-08
749.1381,-0.8341838,-1.40184E-09,NaN,-0.3560266,-1.326332E-07,NaN,1.171584,-5.191542E-07,NaN,-0.6719021,2.116437E-05,0.4146283,8.323291E-08,NaN,NaN,-0.01197209,1.676375E-10,-3.003024E-07,-1.107085E-07,-1.492119E-08,-2.622604E-08
749.1522,-0.8351324,-1.401146E-09,NaN,-0.3563647,-1.326317E-07,NaN,1.173106,-5.196655E-07,NaN,-0.6750625,2.116481E-05,0.4118851,8.315505E-08,NaN,NaN,-0.01227007,1.629809E-10,-2.645396E-07,-1.107089E-07,-1.134492E-08,-2.622604E-08
749.1677,-0.8361358,-1.400452E-09,NaN,-0.3567204,-1.326303E-07,NaN,1.174526,-5.201768E-07,NaN,-0.6782518,2.116525E-05,0.4091972,8.304834E-08,NaN,NaN,-0.01256203,1.583243E-10,-2.299689E-07,-1.107093E-07,-7.768637E-09,-2.622604E-08
749.1835,-0.8373817,-1.399758E-09,NaN,-0.3571622,-1.326298E-07,NaN,1.176207,-5.206689E-07,NaN,-0.6819163,2.116569E-05,0.4060869,8.304645E-08,NaN,NaN,-0.01293205,1.490111E-10,-1.870536E-07,-1.107073E-07,-8.96073E-09,-2.861022E-08
749.1979,-0.8373817,-1.399758E-09,NaN,-0.3571622,-1.326298E-07,NaN,1.176207,-5.206689E-07,NaN,-0.6819163,2.116569E-05,0.4060869,8.304645E-08,NaN,NaN,-0.01293205,1.490111E-10,-1.870536E-07,-1.107073E-07,-8.96073E-09,-2.861022E-08
749.2111,-0.8387743,-1.399064E-09,NaN,-0.3576545,-1.32629E-07,NaN,1.177895,-5.212171E-07,NaN,-0.6858704,2.116612E-05,0.402845,8.319971E-08,NaN,NaN,-0.01329474,1.490111E-10,-1.477145E-07,-1.107048E-07,-1.134492E-08,-2.622604E-08
749.2266,-0.8402529,-1.39837E-09,NaN,-0.3581752,-1.326272E-07,NaN,1.179487,-5.218029E-07,NaN,-0.6899282,2.116655E-05,0.399622,8.330239E-08,NaN,NaN,-0.01365012,1.396978E-10,-1.095675E-07,-1.107047E-07,-1.492119E-08,-2.622604E-08
749.241,-0.8417791,-1.397676E-09,NaN,-0.3587108,-1.326255E-07,NaN,1.180969,-5.223886E-07,NaN,-0.6940005,2.116698E-05,0.3964658,8.334072E-08,NaN,NaN,-0.01399835,1.396978E-10,-7.022847E-08,-1.107048E-07,-1.134492E-08,-2.622604E-08
749.2558,-0.8417791,-1.397676E-09,NaN,-0.3587108,-1.326255E-07,NaN,1.180969,-5.223886E-07,NaN,-0.6940005,2.116698E-05,0.3964658,8.334072E-08,NaN,NaN,-0.01399835,1.396978E-10,-7.022847E-08,-1.107048E-07,-1.134492E-08,-2.622604E-08
749.27,-0.8435412,-1.396982E-09,NaN,-0.35933,-1.326239E-07,NaN,1.182701,-5.229743E-07,NaN,-0.6985337,2.116742E-05,0.3928914,8.333204E-08,NaN,NaN,-0.01442343,1.396978E-10,-3.327359E-08,-1.107051E-07,-1.015282E-08,-2.622604E-08
749.2853,-0.8454435,-1.396288E-09,NaN,-0.3599971,-1.326224E-07,NaN,1.184427,-5.2356E-07,NaN,-0.7033427,2.116785E-05,0.3891992,8.328907E-08,NaN,NaN,-0.0148401,1.396978E-10,9.641756E-09,-1.107055E-07,-1.015282E-08,-2.622604E-08
749.3,-0.8474256,-1.395594E-09,NaN,-0.3606902,-1.32621E-07,NaN,1.186045,-5.241457E-07,NaN,-0.7082418,2.116829E-05,0.3855397,8.322115E-08,NaN,NaN,-0.01524839,1.350412E-10,4.898082E-08,-1.107059E-07,-1.134492E-08,-2.622604E-08
749.3148,-0.8474256,-1.395594E-09,NaN,-0.3606902,-1.32621E-07,NaN,1.186045,-5.241457E-07,NaN,-0.7082418,2.116829E-05,0.3855397,8.322115E-08,NaN,NaN,-0.01524839,1.350412E-10,4.898082E-08,-1.107059E-07,-1.134492E-08,-2.622604E-08
749.3289,-0.8496618,-1.394899E-09,NaN,-0.3614727,-1.326197E-07,NaN,1.187889,-5.247314E-07,NaN,-0.71363,2.116873E-05,0.3814579,8.313514E-08,NaN,NaN,-0.01573224,1.303846E-10,9.785663E-08,-1.107064E-07,-1.253701E-08,-2.622604E-08
749.3443,-0.8520476,-1.394204E-09,NaN,-0.3623058,-1.326184E-07,NaN,1.189697,-5.253171E-07,NaN,-0.7192997,2.116917E-05,0.3772746,8.303609E-08,NaN,NaN,-0.01620648,1.210714E-10,1.455403E-07,-1.107069E-07,-1.134492E-08,-2.622604E-08
749.3591,-0.8520476,-1.394204E-09,NaN,-0.3623058,-1.326184E-07,NaN,1.189697,-5.253171E-07,NaN,-0.7192997,2.116917E-05,0.3772746,8.303609E-08,NaN,NaN,-0.01620648,1.210714E-10,1.455403E-07,-1.107069E-07,-1.134492E-08,-2.622604E-08
749.3733,-0.8545166,-1.39351E-09,NaN,-0.3631656,-1.326179E-07,NaN,1.191373,-5.258482E-07,NaN,-0.7250546,2.116962E-05,0.3731428,8.301976E-08,NaN,NaN,-0.01667119,1.024449E-10,1.908399E-07,-1.107048E-07,-1.134492E-08,-2.861022E-08
749.3887,-0.8570274,-1.392815E-09,NaN,-0.3640375,-1.326172E-07,NaN,1.192913,-5.264278E-07,NaN,-0.730801,2.117005E-05,0.3691061,8.316169E-08,NaN,NaN,-0.01712656,9.31317E-11,2.337552E-07,-1.107024E-07,-1.253701E-08,-2.622604E-08
749.4039,-0.8597667,-1.39212E-09,NaN,-0.3649898,-1.326154E-07,NaN,1.194681,-5.270445E-07,NaN,-0.736983,2.117048E-05,0.3646602,8.326153E-08,NaN,NaN,-0.01765647,8.847509E-11,2.838231E-07,-1.107023E-07,-1.968957E-08,-2.622604E-08
749.4183,-0.8597667,-1.39212E-09,NaN,-0.3649898,-1.326154E-07,NaN,1.194681,-5.270445E-07,NaN,-0.736983,2.117048E-05,0.3646602,8.326153E-08,NaN,NaN,-0.01765647,8.847509E-11,2.838231E-07,-1.107023E-07,-1.968957E-08,-2.622604E-08
749.4343,-0.862637,-1.391425E-09,NaN,-0.365986,-1.326137E-07,NaN,1.196408,-5.276612E-07,NaN,-0.743415,2.117091E-05,0.3601277,8.33035E-08,NaN,NaN,-0.0181759,8.381847E-11,3.279305E-07,-1.107025E-07,-1.611329E-08,-2.622604E-08
749.4488,-0.865577,-1.39073E-09,NaN,-0.367004,-1.326122E-07,NaN,1.198004,-5.282779E-07,NaN,-0.7499112,2.117135E-05,0.355658,8.33032E-08,NaN,NaN,-0.01868492,7.916186E-11,3.732301E-07,-1.107028E-07,-1.968957E-08,-2.622604E-08
749.4623,-0.8685483,-1.390035E-09,NaN,-0.3680306,-1.326108E-07,NaN,1.199466,-5.288946E-07,NaN,-0.7563832,2.117179E-05,0.351292,8.327204E-08,NaN,NaN,-0.01918373,7.916186E-11,4.125691E-07,-1.107031E-07,-1.730538E-08,-2.622604E-08
749.4772,-0.8685483,-1.390035E-09,NaN,-0.3680306,-1.326108E-07,NaN,1.199466,-5.288946E-07,NaN,-0.7563832,2.117179E-05,0.351292,8.327204E-08,NaN,NaN,-0.01918373,7.916186E-11,4.125691E-07,-1.107031E-07,-1.730538E-08,-2.622604E-08
749.4908,-0.8717397,-1.389339E-09,NaN,-0.3691345,-1.326094E-07,NaN,1.201153,-5.295113E-07,NaN,-0.7632771,2.117222E-05,0.3465129,8.321842E-08,NaN,NaN,-0.01975614,7.450524E-11,4.566766E-07,-1.107036E-07,-1.968957E-08,-2.622604E-08
749.5063,-0.875055,-1.388644E-09,NaN,-0.3702798,-1.326081E-07,NaN,1.202787,-5.30128E-07,NaN,-0.7704086,2.117266E-05,0.3416613,8.314851E-08,NaN,NaN,-0.02031725,6.984863E-11,5.00784E-07,-1.10704E-07,-1.730538E-08,-2.622604E-08
749.5211,-0.8784336,-1.387948E-09,NaN,-0.3714445,-1.326068E-07,NaN,1.204284,-5.307447E-07,NaN,-0.7775927,2.117309E-05,0.3368864,8.306682E-08,NaN,NaN,-0.02086713,7.450524E-11,5.425072E-07,-1.107045E-07,-1.37291E-08,-2.622604E-08
749.5359,-0.8784336,-1.387948E-09,NaN,-0.3714445,-1.326068E-07,NaN,1.204284,-5.307447E-07,NaN,-0.7775927,2.117309E-05,0.3368864,8.306682E-08,NaN,NaN,-0.02086713,7.450524E-11,5.425072E-07,-1.107045E-07,-1.37291E-08,-2.622604E-08
749.55,-0.8820508,-1.387253E-09,NaN,-0.3726925,-1.326056E-07,NaN,1.205979,-5.313614E-07,NaN,-0.7852281,2.117353E-05,0.3316943,8.297669E-08,NaN,NaN,-0.02148951,7.450524E-11,5.90191E-07,-1.10705E-07,-1.492119E-08,-2.622604E-08
749.5654,-0.8858014,-1.386557E-09,NaN,-0.3739846,-1.326052E-07,NaN,1.207594,-5.31905E-07,NaN,-0.7931083,2.117397E-05,0.3264501,8.295525E-08,NaN,NaN,-0.02209959,6.519202E-11,6.366826E-07,-1.10703E-07,-1.015282E-08,-2.861022E-08
749.5804,-0.8896194,-1.385861E-09,NaN,-0.375297,-1.326045E-07,NaN,1.209051,-5.324938E-07,NaN,-0.801038,2.11744E-05,0.3213023,8.309223E-08,NaN,NaN,-0.02269746,6.05354E-11,6.8079E-07,-1.107006E-07,-7.768637E-09,-2.622604E-08
749.5948,-0.8896194,-1.385861E-09,NaN,-0.375297,-1.326045E-07,NaN,1.209051,-5.324938E-07,NaN,-0.801038,2.11744E-05,0.3213023,8.309223E-08,NaN,NaN,-0.02269746,6.05354E-11,6.8079E-07,-1.107006E-07,-7.768637E-09,-2.622604E-08
749.6108,-0.8934633,-1.385166E-09,NaN,-0.3766154,-1.326028E-07,NaN,1.210362,-5.331184E-07,NaN,-0.8089246,2.117482E-05,0.3162841,8.318908E-08,NaN,NaN,-0.02328337,6.519202E-11,7.260895E-07,-1.107004E-07,-1.134492E-08,-2.622604E-08
749.6245,-0.8975209,-1.38447E-09,NaN,-0.3780085,-1.326011E-07,NaN,1.211882,-5.33743E-07,NaN,-0.8172113,2.117524E-05,0.3108493,8.323045E-08,NaN,NaN,-0.02394102,6.984863E-11,7.713891E-07,-1.107006E-07,-1.253701E-08,-2.622604E-08
749.6395,-0.8975209,-1.38447E-09,NaN,-0.3780085,-1.326011E-07,NaN,1.211882,-5.33743E-07,NaN,-0.8172113,2.117524E-05,0.3108493,8.323045E-08,NaN,NaN,-0.02394102,6.984863E-11,7.713891E-07,-1.107006E-07,-1.253701E-08,-2.622604E-08
749.6535,-0.9016944,-1.383774E-09,NaN,-0.3794395,-1.325996E-07,NaN,1.213321,-5.343676E-07,NaN,-0.8257138,2.117567E-05,0.3053778,8.323126E-08,NaN,NaN,-0.02458569,7.450525E-11,8.166886E-07,-1.107009E-07,-1.134492E-08,-2.622604E-08
749.6689,-0.9059225,-1.383078E-09,NaN,-0.3808865,-1.325982E-07,NaN,1.214609,-5.349922E-07,NaN,-0.8342472,2.11761E-05,0.3000136,8.320247E-08,NaN,NaN,-0.02521749,7.450525E-11,8.631802E-07,-1.107013E-07,-1.492119E-08,-2.622604E-08
749.6846,-0.910167,-1.382383E-09,NaN,-0.3823364,-1.325969E-07,NaN,1.215759,-5.356168E-07,NaN,-0.8427242,2.117653E-05,0.2947856,8.315214E-08,NaN,NaN,-0.0258367,7.450525E-11,9.072876E-07,-1.107017E-07,-1.611329E-08,-2.622604E-08
749.6984,-0.910167,-1.382383E-09,NaN,-0.3823364,-1.325969E-07,NaN,1.215759,-5.356168E-07,NaN,-0.8427242,2.117653E-05,0.2947856,8.315214E-08,NaN,NaN,-0.0258367,7.450525E-11,9.072876E-07,-1.107017E-07,-1.611329E-08,-2.622604E-08
749.7123,-0.9146178,-1.381687E-09,NaN,-0.3838584,-1.325956E-07,NaN,1.217117,-5.362414E-07,NaN,-0.8515898,2.117695E-05,0.2891301,8.308619E-08,NaN,NaN,-0.02652694,7.916186E-11,9.466267E-07,-1.107022E-07,-1.253701E-08,-2.622604E-08
749.7276,-0.9191781,-1.380991E-09,NaN,-0.385416,-1.325944E-07,NaN,1.218386,-5.36866E-07,NaN,-0.8606609,2.11774E-05,0.2834562,8.300893E-08,NaN,NaN,-0.02720356,7.450525E-11,9.835816E-07,-1.107027E-07,-1.253701E-08,-2.622604E-08
749.7424,-0.9237873,-1.380295E-09,NaN,-0.3869877,-1.32594E-07,NaN,1.219504,-5.374045E-07,NaN,-0.8697535,2.117784E-05,0.2779034,8.298636E-08,NaN,NaN,-0.0278667,6.053541E-11,1.026497E-06,-1.107006E-07,-1.253701E-08,-2.861022E-08
749.7568,-0.9237873,-1.380295E-09,NaN,-0.3869877,-1.32594E-07,NaN,1.219504,-5.374045E-07,NaN,-0.8697535,2.117784E-05,0.2779034,8.298636E-08,NaN,NaN,-0.0278667,6.053541E-11,1.026497E-06,-1.107006E-07,-1.253701E-08,-2.861022E-08
749.7711,-0.9286218,-1.379599E-09,NaN,-0.3886374,-1.325934E-07,NaN,1.220805,-5.379861E-07,NaN,-0.8792653,2.117826E-05,0.2719204,8.311934E-08,NaN,NaN,-0.02859995,6.053541E-11,1.067028E-06,-1.106982E-07,-1.015282E-08,-2.622604E-08
749.7865,-0.9335759,-1.378903E-09,NaN,-0.3903256,-1.325917E-07,NaN,1.221991,-5.386035E-07,NaN,-0.8889911,2.11787E-05,0.2659446,8.321195E-08,NaN,NaN,-0.02931873,6.053541E-11,1.114712E-06,-1.106981E-07,-1.015282E-08,-2.622604E-08
749.8013,-0.9385834,-1.378207E-09,NaN,-0.3920287,-1.325901E-07,NaN,1.223015,-5.392209E-07,NaN,-0.8987368,2.117913E-05,0.2601088,8.324888E-08,NaN,NaN,-0.03002319,6.053541E-11,1.157627E-06,-1.106983E-07,-1.134492E-08,-2.622604E-08
749.8163,-0.9385834,-1.378207E-09,NaN,-0.3920287,-1.325901E-07,NaN,1.223015,-5.392209E-07,NaN,-0.8987368,2.117913E-05,0.2601088,8.324888E-08,NaN,NaN,-0.03002319,6.053541E-11,1.157627E-06,-1.106983E-07,-1.134492E-08,-2.622604E-08
749.8302,-0.9436031,-1.37751E-09,NaN,-0.3937328,-1.325886E-07,NaN,1.223903,-5.398384E-07,NaN,-0.9084116,2.117957E-05,0.2544289,8.324511E-08,NaN,NaN,-0.03071364,6.053541E-11,1.192198E-06,-1.106986E-07,-5.980499E-09,-2.622604E-08
749.8456,-0.948824,-1.376814E-09,NaN,-0.3955067,-1.325872E-07,NaN,1.22499,-5.404558E-07,NaN,-0.9184569,2.118E-05,0.248305,8.321166E-08,NaN,NaN,-0.03147364,6.519203E-11,1.231537E-06,-1.10699E-07,-7.768638E-09,-2.622604E-08
749.8603,-0.9541478,-1.376117E-09,NaN,-0.3973135,-1.325859E-07,NaN,1.225965,-5.410732E-07,NaN,-0.9286894,2.118044E-05,0.2422072,8.315661E-08,NaN,NaN,-0.03221866,6.053541E-11,1.27326E-06,-1.106994E-07,-5.384452E-09,-2.622604E-08
749.8751,-0.9541478,-1.376117E-09,NaN,-0.3973135,-1.325859E-07,NaN,1.225965,-5.410732E-07,NaN,-0.9286894,2.118044E-05,0.2422072,8.315661E-08,NaN,NaN,-0.03221866,6.053541E-11,1.27326E-06,-1.106994E-07,-5.384452E-09,-2.622604E-08
749.8895,-0.959513,-1.375421E-09,NaN,-0.3991313,-1.325847E-07,NaN,1.226791,-5.416907E-07,NaN,-0.9389257,2.118088E-05,0.2362578,8.308589E-08,NaN,NaN,-0.03294887,6.053541E-11,1.312599E-06,-1.106999E-07,-8.364685E-09,-2.622604E-08
749.9048,-0.9648815,-1.374724E-09,NaN,-0.4009472,-1.325835E-07,NaN,1.227494,-5.423081E-07,NaN,-0.9490801,2.118132E-05,0.2304669,8.300385E-08,NaN,NaN,-0.0336646,6.053541E-11,1.350746E-06,-1.107004E-07,-1.074887E-08,-2.622604E-08
749.9197,-0.9648815,-1.374724E-09,NaN,-0.4009472,-1.325835E-07,NaN,1.227494,-5.423081E-07,NaN,-0.9490801,2.118132E-05,0.2304669,8.300385E-08,NaN,NaN,-0.0336646,6.053541E-11,1.350746E-06,-1.107004E-07,-1.074887E-08,-2.622604E-08
749.9356,-0.9704446,-1.374027E-09,NaN,-0.4028306,-1.325832E-07,NaN,1.228396,-5.428386E-07,NaN,-0.9595954,2.118176E-05,0.2242156,8.297517E-08,NaN,NaN,-0.03444935,4.656557E-11,1.391277E-06,-1.106984E-07,-8.960731E-09,-2.861022E-08
749.95,-0.9761049,-1.37333E-09,NaN,-0.404745,-1.325826E-07,NaN,1.229181,-5.434127E-07,NaN,-0.9702896,2.118218E-05,0.2180148,8.310216E-08,NaN,NaN,-0.03521864,4.656557E-11,1.433001E-06,-1.10696E-07,-1.313306E-08,-2.622604E-08
749.9638,-0.9818015,-1.372633E-09,NaN,-0.4066687,-1.325809E-07,NaN,1.229824,-5.440224E-07,NaN,-0.9809803,2.118261E-05,0.2119722,8.318885E-08,NaN,NaN,-0.03597267,5.122218E-11,1.47234E-06,-1.106959E-07,-1.670933E-08,-2.622604E-08
749.9783,-0.9818015,-1.372633E-09,NaN,-0.4066687,-1.325809E-07,NaN,1.229824,-5.440224E-07,NaN,-0.9809803,2.118261E-05,0.2119722,8.318885E-08,NaN,NaN,-0.03597267,5.122218E-11,1.47234E-06,-1.106959E-07,-1.670933E-08,-2.622604E-08
749.9922,-0.9877122,-1.371936E-09,NaN,-0.408666,-1.325793E-07,NaN,1.230642,-5.446321E-07,NaN,-0.9920637,2.118304E-05,0.2054673,8.322009E-08,NaN,NaN,-0.03679495,5.122218E-11,1.509295E-06,-1.106961E-07,-1.194096E-08,-2.622604E-08
750.0077,-0.9937304,-1.371239E-09,NaN,-0.4106971,-1.325779E-07,NaN,1.231324,-5.452418E-07,NaN,-1.003336,2.118347E-05,0.1990422,8.321081E-08,NaN,NaN,-0.03760099,5.122218E-11,1.548634E-06,-1.106964E-07,-1.074887E-08,-2.622604E-08
750.0223,-0.9997899,-1.370544E-09,NaN,-0.4127385,-1.32578E-07,NaN,1.231863,-5.443983E-07,NaN,-1.014605,2.11839E-05,0.1927882,8.187254E-08,NaN,NaN,-0.03839107,4.656557E-11,1.58082E-06,-1.10695E-07,-1.015282E-08,-2.861022E-08
750.037,-0.9997899,-1.370544E-09,NaN,-0.4127385,-1.32578E-07,NaN,1.231863,-5.443983E-07,NaN,-1.014605,2.11839E-05,0.1927882,8.187254E-08,NaN,NaN,-0.03839107,4.656557E-11,1.58082E-06,-1.10695E-07,-1.015282E-08,-2.861022E-08
750.0511,-1.005849,-1.369847E-09,NaN,-0.4147765,-1.325777E-07,NaN,1.232293,-5.44818E-07,NaN,-1.025781,2.118433E-05,0.186702,8.18967E-08,NaN,NaN,-0.03916552,4.190896E-11,1.60943E-06,-1.106929E-07,-1.37291E-08,-2.622604E-08
750.0667,-1.0121,-1.369152E-09,NaN,-0.4168802,-1.325776E-07,NaN,1.232908,-5.450809E-07,NaN,-1.037303,2.118477E-05,0.1801331,8.184345E-08,NaN,NaN,-0.04000781,3.259573E-11,1.644001E-06,-1.10693E-07,-1.313306E-08,-2.861022E-08
750.0815,-1.018442,-1.368457E-09,NaN,-0.4190124,-1.32578E-07,NaN,1.233395,-5.439844E-07,NaN,-1.04899,2.118522E-05,0.1736666,8.049421E-08,NaN,NaN,-0.0408335,1.862589E-11,1.677379E-06,-1.106937E-07,-1.253701E-08,-2.622604E-08
750.0971,-1.018442,-1.368457E-09,NaN,-0.4190124,-1.32578E-07,NaN,1.233395,-5.439844E-07,NaN,-1.04899,2.118522E-05,0.1736666,8.049421E-08,NaN,NaN,-0.0408335,1.862589E-11,1.677379E-06,-1.106937E-07,-1.253701E-08,-2.622604E-08
750.11,-1.024813,-1.367761E-09,NaN,-0.4211514,-1.325784E-07,NaN,1.233757,-5.41899E-07,NaN,-1.060659,2.118566E-05,0.1673727,7.826921E-08,NaN,NaN,-0.04164286,1.862589E-11,1.70599E-06,-1.106956E-07,-1.134492E-08,-2.861022E-08
750.1255,-1.031177,-1.367064E-09,NaN,-0.4232844,-1.32579E-07,NaN,1.234025,-5.398136E-07,NaN,-1.072226,2.11861E-05,0.1612446,7.613059E-08,NaN,NaN,-0.04243622,1.396928E-11,1.728639E-06,-1.106978E-07,-1.134492E-08,-2.622604E-08
750.1403,-1.037725,-1.366366E-09,NaN,-0.4254811,-1.325798E-07,NaN,1.23447,-5.377283E-07,NaN,-1.084132,2.118654E-05,0.1546201,7.405869E-08,NaN,NaN,-0.04329706,1.396928E-11,1.75725E-06,-1.107002E-07,-1.432515E-08,-2.861022E-08
750.155,-1.037725,-1.366366E-09,NaN,-0.4254811,-1.325798E-07,NaN,1.23447,-5.377283E-07,NaN,-1.084132,2.118654E-05,0.1546201,7.405869E-08,NaN,NaN,-0.04329706,1.396928E-11,1.75725E-06,-1.107002E-07,-1.432515E-08,-2.861022E-08
750.1691,-1.04436,-1.365669E-09,NaN,-0.4277047,-1.325807E-07,NaN,1.23479,-5.356429E-07,NaN,-1.096195,2.118698E-05,0.1481223,7.203904E-08,NaN,NaN,-0.04414093,9.312667E-12,1.782284E-06,-1.107026E-07,-1.670933E-08,-2.622604E-08
750.1866,-1.05102,-1.364971E-09,NaN,-0.4299336,-1.325817E-07,NaN,1.234999,-5.335576E-07,NaN,-1.108235,2.118742E-05,0.1417977,7.006101E-08,NaN,NaN,-0.04496814,9.312667E-12,1.801357E-06,-1.107051E-07,-1.343108E-08,-2.861022E-08
750.2003,-1.057667,-1.364274E-09,NaN,-0.4321552,-1.325827E-07,NaN,1.235124,-5.314722E-07,NaN,-1.120169,2.118785E-05,0.135637,6.811673E-08,NaN,NaN,-0.04577902,1.862589E-11,1.822815E-06,-1.107076E-07,-1.700736E-08,-2.622604E-08
750.2138,-1.057667,-1.364274E-09,NaN,-0.4321552,-1.325827E-07,NaN,1.235124,-5.314722E-07,NaN,-1.120169,2.118785E-05,0.135637,6.811673E-08,NaN,NaN,-0.04577902,1.862589E-11,1.822815E-06,-1.107076E-07,-1.700736E-08,-2.622604E-08
750.2278,-1.064497,-1.363576E-09,NaN,-0.4344395,-1.325837E-07,NaN,1.235417,-5.293869E-07,NaN,-1.132435,2.118829E-05,0.128971,6.620046E-08,NaN,NaN,-0.04665703,1.396928E-11,1.841888E-06,-1.107101E-07,-1.402713E-08,-2.861022E-08
750.2429,-1.071409,-1.362878E-09,NaN,-0.4367494,-1.325848E-07,NaN,1.235589,-5.273015E-07,NaN,-1.144854,2.118873E-05,0.122452,6.430791E-08,NaN,NaN,-0.04751773,9.312667E-12,1.857385E-06,-1.107126E-07,-1.164294E-08,-2.622604E-08
750.2576,-1.071409,-1.362878E-09,NaN,-0.4367494,-1.325848E-07,NaN,1.235589,-5.273015E-07,NaN,-1.144854,2.118873E-05,0.122452,6.430791E-08,NaN,NaN,-0.04751773,9.312667E-12,1.857385E-06,-1.107126E-07,-1.164294E-08,-2.622604E-08
750.2717,-1.078344,-1.36218E-09,NaN,-0.4390634,-1.325859E-07,NaN,1.235663,-5.252161E-07,NaN,-1.157245,2.118917E-05,0.1161038,6.243594E-08,NaN,NaN,-0.04836147,1.396928E-11,1.871691E-06,-1.107151E-07,-1.223899E-08,-2.861022E-08
750.287,-1.08548,-1.361482E-09,NaN,-0.4414462,-1.325869E-07,NaN,1.23588,-5.231308E-07,NaN,-1.170002,2.118961E-05,0.1092551,6.058221E-08,NaN,NaN,-0.04927165,9.312667E-12,1.889572E-06,-1.107176E-07,-1.253701E-08,-2.622604E-08
750.3017,-1.092711,-1.360784E-09,NaN,-0.4438575,-1.32588E-07,NaN,1.235975,-5.210454E-07,NaN,-1.182923,2.119005E-05,0.10257,5.874499E-08,NaN,NaN,-0.05016391,9.312667E-12,1.902685E-06,-1.107201E-07,-1.223899E-08,-2.861022E-08
750.3166,-1.092711,-1.360784E-09,NaN,-0.4438575,-1.32588E-07,NaN,1.235975,-5.210454E-07,NaN,-1.182923,2.119005E-05,0.10257,5.874499E-08,NaN,NaN,-0.05016391,9.312667E-12,1.902685E-06,-1.107201E-07,-1.223899E-08,-2.861022E-08
750.3306,-1.099969,-1.360086E-09,NaN,-0.446274,-1.325891E-07,NaN,1.235977,-5.189601E-07,NaN,-1.195819,2.119047E-05,0.09605797,5.692297E-08,NaN,NaN,-0.05103859,1.862589E-11,1.914606E-06,-1.107227E-07,-1.358009E-08,-2.622604E-08
750.3461,-1.107213,-1.359388E-09,NaN,-0.4486823,-1.325903E-07,NaN,1.23591,-5.168747E-07,NaN,-1.208601,2.11909E-05,0.08970937,5.51152E-08,NaN,NaN,-0.05189605,2.793912E-11,1.925335E-06,-1.107252E-07,-1.521922E-08,-2.861022E-08
750.3607,-1.114637,-1.35869E-09,NaN,-0.4511519,-1.325914E-07,NaN,1.235978,-5.147893E-07,NaN,-1.221706,2.119134E-05,0.08285772,5.332094E-08,NaN,NaN,-0.0528197,2.793912E-11,1.936063E-06,-1.107278E-07,-1.551724E-08,-2.622604E-08
750.3752,-1.114637,-1.35869E-09,NaN,-0.4511519,-1.325914E-07,NaN,1.235978,-5.147893E-07,NaN,-1.221706,2.119134E-05,0.08285772,5.332094E-08,NaN,NaN,-0.0528197,2.793912E-11,1.936063E-06,-1.107278E-07,-1.551724E-08,-2.622604E-08
750.3894,-1.12214,-1.357991E-09,NaN,-0.4536451,-1.325926E-07,NaN,1.235945,-5.12704E-07,NaN,-1.234952,2.119177E-05,0.07617413,5.153963E-08,NaN,NaN,-0.05372516,3.259573E-11,1.9456E-06,-1.107303E-07,-1.812494E-08,-2.861022E-08
750.4048,-1.129659,-1.357293E-09,NaN,-0.4561403,-1.325938E-07,NaN,1.235834,-5.106186E-07,NaN,-1.24816,2.119221E-05,0.06965769,4.977084E-08,NaN,NaN,-0.05461282,3.725234E-11,1.952753E-06,-1.107329E-07,-1.819945E-08,-2.622604E-08
750.4199,-1.129659,-1.357293E-09,NaN,-0.4561403,-1.325938E-07,NaN,1.235834,-5.106186E-07,NaN,-1.24816,2.119221E-05,0.06965769,4.977084E-08,NaN,NaN,-0.05461282,3.725234E-11,1.952753E-06,-1.107329E-07,-1.819945E-08,-2.622604E-08
750.434,-1.132128,-1.356595E-09,NaN,-0.456851,-1.32595E-07,NaN,1.231702,-5.085333E-07,NaN,-1.250329,2.119264E-05,0.07832025,4.801423E-08,NaN,NaN,-0.05357384,4.190896E-11,1.874075E-06,-1.107355E-07,-1.995033E-08,-2.861022E-08
750.4503,-1.13149,-1.355896E-09,NaN,-0.4565223,-1.325962E-07,NaN,1.228561,-5.064479E-07,NaN,-1.24517,2.119308E-05,0.08671813,4.626954E-08,NaN,NaN,-0.05255503,3.725234E-11,1.782283E-06,-1.107381E-07,-1.751027E-08,-2.622604E-08
750.465,-1.128915,-1.355198E-09,NaN,-0.4555528,-1.325975E-07,NaN,1.226014,-5.043626E-07,NaN,-1.236542,2.119351E-05,0.09486269,4.453656E-08,NaN,NaN,-0.05155613,4.656557E-11,1.713142E-06,-1.107407E-07,-1.615054E-08,-2.861022E-08
750.4787,-1.128915,-1.355198E-09,NaN,-0.4555528,-1.325975E-07,NaN,1.226014,-5.043626E-07,NaN,-1.236542,2.119351E-05,0.09486269,4.453656E-08,NaN,NaN,-0.05155613,4.656557E-11,1.713142E-06,-1.107407E-07,-1.615054E-08,-2.861022E-08
750.4926,-1.125152,-1.354499E-09,NaN,-0.454199,-1.325987E-07,NaN,1.223828,-5.022772E-07,NaN,-1.226318,2.119394E-05,0.1027939,4.281511E-08,NaN,NaN,-0.05057677,5.587879E-11,1.653537E-06,-1.107433E-07,-1.719362E-08,-2.622604E-08
750.5085,-1.120892,-1.3538E-09,NaN,-0.4526981,-1.326E-07,NaN,1.222055,-5.001918E-07,NaN,-1.215883,2.119438E-05,0.1098816,4.110503E-08,NaN,NaN,-0.04969967,5.587879E-11,1.602277E-06,-1.10746E-07,-1.615054E-08,-2.861022E-08
750.5231,-1.116345,-1.353102E-09,NaN,-0.4511164,-1.326013E-07,NaN,1.220402,-4.981065E-07,NaN,-1.20552,2.119481E-05,0.1168049,3.940621E-08,NaN,NaN,-0.04883977,6.053541E-11,1.554594E-06,-1.107486E-07,-1.570351E-08,-2.622604E-08
750.5378,-1.116345,-1.353102E-09,NaN,-0.4511164,-1.326013E-07,NaN,1.220402,-4.981065E-07,NaN,-1.20552,2.119481E-05,0.1168049,3.940621E-08,NaN,NaN,-0.04883977,6.053541E-11,1.554594E-06,-1.107486E-07,-1.570351E-08,-2.622604E-08
750.5518,-1.111641,-1.352403E-09,NaN,-0.449494,-1.326026E-07,NaN,1.218833,-4.960211E-07,NaN,-1.195269,2.119525E-05,0.12358,3.771853E-08,NaN,NaN,-0.04799671,6.053541E-11,1.509294E-06,-1.107513E-07,-1.629955E-08,-2.861022E-08
750.5674,-1.106861,-1.351704E-09,NaN,-0.447855,-1.326036E-07,NaN,1.217327,-4.939358E-07,NaN,-1.185149,2.119568E-05,0.1302146,3.604189E-08,NaN,NaN,-0.04717018,6.519203E-11,1.463995E-06,-1.107546E-07,-1.82367E-08,-2.622604E-08
750.5823,-1.102275,-1.351005E-09,NaN,-0.4462906,-1.326045E-07,NaN,1.21607,-4.918504E-07,NaN,-1.175643,2.119612E-05,0.1360575,3.437619E-08,NaN,NaN,-0.04644295,6.519203E-11,1.423463E-06,-1.10758E-07,-1.525647E-08,-2.861022E-08
750.6,-1.097826,-1.350306E-09,NaN,-0.4447778,-1.326055E-07,NaN,1.214815,-4.897651E-07,NaN,-1.166596,2.119655E-05,0.1417745,3.272135E-08,NaN,NaN,-0.04572996,6.984864E-11,1.385316E-06,-1.107613E-07,-1.361734E-08,-2.622604E-08
750.613,-1.097826,-1.350306E-09,NaN,-0.4447778,-1.326055E-07,NaN,1.214815,-4.897651E-07,NaN,-1.166596,2.119655E-05,0.1417745,3.272135E-08,NaN,NaN,-0.04572996,6.984864E-11,1.385316E-06,-1.107613E-07,-1.361734E-08,-2.622604E-08
750.6265,-1.093483,-1.349607E-09,NaN,-0.4433026,-1.326066E-07,NaN,1.213569,-4.876797E-07,NaN,-1.157837,2.119699E-05,0.1473818,3.107728E-08,NaN,NaN,-0.04503094,7.450526E-11,1.354322E-06,-1.107647E-07,-1.421339E-08,-2.861022E-08
750.6411,-1.089223,-1.348908E-09,NaN,-0.4418564,-1.326076E-07,NaN,1.212337,-4.855943E-07,NaN,-1.149282,2.119742E-05,0.1528813,2.944392E-08,NaN,NaN,-0.04434559,7.916187E-11,1.316175E-06,-1.107681E-07,-1.600153E-08,-2.622604E-08
750.6559,-1.089223,-1.348908E-09,NaN,-0.4418564,-1.326076E-07,NaN,1.212337,-4.855943E-07,NaN,-1.149282,2.119742E-05,0.1528813,2.944392E-08,NaN,NaN,-0.04434559,7.916187E-11,1.316175E-06,-1.107681E-07,-1.600153E-08,-2.622604E-08
750.67,-1.085251,-1.348209E-09,NaN,-0.4405112,-1.326087E-07,NaN,1.211341,-4.83509E-07,NaN,-1.141366,2.119785E-05,0.1576176,2.782117E-08,NaN,NaN,-0.04375682,8.381849E-11,1.286373E-06,-1.107715E-07,-1.868374E-08,-2.861022E-08
750.6854,-1.081473,-1.34751E-09,NaN,-0.4392324,-1.326098E-07,NaN,1.210322,-4.814236E-07,NaN,-1.133908,2.119828E-05,0.162245,2.620897E-08,NaN,NaN,-0.04317957,8.84751E-11,1.254186E-06,-1.10775E-07,-1.510746E-08,-2.622604E-08
750.7012,-1.077833,-1.34681E-09,NaN,-0.437999,-1.326109E-07,NaN,1.209295,-4.793383E-07,NaN,-1.126726,2.119871E-05,0.1667881,2.460725E-08,NaN,NaN,-0.04261361,9.313172E-11,1.224384E-06,-1.107784E-07,-1.451141E-08,-2.861022E-08
750.7163,-1.077833,-1.34681E-09,NaN,-0.437999,-1.326109E-07,NaN,1.209295,-4.793383E-07,NaN,-1.126726,2.119871E-05,0.1667881,2.460725E-08,NaN,NaN,-0.04261361,9.313172E-11,1.224384E-06,-1.107784E-07,-1.451141E-08,-2.861022E-08
750.729,-1.07451,-1.346111E-09,NaN,-0.4368755,-1.32612E-07,NaN,1.208498,-4.772529E-07,NaN,-1.120206,2.119914E-05,0.1705915,2.301594E-08,NaN,NaN,-0.0421419,9.778833E-11,1.196966E-06,-1.107818E-07,-1.272327E-08,-2.622604E-08
750.7443,-1.071397,-1.345412E-09,NaN,-0.435823,-1.326132E-07,NaN,1.207668,-4.751676E-07,NaN,-1.114146,2.119957E-05,0.174299,2.143496E-08,NaN,NaN,-0.04167942,1.024449E-10,1.173124E-06,-1.107853E-07,-1.272327E-08,-2.861022E-08
750.759,-1.071397,-1.345412E-09,NaN,-0.435823,-1.326132E-07,NaN,1.207668,-4.751676E-07,NaN,-1.114146,2.119957E-05,0.174299,2.143496E-08,NaN,NaN,-0.04167942,1.024449E-10,1.173124E-06,-1.107853E-07,-1.272327E-08,-2.861022E-08
750.7729,-1.068428,-1.344712E-09,NaN,-0.4348179,-1.326143E-07,NaN,1.206818,-4.730823E-07,NaN,-1.108351,2.12E-05,0.1779424,1.986424E-08,NaN,NaN,-0.04122598,1.071016E-10,1.145706E-06,-1.107887E-07,-9.445017E-09,-2.622604E-08
750.7883,-1.065561,-1.344013E-09,NaN,-0.4338459,-1.326155E-07,NaN,1.205964,-4.709969E-07,NaN,-1.102727,2.120044E-05,0.1815202,1.830373E-08,NaN,NaN,-0.04078142,1.071016E-10,1.126632E-06,-1.107922E-07,-1.510746E-08,-2.861022E-08
750.8031,-1.062987,-1.343314E-09,NaN,-0.4329753,-1.326167E-07,NaN,1.205355,-4.689116E-07,NaN,-1.097704,2.120088E-05,0.1843799,1.675335E-08,NaN,NaN,-0.04042874,1.071016E-10,1.106367E-06,-1.107956E-07,-1.659757E-08,-2.622604E-08
750.818,-1.062987,-1.343314E-09,NaN,-0.4329753,-1.326167E-07,NaN,1.205355,-4.689116E-07,NaN,-1.097704,2.120088E-05,0.1843799,1.675335E-08,NaN,NaN,-0.04042874,1.071016E-10,1.106367E-06,-1.107956E-07,-1.659757E-08,-2.622604E-08
750.832,-1.060605,-1.342614E-09,NaN,-0.4321698,-1.326179E-07,NaN,1.204711,-4.668263E-07,NaN,-1.093099,2.120132E-05,0.1871522,1.521304E-08,NaN,NaN,-0.04008297,1.024449E-10,1.093254E-06,-1.107991E-07,-1.749164E-08,-2.861022E-08
750.8474,-1.058352,-1.341914E-09,NaN,-0.4314072,-1.326192E-07,NaN,1.204043,-4.647409E-07,NaN,-1.088729,2.120176E-05,0.1898792,1.368273E-08,NaN,NaN,-0.03974395,9.778833E-11,1.072988E-06,-1.108026E-07,-1.987583E-08,-2.622604E-08
750.8622,-1.05619,-1.341215E-09,NaN,-0.4306741,-1.326204E-07,NaN,1.203367,-4.626556E-07,NaN,-1.084505,2.12022E-05,0.1925595,1.216235E-08,NaN,NaN,-0.03941156,9.313172E-11,1.052723E-06,-1.10806E-07,-1.808769E-08,-2.861022E-08
750.8768,-1.05619,-1.341215E-09,NaN,-0.4306741,-1.326204E-07,NaN,1.203367,-4.626556E-07,NaN,-1.084505,2.12022E-05,0.1925595,1.216235E-08,NaN,NaN,-0.03941156,9.313172E-11,1.052723E-06,-1.10806E-07,-1.808769E-08,-2.861022E-08
750.8911,-1.05431,-1.340515E-09,NaN,-0.4300392,-1.326217E-07,NaN,1.202939,-4.605703E-07,NaN,-1.080858,2.120264E-05,0.1945432,1.065185E-08,NaN,NaN,-0.03916888,9.778833E-11,1.04557E-06,-1.108095E-07,-1.957781E-08,-2.622604E-08
750.9067,-1.052613,-1.339815E-09,NaN,-0.4294668,-1.32623E-07,NaN,1.202474,-4.584849E-07,NaN,-1.077608,2.120307E-05,0.1964492,9.151151E-09,NaN,NaN,-0.03893095,1.024449E-10,1.034841E-06,-1.10813E-07,-2.07699E-08,-2.861022E-08
750.9214,-1.051038,-1.339115E-09,NaN,-0.4289348,-1.326243E-07,NaN,1.201977,-4.563996E-07,NaN,-1.074573,2.12035E-05,0.1983278,7.660197E-09,NaN,NaN,-0.03869766,1.071016E-10,1.020536E-06,-1.108165E-07,-1.987583E-08,-2.622604E-08
750.9359,-1.051038,-1.339115E-09,NaN,-0.4289348,-1.326243E-07,NaN,1.201977,-4.563996E-07,NaN,-1.074573,2.12035E-05,0.1983278,7.660197E-09,NaN,NaN,-0.03869766,1.071016E-10,1.020536E-06,-1.108165E-07,-1.987583E-08,-2.622604E-08
750.9512,-1.049761,-1.338415E-09,NaN,-0.4285069,-1.326256E-07,NaN,1.201717,-4.543143E-07,NaN,-1.072138,2.120393E-05,0.1995318,6.178923E-09,NaN,NaN,-0.03855213,1.164148E-10,1.012191E-06,-1.1082E-07,-1.808769E-08,-2.861022E-08
750.9669,-1.048675,-1.337715E-09,NaN,-0.4281442,-1.326269E-07,NaN,1.20141,-4.52229E-07,NaN,-1.070103,2.120436E-05,0.200672,4.707266E-09,NaN,NaN,-0.03840945,1.25728E-10,1.008615E-06,-1.108235E-07,-2.07699E-08,-2.622604E-08
750.9808,-1.047714,-1.337015E-09,NaN,-0.4278231,-1.326283E-07,NaN,1.201061,-4.501436E-07,NaN,-1.068273,2.120479E-05,0.2018021,3.245164E-09,NaN,NaN,-0.03826954,1.350412E-10,1.000271E-06,-1.108271E-07,-1.898176E-08,-2.861022E-08
750.9947,-1.047714,-1.337015E-09,NaN,-0.4278231,-1.326283E-07,NaN,1.201061,-4.501436E-07,NaN,-1.068273,2.120479E-05,0.2018021,3.245164E-09,NaN,NaN,-0.03826954,1.350412E-10,1.000271E-06,-1.108271E-07,-1.898176E-08,-2.861022E-08
751.0089,-1.046833,-1.336315E-09,NaN,-0.4275288,-1.326297E-07,NaN,1.200692,-4.480583E-07,NaN,-1.066553,2.120522E-05,0.20292,1.792553E-09,NaN,NaN,-0.03813234,1.396979E-10,9.91926E-07,-1.108306E-07,-1.927978E-08,-2.622604E-08
751.0242,-1.046224,-1.335614E-09,NaN,-0.4273292,-1.32631E-07,NaN,1.200568,-4.45973E-07,NaN,-1.065376,2.120566E-05,0.2033784,3.493741E-10,NaN,NaN,-0.03808104,1.396979E-10,9.871576E-07,-1.108341E-07,-1.808769E-08,-2.861022E-08
751.0389,-1.046224,-1.335614E-09,NaN,-0.4273292,-1.32631E-07,NaN,1.200568,-4.45973E-07,NaN,-1.065376,2.120566E-05,0.2033784,3.493741E-10,NaN,NaN,-0.03808104,1.396979E-10,9.871576E-07,-1.108341E-07,-1.808769E-08,-2.861022E-08
751.0532,-1.045786,-1.334914E-09,NaN,-0.4271884,-1.326324E-07,NaN,1.200397,-4.438876E-07,NaN,-1.064561,2.120609E-05,0.203783,-1.084436E-09,NaN,NaN,-0.03803074,1.443545E-10,9.847734E-07,-1.108376E-07,-1.749164E-08,-2.622604E-08
751.0685,-1.045457,-1.334214E-09,NaN,-0.4270844,-1.326339E-07,NaN,1.200183,-4.418023E-07,NaN,-1.063923,2.120653E-05,0.204192,-2.508937E-09,NaN,NaN,-0.03798139,1.490111E-10,9.847734E-07,-1.108412E-07,-1.57035E-08,-2.861022E-08
751.0834,-1.045197,-1.333513E-09,NaN,-0.4270034,-1.326353E-07,NaN,1.199944,-4.39717E-07,NaN,-1.063373,2.120696E-05,0.2046034,-3.92419E-09,NaN,NaN,-0.03793298,1.536677E-10,9.80005E-07,-1.108447E-07,-1.18292E-08,-2.622604E-08
751.0996,-1.045197,-1.333513E-09,NaN,-0.4270034,-1.326353E-07,NaN,1.199944,-4.39717E-07,NaN,-1.063373,2.120696E-05,0.2046034,-3.92419E-09,NaN,NaN,-0.03793298,1.536677E-10,9.80005E-07,-1.108447E-07,-1.18292E-08,-2.622604E-08
751.1121,-1.045198,-1.332813E-09,NaN,-0.4270131,-1.326367E-07,NaN,1.199947,-4.376317E-07,NaN,-1.063346,2.120739E-05,0.2043709,-5.330255E-09,NaN,NaN,-0.03796873,1.583243E-10,9.811971E-07,-1.108483E-07,-1.18292E-08,-2.861022E-08
751.1279,-1.045361,-1.332112E-09,NaN,-0.4270786,-1.326382E-07,NaN,1.1999,-4.355463E-07,NaN,-1.063661,2.120783E-05,0.2040976,-6.727192E-09,NaN,NaN,-0.03800377,1.629809E-10,9.811971E-07,-1.108518E-07,-1.123316E-08,-2.622604E-08
751.1424,-1.045625,-1.331411E-09,NaN,-0.4271781,-1.326397E-07,NaN,1.199803,-4.33461E-07,NaN,-1.064137,2.120827E-05,0.203843,-8.115059E-09,NaN,NaN,-0.03803809,1.629809E-10,9.835813E-07,-1.108554E-07,-8.550947E-09,-2.861022E-08
751.1573,-1.045625,-1.331411E-09,NaN,-0.4271781,-1.326397E-07,NaN,1.199803,-4.33461E-07,NaN,-1.064137,2.120827E-05,0.203843,-8.115059E-09,NaN,NaN,-0.03803809,1.629809E-10,9.835813E-07,-1.108554E-07,-8.550947E-09,-2.861022E-08
751.1716,-1.046167,-1.330711E-09,NaN,-0.4273751,-1.326412E-07,NaN,1.199931,-4.313757E-07,NaN,-1.06516,2.12087E-05,0.2029619,-9.493916E-09,NaN,NaN,-0.03815491,1.676375E-10,9.90734E-07,-1.108589E-07,-1.063711E-08,-2.622604E-08
751.1869,-1.046881,-1.33001E-09,NaN,-0.4276309,-1.326427E-07,NaN,1.199996,-4.292903E-07,NaN,-1.06653,2.120913E-05,0.2020573,-1.086382E-08,NaN,NaN,-0.03826944,1.722941E-10,9.966944E-07,-1.108625E-07,-9.743039E-09,-2.861022E-08
751.2025,-1.047698,-1.329309E-09,NaN,-0.4279214,-1.326442E-07,NaN,1.200002,-4.27205E-07,NaN,-1.068052,2.120956E-05,0.2011869,-1.222483E-08,NaN,NaN,-0.03838168,1.816073E-10,1.000271E-06,-1.108661E-07,-7.656877E-09,-2.622604E-08
751.2164,-1.047698,-1.329309E-09,NaN,-0.4279214,-1.326442E-07,NaN,1.200002,-4.27205E-07,NaN,-1.068052,2.120956E-05,0.2011869,-1.222483E-08,NaN,NaN,-0.03838168,1.816073E-10,1.000271E-06,-1.108661E-07,-7.656877E-09,-2.622604E-08
751.2302,-1.048577,-1.328608E-09,NaN,-0.428232,-1.326457E-07,NaN,1.199972,-4.251197E-07,NaN,-1.069635,2.120999E-05,0.2003474,-1.357701E-08,NaN,NaN,-0.03849168,1.862639E-10,1.002655E-06,-1.108697E-07,-7.358854E-09,-2.861022E-08
751.2455,-1.049706,-1.327908E-09,NaN,-0.4286302,-1.326473E-07,NaN,1.200172,-4.230344E-07,NaN,-1.07171,2.121043E-05,0.1988893,-1.49204E-08,NaN,NaN,-0.03868271,1.909206E-10,1.013384E-06,-1.108732E-07,-6.464784E-09,-2.622604E-08
751.2601,-1.050988,-1.327207E-09,NaN,-0.4290802,-1.326489E-07,NaN,1.200308,-4.20949E-07,NaN,-1.074095,2.121087E-05,0.1974212,-1.625508E-08,NaN,NaN,-0.03886998,1.816073E-10,1.025305E-06,-1.108768E-07,-8.550947E-09,-2.861022E-08
751.2749,-1.050988,-1.327207E-09,NaN,-0.4290802,-1.326489E-07,NaN,1.200308,-4.20949E-07,NaN,-1.074095,2.121087E-05,0.1974212,-1.625508E-08,NaN,NaN,-0.03886998,1.816073E-10,1.025305E-06,-1.108768E-07,-8.550947E-09,-2.861022E-08
751.2889,-1.052358,-1.326506E-09,NaN,-0.4295595,-1.326504E-07,NaN,1.200386,-4.188637E-07,NaN,-1.07661,2.121131E-05,0.1959986,-1.758109E-08,NaN,NaN,-0.03905353,1.769507E-10,1.032457E-06,-1.108804E-07,-5.868737E-09,-2.622604E-08
751.3042,-1.053777,-1.325805E-09,NaN,-0.4300545,-1.32652E-07,NaN,1.200426,-4.167784E-07,NaN,-1.079164,2.121175E-05,0.194618,-1.889849E-08,NaN,NaN,-0.03923345,1.676375E-10,1.038418E-06,-1.10884E-07,-2.292459E-09,-2.861022E-08
751.3189,-1.053777,-1.325805E-09,NaN,-0.4300545,-1.32652E-07,NaN,1.200426,-4.167784E-07,NaN,-1.079164,2.121175E-05,0.194618,-1.889849E-08,NaN,NaN,-0.03923345,1.676375E-10,1.038418E-06,-1.10884E-07,-2.292459E-09,-2.861022E-08
751.333,-1.055439,-1.325104E-09,NaN,-0.4306338,-1.326536E-07,NaN,1.200689,-4.14693E-07,NaN,-1.082194,2.121218E-05,0.1926275,-2.020734E-08,NaN,NaN,-0.03949302,1.676375E-10,1.053915E-06,-1.108876E-07,-5.570715E-09,-2.622604E-08
751.3484,-1.057243,-1.324402E-09,NaN,-0.4312615,-1.326552E-07,NaN,1.200883,-4.126077E-07,NaN,-1.08552,2.121262E-05,0.1906436,-2.150769E-08,NaN,NaN,-0.03974748,1.536676E-10,1.06822E-06,-1.108912E-07,-8.252924E-09,-2.861022E-08
751.3631,-1.059129,-1.323701E-09,NaN,-0.4319157,-1.326569E-07,NaN,1.201016,-4.105224E-07,NaN,-1.088958,2.121306E-05,0.1887165,-2.27996E-08,NaN,NaN,-0.0399969,1.49011E-10,1.075373E-06,-1.108948E-07,-2.888506E-09,-2.622604E-08
751.3778,-1.059129,-1.323701E-09,NaN,-0.4319157,-1.326569E-07,NaN,1.201016,-4.105224E-07,NaN,-1.088958,2.121306E-05,0.1887165,-2.27996E-08,NaN,NaN,-0.0399969,1.49011E-10,1.075373E-06,-1.108948E-07,-2.888506E-09,-2.622604E-08
751.392,-1.061274,-1.323E-09,NaN,-0.43266,-1.326585E-07,NaN,1.201352,-4.08437E-07,NaN,-1.092899,2.121349E-05,0.186193,-2.408312E-08,NaN,NaN,-0.04032458,1.49011E-10,1.088486E-06,-1.108984E-07,-5.043201E-10,-2.861022E-08
751.4075,-1.063571,-1.322298E-09,NaN,-0.4334552,-1.326601E-07,NaN,1.201607,-4.063517E-07,NaN,-1.097141,2.121393E-05,0.1836952,-2.535831E-08,NaN,NaN,-0.0406458,1.350412E-10,1.102791E-06,-1.10902E-07,3.668005E-09,-2.622604E-08
751.4222,-1.065952,-1.321597E-09,NaN,-0.4342774,-1.326618E-07,NaN,1.201793,-4.042664E-07,NaN,-1.101491,2.121437E-05,0.1812672,-2.662522E-08,NaN,NaN,-0.04096067,1.210714E-10,1.115904E-06,-1.109056E-07,1.581842E-09,-2.861022E-08
751.4368,-1.065952,-1.321597E-09,NaN,-0.4342774,-1.326618E-07,NaN,1.201793,-4.042664E-07,NaN,-1.101491,2.121437E-05,0.1812672,-2.662522E-08,NaN,NaN,-0.04096067,1.210714E-10,1.115904E-06,-1.109056E-07,1.581842E-09,-2.861022E-08
751.4531,-1.068377,-1.320896E-09,NaN,-0.4351122,-1.326637E-07,NaN,1.201934,-4.049233E-07,NaN,-1.105859,2.12148E-05,0.1789038,-2.53132E-08,NaN,NaN,-0.04126933,1.164147E-10,1.123056E-06,-1.109059E-07,3.369982E-09,-2.622604E-08
751.4675,-1.071034,-1.320194E-09,NaN,-0.4360278,-1.326651E-07,NaN,1.202278,-4.050033E-07,NaN,-1.110675,2.121523E-05,0.1759472,-2.470885E-08,NaN,NaN,-0.04165508,1.117581E-10,1.136169E-06,-1.109066E-07,5.158121E-09,-2.861022E-08
751.481,-1.073824,-1.319491E-09,NaN,-0.4369877,-1.326664E-07,NaN,1.202544,-4.050945E-07,NaN,-1.11576,2.121566E-05,0.1730317,-2.419786E-08,NaN,NaN,-0.04203323,1.071015E-10,1.150475E-06,-1.109072E-07,4.562075E-09,-2.622604E-08
751.4955,-1.073824,-1.319491E-09,NaN,-0.4369877,-1.326664E-07,NaN,1.202544,-4.050945E-07,NaN,-1.11576,2.121566E-05,0.1730317,-2.419786E-08,NaN,NaN,-0.04203323,1.071015E-10,1.150475E-06,-1.109072E-07,4.562075E-09,-2.622604E-08
751.5095,-1.076686,-1.318789E-09,NaN,-0.4379697,-1.326676E-07,NaN,1.202743,-4.052764E-07,NaN,-1.120932,2.12161E-05,0.1701939,-2.367999E-08,NaN,NaN,-0.04240391,1.024449E-10,1.167164E-06,-1.109079E-07,1.432831E-09,-2.861022E-08
751.5248,-1.079579,-1.318087E-09,NaN,-0.4389606,-1.326679E-07,NaN,1.202897,-4.046019E-07,NaN,-1.126104,2.121653E-05,0.1674286,-2.400902E-08,NaN,NaN,-0.04276729,9.778828E-11,1.179085E-06,-1.109102E-07,2.773935E-09,-2.622604E-08
751.5396,-1.079579,-1.318087E-09,NaN,-0.4389606,-1.326679E-07,NaN,1.202897,-4.046019E-07,NaN,-1.126104,2.121653E-05,0.1674286,-2.400902E-08,NaN,NaN,-0.04276729,9.778828E-11,1.179085E-06,-1.109102E-07,2.773935E-09,-2.622604E-08
751.5535,-1.082696,-1.317385E-09,NaN,-0.4400292,-1.32669E-07,NaN,1.203246,-4.058788E-07,NaN,-1.131711,2.121695E-05,0.1640756,-2.245536E-08,NaN,NaN,-0.04320667,1.024449E-10,1.196966E-06,-1.109098E-07,2.624924E-09,-2.861022E-08
751.5688,-1.08594,-1.316684E-09,NaN,-0.4411395,-1.326698E-07,NaN,1.203514,-4.059618E-07,NaN,-1.137573,2.121738E-05,0.1607804,-2.215075E-08,NaN,NaN,-0.0436374,9.313168E-11,1.211271E-06,-1.109102E-07,1.879866E-09,-2.622604E-08
751.5851,-1.089248,-1.315983E-09,NaN,-0.4422695,-1.326708E-07,NaN,1.203716,-4.060348E-07,NaN,-1.143509,2.121781E-05,0.1575708,-2.190013E-08,NaN,NaN,-0.04405963,8.381845E-11,1.225576E-06,-1.109106E-07,1.134808E-09,-2.622604E-08
751.5983,-1.089248,-1.315983E-09,NaN,-0.4422695,-1.326708E-07,NaN,1.203716,-4.060348E-07,NaN,-1.143509,2.121781E-05,0.1575708,-2.190013E-08,NaN,NaN,-0.04405963,8.381845E-11,1.225576E-06,-1.109106E-07,1.134808E-09,-2.622604E-08
751.6123,-1.092799,-1.315282E-09,NaN,-0.4434832,-1.326718E-07,NaN,1.204091,-4.061127E-07,NaN,-1.149909,2.121824E-05,0.1537849,-2.167989E-08,NaN,NaN,-0.04455668,7.450523E-11,1.238689E-06,-1.109111E-07,3.668005E-09,-2.622604E-08
751.6276,-1.096485,-1.314581E-09,NaN,-0.4447411,-1.326729E-07,NaN,1.204377,-4.062032E-07,NaN,-1.156572,2.121866E-05,0.1500745,-2.14753E-08,NaN,NaN,-0.04504395,6.984861E-11,1.256571E-06,-1.109116E-07,1.879866E-09,-2.622604E-08
751.6423,-1.10024,-1.313879E-09,NaN,-0.4460196,-1.326739E-07,NaN,1.204593,-4.063036E-07,NaN,-1.163306,2.121908E-05,0.1464596,-2.128325E-08,NaN,NaN,-0.0455216,6.053539E-11,1.2673E-06,-1.109121E-07,2.177889E-09,-2.622604E-08
751.6572,-1.10024,-1.313879E-09,NaN,-0.4460196,-1.326739E-07,NaN,1.204593,-4.063036E-07,NaN,-1.163306,2.121908E-05,0.1464596,-2.128325E-08,NaN,NaN,-0.0455216,6.053539E-11,1.2673E-06,-1.109121E-07,2.177889E-09,-2.622604E-08
751.6714,-1.104021,-1.313178E-09,NaN,-0.4473043,-1.32675E-07,NaN,1.204759,-4.064155E-07,NaN,-1.170022,2.12195E-05,0.1429341,-2.109785E-08,NaN,NaN,-0.04598985,5.122217E-11,1.280413E-06,-1.109127E-07,1.581842E-09,-2.622604E-08
751.6871,-1.108019,-1.312477E-09,NaN,-0.448664,-1.326761E-07,NaN,1.205096,-4.065353E-07,NaN,-1.17715,2.121993E-05,0.1388359,-2.091896E-08,NaN,NaN,-0.04653202,4.190894E-11,1.293526E-06,-1.109132E-07,6.877727E-10,-2.622604E-08
751.7017,-1.112136,-1.311776E-09,NaN,-0.4500619,-1.326772E-07,NaN,1.205349,-4.066631E-07,NaN,-1.184511,2.122035E-05,0.1348258,-2.074365E-08,NaN,NaN,-0.0470635,3.259572E-11,1.306639E-06,-1.109138E-07,7.622785E-10,-2.622604E-08
751.7173,-1.112136,-1.311776E-09,NaN,-0.4500619,-1.326772E-07,NaN,1.205349,-4.066631E-07,NaN,-1.184511,2.122035E-05,0.1348258,-2.074365E-08,NaN,NaN,-0.0470635,3.259572E-11,1.306639E-06,-1.109138E-07,7.622785E-10,-2.622604E-08
751.7313,-1.116307,-1.311075E-09,NaN,-0.4514759,-1.326783E-07,NaN,1.205538,-4.067966E-07,NaN,-1.191925,2.122077E-05,0.1309158,-2.057183E-08,NaN,NaN,-0.04758452,2.328249E-11,1.320944E-06,-1.109143E-07,5.015082E-10,-2.622604E-08
751.7457,-1.120495,-1.310374E-09,NaN,-0.452893,-1.326794E-07,NaN,1.20568,-4.069341E-07,NaN,-1.199306,2.12212E-05,0.1271003,-2.040344E-08,NaN,NaN,-0.04809528,1.396927E-11,1.334057E-06,-1.109149E-07,-6.533318E-10,-2.622604E-08
751.7604,-1.124894,-1.309673E-09,NaN,-0.4543825,-1.326805E-07,NaN,1.205981,-4.070742E-07,NaN,-1.207087,2.122162E-05,0.1227191,-2.023842E-08,NaN,NaN,-0.04867911,9.312654E-12,1.350746E-06,-1.109154E-07,2.699429E-09,-2.622604E-08
751.7749,-1.124894,-1.309673E-09,NaN,-0.4543825,-1.326805E-07,NaN,1.205981,-4.070742E-07,NaN,-1.207087,2.122162E-05,0.1227191,-2.023842E-08,NaN,NaN,-0.04867911,9.312654E-12,1.350746E-06,-1.109154E-07,2.699429E-09,-2.622604E-08
751.7891,-1.129403,-1.308972E-09,NaN,-0.4559079,-1.326816E-07,NaN,1.2062,-4.072157E-07,NaN,-1.21509,2.122203E-05,0.1184374,-2.007669E-08,NaN,NaN,-0.04925144,9.312654E-12,1.366243E-06,-1.10916E-07,4.805534E-10,-2.622604E-08
751.8044,-1.133962,-1.308271E-09,NaN,-0.4574474,-1.326827E-07,NaN,1.206358,-4.073605E-07,NaN,-1.223136,2.122245E-05,0.1142602,-1.991537E-08,NaN,NaN,-0.0498125,9.312654E-12,1.37578E-06,-1.109165E-07,-4.507692E-10,-2.622604E-08
751.819,-1.133962,-1.308271E-09,NaN,-0.4574474,-1.326827E-07,NaN,1.206358,-4.073605E-07,NaN,-1.223136,2.122245E-05,0.1142602,-1.991537E-08,NaN,NaN,-0.0498125,9.312654E-12,1.37578E-06,-1.109165E-07,-4.507692E-10,-2.622604E-08
751.8334,-1.138751,-1.30757E-09,NaN,-0.4590653,-1.326838E-07,NaN,1.206654,-4.075052E-07,NaN,-1.231612,2.122286E-05,0.1095293,-1.975727E-08,NaN,NaN,-0.05044563,9.312654E-12,1.387701E-06,-1.109171E-07,1.598141E-09,-2.622604E-08
751.8486,-1.143661,-1.306869E-09,NaN,-0.4607218,-1.326848E-07,NaN,1.206865,-4.076491E-07,NaN,-1.240319,2.122328E-05,0.1049094,-1.960234E-08,NaN,NaN,-0.05106629,9.312654E-12,1.400814E-06,-1.109176E-07,3.721556E-09,-2.622604E-08
751.8632,-1.148625,-1.306168E-09,NaN,-0.4623933,-1.326859E-07,NaN,1.207014,-4.077947E-07,NaN,-1.249067,2.122369E-05,0.1004014,-1.944767E-08,NaN,NaN,-0.05167475,9.312654E-12,1.410351E-06,-1.109181E-07,3.64705E-09,-2.622604E-08
751.8779,-1.148625,-1.306168E-09,NaN,-0.4623933,-1.326859E-07,NaN,1.207014,-4.077947E-07,NaN,-1.249067,2.122369E-05,0.1004014,-1.944767E-08,NaN,NaN,-0.05167475,9.312654E-12,1.410351E-06,-1.109181E-07,3.64705E-09,-2.622604E-08
