JMolnar6/NonAnthroHands_User_Study/HandsLoggerWithURDF/tempdata/PID 0 (test)/files/ReachyParticipant0_JointMotion_gesture_1_3.csv
Time,r_shoulder,r_shoulder_x,r_upper_arm,r_forearm,r_wrist,r_wrist2hand,
409.2653,-0.1091235,-3.426824E-08,NaN,-0.3267613,-1.36543E-07,NaN,0.4756362,5.809094E-08,NaN,-0.4810856,1.127535E-06,-0.3914792,-3.925776E-09,NaN,NaN,-0.01995995,8.847543E-11,1.529893E-07,-1.151556E-07,1.767997E-08,-2.622604E-08
409.2799,-0.1091235,-3.426824E-08,NaN,-0.3267613,-1.36543E-07,NaN,0.4756362,5.809094E-08,NaN,-0.4810856,1.127535E-06,-0.3914792,-3.925776E-09,NaN,NaN,-0.01995995,8.847543E-11,1.529893E-07,-1.151556E-07,1.767997E-08,-2.622604E-08
409.2931,-0.1086241,-3.426792E-08,NaN,-0.3267611,-1.365503E-07,NaN,0.4750993,5.822529E-08,NaN,-0.4814877,1.128322E-06,-0.3910421,-4.057422E-09,NaN,NaN,-0.01996036,8.381881E-11,1.534364E-07,-1.151613E-07,1.529579E-08,-2.622604E-08
409.3087,-0.107668,-3.42676E-08,NaN,-0.3267607,-1.365572E-07,NaN,0.4744086,5.834896E-08,NaN,-0.4820081,1.129108E-06,-0.3904809,-4.178391E-09,NaN,NaN,-0.01996088,8.847543E-11,1.513502E-07,-1.151665E-07,1.529579E-08,-2.622604E-08
409.3236,-0.1064284,-3.426728E-08,NaN,-0.3267604,-1.365638E-07,NaN,0.473714,5.846358E-08,NaN,-0.4825324,1.129905E-06,-0.3899187,-4.290305E-09,NaN,NaN,-0.0199614,8.847543E-11,1.495621E-07,-1.151715E-07,1.29116E-08,-2.622604E-08
409.3384,-0.1064284,-3.426728E-08,NaN,-0.3267604,-1.365638E-07,NaN,0.473714,5.846358E-08,NaN,-0.4825324,1.129905E-06,-0.3899187,-4.290305E-09,NaN,NaN,-0.0199614,8.847543E-11,1.495621E-07,-1.151715E-07,1.29116E-08,-2.622604E-08
409.3526,-0.1057439,-3.426695E-08,NaN,-0.3267613,-1.365702E-07,NaN,0.4736054,5.857207E-08,NaN,-0.4826151,1.130706E-06,-0.3898389,-4.396087E-09,NaN,NaN,-0.01996146,8.847543E-11,1.48221E-07,-1.151763E-07,1.29116E-08,-2.622604E-08
409.368,-0.1054115,-3.426662E-08,NaN,-0.3267628,-1.365764E-07,NaN,0.4737027,5.86761E-08,NaN,-0.4825383,1.131502E-06,-0.3899277,-4.497398E-09,NaN,NaN,-0.01996136,9.313204E-11,1.48817E-07,-1.15181E-07,1.052742E-08,-2.622604E-08
409.383,-0.1053021,-3.426628E-08,NaN,-0.3267644,-1.365826E-07,NaN,0.473851,5.87766E-08,NaN,-0.4824206,1.132303E-06,-0.3900576,-4.595183E-09,NaN,NaN,-0.01996123,9.313204E-11,1.48817E-07,-1.151856E-07,8.143234E-09,-2.622604E-08
409.3981,-0.1053021,-3.426628E-08,NaN,-0.3267644,-1.365826E-07,NaN,0.473851,5.87766E-08,NaN,-0.4824206,1.132303E-06,-0.3900576,-4.595183E-09,NaN,NaN,-0.01996123,9.313204E-11,1.48817E-07,-1.151856E-07,8.143234E-09,-2.622604E-08
409.4117,-0.1053318,-3.426594E-08,NaN,-0.326766,-1.365887E-07,NaN,0.4739919,5.887416E-08,NaN,-0.4823077,1.133104E-06,-0.3901802,-4.690021E-09,NaN,NaN,-0.01996111,9.313204E-11,1.49264E-07,-1.151902E-07,8.143234E-09,-2.622604E-08
409.4271,-0.1061772,-3.42656E-08,NaN,-0.3267698,-1.365947E-07,NaN,0.4746533,5.896918E-08,NaN,-0.4818054,1.133905E-06,-0.3907289,-4.78232E-09,NaN,NaN,-0.01996058,9.313204E-11,1.513502E-07,-1.151948E-07,5.759048E-09,-2.622604E-08
409.4427,-0.1075322,-3.426525E-08,NaN,-0.3267746,-1.366007E-07,NaN,0.4754462,5.90617E-08,NaN,-0.4812042,1.134706E-06,-0.3913829,-4.872121E-09,NaN,NaN,-0.01995996,9.313204E-11,1.519463E-07,-1.151993E-07,8.143234E-09,-2.622604E-08
409.4566,-0.1075322,-3.426525E-08,NaN,-0.3267746,-1.366007E-07,NaN,0.4754462,5.90617E-08,NaN,-0.4812042,1.134706E-06,-0.3913829,-4.872121E-09,NaN,NaN,-0.01995996,9.313204E-11,1.519463E-07,-1.151993E-07,8.143234E-09,-2.622604E-08
409.4705,-0.1092023,-3.42649E-08,NaN,-0.3267794,-1.366067E-07,NaN,0.4762248,5.915213E-08,NaN,-0.4806153,1.135507E-06,-0.3920225,-4.959824E-09,NaN,NaN,-0.01995936,9.313204E-11,1.535854E-07,-1.152038E-07,1.052742E-08,-2.622604E-08
409.486,-0.1110637,-3.426454E-08,NaN,-0.326784,-1.366127E-07,NaN,0.4769455,5.924032E-08,NaN,-0.4800733,1.136307E-06,-0.392612,-5.045288E-09,NaN,NaN,-0.01995881,9.313204E-11,1.531383E-07,-1.152083E-07,1.052742E-08,-2.622604E-08
409.5023,-0.1137659,-3.426418E-08,NaN,-0.3267905,-1.366186E-07,NaN,0.4781513,5.932667E-08,NaN,-0.4791757,1.137108E-06,-0.3935984,-5.128911E-09,NaN,NaN,-0.01995786,9.313204E-11,1.562676E-07,-1.152128E-07,1.052742E-08,-2.622604E-08
409.5156,-0.1137659,-3.426418E-08,NaN,-0.3267905,-1.366186E-07,NaN,0.4781513,5.932667E-08,NaN,-0.4791757,1.137108E-06,-0.3935984,-5.128911E-09,NaN,NaN,-0.01995786,9.313204E-11,1.562676E-07,-1.152128E-07,1.052742E-08,-2.622604E-08
409.5295,-0.1169859,-3.426382E-08,NaN,-0.3267974,-1.366245E-07,NaN,0.4794596,5.941104E-08,NaN,-0.4782051,1.137909E-06,-0.3946661,-5.210558E-09,NaN,NaN,-0.01995685,9.313204E-11,1.582047E-07,-1.152173E-07,5.759047E-09,-2.622604E-08
409.5451,-0.1205181,-3.426345E-08,NaN,-0.3268037,-1.366304E-07,NaN,0.480731,5.949347E-08,NaN,-0.4772674,1.13871E-06,-0.3957005,-5.290258E-09,NaN,NaN,-0.01995587,9.313204E-11,1.590988E-07,-1.152218E-07,5.759047E-09,-2.622604E-08
409.5597,-0.1205181,-3.426345E-08,NaN,-0.3268037,-1.366304E-07,NaN,0.480731,5.949347E-08,NaN,-0.4772674,1.13871E-06,-0.3957005,-5.290258E-09,NaN,NaN,-0.01995587,9.313204E-11,1.590988E-07,-1.152218E-07,5.759047E-09,-2.622604E-08
409.574,-0.1249602,-3.426308E-08,NaN,-0.3268116,-1.366363E-07,NaN,0.4824793,5.957417E-08,NaN,-0.4759873,1.139506E-06,-0.3971257,-5.368227E-09,NaN,NaN,-0.0199545,9.313204E-11,1.625261E-07,-1.152262E-07,5.759047E-09,-2.622604E-08
409.5893,-0.1299562,-3.426271E-08,NaN,-0.326819,-1.366422E-07,NaN,0.484309,5.965283E-08,NaN,-0.4746547,1.140303E-06,-0.3986148,-5.444149E-09,NaN,NaN,-0.01995309,9.313204E-11,1.661024E-07,-1.152306E-07,3.374862E-09,-2.622604E-08
409.6041,-0.1352798,-3.426234E-08,NaN,-0.3268251,-1.36648E-07,NaN,0.4860795,5.972982E-08,NaN,-0.4733754,1.141094E-06,-0.4000524,-5.518415E-09,NaN,NaN,-0.01995172,9.778866E-11,1.684865E-07,-1.15235E-07,9.90676E-10,-2.622604E-08
409.6187,-0.1352798,-3.426234E-08,NaN,-0.3268251,-1.36648E-07,NaN,0.4860795,5.972982E-08,NaN,-0.4733754,1.141094E-06,-0.4000524,-5.518415E-09,NaN,NaN,-0.01995172,9.778866E-11,1.684865E-07,-1.15235E-07,9.90676E-10,-2.622604E-08
409.6329,-0.1407872,-3.426196E-08,NaN,-0.3268298,-1.366539E-07,NaN,0.487754,5.980502E-08,NaN,-0.4721779,1.141886E-06,-0.401409,-5.590878E-09,NaN,NaN,-0.01995043,1.024453E-10,1.710197E-07,-1.152394E-07,9.90676E-10,-2.622604E-08
409.6487,-0.1471154,-3.426157E-08,NaN,-0.3268355,-1.366597E-07,NaN,0.4898976,5.987863E-08,NaN,-0.4706563,1.142678E-06,-0.4031529,-5.661757E-09,NaN,NaN,-0.01994874,1.071019E-10,1.751921E-07,-1.152438E-07,-1.39351E-09,-2.622604E-08
409.6633,-0.1539335,-3.426118E-08,NaN,-0.3268401,-1.366655E-07,NaN,0.4921218,5.99505E-08,NaN,-0.4690877,1.143469E-06,-0.4049616,-5.730898E-09,NaN,NaN,-0.01994699,1.117585E-10,1.766822E-07,-1.152482E-07,-1.39351E-09,-2.622604E-08
409.68,-0.1610312,-3.426079E-08,NaN,-0.3268431,-1.366712E-07,NaN,0.4942876,6.002067E-08,NaN,-0.4675744,1.144261E-06,-0.4067208,-5.79834E-09,NaN,NaN,-0.0199453,1.164151E-10,1.802585E-07,-1.152525E-07,-1.39351E-09,-2.622604E-08
409.6935,-0.1610312,-3.426079E-08,NaN,-0.3268431,-1.366712E-07,NaN,0.4942876,6.002067E-08,NaN,-0.4675744,1.144261E-06,-0.4067208,-5.79834E-09,NaN,NaN,-0.0199453,1.164151E-10,1.802585E-07,-1.152525E-07,-1.39351E-09,-2.622604E-08
409.7077,-0.1682751,-3.42604E-08,NaN,-0.3268445,-1.36677E-07,NaN,0.4963575,6.008918E-08,NaN,-0.4661448,1.145052E-06,-0.4084004,-5.864115E-09,NaN,NaN,-0.01994367,1.210717E-10,1.851758E-07,-1.152569E-07,-1.39351E-09,-2.622604E-08
409.7222,-0.1763088,-3.426001E-08,NaN,-0.3268465,-1.366827E-07,NaN,0.4989071,6.015622E-08,NaN,-0.4643955,1.145844E-06,-0.4104791,-5.928428E-09,NaN,NaN,-0.01994162,1.257283E-10,1.856229E-07,-1.152612E-07,9.90676E-10,-2.622604E-08
409.7372,-0.1763088,-3.426001E-08,NaN,-0.3268465,-1.366827E-07,NaN,0.4989071,6.015622E-08,NaN,-0.4643955,1.145844E-06,-0.4104791,-5.928428E-09,NaN,NaN,-0.01994162,1.257283E-10,1.856229E-07,-1.152612E-07,9.90676E-10,-2.622604E-08
409.751,-0.1848058,-3.425961E-08,NaN,-0.3268478,-1.366885E-07,NaN,0.501539,6.022184E-08,NaN,-0.4626038,1.146636E-06,-0.4126259,-5.991313E-09,NaN,NaN,-0.01993951,1.30385E-10,1.894972E-07,-1.152655E-07,5.759047E-09,-2.622604E-08
409.7667,-0.1935586,-3.425921E-08,NaN,-0.3268481,-1.366942E-07,NaN,0.5041108,6.028588E-08,NaN,-0.4608727,1.147427E-06,-0.414723,-6.052621E-09,NaN,NaN,-0.01993744,1.350416E-10,1.956066E-07,-1.152698E-07,-1.39351E-09,-2.622604E-08
409.7814,-0.2024356,-3.42588E-08,NaN,-0.3268479,-1.366998E-07,NaN,0.5065828,6.034855E-08,NaN,-0.459231,1.148219E-06,-0.4167388,-6.112559E-09,NaN,NaN,-0.01993545,1.396982E-10,2.023122E-07,-1.152741E-07,9.90676E-10,-2.622604E-08
409.7964,-0.2024356,-3.42588E-08,NaN,-0.3268479,-1.366998E-07,NaN,0.5065828,6.034855E-08,NaN,-0.459231,1.148219E-06,-0.4167388,-6.112559E-09,NaN,NaN,-0.01993545,1.396982E-10,2.023122E-07,-1.152741E-07,9.90676E-10,-2.622604E-08
409.8104,-0.2120819,-3.42584E-08,NaN,-0.3268484,-1.367055E-07,NaN,0.5095442,6.040953E-08,NaN,-0.4572776,1.14901E-06,-0.4191652,-6.170802E-09,NaN,NaN,-0.01993301,1.443548E-10,2.055904E-07,-1.152784E-07,-1.39351E-09,-2.622604E-08
409.8258,-0.2221717,-3.425798E-08,NaN,-0.3268483,-1.367112E-07,NaN,0.512587,6.04692E-08,NaN,-0.4552884,1.149802E-06,-0.4216602,-6.227731E-09,NaN,NaN,-0.01993051,1.490114E-10,2.12594E-07,-1.152827E-07,-3.777695E-09,-2.622604E-08
409.8407,-0.2324982,-3.425757E-08,NaN,-0.3268472,-1.367168E-07,NaN,0.5155652,6.05274E-08,NaN,-0.4533662,1.150594E-06,-0.4241028,-6.2832E-09,NaN,NaN,-0.01992806,1.53668E-10,2.149782E-07,-1.152869E-07,-3.777695E-09,-2.622604E-08
409.8553,-0.2324982,-3.425757E-08,NaN,-0.3268472,-1.367168E-07,NaN,0.5155652,6.05274E-08,NaN,-0.4533662,1.150594E-06,-0.4241028,-6.2832E-09,NaN,NaN,-0.01992806,1.53668E-10,2.149782E-07,-1.152869E-07,-3.777695E-09,-2.622604E-08
409.8696,-0.2436586,-3.425715E-08,NaN,-0.3268467,-1.367224E-07,NaN,0.5190421,6.058434E-08,NaN,-0.4511405,1.151385E-06,-0.4269657,-6.337413E-09,NaN,NaN,-0.01992515,1.583246E-10,2.191505E-07,-1.152911E-07,-3.777695E-09,-2.622604E-08
409.8852,-0.2552968,-3.425673E-08,NaN,-0.3268452,-1.36728E-07,NaN,0.522589,6.063988E-08,NaN,-0.4488953,1.152177E-06,-0.4298882,-6.390218E-09,NaN,NaN,-0.01992218,1.629812E-10,2.25856E-07,-1.152954E-07,-6.161881E-09,-2.622604E-08
409.8997,-0.2552968,-3.425673E-08,NaN,-0.3268452,-1.36728E-07,NaN,0.522589,6.063988E-08,NaN,-0.4488953,1.152177E-06,-0.4298882,-6.390218E-09,NaN,NaN,-0.01992218,1.629812E-10,2.25856E-07,-1.152954E-07,-6.161881E-09,-2.622604E-08
409.9139,-0.2671868,-3.42563E-08,NaN,-0.3268425,-1.367336E-07,NaN,0.5260556,6.069421E-08,NaN,-0.4467343,1.152968E-06,-0.4327454,-6.44182E-09,NaN,NaN,-0.01991927,1.676378E-10,2.280912E-07,-1.152996E-07,-6.161881E-09,-2.622604E-08
409.9301,-0.2791853,-3.425587E-08,NaN,-0.3268388,-1.367391E-07,NaN,0.5294017,6.074719E-08,NaN,-0.4446844,1.15376E-06,-0.4355048,-6.492065E-09,NaN,NaN,-0.01991644,1.722944E-10,2.318165E-07,-1.153038E-07,-8.546067E-09,-2.622604E-08
409.944,-0.2919301,-3.425544E-08,NaN,-0.3268359,-1.367447E-07,NaN,0.5332539,6.079883E-08,NaN,-0.4423474,1.154552E-06,-0.4386956,-6.54098E-09,NaN,NaN,-0.01991312,1.76951E-10,2.38522E-07,-1.153079E-07,-1.093025E-08,-2.622604E-08
409.9583,-0.2919301,-3.425544E-08,NaN,-0.3268359,-1.367447E-07,NaN,0.5332539,6.079883E-08,NaN,-0.4423474,1.154552E-06,-0.4386956,-6.54098E-09,NaN,NaN,-0.01991312,1.76951E-10,2.38522E-07,-1.153079E-07,-1.093025E-08,-2.622604E-08
409.974,-0.305091,-3.4255E-08,NaN,-0.3268318,-1.367502E-07,NaN,0.537182,6.084935E-08,NaN,-0.4399938,1.155343E-06,-0.4419531,-6.588767E-09,NaN,NaN,-0.01990972,1.816076E-10,2.447805E-07,-1.153121E-07,-1.331444E-08,-2.622604E-08
409.9882,-0.3184583,-3.425456E-08,NaN,-0.3268256,-1.367557E-07,NaN,0.5410331,6.089859E-08,NaN,-0.4377234,1.156135E-06,-0.4451488,-6.635273E-09,NaN,NaN,-0.01990638,1.862643E-10,2.492508E-07,-1.153162E-07,-6.16188E-09,-2.622604E-08
410.0025,-0.3318996,-3.425411E-08,NaN,-0.3268174,-1.367612E-07,NaN,0.5447662,6.094674E-08,NaN,-0.4355634,1.156926E-06,-0.4482494,-6.680697E-09,NaN,NaN,-0.01990312,1.909209E-10,2.526781E-07,-1.153204E-07,-1.331444E-08,-2.622604E-08
410.0174,-0.3318996,-3.425411E-08,NaN,-0.3268174,-1.367612E-07,NaN,0.5447662,6.094674E-08,NaN,-0.4355634,1.156926E-06,-0.4482494,-6.680697E-09,NaN,NaN,-0.01990312,1.909209E-10,2.526781E-07,-1.153204E-07,-1.331444E-08,-2.622604E-08
410.0314,-0.3460592,-3.425367E-08,NaN,-0.3268099,-1.367667E-07,NaN,0.5490307,6.099366E-08,NaN,-0.4331205,1.157718E-06,-0.4518073,-6.724886E-09,NaN,NaN,-0.01989933,1.955775E-10,2.564034E-07,-1.153245E-07,-1.093025E-08,-2.622604E-08
410.0468,-0.3606113,-3.425322E-08,NaN,-0.3268008,-1.367722E-07,NaN,0.5533774,6.103954E-08,NaN,-0.4306636,1.15851E-06,-0.4554386,-6.768039E-09,NaN,NaN,-0.01989546,2.002341E-10,2.610227E-07,-1.153286E-07,-8.546067E-09,-2.622604E-08
410.0616,-0.3753493,-3.425277E-08,NaN,-0.3267892,-1.367776E-07,NaN,0.5576477,6.108423E-08,NaN,-0.4282931,1.159306E-06,-0.4590094,-6.810001E-09,NaN,NaN,-0.01989165,2.002341E-10,2.64897E-07,-1.153327E-07,-8.546067E-09,-2.622604E-08
410.0765,-0.3753493,-3.425277E-08,NaN,-0.3267892,-1.367776E-07,NaN,0.5576477,6.108423E-08,NaN,-0.4282931,1.159306E-06,-0.4590094,-6.810001E-09,NaN,NaN,-0.01989165,2.002341E-10,2.64897E-07,-1.153327E-07,-8.546067E-09,-2.622604E-08
410.0905,-0.3908707,-3.425232E-08,NaN,-0.3267779,-1.36783E-07,NaN,0.5624679,6.112793E-08,NaN,-0.4256471,1.160102E-06,-0.4630554,-6.850969E-09,NaN,NaN,-0.01988727,2.002341E-10,2.732417E-07,-1.153368E-07,-1.093025E-08,-2.622604E-08
410.1059,-0.4068198,-3.425186E-08,NaN,-0.3267642,-1.367884E-07,NaN,0.5673626,6.117047E-08,NaN,-0.4230022,1.160903E-06,-0.4671686,-6.890791E-09,NaN,NaN,-0.01988284,1.955775E-10,2.739867E-07,-1.153409E-07,-1.331444E-08,-2.622604E-08
410.1208,-0.4229709,-3.42514E-08,NaN,-0.3267474,-1.367938E-07,NaN,0.5721669,6.121208E-08,NaN,-0.4204595,1.161699E-06,-0.4712093,-6.929665E-09,NaN,NaN,-0.01987847,1.955775E-10,2.783081E-07,-1.153449E-07,-2.0467E-08,-2.622604E-08
410.1356,-0.4229709,-3.42514E-08,NaN,-0.3267474,-1.367938E-07,NaN,0.5721669,6.121208E-08,NaN,-0.4204595,1.161699E-06,-0.4712093,-6.929665E-09,NaN,NaN,-0.01987847,1.955775E-10,2.783081E-07,-1.153449E-07,-2.0467E-08,-2.622604E-08
410.1497,-0.4391814,-3.425093E-08,NaN,-0.3267281,-1.367992E-07,NaN,0.5768378,6.125275E-08,NaN,-0.4180454,1.1625E-06,-0.4751427,-6.96761E-09,NaN,NaN,-0.01987419,1.909209E-10,2.830764E-07,-1.15349E-07,-2.285118E-08,-2.622604E-08
410.1652,-0.4560895,-3.425046E-08,NaN,-0.3267094,-1.368046E-07,NaN,0.5820757,6.129233E-08,NaN,-0.4153722,1.163296E-06,-0.4795721,-7.004468E-09,NaN,NaN,-0.01986927,1.909209E-10,2.863547E-07,-1.15353E-07,-2.0467E-08,-2.622604E-08
410.1808,-0.4733655,-3.424999E-08,NaN,-0.3266885,-1.368099E-07,NaN,0.5873985,6.133103E-08,NaN,-0.4127024,1.164093E-06,-0.4840803,-7.040441E-09,NaN,NaN,-0.01986427,1.909209E-10,2.951464E-07,-1.15357E-07,-2.0467E-08,-2.622604E-08
410.1945,-0.4733655,-3.424999E-08,NaN,-0.3266885,-1.368099E-07,NaN,0.5873985,6.133103E-08,NaN,-0.4127024,1.164093E-06,-0.4840803,-7.040441E-09,NaN,NaN,-0.01986427,1.909209E-10,2.951464E-07,-1.15357E-07,-2.0467E-08,-2.622604E-08
410.2087,-0.4908005,-3.424952E-08,NaN,-0.326665,-1.368152E-07,NaN,0.592638,6.136867E-08,NaN,-0.4101333,1.164889E-06,-0.4885232,-7.075358E-09,NaN,NaN,-0.01985933,1.909209E-10,2.981266E-07,-1.15361E-07,-1.093025E-08,-2.622604E-08
410.2242,-0.5082623,-3.424904E-08,NaN,-0.3266391,-1.368205E-07,NaN,0.5977482,6.140546E-08,NaN,-0.4076912,1.16569E-06,-0.4928632,-7.109423E-09,NaN,NaN,-0.01985448,1.862643E-10,3.005108E-07,-1.15365E-07,-6.161881E-09,-2.622604E-08
410.239,-0.5082623,-3.424904E-08,NaN,-0.3266391,-1.368205E-07,NaN,0.5977482,6.140546E-08,NaN,-0.4076912,1.16569E-06,-0.4928632,-7.109423E-09,NaN,NaN,-0.01985448,1.862643E-10,3.005108E-07,-1.15365E-07,-6.161881E-09,-2.622604E-08
410.253,-0.526396,-3.424856E-08,NaN,-0.3266141,-1.368258E-07,NaN,0.6034605,6.144123E-08,NaN,-0.4049948,1.166486E-06,-0.497735,-7.142476E-09,NaN,NaN,-0.01984892,1.862643E-10,3.082594E-07,-1.15369E-07,-1.093025E-08,-2.622604E-08
410.2684,-0.5448763,-3.424808E-08,NaN,-0.3265871,-1.368311E-07,NaN,0.6092678,6.147619E-08,NaN,-0.402304,1.167282E-06,-0.5026957,-7.174712E-09,NaN,NaN,-0.01984329,1.862643E-10,3.139218E-07,-1.15373E-07,-3.777695E-09,-2.622604E-08
410.2832,-0.5634971,-3.424759E-08,NaN,-0.3265575,-1.368364E-07,NaN,0.6149929,6.151018E-08,NaN,-0.3997161,1.168079E-06,-0.5075927,-7.205971E-09,NaN,NaN,-0.01983772,1.862643E-10,3.186902E-07,-1.153769E-07,-1.393509E-09,-2.622604E-08
410.2985,-0.5634971,-3.424759E-08,NaN,-0.3265575,-1.368364E-07,NaN,0.6149929,6.151018E-08,NaN,-0.3997161,1.168079E-06,-0.5075927,-7.205971E-09,NaN,NaN,-0.01983772,1.862643E-10,3.186902E-07,-1.153769E-07,-1.393509E-09,-2.622604E-08
410.3125,-0.5828564,-3.42471E-08,NaN,-0.3265281,-1.368416E-07,NaN,0.6213471,6.154337E-08,NaN,-0.3968821,1.16887E-06,-0.5130473,-7.236448E-09,NaN,NaN,-0.01983142,1.909209E-10,3.233095E-07,-1.153809E-07,-6.161881E-09,-2.622604E-08
410.3278,-0.6025989,-3.424661E-08,NaN,-0.3264959,-1.368468E-07,NaN,0.6277909,6.157563E-08,NaN,-0.3940686,1.169662E-06,-0.5185863,-7.265984E-09,NaN,NaN,-0.01982506,1.955775E-10,3.282269E-07,-1.153848E-07,-6.161881E-09,-2.622604E-08
410.3425,-0.6224996,-3.424611E-08,NaN,-0.3264605,-1.368521E-07,NaN,0.6341389,6.160715E-08,NaN,-0.3913734,1.170463E-06,-0.5240496,-7.294771E-09,NaN,NaN,-0.01981878,1.909209E-10,3.364225E-07,-1.153887E-07,-3.777695E-09,-2.622604E-08
410.3575,-0.6224996,-3.424611E-08,NaN,-0.3264605,-1.368521E-07,NaN,0.6341389,6.160715E-08,NaN,-0.3913734,1.170463E-06,-0.5240496,-7.294771E-09,NaN,NaN,-0.01981878,1.909209E-10,3.364225E-07,-1.153887E-07,-3.777695E-09,-2.622604E-08
410.3715,-0.6424164,-3.424561E-08,NaN,-0.3264225,-1.368572E-07,NaN,0.6403426,6.163793E-08,NaN,-0.3888219,1.171259E-06,-0.5293975,-7.322825E-09,NaN,NaN,-0.01981258,1.909209E-10,3.335913E-07,-1.153926E-07,-8.546067E-09,-2.622604E-08
410.3872,-0.6629879,-3.424511E-08,NaN,-0.3263853,-1.368624E-07,NaN,0.6472023,6.166781E-08,NaN,-0.386042,1.17206E-06,-0.5353337,-7.349988E-09,NaN,NaN,-0.01980555,1.862643E-10,3.376146E-07,-1.153965E-07,-1.569862E-08,-2.622604E-08
410.4019,-0.683885,-3.424461E-08,NaN,-0.3263457,-1.368676E-07,NaN,0.6541649,6.169699E-08,NaN,-0.3832848,1.172856E-06,-0.5413688,-7.376448E-09,NaN,NaN,-0.01979843,1.862643E-10,3.429791E-07,-1.154004E-07,-2.285118E-08,-2.622604E-08
410.4177,-0.683885,-3.424461E-08,NaN,-0.3263457,-1.368676E-07,NaN,0.6541649,6.169699E-08,NaN,-0.3832848,1.172856E-06,-0.5413688,-7.376448E-09,NaN,NaN,-0.01979843,1.862643E-10,3.429791E-07,-1.154004E-07,-2.285118E-08,-2.622604E-08
410.4347,-0.7048992,-3.42441E-08,NaN,-0.3263034,-1.368727E-07,NaN,0.6610393,6.172531E-08,NaN,-0.380644,1.173648E-06,-0.5473362,-7.402043E-09,NaN,NaN,-0.01979139,1.909209E-10,3.471514E-07,-1.154043E-07,-3.000374E-08,-2.622604E-08
410.4473,-0.7258989,-3.424359E-08,NaN,-0.3262588,-1.368778E-07,NaN,0.6677731,6.175296E-08,NaN,-0.3781448,1.174439E-06,-0.5531923,-7.42697E-09,NaN,NaN,-0.01978444,1.955775E-10,3.495356E-07,-1.154081E-07,-2.761955E-08,-2.622604E-08
410.4609,-0.7470224,-3.424307E-08,NaN,-0.3262138,-1.36883E-07,NaN,0.6746198,6.177977E-08,NaN,-0.3756756,1.175236E-06,-0.5591626,-7.451062E-09,NaN,NaN,-0.01977725,1.955775E-10,3.557941E-07,-1.15412E-07,-2.761955E-08,-2.622604E-08
410.4754,-0.7470224,-3.424307E-08,NaN,-0.3262138,-1.36883E-07,NaN,0.6746198,6.177977E-08,NaN,-0.3756756,1.175236E-06,-0.5591626,-7.451062E-09,NaN,NaN,-0.01977725,1.955775E-10,3.557941E-07,-1.15412E-07,-2.761955E-08,-2.622604E-08
410.4895,-0.7681354,-3.424256E-08,NaN,-0.3261678,-1.368881E-07,NaN,0.6814086,6.18019E-08,NaN,-0.3733042,1.176032E-06,-0.5650959,-7.470466E-09,NaN,NaN,-0.01977007,1.909209E-10,3.565391E-07,-1.154158E-07,-3.000374E-08,-2.861022E-08
410.5051,-0.7891533,-3.424204E-08,NaN,-0.3261212,-1.368931E-07,NaN,0.6880865,6.182361E-08,NaN,-0.3710506,1.176824E-06,-0.570946,-7.489453E-09,NaN,NaN,-0.01976295,1.909209E-10,3.624996E-07,-1.154196E-07,-2.761955E-08,-2.622604E-08
410.5198,-0.7891533,-3.424204E-08,NaN,-0.3261212,-1.368931E-07,NaN,0.6880865,6.182361E-08,NaN,-0.3710506,1.176824E-06,-0.570946,-7.489453E-09,NaN,NaN,-0.01976295,1.909209E-10,3.624996E-07,-1.154196E-07,-2.761955E-08,-2.622604E-08
410.5341,-0.8100235,-3.424152E-08,NaN,-0.3260747,-1.368982E-07,NaN,0.6946432,6.184455E-08,NaN,-0.3689154,1.17762E-06,-0.5767046,-7.507677E-09,NaN,NaN,-0.01975588,1.862643E-10,3.68162E-07,-1.154234E-07,-2.523537E-08,-2.861022E-08
410.5497,-0.8307133,-3.424099E-08,NaN,-0.3260286,-1.369033E-07,NaN,0.7010821,6.186493E-08,NaN,-0.3668923,1.178411E-06,-0.5823752,-7.525334E-09,NaN,NaN,-0.01974888,1.862643E-10,3.662249E-07,-1.154272E-07,-2.404328E-08,-2.622604E-08
410.5645,-0.8512033,-3.424046E-08,NaN,-0.3259835,-1.369083E-07,NaN,0.7074093,6.188475E-08,NaN,-0.3649739,1.179203E-06,-0.5879633,-7.542431E-09,NaN,NaN,-0.01974194,1.862643E-10,3.671189E-07,-1.15431E-07,-2.285118E-08,-2.861022E-08
410.579,-0.8512033,-3.424046E-08,NaN,-0.3259835,-1.369083E-07,NaN,0.7074093,6.188475E-08,NaN,-0.3649739,1.179203E-06,-0.5879633,-7.542431E-09,NaN,NaN,-0.01974194,1.862643E-10,3.671189E-07,-1.15431E-07,-2.285118E-08,-2.861022E-08
410.593,-0.8714818,-3.423993E-08,NaN,-0.3259396,-1.369133E-07,NaN,0.71363,6.190402E-08,NaN,-0.3631529,1.179985E-06,-0.5934735,-7.558978E-09,NaN,NaN,-0.01973505,1.955775E-10,3.735264E-07,-1.154347E-07,-1.92749E-08,-2.622604E-08
410.6084,-0.8915426,-3.42394E-08,NaN,-0.3258972,-1.369183E-07,NaN,0.7197477,6.192275E-08,NaN,-0.3614235,1.180782E-06,-0.5989085,-7.574987E-09,NaN,NaN,-0.01972824,1.909209E-10,3.80232E-07,-1.154385E-07,-2.0467E-08,-2.861022E-08
410.6234,-0.9113826,-3.423886E-08,NaN,-0.3258564,-1.369233E-07,NaN,0.7257644,6.194077E-08,NaN,-0.3597807,1.181573E-06,-0.6042698,-7.590294E-09,NaN,NaN,-0.01972151,1.909209E-10,3.830632E-07,-1.154422E-07,-1.689072E-08,-2.622604E-08
410.6382,-0.9113826,-3.423886E-08,NaN,-0.3258564,-1.369233E-07,NaN,0.7257644,6.194077E-08,NaN,-0.3597807,1.181573E-06,-0.6042698,-7.590294E-09,NaN,NaN,-0.01972151,1.909209E-10,3.830632E-07,-1.154422E-07,-1.689072E-08,-2.622604E-08
410.6544,-0.9310009,-3.423832E-08,NaN,-0.3258173,-1.369283E-07,NaN,0.7316809,6.195829E-08,NaN,-0.3582207,1.182369E-06,-0.6095574,-7.605088E-09,NaN,NaN,-0.01971487,1.862643E-10,3.905138E-07,-1.15446E-07,-1.331444E-08,-2.861022E-08
410.6677,-0.9503977,-3.423778E-08,NaN,-0.3257799,-1.369333E-07,NaN,0.7374971,6.19753E-08,NaN,-0.3567401,1.183161E-06,-0.6147707,-7.61938E-09,NaN,NaN,-0.01970832,1.862643E-10,3.952821E-07,-1.154497E-07,-1.808281E-08,-2.622604E-08
410.6826,-0.9695741,-3.423724E-08,NaN,-0.3257443,-1.369382E-07,NaN,0.7432123,6.199182E-08,NaN,-0.3553361,1.183957E-06,-0.6199085,-7.633181E-09,NaN,NaN,-0.01970189,1.816077E-10,3.969213E-07,-1.154534E-07,-1.450653E-08,-2.861022E-08
410.6973,-0.9695741,-3.423724E-08,NaN,-0.3257443,-1.369382E-07,NaN,0.7432123,6.199182E-08,NaN,-0.3553361,1.183957E-06,-0.6199085,-7.633181E-09,NaN,NaN,-0.01970189,1.816077E-10,3.969213E-07,-1.154534E-07,-1.450653E-08,-2.861022E-08
410.7111,-0.9885318,-3.423669E-08,NaN,-0.3257104,-1.369431E-07,NaN,0.7488256,6.200768E-08,NaN,-0.3540061,1.184749E-06,-0.6249694,-7.646319E-09,NaN,NaN,-0.01969555,1.816077E-10,4.003485E-07,-1.154571E-07,-1.689072E-08,-2.622604E-08
410.7266,-1.007273,-3.423614E-08,NaN,-0.3256783,-1.36948E-07,NaN,0.7543355,6.202306E-08,NaN,-0.3527478,1.185541E-06,-0.6299517,-7.658985E-09,NaN,NaN,-0.01968933,1.769511E-10,4.015406E-07,-1.154608E-07,-1.331444E-08,-2.861022E-08
410.7412,-1.025799,-3.423558E-08,NaN,-0.3256477,-1.369529E-07,NaN,0.7597409,6.203798E-08,NaN,-0.3515591,1.186327E-06,-0.6348535,-7.671188E-09,NaN,NaN,-0.01968324,1.722944E-10,4.043719E-07,-1.154644E-07,-1.331444E-08,-2.622604E-08
410.7563,-1.025799,-3.423558E-08,NaN,-0.3256477,-1.369529E-07,NaN,0.7597409,6.203798E-08,NaN,-0.3515591,1.186327E-06,-0.6348535,-7.671188E-09,NaN,NaN,-0.01968324,1.722944E-10,4.043719E-07,-1.154644E-07,-1.331444E-08,-2.622604E-08
410.7701,-1.044113,-3.423503E-08,NaN,-0.3256189,-1.369578E-07,NaN,0.7650403,6.205246E-08,NaN,-0.350438,1.18711E-06,-0.6396733,-7.682941E-09,NaN,NaN,-0.01967728,1.676378E-10,4.034778E-07,-1.154681E-07,-1.450653E-08,-2.861022E-08
410.7858,-1.062217,-3.423447E-08,NaN,-0.3255916,-1.369627E-07,NaN,0.7702323,6.206648E-08,NaN,-0.3493826,1.187878E-06,-0.644409,-7.694245E-09,NaN,NaN,-0.01967144,1.769511E-10,4.049679E-07,-1.154717E-07,-1.808281E-08,-2.622604E-08
410.8005,-1.080112,-3.423391E-08,NaN,-0.3255658,-1.369676E-07,NaN,0.7753155,6.207989E-08,NaN,-0.348391,1.188656E-06,-0.649059,-7.704934E-09,NaN,NaN,-0.01966575,1.769511E-10,4.076501E-07,-1.154754E-07,-1.689072E-08,-2.861022E-08
410.8154,-1.080112,-3.423391E-08,NaN,-0.3255658,-1.369676E-07,NaN,0.7753155,6.207989E-08,NaN,-0.348391,1.188656E-06,-0.649059,-7.704934E-09,NaN,NaN,-0.01966575,1.769511E-10,4.076501E-07,-1.154754E-07,-1.689072E-08,-2.861022E-08
410.8294,-1.097803,-3.423334E-08,NaN,-0.3255416,-1.369724E-07,NaN,0.7802886,6.209288E-08,NaN,-0.3474614,1.189429E-06,-0.6536216,-7.715201E-09,NaN,NaN,-0.01966019,1.816077E-10,4.122695E-07,-1.15479E-07,-1.808281E-08,-2.622604E-08
410.8449,-1.11529,-3.423277E-08,NaN,-0.3255188,-1.369772E-07,NaN,0.7851504,6.210545E-08,NaN,-0.346592,1.190206E-06,-0.6580951,-7.72505E-09,NaN,NaN,-0.01965478,1.816077E-10,4.167398E-07,-1.154826E-07,-1.689072E-08,-2.861022E-08
410.8595,-1.11529,-3.423277E-08,NaN,-0.3255188,-1.369772E-07,NaN,0.7851504,6.210545E-08,NaN,-0.346592,1.190206E-06,-0.6580951,-7.72505E-09,NaN,NaN,-0.01965478,1.816077E-10,4.167398E-07,-1.154826E-07,-1.689072E-08,-2.861022E-08
410.8737,-1.132576,-3.42322E-08,NaN,-0.3254974,-1.36982E-07,NaN,0.7898998,6.211761E-08,NaN,-0.3457811,1.190984E-06,-0.6624781,-7.734489E-09,NaN,NaN,-0.01964952,1.816077E-10,4.177829E-07,-1.154862E-07,-1.867886E-08,-2.622604E-08
410.8889,-1.149664,-3.423163E-08,NaN,-0.3254774,-1.369868E-07,NaN,0.7945356,6.212936E-08,NaN,-0.3450271,1.191761E-06,-0.6667691,-7.743526E-09,NaN,NaN,-0.0196444,1.816077E-10,4.228493E-07,-1.154898E-07,-2.225513E-08,-2.861022E-08
410.9048,-1.166555,-3.423106E-08,NaN,-0.3254588,-1.369916E-07,NaN,0.7990569,6.214072E-08,NaN,-0.3443281,1.192539E-06,-0.6709667,-7.752171E-09,NaN,NaN,-0.01963944,1.816077E-10,4.243394E-07,-1.154934E-07,-2.344723E-08,-2.622604E-08
410.9199,-1.166555,-3.423106E-08,NaN,-0.3254588,-1.369916E-07,NaN,0.7990569,6.214072E-08,NaN,-0.3443281,1.192539E-06,-0.6709667,-7.752171E-09,NaN,NaN,-0.01963944,1.816077E-10,4.243394E-07,-1.154934E-07,-2.344723E-08,-2.622604E-08
410.9326,-1.183253,-3.423048E-08,NaN,-0.3254414,-1.369963E-07,NaN,0.8034628,6.21517E-08,NaN,-0.3436827,1.193317E-06,-0.6750698,-7.760431E-09,NaN,NaN,-0.01963464,1.816077E-10,4.270216E-07,-1.154969E-07,-2.165909E-08,-2.861022E-08
410.948,-1.199758,-3.42299E-08,NaN,-0.3254253,-1.370011E-07,NaN,0.8077524,6.21623E-08,NaN,-0.3430893,1.194094E-06,-0.6790771,-7.768314E-09,NaN,NaN,-0.01963,1.816077E-10,4.283627E-07,-1.155005E-07,-2.225513E-08,-2.622604E-08
410.9628,-1.216074,-3.422932E-08,NaN,-0.3254105,-1.370058E-07,NaN,0.8119251,6.217253E-08,NaN,-0.3425461,1.194872E-06,-0.6829875,-7.775826E-09,NaN,NaN,-0.01962551,1.816077E-10,4.300019E-07,-1.15504E-07,-2.285118E-08,-2.861022E-08
410.9775,-1.216074,-3.422932E-08,NaN,-0.3254105,-1.370058E-07,NaN,0.8119251,6.217253E-08,NaN,-0.3425461,1.194872E-06,-0.6829875,-7.775826E-09,NaN,NaN,-0.01962551,1.816077E-10,4.300019E-07,-1.15504E-07,-2.285118E-08,-2.861022E-08
410.9915,-1.232202,-3.422873E-08,NaN,-0.3253968,-1.370105E-07,NaN,0.8159803,6.218222E-08,NaN,-0.3420518,1.19565E-06,-0.6868001,-7.7828E-09,NaN,NaN,-0.01962119,1.816077E-10,4.305979E-07,-1.155076E-07,-2.165909E-08,-2.622604E-08
411.007,-1.248145,-3.422814E-08,NaN,-0.3253842,-1.370152E-07,NaN,0.8199173,6.219156E-08,NaN,-0.3416049,1.196427E-06,-0.6905139,-7.789419E-09,NaN,NaN,-0.01961702,1.816077E-10,4.31343E-07,-1.155111E-07,-2.106304E-08,-2.861022E-08
411.0219,-1.263905,-3.422755E-08,NaN,-0.3253728,-1.370199E-07,NaN,0.8237359,6.220073E-08,NaN,-0.3412037,1.197205E-06,-0.6941283,-7.79587E-09,NaN,NaN,-0.01961302,1.816077E-10,4.297038E-07,-1.155146E-07,-2.225513E-08,-2.622604E-08
411.0368,-1.263905,-3.422755E-08,NaN,-0.3253728,-1.370199E-07,NaN,0.8237359,6.220073E-08,NaN,-0.3412037,1.197205E-06,-0.6941283,-7.79587E-09,NaN,NaN,-0.01961302,1.816077E-10,4.297038E-07,-1.155146E-07,-2.225513E-08,-2.622604E-08
411.0509,-1.279262,-3.422696E-08,NaN,-0.3253617,-1.370246E-07,NaN,0.8271124,6.220955E-08,NaN,-0.3409426,1.197982E-06,-0.6973482,-7.80198E-09,NaN,NaN,-0.0196096,1.816077E-10,4.244884E-07,-1.155181E-07,-2.285118E-08,-2.861022E-08
411.0665,-1.294303,-3.422636E-08,NaN,-0.3253519,-1.370293E-07,NaN,0.8302802,6.228426E-08,NaN,-0.3407525,1.19876E-06,-0.7003875,-7.87398E-09,NaN,NaN,-0.01960638,1.816077E-10,4.234454E-07,-1.155216E-07,-2.195711E-08,-2.622604E-08
411.081,-1.309081,-3.422577E-08,NaN,-0.3253438,-1.37034E-07,NaN,0.8333232,6.23577E-08,NaN,-0.3406041,1.199538E-06,-0.7033223,-7.944695E-09,NaN,NaN,-0.01960329,1.816077E-10,4.241904E-07,-1.155252E-07,-2.225513E-08,-2.861022E-08
411.096,-1.309081,-3.422577E-08,NaN,-0.3253438,-1.37034E-07,NaN,0.8333232,6.23577E-08,NaN,-0.3406041,1.199538E-06,-0.7033223,-7.944695E-09,NaN,NaN,-0.01960329,1.816077E-10,4.241904E-07,-1.155252E-07,-2.225513E-08,-2.861022E-08
411.1096,-1.323633,-3.422517E-08,NaN,-0.3253372,-1.370386E-07,NaN,0.8362665,6.242988E-08,NaN,-0.3404862,1.200315E-06,-0.7061746,-8.014157E-09,NaN,NaN,-0.01960033,1.816077E-10,4.207631E-07,-1.155287E-07,-2.165909E-08,-2.622604E-08
411.1252,-1.337253,-3.422456E-08,NaN,-0.3253297,-1.370433E-07,NaN,0.8380371,6.250012E-08,NaN,-0.3407063,1.201093E-06,-0.707964,-8.081686E-09,NaN,NaN,-0.01959888,1.816077E-10,4.207631E-07,-1.155322E-07,-2.121205E-08,-2.861022E-08
411.1421,-1.35023,-3.422396E-08,NaN,-0.3253242,-1.370479E-07,NaN,0.8394139,6.256882E-08,NaN,-0.3410452,1.201871E-06,-0.709407,-8.147675E-09,NaN,NaN,-0.01959772,1.816077E-10,4.207631E-07,-1.155357E-07,-2.016897E-08,-2.622604E-08
411.1558,-1.35023,-3.422396E-08,NaN,-0.3253242,-1.370479E-07,NaN,0.8394139,6.256882E-08,NaN,-0.3410452,1.201871E-06,-0.709407,-8.147675E-09,NaN,NaN,-0.01959772,1.816077E-10,4.207631E-07,-1.155357E-07,-2.016897E-08,-2.622604E-08
411.169,-1.362749,-3.422335E-08,NaN,-0.3253216,-1.370526E-07,NaN,0.8406743,6.263637E-08,NaN,-0.3414123,1.202648E-06,-0.7107558,-8.212504E-09,NaN,NaN,-0.01959658,1.816077E-10,4.179319E-07,-1.155392E-07,-1.957293E-08,-2.861022E-08
411.1844,-1.374927,-3.422274E-08,NaN,-0.3253208,-1.370572E-07,NaN,0.8418986,6.270243E-08,NaN,-0.3417757,1.203426E-06,-0.7120814,-8.275847E-09,NaN,NaN,-0.01959546,1.816077E-10,4.155477E-07,-1.155427E-07,-1.987095E-08,-2.622604E-08
411.1993,-1.374927,-3.422274E-08,NaN,-0.3253208,-1.370572E-07,NaN,0.8418986,6.270243E-08,NaN,-0.3417757,1.203426E-06,-0.7120814,-8.275847E-09,NaN,NaN,-0.01959546,1.816077E-10,4.155477E-07,-1.155427E-07,-1.987095E-08,-2.622604E-08
411.2133,-1.386112,-3.422212E-08,NaN,-0.3253199,-1.370618E-07,NaN,0.8420212,6.276702E-08,NaN,-0.3424387,1.204203E-06,-0.7124079,-8.337732E-09,NaN,NaN,-0.01959579,1.816077E-10,4.124185E-07,-1.155462E-07,-1.916314E-08,-2.861022E-08
411.2286,-1.396625,-3.422151E-08,NaN,-0.3253203,-1.370664E-07,NaN,0.8418151,6.283019E-08,NaN,-0.3431865,1.204981E-06,-0.7124457,-8.398189E-09,NaN,NaN,-0.0195964,1.816077E-10,4.098853E-07,-1.155496E-07,-1.833427E-08,-2.622604E-08
411.2437,-1.406672,-3.422089E-08,NaN,-0.325322,-1.37071E-07,NaN,0.8415481,6.289196E-08,NaN,-0.3439339,1.205759E-06,-0.712438,-8.457242E-09,NaN,NaN,-0.01959705,1.816077E-10,4.022857E-07,-1.155531E-07,-1.784998E-08,-2.861022E-08
411.2586,-1.406672,-3.422089E-08,NaN,-0.325322,-1.37071E-07,NaN,0.8415481,6.289196E-08,NaN,-0.3439339,1.205759E-06,-0.712438,-8.457242E-09,NaN,NaN,-0.01959705,1.816077E-10,4.022857E-07,-1.155531E-07,-1.784998E-08,-2.861022E-08
411.2725,-1.415656,-3.422027E-08,NaN,-0.3253234,-1.370756E-07,NaN,0.8402238,6.295414E-08,NaN,-0.3449643,1.206532E-06,-0.711472,-8.516716E-09,NaN,NaN,-0.01959903,1.862643E-10,3.988584E-07,-1.155565E-07,-1.792449E-08,-2.861022E-08
411.2881,-1.423933,-3.421964E-08,NaN,-0.3253259,-1.370801E-07,NaN,0.8386282,6.301499E-08,NaN,-0.3460576,1.207305E-06,-0.7102691,-8.574849E-09,NaN,NaN,-0.01960121,1.909209E-10,3.954312E-07,-1.155599E-07,-1.747745E-08,-2.861022E-08
411.3027,-1.431731,-3.421902E-08,NaN,-0.3253306,-1.370847E-07,NaN,0.8370288,6.307452E-08,NaN,-0.3471301,1.208077E-06,-0.7090722,-8.631668E-09,NaN,NaN,-0.01960331,1.955775E-10,3.920039E-07,-1.155634E-07,-1.822251E-08,-2.861022E-08
411.3189,-1.431731,-3.421902E-08,NaN,-0.3253306,-1.370847E-07,NaN,0.8370288,6.307452E-08,NaN,-0.3471301,1.208077E-06,-0.7090722,-8.631668E-09,NaN,NaN,-0.01960331,1.955775E-10,3.920039E-07,-1.155634E-07,-1.822251E-08,-2.861022E-08
411.3317,-1.439196,-3.421839E-08,NaN,-0.3253376,-1.370892E-07,NaN,0.8354933,6.313276E-08,NaN,-0.3481578,1.20885E-06,-0.7079408,-8.6872E-09,NaN,NaN,-0.01960534,2.002341E-10,3.887257E-07,-1.155668E-07,-1.792449E-08,-2.861022E-08
411.3474,-1.445691,-3.421776E-08,NaN,-0.3253446,-1.370937E-07,NaN,0.8329646,6.318938E-08,NaN,-0.3494514,1.209623E-06,-0.705907,-8.741115E-09,NaN,NaN,-0.01960864,2.048907E-10,3.820201E-07,-1.155702E-07,-1.792449E-08,-2.861022E-08
411.3619,-1.451549,-3.421712E-08,NaN,-0.3253533,-1.370982E-07,NaN,0.8301939,6.324478E-08,NaN,-0.3508008,1.210396E-06,-0.7036604,-8.793799E-09,NaN,NaN,-0.01961209,2.095473E-10,3.778478E-07,-1.155735E-07,-1.852053E-08,-2.861022E-08
411.3779,-1.451549,-3.421712E-08,NaN,-0.3253533,-1.370982E-07,NaN,0.8301939,6.324478E-08,NaN,-0.3508008,1.210396E-06,-0.7036604,-8.793799E-09,NaN,NaN,-0.01961209,2.095473E-10,3.778478E-07,-1.155735E-07,-1.852053E-08,-2.861022E-08
411.3916,-1.456981,-3.421649E-08,NaN,-0.3253644,-1.371026E-07,NaN,0.8274391,6.329932E-08,NaN,-0.3521246,1.211169E-06,-0.7014354,-8.845629E-09,NaN,NaN,-0.01961544,2.142039E-10,3.727814E-07,-1.155769E-07,-1.822251E-08,-2.861022E-08
411.4097,-1.462124,-3.421585E-08,NaN,-0.3253775,-1.371071E-07,NaN,0.8247669,6.335267E-08,NaN,-0.3533989,1.211942E-06,-0.6992909,-8.896266E-09,NaN,NaN,-0.01961866,2.188605E-10,3.67268E-07,-1.155803E-07,-1.881855E-08,-2.861022E-08
411.4224,-1.466334,-3.421521E-08,NaN,-0.3253899,-1.371116E-07,NaN,0.821146,6.340449E-08,NaN,-0.3549376,1.212715E-06,-0.6962841,-8.945383E-09,NaN,NaN,-0.01962306,2.235171E-10,3.604135E-07,-1.155836E-07,-1.732844E-08,-2.861022E-08
411.4356,-1.466334,-3.421521E-08,NaN,-0.3253899,-1.371116E-07,NaN,0.821146,6.340449E-08,NaN,-0.3549376,1.212715E-06,-0.6962841,-8.945383E-09,NaN,NaN,-0.01962306,2.235171E-10,3.604135E-07,-1.155836E-07,-1.732844E-08,-2.861022E-08
411.45,-1.469941,-3.421457E-08,NaN,-0.3254033,-1.37116E-07,NaN,0.8173141,6.345517E-08,NaN,-0.3565275,1.213488E-06,-0.6930912,-8.993364E-09,NaN,NaN,-0.01962758,2.281738E-10,3.55049E-07,-1.15587E-07,-1.613634E-08,-2.861022E-08
411.4653,-1.473152,-3.421392E-08,NaN,-0.325418,-1.371204E-07,NaN,0.8135265,6.350474E-08,NaN,-0.358086,1.214261E-06,-0.6899443,-9.040226E-09,NaN,NaN,-0.01963196,2.328304E-10,3.484925E-07,-1.155903E-07,-1.524227E-08,-2.861022E-08
411.4803,-1.476101,-3.421327E-08,NaN,-0.325434,-1.371248E-07,NaN,0.80985,6.355321E-08,NaN,-0.359589,1.215034E-06,-0.6869025,-9.085994E-09,NaN,NaN,-0.01963616,2.37487E-10,3.478964E-07,-1.155936E-07,-1.524227E-08,-2.861022E-08
411.495,-1.476101,-3.421327E-08,NaN,-0.325434,-1.371248E-07,NaN,0.80985,6.355321E-08,NaN,-0.359589,1.215034E-06,-0.6869025,-9.085994E-09,NaN,NaN,-0.01963616,2.37487E-10,3.478964E-07,-1.155936E-07,-1.524227E-08,-2.861022E-08
411.5088,-1.478145,-3.421262E-08,NaN,-0.3254486,-1.371292E-07,NaN,0.8052822,6.360096E-08,NaN,-0.3613546,1.215812E-06,-0.6830514,-9.131046E-09,NaN,NaN,-0.01964143,2.37487E-10,3.407439E-07,-1.155969E-07,-1.762646E-08,-2.861022E-08
411.5246,-1.47961,-3.421197E-08,NaN,-0.3254632,-1.371336E-07,NaN,0.8005413,6.364731E-08,NaN,-0.3631663,1.216589E-06,-0.6790479,-9.174689E-09,NaN,NaN,-0.01964677,2.37487E-10,3.362736E-07,-1.156002E-07,-1.703041E-08,-2.861022E-08
411.5395,-1.47961,-3.421197E-08,NaN,-0.3254632,-1.371336E-07,NaN,0.8005413,6.364731E-08,NaN,-0.3631663,1.216589E-06,-0.6790479,-9.174689E-09,NaN,NaN,-0.01964677,2.37487E-10,3.362736E-07,-1.156002E-07,-1.703041E-08,-2.861022E-08
411.5536,-1.480706,-3.421131E-08,NaN,-0.3254782,-1.37138E-07,NaN,0.7958767,6.369262E-08,NaN,-0.3649407,1.217367E-06,-0.6751183,-9.217296E-09,NaN,NaN,-0.01965194,2.37487E-10,3.29717E-07,-1.156035E-07,-1.583832E-08,-2.861022E-08
411.5694,-1.480836,-3.421066E-08,NaN,-0.3254914,-1.371424E-07,NaN,0.7903759,6.373693E-08,NaN,-0.3669771,1.218145E-06,-0.6704319,-9.258895E-09,NaN,NaN,-0.01965806,2.37487E-10,3.245016E-07,-1.156068E-07,-1.703041E-08,-2.861022E-08
411.584,-1.480359,-3.421E-08,NaN,-0.325504,-1.371467E-07,NaN,0.7847605,6.378024E-08,NaN,-0.3690477,1.218922E-06,-0.6656464,-9.299504E-09,NaN,NaN,-0.01966418,2.37487E-10,3.143688E-07,-1.156101E-07,-1.762646E-08,-2.861022E-08
411.5987,-1.480359,-3.421E-08,NaN,-0.325504,-1.371467E-07,NaN,0.7847605,6.378024E-08,NaN,-0.3690477,1.218922E-06,-0.6656464,-9.299504E-09,NaN,NaN,-0.01966418,2.37487E-10,3.143688E-07,-1.156101E-07,-1.762646E-08,-2.861022E-08
411.615,-1.479502,-3.420934E-08,NaN,-0.3255165,-1.37151E-07,NaN,0.7792743,6.382258E-08,NaN,-0.3710672,1.2197E-06,-0.6609832,-9.339142E-09,NaN,NaN,-0.01967007,2.37487E-10,3.087064E-07,-1.156133E-07,-1.524227E-08,-2.861022E-08
411.6294,-1.478409,-3.420867E-08,NaN,-0.3255291,-1.371554E-07,NaN,0.7739764,6.386397E-08,NaN,-0.3730119,1.220477E-06,-0.6564943,-9.377829E-09,NaN,NaN,-0.01967571,2.37487E-10,3.03491E-07,-1.156166E-07,-1.583832E-08,-2.861022E-08
411.6431,-1.476444,-3.4208E-08,NaN,-0.3255393,-1.371597E-07,NaN,0.7679197,6.390443E-08,NaN,-0.3752132,1.221255E-06,-0.6513202,-9.415584E-09,NaN,NaN,-0.01968219,2.37487E-10,2.936562E-07,-1.156198E-07,-1.405018E-08,-2.861022E-08
411.6577,-1.476444,-3.4208E-08,NaN,-0.3255393,-1.371597E-07,NaN,0.7679197,6.390443E-08,NaN,-0.3752132,1.221255E-06,-0.6513202,-9.415584E-09,NaN,NaN,-0.01968219,2.37487E-10,2.936562E-07,-1.156198E-07,-1.405018E-08,-2.861022E-08
411.6717,-1.473939,-3.420734E-08,NaN,-0.3255482,-1.37164E-07,NaN,0.7617741,6.394398E-08,NaN,-0.3774481,1.222033E-06,-0.6460701,-9.452426E-09,NaN,NaN,-0.01968867,2.37487E-10,2.875468E-07,-1.15623E-07,-1.643437E-08,-2.861022E-08
411.6872,-1.471104,-3.420666E-08,NaN,-0.3255563,-1.371682E-07,NaN,0.755771,6.398263E-08,NaN,-0.379632,1.22281E-06,-0.6409529,-9.488367E-09,NaN,NaN,-0.01969491,2.37487E-10,2.815863E-07,-1.156262E-07,-1.643437E-08,-2.861022E-08
411.7021,-1.468074,-3.420599E-08,NaN,-0.325564,-1.371725E-07,NaN,0.7499683,6.402004E-08,NaN,-0.3817408,1.223588E-06,-0.6360201,-9.523078E-09,NaN,NaN,-0.01970087,2.37487E-10,2.736887E-07,-1.156294E-07,-1.643437E-08,-2.861022E-08
411.7169,-1.468074,-3.420599E-08,NaN,-0.325564,-1.371725E-07,NaN,0.7499683,6.402004E-08,NaN,-0.3817408,1.223588E-06,-0.6360201,-9.523078E-09,NaN,NaN,-0.01970087,2.37487E-10,2.736887E-07,-1.156294E-07,-1.643437E-08,-2.861022E-08
411.7309,-1.464206,-3.420531E-08,NaN,-0.3255689,-1.371767E-07,NaN,0.7434599,6.405696E-08,NaN,-0.3841123,1.224366E-06,-0.6304526,-9.557287E-09,NaN,NaN,-0.0197076,2.37487E-10,2.678772E-07,-1.156326E-07,-1.464623E-08,-2.861022E-08
411.7465,-1.459826,-3.420464E-08,NaN,-0.325572,-1.37181E-07,NaN,0.73689,6.409303E-08,NaN,-0.3865171,1.225143E-06,-0.6248337,-9.590654E-09,NaN,NaN,-0.0197143,2.37487E-10,2.592346E-07,-1.156358E-07,-1.405018E-08,-2.861022E-08
411.7614,-1.455143,-3.420395E-08,NaN,-0.3255737,-1.371852E-07,NaN,0.7304827,6.412827E-08,NaN,-0.3888683,1.225921E-06,-0.6193651,-9.623192E-09,NaN,NaN,-0.01972075,2.37487E-10,2.52529E-07,-1.15639E-07,-1.166599E-08,-2.861022E-08
411.7759,-1.455143,-3.420395E-08,NaN,-0.3255737,-1.371852E-07,NaN,0.7304827,6.412827E-08,NaN,-0.3888683,1.225921E-06,-0.6193651,-9.623192E-09,NaN,NaN,-0.01972075,2.37487E-10,2.52529E-07,-1.15639E-07,-1.166599E-08,-2.861022E-08
411.7899,-1.449561,-3.420327E-08,NaN,-0.3255738,-1.371894E-07,NaN,0.7234253,6.41627E-08,NaN,-0.3914853,1.226698E-06,-0.6133154,-9.654916E-09,NaN,NaN,-0.01972785,2.37487E-10,2.446314E-07,-1.156421E-07,-1.106995E-08,-2.861022E-08
411.8055,-1.443436,-3.420259E-08,NaN,-0.3255726,-1.371936E-07,NaN,0.7163575,6.419597E-08,NaN,-0.3941258,1.227481E-06,-0.6072612,-9.685486E-09,NaN,NaN,-0.01973487,2.37487E-10,2.376278E-07,-1.156453E-07,-1.166599E-08,-2.861022E-08
411.82,-1.436996,-3.42019E-08,NaN,-0.3255704,-1.371978E-07,NaN,0.709497,6.422883E-08,NaN,-0.3967,1.228268E-06,-0.6013979,-9.715639E-09,NaN,NaN,-0.0197416,2.37487E-10,2.286871E-07,-1.156484E-07,-1.166599E-08,-2.861022E-08
411.835,-1.436996,-3.42019E-08,NaN,-0.3255704,-1.371978E-07,NaN,0.709497,6.422883E-08,NaN,-0.3967,1.228268E-06,-0.6013979,-9.715639E-09,NaN,NaN,-0.0197416,2.37487E-10,2.286871E-07,-1.156484E-07,-1.166599E-08,-2.861022E-08
411.8489,-1.430384,-3.420121E-08,NaN,-0.3255676,-1.37202E-07,NaN,0.702894,6.426092E-08,NaN,-0.3991831,1.229059E-06,-0.5957697,-9.745031E-09,NaN,NaN,-0.019748,2.328304E-10,2.212366E-07,-1.156516E-07,-1.226204E-08,-2.861022E-08
411.8654,-1.422963,-3.420052E-08,NaN,-0.3255621,-1.372061E-07,NaN,0.69571,6.429227E-08,NaN,-0.4019278,1.229851E-06,-0.5896255,-9.773675E-09,NaN,NaN,-0.01975498,2.281738E-10,2.149781E-07,-1.156547E-07,-1.106995E-08,-2.861022E-08
411.8804,-1.415065,-3.419983E-08,NaN,-0.3255544,-1.372103E-07,NaN,0.6885332,6.432252E-08,NaN,-0.4046961,1.230642E-06,-0.5834925,-9.801229E-09,NaN,NaN,-0.01976188,2.235171E-10,2.099117E-07,-1.156578E-07,-1.345413E-08,-2.861022E-08
411.8937,-1.415065,-3.419983E-08,NaN,-0.3255544,-1.372103E-07,NaN,0.6885332,6.432252E-08,NaN,-0.4046961,1.230642E-06,-0.5834925,-9.801229E-09,NaN,NaN,-0.01976188,2.235171E-10,2.099117E-07,-1.156578E-07,-1.345413E-08,-2.861022E-08
411.9077,-1.4069,-3.419913E-08,NaN,-0.3255452,-1.372144E-07,NaN,0.6815667,6.435207E-08,NaN,-0.4073988,1.231434E-06,-0.5775519,-9.828076E-09,NaN,NaN,-0.01976851,2.188605E-10,2.033552E-07,-1.156609E-07,-1.405018E-08,-2.861022E-08
411.9231,-1.3986,-3.419843E-08,NaN,-0.3255349,-1.372185E-07,NaN,0.6748592,6.438128E-08,NaN,-0.4100106,1.232226E-06,-0.5718468,-9.854574E-09,NaN,NaN,-0.01977481,2.142039E-10,1.947125E-07,-1.15664E-07,-1.226204E-08,-2.861022E-08
411.9379,-1.3986,-3.419843E-08,NaN,-0.3255349,-1.372185E-07,NaN,0.6748592,6.438128E-08,NaN,-0.4100106,1.232226E-06,-0.5718468,-9.854574E-09,NaN,NaN,-0.01977481,2.142039E-10,1.947125E-07,-1.15664E-07,-1.226204E-08,-2.861022E-08
