JMolnar6/NonAnthroHands_User_Study/HandsLoggerWithURDF/tempdata/PID 0 (test)/files/Reachy_JointMotion_gesture_4_17.csv
Time,r_shoulder,r_shoulder_x,r_upper_arm,r_forearm,r_wrist,r_wrist2hand,
360.6418,0.04496257,0.0005445976,NaN,-0.3269967,0.0003058278,NaN,0.192077,-14.17949,NaN,-1.611012,-1.467381,-0.9375433,14.14318,NaN,NaN,0.7020645,0.8028086,-0.6962301,1.028332,0.5753511,1.449998
360.6569,0.04496257,0.0005445976,NaN,-0.3269967,0.0003058278,NaN,0.192077,-14.17949,NaN,-1.611012,-1.467381,-0.9375433,14.14318,NaN,NaN,0.7020645,0.8028086,-0.6962301,1.028332,0.5753511,1.449998
360.6718,0.04496259,0.0005449904,NaN,-0.3269967,0.0003055902,NaN,0.1924351,-14.17857,NaN,-1.610696,-1.46965,-0.9362721,14.14542,NaN,NaN,0.701395,0.8037028,-0.6955695,1.0316,0.5757276,1.443324
360.6867,0.04496265,0.000545145,NaN,-0.3269967,0.0003059313,NaN,0.192962,-14.17786,NaN,-1.610615,-1.459541,-0.9351209,14.13485,NaN,NaN,0.7016858,0.8044674,-0.6956672,1.017035,0.5782517,1.439754
360.7017,0.0449627,0.000545268,NaN,-0.3269967,0.0003063861,NaN,0.1932442,-14.17858,NaN,-1.610923,-1.45778,-0.9337426,14.13309,NaN,NaN,0.7020366,0.8037354,-0.6955296,1.014489,0.5821473,1.4407
360.7167,0.0449627,0.000545268,NaN,-0.3269967,0.0003063861,NaN,0.1932442,-14.17858,NaN,-1.610923,-1.45778,-0.9337426,14.13309,NaN,NaN,0.7020366,0.8037354,-0.6955296,1.014489,0.5821473,1.4407
360.7312,0.04496276,0.0005453291,NaN,-0.3269968,0.0003068628,NaN,0.1936253,-14.17872,NaN,-1.611147,-1.457144,-0.9323593,14.13243,NaN,NaN,0.7022895,0.8035746,-0.6953434,1.013565,0.5803376,1.442332
360.7469,0.04496277,0.0005454144,NaN,-0.3269968,0.0003068697,NaN,0.193395,-14.17977,NaN,-1.61154,-1.465149,-0.9323129,14.14084,NaN,NaN,0.7029786,0.8025542,-0.695561,1.025098,0.5809026,1.449399
360.762,0.04496275,0.0005451814,NaN,-0.3269968,0.0003071875,NaN,0.1934437,-14.17817,NaN,-1.611706,-1.458192,-0.9325998,14.13346,NaN,NaN,0.7028397,0.8041577,-0.6957049,1.015087,0.5826476,1.438583
360.7773,0.04496275,0.0005451814,NaN,-0.3269968,0.0003071875,NaN,0.1934437,-14.17817,NaN,-1.611706,-1.458192,-0.9325998,14.13346,NaN,NaN,0.7028397,0.8041577,-0.6957049,1.015087,0.5826476,1.438583
360.7915,0.04496273,0.0005456646,NaN,-0.3269968,0.0003071181,NaN,0.1933092,-14.17838,NaN,-1.611594,-1.468053,-0.9327829,14.14372,NaN,NaN,0.7026484,0.803975,-0.6955542,1.0293,0.575995,1.446018
360.8075,0.04496271,0.000546189,NaN,-0.3269968,0.0003078008,NaN,0.1932646,-14.17841,NaN,-1.611498,-1.458966,-0.9330781,14.13427,NaN,NaN,0.7024282,0.8039894,-0.695564,1.016198,0.5765688,1.441711
360.8224,0.04496266,0.0005464376,NaN,-0.3269968,0.0003076146,NaN,0.1928243,-14.17891,NaN,-1.611726,-1.46859,-0.9350312,14.14431,NaN,NaN,0.7029145,0.8035044,-0.6965897,1.030066,0.5754493,1.445037
360.838,0.04496266,0.0005464376,NaN,-0.3269968,0.0003076146,NaN,0.1928243,-14.17891,NaN,-1.611726,-1.46859,-0.9350312,14.14431,NaN,NaN,0.7029145,0.8035044,-0.6965897,1.030066,0.5754493,1.445037
360.8518,0.04496259,0.0005467293,NaN,-0.3269968,0.0003073251,NaN,0.1923842,-14.17937,NaN,-1.611708,-1.469399,-0.9373029,14.14517,NaN,NaN,0.7033728,0.8029934,-0.6978117,1.031216,0.5732466,1.450112
360.8674,0.04496252,0.0005469957,NaN,-0.3269968,0.0003077343,NaN,0.1918394,-14.17776,NaN,-1.611736,-1.46033,-0.9396045,14.1356,NaN,NaN,0.7039422,0.8046312,-0.6991487,1.018162,0.5746216,1.43871
360.8834,0.04496244,0.0005468278,NaN,-0.3269968,0.0003080549,NaN,0.1913312,-14.17799,NaN,-1.611737,-1.457994,-0.9418637,14.13318,NaN,NaN,0.7043213,0.8043594,-0.7004449,1.014781,0.5757965,1.437128
360.8975,0.04496244,0.0005468278,NaN,-0.3269968,0.0003080549,NaN,0.1913312,-14.17799,NaN,-1.611737,-1.457994,-0.9418637,14.13318,NaN,NaN,0.7043213,0.8043594,-0.7004449,1.014781,0.5757965,1.437128
360.9118,0.04496234,0.0005459743,NaN,-0.3269968,0.0003074624,NaN,0.1903742,-14.1783,NaN,-1.611883,-1.467854,-0.9457565,14.14344,NaN,NaN,0.7054853,0.8040646,-0.7027237,1.028989,0.5767156,1.44441
360.9274,0.04496223,0.0005455146,NaN,-0.3269968,0.0003070332,NaN,0.1886059,-14.17968,NaN,-1.611697,-1.468589,-0.9495116,14.14431,NaN,NaN,0.7073762,0.8026613,-0.704758,1.030027,0.5794536,1.451139
360.9425,0.04496211,0.0005462227,NaN,-0.3269968,0.0003070522,NaN,0.1867334,-14.17865,NaN,-1.611559,-1.469487,-0.9532317,14.14513,NaN,NaN,0.7092332,0.8036489,-0.7069097,1.03132,0.583103,1.44547
360.9576,0.04496211,0.0005462227,NaN,-0.3269968,0.0003070522,NaN,0.1867334,-14.17865,NaN,-1.611559,-1.469487,-0.9532317,14.14513,NaN,NaN,0.7092332,0.8036489,-0.7069097,1.03132,0.583103,1.44547
360.9722,0.04496196,0.0005470182,NaN,-0.3269968,0.000307172,NaN,0.1842321,-14.17926,NaN,-1.611496,-1.468524,-0.9584574,14.14417,NaN,NaN,0.7118436,0.8030197,-0.7098867,1.029917,0.586781,1.44892
360.9879,0.04496178,0.0005474546,NaN,-0.3269968,0.0003077339,NaN,0.1826698,-14.17826,NaN,-1.611564,-1.45901,-0.964758,14.1342,NaN,NaN,0.713725,0.8040531,-0.7140651,1.016218,0.5838885,1.440134
361.0028,0.04496161,0.0005478349,NaN,-0.3269967,0.0003075836,NaN,0.1820507,-14.17929,NaN,-1.61176,-1.469489,-0.9719038,14.14517,NaN,NaN,0.7150013,0.8030391,-0.7192658,1.031318,0.5658655,1.450179
361.018,0.04496161,0.0005478349,NaN,-0.3269967,0.0003075836,NaN,0.1820507,-14.17929,NaN,-1.61176,-1.469489,-0.9719038,14.14517,NaN,NaN,0.7150013,0.8030391,-0.7192658,1.031318,0.5658655,1.450179
361.0322,0.04496145,0.0005480421,NaN,-0.3269967,0.0003070793,NaN,0.1775443,-14.17871,NaN,-1.610927,-1.471083,-0.9763327,14.14676,NaN,NaN,0.7186822,0.803578,-0.7210049,1.033611,0.5548562,1.443924
361.0479,0.04496127,0.0005486037,NaN,-0.3269967,0.0003071832,NaN,0.1730465,-14.17799,NaN,-1.610201,-1.467762,-0.9809098,14.14322,NaN,NaN,0.7221886,0.8042973,-0.7231234,1.028824,0.5657566,1.438469
361.0629,0.04496109,0.0005490042,NaN,-0.3269967,0.0003075433,NaN,0.1691425,-14.17802,NaN,-1.609483,-1.4631,-0.9860793,14.13836,NaN,NaN,0.7253647,0.8042817,-0.7261272,1.022092,0.5711363,1.438333
361.0779,0.04496109,0.0005490042,NaN,-0.3269967,0.0003075433,NaN,0.1691425,-14.17802,NaN,-1.609483,-1.4631,-0.9860793,14.13836,NaN,NaN,0.7253647,0.8042817,-0.7261272,1.022092,0.5711363,1.438333
361.0937,0.04496092,0.0005491719,NaN,-0.3269967,0.0003072763,NaN,0.1651563,-14.17777,NaN,-1.608828,-1.469207,-0.9913463,14.14466,NaN,NaN,0.7286197,0.8045047,-0.7293159,1.030889,0.5790356,1.436372
361.1078,0.04496075,0.000548563,NaN,-0.3269967,0.0003070564,NaN,0.1611953,-14.1777,NaN,-1.608162,-1.460217,-0.9966946,14.1353,NaN,NaN,0.731776,0.8046167,-0.7326147,1.017918,0.5862855,1.436825
361.123,0.04496058,0.0005481632,NaN,-0.3269967,0.0003071746,NaN,0.1572365,-14.17741,NaN,-1.607471,-1.460981,-1.002117,14.13606,NaN,NaN,0.7348375,0.8048882,-0.7359818,1.019017,0.5958025,1.433239
361.1381,0.04496058,0.0005481632,NaN,-0.3269967,0.0003071746,NaN,0.1572365,-14.17741,NaN,-1.607471,-1.460981,-1.002117,14.13606,NaN,NaN,0.7348375,0.8048882,-0.7359818,1.019017,0.5958025,1.433239
361.1525,0.04496037,0.0005479261,NaN,-0.3269967,0.0003075181,NaN,0.1541706,-14.17804,NaN,-1.606984,-1.459185,-1.007685,14.13425,NaN,NaN,0.736043,0.8042421,-0.7390379,1.016423,0.6027365,1.435548
361.1683,0.04496015,0.0005480237,NaN,-0.3269967,0.0003073147,NaN,0.1529419,-14.17848,NaN,-1.606627,-1.469128,-1.014582,14.14462,NaN,NaN,0.7356252,0.8038259,-0.7431177,1.030756,0.607407,1.441903
361.1832,0.04495993,0.0005482167,NaN,-0.3269967,0.000307079,NaN,0.1520322,-14.17882,NaN,-1.60626,-1.469293,-1.021856,14.1448,NaN,NaN,0.7348423,0.8034579,-0.7472468,1.030984,0.6006063,1.442015
361.1984,0.04495993,0.0005482167,NaN,-0.3269967,0.000307079,NaN,0.1520322,-14.17882,NaN,-1.60626,-1.469293,-1.021856,14.1448,NaN,NaN,0.7348423,0.8034579,-0.7472468,1.030984,0.6006063,1.442015
361.2129,0.04495971,0.0005484705,NaN,-0.3269967,0.0003067499,NaN,0.1512092,-14.17875,NaN,-1.605857,-1.470103,-1.029206,14.14562,NaN,NaN,0.7337731,0.8034936,-0.7512551,1.032144,0.5964977,1.442021
361.2286,0.04495949,0.0005486626,NaN,-0.3269967,0.0003070519,NaN,0.1504265,-14.17781,NaN,-1.605406,-1.461994,-1.036569,14.13711,NaN,NaN,0.7324887,0.8044758,-0.7551743,1.020466,0.5927958,1.436168
361.2435,0.04495926,0.0005488435,NaN,-0.3269966,0.0003069668,NaN,0.149678,-14.17904,NaN,-1.604924,-1.467858,-1.043933,14.14333,NaN,NaN,0.7310451,0.8032409,-0.7590616,1.028918,0.5894629,1.442522
361.2594,0.04495926,0.0005488435,NaN,-0.3269966,0.0003069668,NaN,0.149678,-14.17904,NaN,-1.604924,-1.467858,-1.043933,14.14333,NaN,NaN,0.7310451,0.8032409,-0.7590616,1.028918,0.5894629,1.442522
361.273,0.04495903,0.0005488415,NaN,-0.3269966,0.0003073529,NaN,0.1489764,-14.17771,NaN,-1.604416,-1.459494,-1.051289,14.13452,NaN,NaN,0.7294602,0.8045965,-0.7629471,1.016878,0.5862788,1.432809
361.2886,0.0449588,0.0005487454,NaN,-0.3269966,0.0003069843,NaN,0.1482999,-14.1786,NaN,-1.603917,-1.470106,-1.058634,14.14563,NaN,NaN,0.7277828,0.8037238,-0.7668579,1.032179,0.5839624,1.441169
361.3035,0.04495858,0.0005486172,NaN,-0.3269965,0.0003067536,NaN,0.1476749,-14.17822,NaN,-1.603394,-1.466557,-1.065958,14.1419,NaN,NaN,0.7259881,0.8041092,-0.7707763,1.027062,0.5817423,1.438461
361.3183,0.04495858,0.0005486172,NaN,-0.3269965,0.0003067536,NaN,0.1476749,-14.17822,NaN,-1.603394,-1.466557,-1.065958,14.1419,NaN,NaN,0.7259881,0.8041092,-0.7707763,1.027062,0.5817423,1.438461
361.3327,0.04495835,0.0005483934,NaN,-0.3269965,0.0003069601,NaN,0.1470816,-14.17741,NaN,-1.602881,-1.460132,-1.073263,14.13513,NaN,NaN,0.7241158,0.8049345,-0.7747263,1.017798,0.5796863,1.431645
361.3484,0.04495812,0.0005484842,NaN,-0.3269965,0.0003067256,NaN,0.1465306,-14.17846,NaN,-1.602366,-1.469768,-1.080536,14.14526,NaN,NaN,0.72216,0.8038922,-0.7787019,1.031697,0.5777694,1.442123
361.3636,0.04495795,0.0005481269,NaN,-0.3269965,0.00030643,NaN,0.1437084,-14.17794,NaN,-1.601135,-1.464813,-1.086989,14.14005,NaN,NaN,0.7232349,0.8044434,-0.7824634,1.024556,0.5857759,1.43781
361.3786,0.04495795,0.0005481269,NaN,-0.3269965,0.00030643,NaN,0.1437084,-14.17794,NaN,-1.601135,-1.464813,-1.086989,14.14005,NaN,NaN,0.7232349,0.8044434,-0.7824634,1.024556,0.5857759,1.43781
361.3932,0.04495774,0.0005484457,NaN,-0.3269965,0.0003067156,NaN,0.1418066,-14.1772,NaN,-1.600763,-1.46324,-1.093621,14.13834,NaN,NaN,0.7227236,0.8051702,-0.7867375,1.022288,0.5810019,1.432857
361.409,0.04495752,0.0005489255,NaN,-0.3269964,0.0003066248,NaN,0.1414141,-14.17848,NaN,-1.60042,-1.469246,-1.101029,14.14471,NaN,NaN,0.7207728,0.8038754,-0.7916964,1.03095,0.5810643,1.441845
361.4238,0.0449573,0.0005491727,NaN,-0.3269964,0.0003064326,NaN,0.1410453,-14.17832,NaN,-1.600014,-1.467675,-1.108442,14.14305,NaN,NaN,0.7186802,0.8040276,-0.7964699,1.028682,0.5815488,1.439427
361.4388,0.0449573,0.0005491727,NaN,-0.3269964,0.0003064326,NaN,0.1410453,-14.17832,NaN,-1.600014,-1.467675,-1.108442,14.14305,NaN,NaN,0.7186802,0.8040276,-0.7964699,1.028682,0.5815488,1.439427
361.4543,0.04495709,0.0005496328,NaN,-0.3269964,0.00030649,NaN,0.1410313,-14.17862,NaN,-1.599647,-1.467298,-1.116106,14.14268,NaN,NaN,0.7163094,0.8037229,-0.8015521,1.028131,0.5773628,1.441431
361.4688,0.04495687,0.0005501567,NaN,-0.3269964,0.0003066552,NaN,0.1406173,-14.17854,NaN,-1.599167,-1.466507,-1.123275,14.14184,NaN,NaN,0.7140946,0.8037944,-0.8057858,1.026987,0.5751047,1.44098
361.4838,0.04495665,0.0005504204,NaN,-0.3269963,0.0003063284,NaN,0.1395537,-14.17862,NaN,-1.598302,-1.470478,-1.12916,14.14595,NaN,NaN,0.7122103,0.8036829,-0.8072137,1.032704,0.5754362,1.441386
361.4989,0.04495665,0.0005504204,NaN,-0.3269963,0.0003063284,NaN,0.1395537,-14.17862,NaN,-1.598302,-1.470478,-1.12916,14.14595,NaN,NaN,0.7122103,0.8036829,-0.8072137,1.032704,0.5754362,1.441386
361.5133,0.04495645,0.0005509157,NaN,-0.3269963,0.0003062339,NaN,0.1383834,-14.17861,NaN,-1.597326,-1.469405,-1.134834,14.14482,NaN,NaN,0.710572,0.8036804,-0.807821,1.03115,0.5756521,1.442343
361.529,0.04495625,0.0005511247,NaN,-0.3269963,0.000306542,NaN,0.1371454,-14.17713,NaN,-1.596343,-1.461237,-1.140485,14.13619,NaN,NaN,0.7092708,0.8051845,-0.8081279,1.019389,0.5744913,1.43222
361.5443,0.04495606,0.0005513436,NaN,-0.3269962,0.0003063197,NaN,0.1358912,-14.17791,NaN,-1.595395,-1.469054,-1.146175,14.14439,NaN,NaN,0.7082443,0.8044062,-0.8084269,1.03066,0.571817,1.435732
361.5605,0.04495592,0.0005511713,NaN,-0.3269962,0.0003064459,NaN,0.13303,-14.17718,NaN,-1.593942,-1.460791,-1.151466,14.13572,NaN,NaN,0.7095654,0.8051604,-0.8088666,1.018741,0.5755064,1.432024
361.5746,0.04495592,0.0005511713,NaN,-0.3269962,0.0003064459,NaN,0.13303,-14.17718,NaN,-1.593942,-1.460791,-1.151466,14.13572,NaN,NaN,0.7095654,0.8051604,-0.8088666,1.018741,0.5755064,1.432024
361.5888,0.04495575,0.000550847,NaN,-0.3269962,0.00030672,NaN,0.1307085,-14.17738,NaN,-1.593126,-1.45913,-1.156812,14.134,NaN,NaN,0.7099611,0.804937,-0.8095167,1.016336,0.5689446,1.431283
361.6047,0.04495559,0.0005503323,NaN,-0.3269962,0.0003063238,NaN,0.1291992,-14.17817,NaN,-1.592296,-1.468242,-1.162452,14.14355,NaN,NaN,0.7095703,0.8041694,-0.8101138,1.029479,0.5685624,1.437647
361.6194,0.04495559,0.0005503323,NaN,-0.3269962,0.0003063238,NaN,0.1291992,-14.17817,NaN,-1.592296,-1.468242,-1.162452,14.14355,NaN,NaN,0.7095703,0.8041694,-0.8101138,1.029479,0.5685624,1.437647
361.6346,0.04495542,0.0005501714,NaN,-0.3269962,0.0003068033,NaN,0.1276662,-14.17744,NaN,-1.591365,-1.459609,-1.168035,14.1345,NaN,NaN,0.709231,0.8049377,-0.8102854,1.017033,0.5694945,1.433247
361.6494,0.04495526,0.000549941,NaN,-0.3269962,0.0003071552,NaN,0.1260288,-14.17763,NaN,-1.590392,-1.45889,-1.173574,14.13376,NaN,NaN,0.7090039,0.8047326,-0.8102747,1.015989,0.5690232,1.432216
361.6645,0.0449551,0.0005502399,NaN,-0.3269962,0.0003076428,NaN,0.1245434,-14.17824,NaN,-1.589449,-1.460507,-1.179265,14.1355,NaN,NaN,0.7087029,0.8041184,-0.810492,1.018318,0.5671052,1.438058
361.6794,0.0449551,0.0005502399,NaN,-0.3269962,0.0003076428,NaN,0.1245434,-14.17824,NaN,-1.589449,-1.460507,-1.179265,14.1355,NaN,NaN,0.7087029,0.8041184,-0.810492,1.018318,0.5671052,1.438058
361.6938,0.04495495,0.0005507931,NaN,-0.3269962,0.0003075606,NaN,0.1228704,-14.17818,NaN,-1.588469,-1.469472,-1.184802,14.14479,NaN,NaN,0.7084945,0.804182,-0.8105207,1.031236,0.5664256,1.440284
361.7094,0.04495479,0.0005511852,NaN,-0.3269962,0.0003072513,NaN,0.121302,-14.17839,NaN,-1.587495,-1.470709,-1.190404,14.14608,NaN,NaN,0.7082065,0.8039534,-0.8106916,1.033013,0.5655106,1.43894
361.7246,0.04495464,0.0005515058,NaN,-0.3269962,0.0003073489,NaN,0.1197316,-14.17753,NaN,-1.586513,-1.464302,-1.195976,14.13933,NaN,NaN,0.7079077,0.8048425,-0.8108627,1.023782,0.5647679,1.431474
361.7397,0.04495464,0.0005515058,NaN,-0.3269962,0.0003073489,NaN,0.1197316,-14.17753,NaN,-1.586513,-1.464302,-1.195976,14.13933,NaN,NaN,0.7079077,0.8048425,-0.8108627,1.023782,0.5647679,1.431474
361.754,0.04495451,0.000551894,NaN,-0.3269962,0.0003071994,NaN,0.1171045,-14.1783,NaN,-1.58516,-1.46876,-1.201298,14.14404,NaN,NaN,0.7089348,0.8040625,-0.8111513,1.030206,0.5698501,1.436546
361.7696,0.04495437,0.0005514229,NaN,-0.3269962,0.0003068554,NaN,0.1153989,-14.17815,NaN,-1.584326,-1.463452,-1.207111,14.13849,NaN,NaN,0.709012,0.8042172,-0.8121936,1.022544,0.5700803,1.433997
361.7848,0.04495424,0.0005512965,NaN,-0.3269962,0.0003071028,NaN,0.1140234,-14.17744,NaN,-1.583421,-1.460926,-1.212867,14.13578,NaN,NaN,0.7086636,0.8049056,-0.8127332,1.018895,0.5698089,1.430795
361.7999,0.04495424,0.0005512965,NaN,-0.3269962,0.0003071028,NaN,0.1140234,-14.17744,NaN,-1.583421,-1.460926,-1.212867,14.13578,NaN,NaN,0.7086636,0.8049056,-0.8127332,1.018895,0.5698089,1.430795
361.8139,0.0449541,0.0005504479,NaN,-0.3269962,0.0003069989,NaN,0.1126376,-14.17801,NaN,-1.582434,-1.458663,-1.218562,14.13347,NaN,NaN,0.7083248,0.8043156,-0.8128698,1.015625,0.5693275,1.431618
361.8306,0.04495397,0.0005495065,NaN,-0.3269962,0.0003069812,NaN,0.1111742,-14.17762,NaN,-1.581406,-1.459076,-1.224229,14.13384,NaN,NaN,0.7080559,0.8046948,-0.8128666,1.016211,0.5685776,1.428238
361.8446,0.04495384,0.0005492818,NaN,-0.3269962,0.0003068286,NaN,0.109844,-14.17923,NaN,-1.580408,-1.467804,-1.230022,14.14309,NaN,NaN,0.707662,0.8031082,-0.8130592,1.028803,0.5657745,1.440922
361.8596,0.04495384,0.0005492818,NaN,-0.3269962,0.0003068286,NaN,0.109844,-14.17923,NaN,-1.580408,-1.467804,-1.230022,14.14309,NaN,NaN,0.707662,0.8031082,-0.8130592,1.028803,0.5657745,1.440922
361.8744,0.04495372,0.0005496289,NaN,-0.3269962,0.0003066166,NaN,0.1084171,-14.17865,NaN,-1.579379,-1.470575,-1.235735,14.14589,NaN,NaN,0.7073026,0.8036521,-0.813184,1.032794,0.5637062,1.440354
361.8897,0.04495359,0.0005500095,NaN,-0.3269962,0.0003072222,NaN,0.1070515,-14.17791,NaN,-1.578354,-1.459487,-1.241463,14.13431,NaN,NaN,0.7068709,0.8044668,-0.8133767,1.016822,0.5615697,1.431869
361.9048,0.04495347,0.0005501451,NaN,-0.3269962,0.000307001,NaN,0.1057123,-14.17811,NaN,-1.577323,-1.469143,-1.247173,14.14436,NaN,NaN,0.7064014,0.8042845,-0.8135782,1.030743,0.5594918,1.434991
361.9201,0.04495336,0.0005505977,NaN,-0.3269962,0.0003068505,NaN,0.1034839,-14.17878,NaN,-1.575962,-1.470212,-1.252554,14.14551,NaN,NaN,0.7070355,0.803582,-0.8136928,1.032269,0.5626681,1.440538
361.9349,0.04495336,0.0005505977,NaN,-0.3269962,0.0003068505,NaN,0.1034839,-14.17878,NaN,-1.575962,-1.470212,-1.252554,14.14551,NaN,NaN,0.7070355,0.803582,-0.8136928,1.032269,0.5626681,1.440538
361.9493,0.04495325,0.000550252,NaN,-0.3269962,0.0003056247,NaN,0.1018735,-14.17783,NaN,-1.575001,-1.462367,-1.258293,14.13727,NaN,NaN,0.7070532,0.8045625,-0.8144264,1.020971,0.5615397,1.432489
361.9651,0.04495314,0.0005496406,NaN,-0.3269962,0.0003051471,NaN,0.1005027,-14.17723,NaN,-1.573998,-1.459,-1.263942,14.1337,NaN,NaN,0.7066945,0.8051496,-0.8147723,1.01611,0.559904,1.427389
361.9802,0.04495303,0.0005496839,NaN,-0.3269962,0.0003046471,NaN,0.09920289,-14.17779,NaN,-1.572949,-1.467494,-1.269572,14.14259,NaN,NaN,0.7062309,0.8046079,-0.8148856,1.028368,0.5582272,1.433092
361.9951,0.04495303,0.0005496839,NaN,-0.3269962,0.0003046471,NaN,0.09920289,-14.17779,NaN,-1.572949,-1.467494,-1.269572,14.14259,NaN,NaN,0.7062309,0.8046079,-0.8148856,1.028368,0.5582272,1.433092
362.0114,0.04495293,0.0005500888,NaN,-0.3269962,0.0003045006,NaN,0.09789262,-14.17853,NaN,-1.571864,-1.467468,-1.275187,14.14262,NaN,NaN,0.7057668,0.8038412,-0.8149319,1.028315,0.556539,1.438275
362.0254,0.04495282,0.000550827,NaN,-0.3269962,0.0003047765,NaN,0.09659126,-14.1784,NaN,-1.570777,-1.465965,-1.2808,14.14103,NaN,NaN,0.7052834,0.80395,-0.8150341,1.026139,0.5548089,1.436852
362.0415,0.04495272,0.000550879,NaN,-0.3269962,0.0003042406,NaN,0.09549503,-14.17726,NaN,-1.569725,-1.469685,-1.286528,14.14475,NaN,NaN,0.7046408,0.8050457,-0.8153551,1.031497,0.5519564,1.432385
362.0551,0.04495272,0.000550879,NaN,-0.3269962,0.0003042406,NaN,0.09549503,-14.17726,NaN,-1.569725,-1.469685,-1.286528,14.14475,NaN,NaN,0.7046408,0.8050457,-0.8153551,1.031497,0.5519564,1.432385
362.0693,0.04495262,0.0005503947,NaN,-0.3269962,0.0003041421,NaN,0.09423332,-14.17753,NaN,-1.568638,-1.459545,-1.292096,14.13422,NaN,NaN,0.7041105,0.8048023,-0.8155106,1.016858,0.5500293,1.430819
362.0852,0.04495252,0.0005495229,NaN,-0.3269962,0.000304072,NaN,0.09303568,-14.17727,NaN,-1.567561,-1.458728,-1.297652,14.13334,NaN,NaN,0.7035069,0.8050199,-0.8156807,1.015676,0.5479674,1.427362
362.1004,0.04495244,0.0005491331,NaN,-0.3269963,0.0003043663,NaN,0.0912387,-14.17781,NaN,-1.566257,-1.459792,-1.30294,14.13449,NaN,NaN,0.7035089,0.804452,-0.8157283,1.01721,0.549612,1.430573
362.1155,0.04495244,0.0005491331,NaN,-0.3269963,0.0003043663,NaN,0.0912387,-14.17781,NaN,-1.566257,-1.459792,-1.30294,14.13449,NaN,NaN,0.7035089,0.804452,-0.8157283,1.01721,0.549612,1.430573
362.1298,0.04495235,0.0005489199,NaN,-0.3269963,0.0003046816,NaN,0.09003285,-14.17794,NaN,-1.565237,-1.460014,-1.308566,14.13473,NaN,NaN,0.7029605,0.8043001,-0.8163341,1.017527,0.5481394,1.431221
362.1455,0.04495226,0.0005492957,NaN,-0.3269963,0.0003045748,NaN,0.08890903,-14.17838,NaN,-1.564177,-1.469227,-1.314065,14.14434,NaN,NaN,0.7022653,0.8038536,-0.8166431,1.03081,0.5464095,1.438095
362.1606,0.04495217,0.0005495136,NaN,-0.3269963,0.0003040996,NaN,0.08780743,-14.17838,NaN,-1.563079,-1.471,-1.319489,14.14617,NaN,NaN,0.7015316,0.8038164,-0.8167547,1.033361,0.5445963,1.435853
362.1758,0.04495217,0.0005495136,NaN,-0.3269963,0.0003040996,NaN,0.08780743,-14.17838,NaN,-1.563079,-1.471,-1.319489,14.14617,NaN,NaN,0.7015316,0.8038164,-0.8167547,1.033361,0.5445963,1.435853
362.19,0.04495209,0.0005498374,NaN,-0.3269963,0.0003042656,NaN,0.08670156,-14.17724,NaN,-1.561977,-1.464813,-1.324884,14.13963,NaN,NaN,0.7008167,0.804967,-0.8168486,1.02445,0.5428215,1.427817
362.2068,0.04495201,0.000550106,NaN,-0.3269963,0.0003040299,NaN,0.08560967,-14.17854,NaN,-1.56087,-1.470005,-1.330245,14.14515,NaN,NaN,0.7000952,0.8036399,-0.8169662,1.03193,0.5410734,1.435111
362.2207,0.04495193,0.0005508434,NaN,-0.3269963,0.0003040359,NaN,0.0845459,-14.17832,NaN,-1.559774,-1.470012,-1.335569,14.14511,NaN,NaN,0.6993492,0.8038317,-0.8171217,1.031933,0.5393755,1.435144
362.2357,0.04495193,0.0005508434,NaN,-0.3269963,0.0003040359,NaN,0.0845459,-14.17832,NaN,-1.559774,-1.470012,-1.335569,14.14511,NaN,NaN,0.6993492,0.8038317,-0.8171217,1.031933,0.5393755,1.435144
362.2499,0.04495185,0.0005511686,NaN,-0.3269963,0.0003043845,NaN,0.08351373,-14.17731,NaN,-1.558683,-1.461406,-1.340843,14.13607,NaN,NaN,0.6985697,0.8048685,-0.8172778,1.019533,0.5377483,1.425378
362.2656,0.04495178,0.0005504619,NaN,-0.3269963,0.0003034375,NaN,0.0827841,-14.17819,NaN,-1.557644,-1.458711,-1.346243,14.13335,NaN,NaN,0.6975793,0.8039676,-0.817662,1.015639,0.5347499,1.427673
362.2806,0.04495171,0.0005494442,NaN,-0.3269964,0.0003029271,NaN,0.08153881,-14.17787,NaN,-1.556536,-1.458367,-1.351312,14.13294,NaN,NaN,0.6967906,0.8042555,-0.8176619,1.015133,0.5341323,1.428577
362.2959,0.04495171,0.0005494442,NaN,-0.3269964,0.0003029271,NaN,0.08153881,-14.17787,NaN,-1.556536,-1.458367,-1.351312,14.13294,NaN,NaN,0.6967906,0.8042555,-0.8176619,1.015133,0.5341323,1.428577
362.3102,0.04495164,0.0005484921,NaN,-0.3269964,0.0003020212,NaN,0.08076298,-14.17926,NaN,-1.555472,-1.468942,-1.356536,14.14408,NaN,NaN,0.6955087,0.8029079,-0.8178681,1.030383,0.5317764,1.438439
362.3259,0.04495157,0.0005482922,NaN,-0.3269964,0.0003020759,NaN,0.07996727,-14.17901,NaN,-1.554375,-1.463472,-1.361685,14.13837,NaN,NaN,0.6942837,0.8031701,-0.8180494,1.022503,0.5297913,1.437164
362.3411,0.04495151,0.0005481038,NaN,-0.3269964,0.000301896,NaN,0.07914383,-14.17936,NaN,-1.553283,-1.466806,-1.366756,14.14185,NaN,NaN,0.6931512,0.802794,-0.8182506,1.027295,0.5280534,1.4401
362.3562,0.04495151,0.0005481038,NaN,-0.3269964,0.000301896,NaN,0.07914383,-14.17936,NaN,-1.553283,-1.466806,-1.366756,14.14185,NaN,NaN,0.6931512,0.802794,-0.8182506,1.027295,0.5280534,1.4401
362.3701,0.04495145,0.0005472316,NaN,-0.3269964,0.0003015911,NaN,0.0783067,-14.17872,NaN,-1.552196,-1.460886,-1.371745,14.13564,NaN,NaN,0.6920926,0.8034412,-0.8184392,1.018772,0.5264515,1.434196
362.3871,0.04495139,0.0005469284,NaN,-0.3269964,0.0003012906,NaN,0.07746165,-14.17902,NaN,-1.551124,-1.467437,-1.376656,14.14246,NaN,NaN,0.6911035,0.8031411,-0.8186263,1.028206,0.5249624,1.439289
362.401,0.04495134,0.0005471889,NaN,-0.3269964,0.0003015997,NaN,0.07660665,-14.17881,NaN,-1.550078,-1.463062,-1.3815,14.13789,NaN,NaN,0.6901843,0.8033475,-0.8188218,1.021898,0.5235665,1.435701
362.4159,0.04495134,0.0005471889,NaN,-0.3269964,0.0003015997,NaN,0.07660665,-14.17881,NaN,-1.550078,-1.463062,-1.3815,14.13789,NaN,NaN,0.6901843,0.8033475,-0.8188218,1.021898,0.5235665,1.435701
362.4302,0.04495129,0.0005475453,NaN,-0.3269965,0.0003019163,NaN,0.07575531,-14.17883,NaN,-1.549022,-1.462961,-1.386253,14.13777,NaN,NaN,0.6893103,0.803309,-0.8189667,1.021745,0.522261,1.435669
362.4464,0.04495124,0.0005478582,NaN,-0.3269965,0.0003017698,NaN,0.07490338,-14.17912,NaN,-1.547977,-1.468958,-1.390939,14.144,NaN,NaN,0.6884903,0.8029977,-0.81911,1.030377,0.5210558,1.439652
362.4611,0.04495119,0.0005474184,NaN,-0.3269965,0.0003017108,NaN,0.07405489,-14.17838,NaN,-1.546943,-1.460028,-1.395557,14.13466,NaN,NaN,0.6877149,0.8037588,-0.819253,1.017514,0.5199617,1.432543
362.4763,0.04495119,0.0005474184,NaN,-0.3269965,0.0003017108,NaN,0.07405489,-14.17838,NaN,-1.546943,-1.460028,-1.395557,14.13466,NaN,NaN,0.6877149,0.8037588,-0.819253,1.017514,0.5199617,1.432543
362.4906,0.04495112,0.0005468419,NaN,-0.3269966,0.0003011346,NaN,0.07307202,-14.17803,NaN,-1.546104,-1.468259,-1.399957,14.14315,NaN,NaN,0.6861724,0.8041052,-0.8188795,1.029369,0.5182922,1.432789
362.5064,0.04495107,0.0005460613,NaN,-0.3269966,0.0003001375,NaN,0.07307581,-14.17829,NaN,-1.545018,-1.471647,-1.404686,14.14669,NaN,NaN,0.6838011,0.8037919,-0.8189287,1.03425,0.514508,1.434657
362.523,0.04495103,0.0005458132,NaN,-0.3269966,0.0003004056,NaN,0.07257399,-14.17838,NaN,-1.543883,-1.460531,-1.409287,14.13515,NaN,NaN,0.6822526,0.8037573,-0.8192897,1.018226,0.5135046,1.432756
362.5364,0.04495103,0.0005458132,NaN,-0.3269966,0.0003004056,NaN,0.07257399,-14.17838,NaN,-1.543883,-1.460531,-1.409287,14.13515,NaN,NaN,0.6822526,0.8037573,-0.8192897,1.018226,0.5135046,1.432756
362.5511,0.04495099,0.0005455367,NaN,-0.3269966,0.0003004737,NaN,0.07205092,-14.17908,NaN,-1.542876,-1.463405,-1.413541,14.1382,NaN,NaN,0.6809323,0.8030244,-0.8196477,1.022363,0.5126403,1.43652
362.5664,0.04495097,0.0005454265,NaN,-0.3269966,0.0003007737,NaN,0.07145016,-14.17892,NaN,-1.541882,-1.461309,-1.417601,14.136,NaN,NaN,0.6799371,0.8031583,-0.8199351,1.01934,0.5119926,1.435104
362.5825,0.04495095,0.0005451128,NaN,-0.3269966,0.0003003243,NaN,0.07078628,-14.17914,NaN,-1.540932,-1.470167,-1.421558,14.14519,NaN,NaN,0.6792134,0.8029245,-0.8201936,1.032092,0.5116424,1.437261
362.5965,0.04495095,0.0005451128,NaN,-0.3269966,0.0003003243,NaN,0.07078628,-14.17914,NaN,-1.540932,-1.470167,-1.421558,14.14519,NaN,NaN,0.6792134,0.8029245,-0.8201936,1.032092,0.5116424,1.437261
362.6107,0.04495094,0.0005451527,NaN,-0.3269967,0.000300759,NaN,0.07007771,-14.17846,NaN,-1.540009,-1.461157,-1.425421,14.13579,NaN,NaN,0.6786709,0.803642,-0.820365,1.019123,0.5114112,1.433214
362.6266,0.04495096,0.0005446384,NaN,-0.3269967,0.0003003282,NaN,0.06975104,-14.17881,NaN,-1.538949,-1.469025,-1.426962,14.14398,NaN,NaN,0.6780823,0.8032933,-0.818993,1.030458,0.5105678,1.436378
362.6414,0.04495103,0.0005449723,NaN,-0.3269967,0.0003001975,NaN,0.06919675,-14.17934,NaN,-1.538243,-1.470597,-1.428535,14.14565,NaN,NaN,0.6788249,0.802739,-0.8189409,1.032715,0.5109691,1.441304
362.6567,0.04495103,0.0005449723,NaN,-0.3269967,0.0003001975,NaN,0.06919675,-14.17934,NaN,-1.538243,-1.470597,-1.428535,14.14565,NaN,NaN,0.6788249,0.802739,-0.8189409,1.032715,0.5109691,1.441304
