JMolnar6/NonAnthroHands_User_Study/HandsLoggerWithURDF/tempdata/PID 0 (test)/files/Reachy_JointMotion_gesture_6_31.csv
Time,r_shoulder,r_shoulder_x,r_upper_arm,r_forearm,r_wrist,r_wrist2hand,
537.7251,-0.09805273,0.0005036878,NaN,-0.3272043,0.0003243529,NaN,0.4556175,-14.24169,NaN,-2.16962,-1.481642,-0.3681611,14.12344,NaN,NaN,-0.05704528,0.827436,4.499707E-06,1.048422,-4.194996E-08,1.384488
537.7398,-0.09805273,0.0005036878,NaN,-0.3272043,0.0003243529,NaN,0.4556175,-14.24169,NaN,-2.16962,-1.481642,-0.3681611,14.12344,NaN,NaN,-0.05704528,0.827436,4.499707E-06,1.048422,-4.194996E-08,1.384488
537.7532,-0.09768097,0.0005034421,NaN,-0.3272014,0.0003244898,NaN,0.4555903,-14.24019,NaN,-2.169789,-1.468617,-0.3679913,14.10911,NaN,NaN,-0.0563187,0.8287213,4.413857E-06,1.029143,-4.433415E-08,1.374623
537.7685,-0.09685057,0.0005034663,NaN,-0.3271975,0.0003251637,NaN,0.4554823,-14.24125,NaN,-2.170073,-1.464324,-0.3678709,14.10457,NaN,NaN,-0.0556064,0.8275562,4.330802E-06,1.02284,-4.433415E-08,1.375602
537.7834,-0.09573507,0.0005031521,NaN,-0.3271932,0.0003257213,NaN,0.4553585,-14.24087,NaN,-2.170363,-1.461953,-0.3677798,14.10193,NaN,NaN,-0.05490814,0.8278595,4.249609E-06,1.019323,-4.075787E-08,1.373299
537.7984,-0.09573507,0.0005031521,NaN,-0.3271932,0.0003257213,NaN,0.4553585,-14.24087,NaN,-2.170363,-1.461953,-0.3677798,14.10193,NaN,NaN,-0.05490814,0.8278595,4.249609E-06,1.019323,-4.075787E-08,1.373299
537.8128,-0.09517314,0.0005026573,NaN,-0.3271912,0.0003262726,NaN,0.455408,-14.24098,NaN,-2.170238,-1.461398,-0.3677298,14.10135,NaN,NaN,-0.054224,0.827733,4.160891E-06,1.018512,-3.479741E-08,1.373568
537.8282,-0.09496188,0.0005024105,NaN,-0.3271904,0.0003261202,NaN,0.4555555,-14.24314,NaN,-2.169961,-1.475555,-0.3676324,14.11706,NaN,NaN,-0.05355325,0.8260913,4.073179E-06,1.03954,-3.71816E-08,1.392115
537.8434,-0.09497108,0.0005022908,NaN,-0.3271899,0.0003254882,NaN,0.4557345,-14.24271,NaN,-2.169645,-1.481185,-0.367505,14.12313,NaN,NaN,-0.05289559,0.8266351,3.988373E-06,1.047837,-3.837369E-08,1.390208
537.8584,-0.09497108,0.0005022908,NaN,-0.3271899,0.0003254882,NaN,0.4557345,-14.24271,NaN,-2.169645,-1.481185,-0.367505,14.12313,NaN,NaN,-0.05289559,0.8266351,3.988373E-06,1.047837,-3.837369E-08,1.390208
537.8726,-0.09511894,0.000501964,NaN,-0.3271895,0.0003245221,NaN,0.4559142,-14.24027,NaN,-2.169332,-1.480745,-0.367367,14.12239,NaN,NaN,-0.0522508,0.8290686,3.904964E-06,1.047138,-3.59895E-08,1.3814
537.8884,-0.09608175,0.0005014314,NaN,-0.3271907,0.0003228546,NaN,0.456247,-14.24081,NaN,-2.168647,-1.467273,-0.3672576,14.10776,NaN,NaN,-0.05161901,0.8282855,3.814569E-06,1.027223,-3.241322E-08,1.377295
537.9033,-0.09755331,0.0005015314,NaN,-0.3271922,0.0003227162,NaN,0.4566485,-14.24089,NaN,-2.167865,-1.467825,-0.3671022,14.10838,NaN,NaN,-0.05099955,0.8282142,3.729E-06,1.028052,-3.241322E-08,1.376951
537.9183,-0.09755331,0.0005015314,NaN,-0.3271922,0.0003227162,NaN,0.4566485,-14.24089,NaN,-2.167865,-1.467825,-0.3671022,14.10838,NaN,NaN,-0.05099955,0.8282142,3.729E-06,1.028052,-3.241322E-08,1.376951
537.9335,-0.09933881,0.0005016154,NaN,-0.3271935,0.0003220885,NaN,0.4570549,-14.24149,NaN,-2.167092,-1.47873,-0.3669226,14.12034,NaN,NaN,-0.05039217,0.8279154,3.645851E-06,1.044205,-2.883694E-08,1.381786
537.9481,-0.1013144,0.0005021419,NaN,-0.3271944,0.0003231205,NaN,0.4574407,-14.2415,NaN,-2.166361,-1.465955,-0.3667383,14.10643,NaN,NaN,-0.04979664,0.8276818,3.564454E-06,1.025323,-2.883694E-08,1.380876
537.963,-0.1041296,0.0005022651,NaN,-0.3271971,0.000323807,NaN,0.457964,-14.24109,NaN,-2.165291,-1.463448,-0.3665854,14.10364,NaN,NaN,-0.04921314,0.8280122,3.477971E-06,1.021601,-2.168439E-08,1.375782
537.9778,-0.1041296,0.0005022651,NaN,-0.3271971,0.000323807,NaN,0.457964,-14.24109,NaN,-2.165291,-1.463448,-0.3665854,14.10364,NaN,NaN,-0.04921314,0.8280122,3.477971E-06,1.021601,-2.168439E-08,1.375782
537.9921,-0.1074612,0.0005019724,NaN,-0.3272,0.00032432,NaN,0.4585431,-14.24069,NaN,-2.16415,-1.462474,-0.3663895,14.10252,NaN,NaN,-0.04864102,0.8283727,3.393034E-06,1.020142,-1.810811E-08,1.371843
538.0076,-0.1111039,0.0005010406,NaN,-0.3272023,0.0003245655,NaN,0.4591169,-14.24059,NaN,-2.163038,-1.461403,-0.3661724,14.10134,NaN,NaN,-0.04808003,0.8284365,3.311413E-06,1.018553,-1.453183E-08,1.372423
538.0241,-0.1149269,0.000501021,NaN,-0.3272038,0.0003255771,NaN,0.459662,-14.24122,NaN,-2.161984,-1.461003,-0.3659527,14.10099,NaN,NaN,-0.04753,0.8277952,3.232046E-06,1.017994,-1.93002E-08,1.375777
538.0375,-0.1149269,0.000501021,NaN,-0.3272038,0.0003255771,NaN,0.459662,-14.24122,NaN,-2.161984,-1.461003,-0.3659527,14.10099,NaN,NaN,-0.04753,0.8277952,3.232046E-06,1.017994,-1.93002E-08,1.375777
538.0516,-0.1195758,0.0005012471,NaN,-0.3272068,0.0003265376,NaN,0.4603385,-14.24234,NaN,-2.160606,-1.461521,-0.3657633,14.10172,NaN,NaN,-0.04699107,0.8266982,3.148451E-06,1.018817,-2.168438E-08,1.382534
538.0673,-0.1247248,0.000500778,NaN,-0.3272094,0.0003260931,NaN,0.4610643,-14.24201,NaN,-2.159169,-1.478686,-0.3655318,14.1203,NaN,NaN,-0.04646265,0.8276356,3.067034E-06,1.044127,-1.810811E-08,1.387903
538.0824,-0.1301668,0.0005008303,NaN,-0.3272109,0.0003272982,NaN,0.4617789,-14.24277,NaN,-2.157772,-1.461815,-0.3652804,14.10202,NaN,NaN,-0.0459445,0.8265589,2.988729E-06,1.019219,-2.287648E-08,1.384821
538.0973,-0.1301668,0.0005008303,NaN,-0.3272109,0.0003272982,NaN,0.4617789,-14.24277,NaN,-2.157772,-1.461815,-0.3652804,14.10202,NaN,NaN,-0.0459445,0.8265589,2.988729E-06,1.019219,-2.287648E-08,1.384821
538.1116,-0.1364986,0.0005012095,NaN,-0.3272134,0.0003272272,NaN,0.4626241,-14.24288,NaN,-2.156059,-1.477973,-0.3650504,14.11957,NaN,NaN,-0.04543681,0.8270075,2.908169E-06,1.043063,-2.406857E-08,1.391028
538.1273,-0.1433637,0.0005011513,NaN,-0.3272147,0.0003277959,NaN,0.4635098,-14.24262,NaN,-2.154303,-1.46413,-0.3647769,14.10449,NaN,NaN,-0.04493899,0.8270025,2.825449E-06,1.022611,-2.883694E-08,1.385978
538.1433,-0.1505356,0.0005003504,NaN,-0.327215,0.0003279783,NaN,0.4643742,-14.2429,NaN,-2.152605,-1.462359,-0.3644857,14.1026,NaN,NaN,-0.04445083,0.8266524,2.747777E-06,1.020012,-2.883694E-08,1.386129
538.1572,-0.1505356,0.0005003504,NaN,-0.327215,0.0003279783,NaN,0.4643742,-14.2429,NaN,-2.152605,-1.462359,-0.3644857,14.1026,NaN,NaN,-0.04445083,0.8266524,2.747777E-06,1.020012,-2.883694E-08,1.386129
538.1713,-0.1578704,0.0004995758,NaN,-0.3272146,0.0003284265,NaN,0.4651957,-14.24292,NaN,-2.150993,-1.461833,-0.3641956,14.10203,NaN,NaN,-0.04397218,0.8266017,2.670962E-06,1.019238,-3.122113E-08,1.386714
538.1869,-0.1660052,0.0004986753,NaN,-0.327215,0.0003279823,NaN,0.466138,-14.24372,NaN,-2.149081,-1.474828,-0.3639326,14.11625,NaN,NaN,-0.04350322,0.8262588,2.592395E-06,1.038453,-2.764485E-08,1.395171
538.2015,-0.1746092,0.0004979855,NaN,-0.3272147,0.0003285477,NaN,0.467117,-14.24262,NaN,-2.147132,-1.463081,-0.36363,14.10337,NaN,NaN,-0.04304338,0.8270946,2.516213E-06,1.021088,-2.526067E-08,1.384596
538.2164,-0.1746092,0.0004979855,NaN,-0.3272147,0.0003285477,NaN,0.467117,-14.24262,NaN,-2.147132,-1.463081,-0.36363,14.10337,NaN,NaN,-0.04304338,0.8270946,2.516213E-06,1.021088,-2.526067E-08,1.384596
538.2308,-0.1834724,0.0004975212,NaN,-0.3272136,0.0003292164,NaN,0.4680732,-14.24289,NaN,-2.145245,-1.461807,-0.3633112,14.10202,NaN,NaN,-0.04259245,0.8267798,2.440776E-06,1.019217,-3.241322E-08,1.385713
538.2465,-0.1924614,0.0004975177,NaN,-0.3272119,0.0003290848,NaN,0.4689857,-14.24304,NaN,-2.143445,-1.476175,-0.3629941,14.11763,NaN,NaN,-0.0421503,0.8271398,2.369176E-06,1.040425,-4.075787E-08,1.392047
538.2614,-0.2022202,0.0004978006,NaN,-0.327211,0.000328766,NaN,0.4700185,-14.24458,NaN,-2.141349,-1.47917,-0.3627009,14.12106,NaN,NaN,-0.04171711,0.8256485,2.294893E-06,1.044888,-4.075787E-08,1.399786
538.2764,-0.2022202,0.0004978006,NaN,-0.327211,0.000328766,NaN,0.4700185,-14.24458,NaN,-2.141349,-1.47917,-0.3627009,14.12106,NaN,NaN,-0.04171711,0.8256485,2.294893E-06,1.044888,-4.075787E-08,1.399786
538.2906,-0.2124224,0.0004977466,NaN,-0.3272094,0.0003291224,NaN,0.4710849,-14.24259,NaN,-2.139221,-1.466507,-0.3623683,14.1071,NaN,NaN,-0.04129232,0.8274141,2.223666E-06,1.02616,-4.314206E-08,1.386442
538.3064,-0.2228608,0.0004973205,NaN,-0.3272068,0.0003295696,NaN,0.4721252,-14.24275,NaN,-2.137159,-1.462819,-0.3620207,14.10311,NaN,NaN,-0.04087578,0.8271509,2.151917E-06,1.020717,-4.194997E-08,1.383134
538.3212,-0.2334039,0.0004967498,NaN,-0.3272029,0.000330066,NaN,0.4731189,-14.24283,NaN,-2.13519,-1.461463,-0.3616757,14.10164,NaN,NaN,-0.04046733,0.8270307,2.083595E-06,1.018716,-4.552625E-08,1.383574
538.3364,-0.2334039,0.0004967498,NaN,-0.3272029,0.000330066,NaN,0.4731189,-14.24283,NaN,-2.13519,-1.461463,-0.3616757,14.10164,NaN,NaN,-0.04046733,0.8270307,2.083595E-06,1.018716,-4.552625E-08,1.383574
538.3515,-0.2446971,0.0004959159,NaN,-0.3272003,0.0003304378,NaN,0.4742306,-14.24265,NaN,-2.132932,-1.461393,-0.3613522,14.10153,NaN,NaN,-0.04006716,0.8272043,2.013112E-06,1.018601,-5.029462E-08,1.382809
538.3661,-0.2564148,0.0004949796,NaN,-0.3271965,0.0003308143,NaN,0.4753715,-14.24269,NaN,-2.130648,-1.461462,-0.3609899,14.1016,NaN,NaN,-0.03967474,0.8271739,1.942779E-06,1.018702,-4.910252E-08,1.383093
538.3809,-0.2683504,0.0004944655,NaN,-0.3271907,0.0003314993,NaN,0.4764827,-14.24295,NaN,-2.128435,-1.461336,-0.3606142,14.1015,NaN,NaN,-0.03928993,0.8269129,1.878927E-06,1.018527,-4.075788E-08,1.384926
538.3959,-0.2683504,0.0004944655,NaN,-0.3271907,0.0003314993,NaN,0.4764827,-14.24295,NaN,-2.128435,-1.461336,-0.3606142,14.1015,NaN,NaN,-0.03928993,0.8269129,1.878927E-06,1.018527,-4.075788E-08,1.384926
538.4101,-0.2811013,0.0004944632,NaN,-0.3271855,0.0003313744,NaN,0.4777111,-14.24309,NaN,-2.125939,-1.475916,-0.3602515,14.11735,NaN,NaN,-0.03891289,0.8272914,1.809712E-06,1.040051,-3.479741E-08,1.391365
538.4257,-0.2943116,0.0004947244,NaN,-0.3271784,0.0003309273,NaN,0.4789601,-14.2442,NaN,-2.123431,-1.480309,-0.3598503,14.12224,NaN,NaN,-0.03854313,0.8262676,1.743848E-06,1.046569,-3.360532E-08,1.39814
538.4406,-0.3077554,0.0004946644,NaN,-0.3271686,0.0003311311,NaN,0.4801702,-14.24274,NaN,-2.12101,-1.467648,-0.3594381,14.10833,NaN,NaN,-0.03818053,0.8275208,1.679699E-06,1.027846,-3.241323E-08,1.386578
538.4559,-0.3077554,0.0004946644,NaN,-0.3271686,0.0003311311,NaN,0.4801702,-14.24274,NaN,-2.12101,-1.467648,-0.3594381,14.10833,NaN,NaN,-0.03818053,0.8275208,1.679699E-06,1.027846,-3.241323E-08,1.386578
538.4698,-0.3212898,0.0004945671,NaN,-0.3271566,0.0003315251,NaN,0.4813223,-14.24278,NaN,-2.118704,-1.466212,-0.3590328,14.10677,NaN,NaN,-0.03782497,0.8274555,1.618604E-06,1.025728,-3.241323E-08,1.387669
538.4869,-0.3355526,0.0004942191,NaN,-0.3271452,0.0003320445,NaN,0.4825843,-14.24236,NaN,-2.116128,-1.462383,-0.3586451,14.10255,NaN,NaN,-0.03747661,0.8277745,1.553039E-06,1.020052,-3.241323E-08,1.381527
538.5004,-0.3502139,0.0004932829,NaN,-0.3271318,0.0003312625,NaN,0.4838643,-14.24298,NaN,-2.113543,-1.462113,-0.3582224,14.10234,NaN,NaN,-0.03713498,0.8271592,1.488517E-06,1.019686,-2.883695E-08,1.384489
538.5156,-0.3502139,0.0004932829,NaN,-0.3271318,0.0003312625,NaN,0.4838643,-14.24298,NaN,-2.113543,-1.462113,-0.3582224,14.10234,NaN,NaN,-0.03713498,0.8271592,1.488517E-06,1.019686,-2.883695E-08,1.384489
538.5297,-0.3650642,0.0004927921,NaN,-0.3271161,0.0003302933,NaN,0.4851051,-14.24403,NaN,-2.111046,-1.47742,-0.3577907,14.11913,NaN,NaN,-0.03679996,0.8266473,1.428912E-06,1.042339,-3.002904E-08,1.396847
538.5463,-0.3799712,0.000493111,NaN,-0.3270982,0.0003314268,NaN,0.4862882,-14.24399,NaN,-2.108663,-1.46259,-0.3573669,14.10301,NaN,NaN,-0.03647143,0.8264364,1.371245E-06,1.020445,-2.645276E-08,1.395155
538.5604,-0.3955796,0.0004936355,NaN,-0.3270811,0.0003326152,NaN,0.4875817,-14.24327,NaN,-2.106012,-1.461707,-0.3569571,14.10194,NaN,NaN,-0.03614957,0.8271335,1.308213E-06,1.019104,-2.526067E-08,1.390362
538.5753,-0.3955796,0.0004936355,NaN,-0.3270811,0.0003326152,NaN,0.4875817,-14.24327,NaN,-2.106012,-1.461707,-0.3569571,14.10194,NaN,NaN,-0.03614957,0.8271335,1.308213E-06,1.019104,-2.526067E-08,1.390362
538.5893,-0.4115638,0.0004938922,NaN,-0.3270622,0.0003330266,NaN,0.4888909,-14.24446,NaN,-2.103355,-1.468153,-0.3565133,14.10912,NaN,NaN,-0.03583391,0.8261808,1.251141E-06,1.028682,-2.168439E-08,1.393131
538.6048,-0.4277173,0.0004940726,NaN,-0.3270409,0.0003326499,NaN,0.4901587,-14.24399,NaN,-2.100788,-1.478514,-0.3560626,14.12029,NaN,NaN,-0.03552435,0.8269473,1.19705E-06,1.043945,-1.691602E-08,1.394354
538.6196,-0.4277173,0.0004940726,NaN,-0.3270409,0.0003326499,NaN,0.4901587,-14.24399,NaN,-2.100788,-1.478514,-0.3560626,14.12029,NaN,NaN,-0.03552435,0.8269473,1.19705E-06,1.043945,-1.691602E-08,1.394354
538.6339,-0.4446377,0.0004945484,NaN,-0.3270199,0.000333698,NaN,0.4915359,-14.24303,NaN,-2.097957,-1.465091,-0.3556187,14.10559,NaN,NaN,-0.03522104,0.8276845,1.138489E-06,1.024098,-1.572392E-08,1.388699
538.6493,-0.4619697,0.0004949359,NaN,-0.3269964,0.0003346682,NaN,0.4929208,-14.24328,NaN,-2.095132,-1.462912,-0.3551418,14.10325,NaN,NaN,-0.03492356,0.8273874,1.081864E-06,1.020888,-2.049229E-08,1.389895
538.6645,-0.4794876,0.0004949872,NaN,-0.3269698,0.000335331,NaN,0.494256,-14.24305,NaN,-2.092412,-1.461888,-0.3546611,14.1021,NaN,NaN,-0.03463183,0.8275948,1.030455E-06,1.019363,-1.453183E-08,1.384854
538.6794,-0.4794876,0.0004949872,NaN,-0.3269698,0.000335331,NaN,0.494256,-14.24305,NaN,-2.092412,-1.461888,-0.3546611,14.1021,NaN,NaN,-0.03463183,0.8275948,1.030455E-06,1.019363,-1.453183E-08,1.384854
538.6935,-0.4970491,0.0004952124,NaN,-0.3269407,0.0003362221,NaN,0.4955251,-14.24372,NaN,-2.089823,-1.461147,-0.3541923,14.10138,NaN,NaN,-0.03434575,0.8269106,9.790463E-07,1.018303,-8.571366E-09,1.390708
538.7093,-0.5152925,0.0004951291,NaN,-0.3269123,0.0003368506,NaN,0.4968979,-14.24359,NaN,-2.086982,-1.460732,-0.3537337,14.10091,NaN,NaN,-0.03406545,0.8270375,9.262961E-07,1.017681,-3.802994E-09,1.387877
538.7244,-0.5338884,0.0004951867,NaN,-0.3268817,0.0003366166,NaN,0.4982769,-14.24486,NaN,-2.08415,-1.476513,-0.3532455,14.11823,NaN,NaN,-0.03379054,0.8263549,8.753342E-07,1.041041,-6.18718E-09,1.398795
538.739,-0.5338884,0.0004951867,NaN,-0.3268817,0.0003366166,NaN,0.4982769,-14.24486,NaN,-2.08415,-1.476513,-0.3532455,14.11823,NaN,NaN,-0.03379054,0.8263549,8.753342E-07,1.041041,-6.18718E-09,1.398795
538.7555,-0.5526279,0.0004954422,NaN,-0.3268484,0.0003363249,NaN,0.4996071,-14.24539,NaN,-2.08142,-1.477468,-0.3527554,14.11932,NaN,NaN,-0.03352094,0.8258426,8.285446E-07,1.042464,-2.26716E-10,1.400035
538.7689,-0.5713792,0.0004953709,NaN,-0.326813,0.0003367013,NaN,0.5008723,-14.2435,NaN,-2.078819,-1.465333,-0.3522781,14.10594,NaN,NaN,-0.03325657,0.8275017,7.844371E-07,1.024511,-1.418809E-09,1.38779
538.7839,-0.5907875,0.0004948021,NaN,-0.3267786,0.0003370662,NaN,0.5022425,-14.24324,NaN,-2.075968,-1.461493,-0.3518073,14.10172,NaN,NaN,-0.03299754,0.8276511,7.346673E-07,1.018826,-2.26716E-10,1.385175
538.7986,-0.5907875,0.0004948021,NaN,-0.3267786,0.0003370662,NaN,0.5022425,-14.24324,NaN,-2.075968,-1.461493,-0.3518073,14.10172,NaN,NaN,-0.03299754,0.8276511,7.346673E-07,1.018826,-2.26716E-10,1.385175
538.8132,-0.6105276,0.0004937534,NaN,-0.3267421,0.0003371684,NaN,0.5036172,-14.24308,NaN,-2.073125,-1.461374,-0.3513086,14.10157,NaN,NaN,-0.03274348,0.8278099,6.878776E-07,1.018641,2.15747E-09,1.382456
538.8285,-0.6303936,0.0004924346,NaN,-0.3267032,0.0003361744,NaN,0.5049418,-14.243,NaN,-2.070387,-1.463459,-0.3508099,14.10382,NaN,NaN,-0.03249432,0.8279747,6.437702E-07,1.021716,9.653769E-10,1.383616
538.8433,-0.6502554,0.0004913299,NaN,-0.3266621,0.0003359562,NaN,0.5062007,-14.24313,NaN,-2.067781,-1.463236,-0.3503255,14.10359,NaN,NaN,-0.03224999,0.8278254,6.02941E-07,1.02139,9.653769E-10,1.383168
538.8583,-0.6502554,0.0004913299,NaN,-0.3266621,0.0003359562,NaN,0.5062007,-14.24313,NaN,-2.067781,-1.463236,-0.3503255,14.10359,NaN,NaN,-0.03224999,0.8278254,6.02941E-07,1.02139,9.653769E-10,1.383168
538.8726,-0.6707597,0.0004908859,NaN,-0.3266222,0.0003359774,NaN,0.507564,-14.24516,NaN,-2.064927,-1.46992,-0.3498446,14.11114,NaN,NaN,-0.03201059,0.826023,5.570454E-07,1.031361,-3.802994E-09,1.395629
538.8881,-0.691582,0.0004908121,NaN,-0.3265804,0.0003353691,NaN,0.5089291,-14.24394,NaN,-2.062084,-1.480225,-0.3493381,14.12216,NaN,NaN,-0.03177578,0.8274898,5.144281E-07,1.046513,-1.418809E-09,1.39292
538.903,-0.7125169,0.0004903626,NaN,-0.326536,0.0003356257,NaN,0.5102422,-14.24425,NaN,-2.059349,-1.462729,-0.3488339,14.10315,NaN,NaN,-0.0315455,0.8269017,4.774732E-07,1.020669,-2.610901E-09,1.389677
538.9178,-0.7125169,0.0004903626,NaN,-0.326536,0.0003356257,NaN,0.5102422,-14.24425,NaN,-2.059349,-1.462729,-0.3488339,14.10315,NaN,NaN,-0.0315455,0.8269017,4.774732E-07,1.020669,-2.610901E-09,1.389677
538.9324,-0.7336559,0.000490259,NaN,-0.3264903,0.0003358659,NaN,0.5115401,-14.24292,NaN,-2.056633,-1.468133,-0.3483402,14.10885,NaN,NaN,-0.03131973,0.8284063,4.384322E-07,1.028594,6.925841E-09,1.386365
538.9493,-0.7548345,0.0004896832,NaN,-0.3264431,0.0003360761,NaN,0.5127902,-14.24232,NaN,-2.054019,-1.463363,-0.3478529,14.10359,NaN,NaN,-0.03109833,0.8288516,4.017753E-07,1.021531,4.541655E-09,1.377179
538.9639,-0.7759494,0.0004896512,NaN,-0.3263946,0.000335721,NaN,0.5139803,-14.24248,NaN,-2.051528,-1.477518,-0.3473807,14.11905,NaN,NaN,-0.03088122,0.8291708,3.675027E-07,1.042486,4.541655E-09,1.383631
538.978,-0.7759494,0.0004896512,NaN,-0.3263946,0.000335721,NaN,0.5139803,-14.24248,NaN,-2.051528,-1.477518,-0.3473807,14.11905,NaN,NaN,-0.03088122,0.8291708,3.675027E-07,1.042486,4.541655E-09,1.383631
538.9922,-0.7969357,0.0004898751,NaN,-0.3263457,0.0003352924,NaN,0.5151104,-14.24459,NaN,-2.049163,-1.478465,-0.3469264,14.12033,NaN,NaN,-0.03066833,0.8270612,3.3323E-07,1.043949,9.310027E-09,1.395037
539.0077,-0.8177533,0.0004903351,NaN,-0.326297,0.0003361656,NaN,0.5161847,-14.24205,NaN,-2.046915,-1.465823,-0.3464899,14.10629,NaN,NaN,-0.03045959,0.8293359,3.046198E-07,1.025207,6.925841E-09,1.378833
539.0225,-0.8383777,0.0004904987,NaN,-0.3262491,0.0003367715,NaN,0.5172077,-14.24308,NaN,-2.044777,-1.46392,-0.3460702,14.10434,NaN,NaN,-0.0302549,0.8282283,2.748174E-07,1.022426,4.541655E-09,1.38115
539.0371,-0.8383777,0.0004904987,NaN,-0.3262491,0.0003367715,NaN,0.5172077,-14.24308,NaN,-2.044777,-1.46392,-0.3460702,14.10434,NaN,NaN,-0.0302549,0.8282283,2.748174E-07,1.022426,4.541655E-09,1.38115
539.0512,-0.8587943,0.0004905777,NaN,-0.3262022,0.0003374539,NaN,0.5181836,-14.24385,NaN,-2.042741,-1.462141,-0.3456661,14.10249,NaN,NaN,-0.03005421,0.8273892,2.441211E-07,1.019823,4.541655E-09,1.384252
539.0668,-0.8789949,0.0004908775,NaN,-0.3261569,0.0003378582,NaN,0.5191157,-14.24541,NaN,-2.040801,-1.468432,-0.3452765,14.10954,NaN,NaN,-0.02985741,0.8260319,2.149148E-07,1.029184,4.541655E-09,1.396375
539.0821,-0.8989751,0.0004910053,NaN,-0.3261131,0.0003376495,NaN,0.5200067,-14.24511,NaN,-2.038951,-1.475221,-0.3449007,14.11685,NaN,NaN,-0.02966445,0.8265032,1.869006E-07,1.03918,-2.267164E-10,1.395012
539.0967,-0.8989751,0.0004910053,NaN,-0.3261131,0.0003376495,NaN,0.5200067,-14.24511,NaN,-2.038951,-1.475221,-0.3449007,14.11685,NaN,NaN,-0.02966445,0.8265032,1.869006E-07,1.03918,-2.267164E-10,1.395012
539.1108,-0.9187332,0.0004909569,NaN,-0.326071,0.0003370905,NaN,0.5208586,-14.2449,NaN,-2.037188,-1.477213,-0.3445381,14.11898,NaN,NaN,-0.02947525,0.8267379,1.624627E-07,1.042108,-7.379274E-09,1.395652
539.1263,-0.938269,0.0004911341,NaN,-0.3260307,0.0003376951,NaN,0.5216731,-14.24379,NaN,-2.035508,-1.466425,-0.3441881,14.10712,NaN,NaN,-0.02928974,0.8276269,1.374287E-07,1.026146,2.157469E-09,1.386773
539.1415,-0.9575834,0.0004908899,NaN,-0.3259922,0.0003381363,NaN,0.5224516,-14.24368,NaN,-2.033908,-1.4633,-0.3438505,14.1037,NaN,NaN,-0.02910784,0.8276407,1.15375E-07,1.021521,2.157469E-09,1.384432
539.1567,-0.9575834,0.0004908899,NaN,-0.3259922,0.0003381363,NaN,0.5224516,-14.24368,NaN,-2.033908,-1.4633,-0.3438505,14.1037,NaN,NaN,-0.02910784,0.8276407,1.15375E-07,1.021521,2.157469E-09,1.384432
539.1707,-0.9766778,0.0004904682,NaN,-0.3259555,0.0003386632,NaN,0.5231956,-14.24384,NaN,-2.032386,-1.461424,-0.3435249,14.10167,NaN,NaN,-0.02892948,0.8274153,9.451338E-08,1.018754,6.925841E-09,1.383708
539.1873,-0.9955541,0.0004900429,NaN,-0.3259206,0.0003391554,NaN,0.523906,-14.24393,NaN,-2.03094,-1.462011,-0.3432111,14.10231,NaN,NaN,-0.0287546,0.827342,7.54399E-08,1.019621,4.541655E-09,1.382553
539.201,-1.014214,0.0004900647,NaN,-0.3258874,0.0003397572,NaN,0.524584,-14.24523,NaN,-2.029568,-1.464422,-0.3429087,14.10512,NaN,NaN,-0.02858314,0.8261301,5.696246E-08,1.023245,6.925841E-09,1.391259
539.2159,-1.014214,0.0004900647,NaN,-0.3258874,0.0003397572,NaN,0.524584,-14.24523,NaN,-2.029568,-1.464422,-0.3429087,14.10512,NaN,NaN,-0.02858314,0.8261301,5.696246E-08,1.023245,6.925841E-09,1.391259
539.23,-1.03266,0.0004895977,NaN,-0.3258559,0.0003401259,NaN,0.5252305,-14.24428,NaN,-2.028268,-1.462117,-0.3426176,14.10248,NaN,NaN,-0.02841501,0.8269982,3.610084E-08,1.019799,6.925841E-09,1.386615
539.2454,-1.050895,0.0004892091,NaN,-0.3258261,0.0003406674,NaN,0.5258465,-14.2445,NaN,-2.027037,-1.461691,-0.3423375,14.10204,NaN,NaN,-0.02825016,0.826759,2.000758E-08,1.019178,4.541655E-09,1.387732
539.2603,-1.06892,0.000488237,NaN,-0.3257979,0.000339939,NaN,0.5264328,-14.24498,NaN,-2.025876,-1.461264,-0.3420682,14.10164,NaN,NaN,-0.02808853,0.8262581,2.126191E-09,1.018573,9.310027E-09,1.390071
539.275,-1.06892,0.000488237,NaN,-0.3257979,0.000339939,NaN,0.5264328,-14.24498,NaN,-2.025876,-1.461264,-0.3420682,14.10164,NaN,NaN,-0.02808853,0.8262581,2.126191E-09,1.018573,9.310027E-09,1.390071
539.2892,-1.086738,0.0004868253,NaN,-0.3257713,0.0003384429,NaN,0.5269904,-14.24535,NaN,-2.024781,-1.461439,-0.3418095,14.10188,NaN,NaN,-0.02793005,0.8258961,-1.396706E-08,1.01885,6.925841E-09,1.391791
539.3049,-1.104352,0.0004852947,NaN,-0.3257462,0.0003375461,NaN,0.5275199,-14.24509,NaN,-2.023751,-1.461147,-0.3415611,14.10153,NaN,NaN,-0.02777467,0.8261354,-3.125241E-08,1.018407,2.157469E-09,1.3933
539.3196,-1.104352,0.0004852947,NaN,-0.3257462,0.0003375461,NaN,0.5275199,-14.24509,NaN,-2.023751,-1.461147,-0.3415611,14.10153,NaN,NaN,-0.02777467,0.8261354,-3.125241E-08,1.018407,2.157469E-09,1.3933
539.3338,-1.121763,0.0004844758,NaN,-0.3257226,0.0003377131,NaN,0.5280223,-14.24583,NaN,-2.022784,-1.461547,-0.341323,14.10206,NaN,NaN,-0.02762232,0.8254156,-4.555752E-08,1.019034,-2.267164E-10,1.395059
539.3492,-1.138974,0.0004842503,NaN,-0.3257004,0.0003375328,NaN,0.5284984,-14.24739,NaN,-2.02188,-1.473811,-0.3410948,14.11557,NaN,NaN,-0.02747294,0.8242842,-5.867054E-08,1.037184,2.157469E-09,1.408157
539.3645,-1.155988,0.0004839742,NaN,-0.3256796,0.0003371208,NaN,0.5289487,-14.2472,NaN,-2.021036,-1.474428,-0.3408764,14.11621,NaN,NaN,-0.02732647,0.8244879,-7.237961E-08,1.038086,6.925841E-09,1.405752
539.3794,-1.155988,0.0004839742,NaN,-0.3256796,0.0003371208,NaN,0.5289487,-14.2472,NaN,-2.021036,-1.474428,-0.3408764,14.11621,NaN,NaN,-0.02732647,0.8244879,-7.237961E-08,1.038086,6.925841E-09,1.405752
539.3936,-1.172806,0.0004843624,NaN,-0.3256602,0.000336786,NaN,0.5293742,-14.24745,NaN,-2.020252,-1.478188,-0.3406675,14.12029,NaN,NaN,-0.02718287,0.8243113,-8.25124E-08,1.04363,4.541655E-09,1.408435
539.41,-1.18943,0.0004846964,NaN,-0.3256421,0.0003373628,NaN,0.5297754,-14.24554,NaN,-2.019525,-1.466748,-0.340468,14.1077,NaN,NaN,-0.02704207,0.826009,-9.562542E-08,1.026729,-2.267164E-10,1.396173
539.4252,-1.205864,0.0004848167,NaN,-0.3256252,0.0003380477,NaN,0.530153,-14.24628,NaN,-2.018854,-1.461746,-0.3402777,14.10236,NaN,NaN,-0.02690402,0.8251199,-1.075464E-07,1.019374,4.541655E-09,1.393985
539.4388,-1.205864,0.0004848167,NaN,-0.3256252,0.0003380477,NaN,0.530153,-14.24628,NaN,-2.018854,-1.461746,-0.3402777,14.10236,NaN,NaN,-0.02690402,0.8251199,-1.075464E-07,1.019374,4.541655E-09,1.393985
539.4528,-1.222109,0.0004850901,NaN,-0.3256096,0.0003385137,NaN,0.5305078,-14.24792,NaN,-2.018238,-1.466687,-0.3400964,14.10793,NaN,NaN,-0.02676866,0.8236639,-1.194673E-07,1.026726,6.925841E-09,1.405086
539.4681,-1.238167,0.0004849208,NaN,-0.3255952,0.00033809,NaN,0.5308403,-14.24759,NaN,-2.017675,-1.47543,-0.3399238,14.11731,NaN,NaN,-0.02663595,0.8242452,-1.313882E-07,1.039568,9.310027E-09,1.404984
539.483,-1.25404,0.0004843678,NaN,-0.3255819,0.0003382711,NaN,0.5311513,-14.24662,NaN,-2.017165,-1.462602,-0.3397598,14.10332,NaN,NaN,-0.02650584,0.8249544,-1.421171E-07,1.020649,-2.267164E-10,1.397314
539.4978,-1.25404,0.0004843678,NaN,-0.3255819,0.0003382711,NaN,0.5311513,-14.24662,NaN,-2.017165,-1.462602,-0.3397598,14.10332,NaN,NaN,-0.02650584,0.8249544,-1.421171E-07,1.020649,-2.267164E-10,1.397314
539.512,-1.269732,0.0004846567,NaN,-0.3255698,0.0003387057,NaN,0.5314412,-14.24646,NaN,-2.016706,-1.468286,-0.3396042,14.10945,NaN,NaN,-0.02637826,0.8253068,-1.498657E-07,1.029017,-2.610902E-09,1.396225
539.5278,-1.285021,0.0004843086,NaN,-0.325558,0.0003389052,NaN,0.5316598,-14.24618,NaN,-2.01641,-1.463656,-0.3394663,14.1044,NaN,NaN,-0.02625314,0.8254539,-1.54634E-07,1.022188,-4.995088E-09,1.394633
539.543,-1.299995,0.0004844715,NaN,-0.3255475,0.0003392691,NaN,0.5318427,-14.24754,NaN,-2.016196,-1.468009,-0.3393472,14.10931,NaN,NaN,-0.02613048,0.8242415,-1.605945E-07,1.02867,-2.610902E-09,1.401799
539.5577,-1.299995,0.0004844715,NaN,-0.3255475,0.0003392691,NaN,0.5318427,-14.24754,NaN,-2.016196,-1.468009,-0.3393472,14.10931,NaN,NaN,-0.02613048,0.8242415,-1.605945E-07,1.02867,-2.610902E-09,1.401799
539.5717,-1.314707,0.0004847547,NaN,-0.3255387,0.0003388609,NaN,0.5320069,-14.24767,NaN,-2.01603,-1.479026,-0.3392382,14.12123,NaN,NaN,-0.02601023,0.8244251,-1.665549E-07,1.044896,-4.995088E-09,1.405983
539.5872,-1.329193,0.0004847324,NaN,-0.3255314,0.0003390523,NaN,0.5321578,-14.2459,NaN,-2.015901,-1.466962,-0.3391359,14.10799,NaN,NaN,-0.02589233,0.8259805,-1.731114E-07,1.027088,-7.379274E-09,1.393522
539.6022,-1.342748,0.0004848709,NaN,-0.3255232,0.0003386945,NaN,0.5321286,-14.24773,NaN,-2.016181,-1.477435,-0.3390709,14.11959,NaN,NaN,-0.02577664,0.8244721,-1.743035E-07,1.042614,-4.995088E-09,1.404684
539.6171,-1.342748,0.0004848709,NaN,-0.3255232,0.0003386945,NaN,0.5321286,-14.24773,NaN,-2.016181,-1.477435,-0.3390709,14.11959,NaN,NaN,-0.02577664,0.8244721,-1.743035E-07,1.042614,-4.995088E-09,1.404684
539.6322,-1.355661,0.0004851285,NaN,-0.325517,0.0003378491,NaN,0.5320351,-14.24729,NaN,-2.016603,-1.482201,-0.3390462,14.1247,NaN,NaN,-0.02566326,0.8249984,-1.754956E-07,1.049624,4.541655E-09,1.400434
539.6468,-1.368116,0.0004850901,NaN,-0.3255137,0.0003377419,NaN,0.5319303,-14.24579,NaN,-2.017064,-1.46928,-0.3390348,14.11055,NaN,NaN,-0.02555212,0.8263223,-1.796679E-07,1.030551,6.925841E-09,1.387764
539.6616,-1.380231,0.000485297,NaN,-0.3255123,0.0003383159,NaN,0.53183,-14.24597,NaN,-2.017528,-1.465158,-0.3390256,14.1061,NaN,NaN,-0.02544315,0.8260651,-1.838403E-07,1.02448,6.925841E-09,1.388192
539.6763,-1.380231,0.000485297,NaN,-0.3255123,0.0003383159,NaN,0.53183,-14.24597,NaN,-2.017528,-1.465158,-0.3390256,14.1061,NaN,NaN,-0.02544315,0.8260651,-1.838403E-07,1.02448,6.925841E-09,1.388192
539.6904,-1.391354,0.0004846571,NaN,-0.3255107,0.0003383646,NaN,0.5315675,-14.24615,NaN,-2.018363,-1.462882,-0.3390476,14.10365,NaN,NaN,-0.02533622,0.8258349,-1.850324E-07,1.021133,6.925841E-09,1.388775
539.7058,-1.401806,0.0004843991,NaN,-0.3255104,0.0003378436,NaN,0.5312565,-14.24746,NaN,-2.019307,-1.477076,-0.3391038,14.11922,NaN,NaN,-0.02523144,0.8250209,-1.826482E-07,1.042125,4.541655E-09,1.397988
539.7208,-1.411793,0.0004848258,NaN,-0.3255115,0.0003383407,NaN,0.5309474,-14.24797,NaN,-2.020261,-1.470527,-0.339168,14.11219,NaN,NaN,-0.02512872,0.8243995,-1.832442E-07,1.032487,4.541655E-09,1.4015
539.7353,-1.411793,0.0004848258,NaN,-0.3255115,0.0003383407,NaN,0.5309474,-14.24797,NaN,-2.020261,-1.470527,-0.339168,14.11219,NaN,NaN,-0.02512872,0.8243995,-1.832442E-07,1.032487,4.541655E-09,1.4015
539.7496,-1.420717,0.0004851601,NaN,-0.3255122,0.0003380539,NaN,0.530485,-14.24564,NaN,-2.021569,-1.478464,-0.3392617,14.12047,NaN,NaN,-0.02502791,0.8269196,-1.8086E-07,1.044089,2.157469E-09,1.388581
539.7654,-1.428934,0.0004853084,NaN,-0.3255141,0.0003385847,NaN,0.5299855,-14.24514,NaN,-2.022962,-1.465931,-0.3393863,14.10679,NaN,NaN,-0.02492913,0.8272042,-1.820521E-07,1.025569,2.157469E-09,1.378767
539.78,-1.428934,0.0004853084,NaN,-0.3255141,0.0003385847,NaN,0.5299855,-14.24514,NaN,-2.022962,-1.465931,-0.3393863,14.10679,NaN,NaN,-0.02492913,0.8272042,-1.820521E-07,1.025569,2.157469E-09,1.378767
539.7943,-1.436674,0.0004848973,NaN,-0.3255171,0.0003389384,NaN,0.5294987,-14.24553,NaN,-2.024342,-1.46196,-0.3395152,14.10251,NaN,NaN,-0.0248323,0.8266943,-1.8086E-07,1.019716,2.157469E-09,1.378647
539.8098,-1.44408,0.0004850967,NaN,-0.325522,0.0003386566,NaN,0.5290361,-14.24664,NaN,-2.025679,-1.477676,-0.3396395,14.11972,NaN,NaN,-0.02473737,0.8261333,-1.796679E-07,1.042956,6.925841E-09,1.392256
539.8248,-1.450518,0.0004852784,NaN,-0.3255263,0.0003394517,NaN,0.5284277,-14.24545,NaN,-2.027349,-1.463033,-0.3397867,14.10369,NaN,NaN,-0.02464419,0.8270581,-1.731114E-07,1.021318,9.310027E-09,1.380883
539.8395,-1.450518,0.0004852784,NaN,-0.3255263,0.0003394517,NaN,0.5284277,-14.24545,NaN,-2.027349,-1.463033,-0.3397867,14.10369,NaN,NaN,-0.02464419,0.8270581,-1.731114E-07,1.021318,9.310027E-09,1.380883
539.8557,-1.456319,0.0004856923,NaN,-0.3255322,0.0003392195,NaN,0.5277843,-14.2464,NaN,-2.029094,-1.478751,-0.3399639,14.12089,NaN,NaN,-0.02455289,0.8266626,-1.683431E-07,1.04456,9.310027E-09,1.39182
539.869,-1.461696,0.0004862491,NaN,-0.3255402,0.0003389658,NaN,0.5271552,-14.24522,NaN,-2.030818,-1.47895,-0.3401454,14.12097,NaN,NaN,-0.02446339,0.827848,-1.629787E-07,1.044822,9.310027E-09,1.383963
539.8852,-1.466783,0.0004869219,NaN,-0.3255502,0.0003396096,NaN,0.5265526,-14.24511,NaN,-2.032492,-1.470682,-0.3403211,14.11194,NaN,NaN,-0.02437566,0.8278121,-1.599984E-07,1.032589,6.925841E-09,1.383024
539.8987,-1.466783,0.0004869219,NaN,-0.3255502,0.0003396096,NaN,0.5265526,-14.24511,NaN,-2.032492,-1.470682,-0.3403211,14.11194,NaN,NaN,-0.02437566,0.8278121,-1.599984E-07,1.032589,6.925841E-09,1.383024
539.9128,-1.470939,0.0004875321,NaN,-0.3255596,0.0003407027,NaN,0.5258065,-14.2454,NaN,-2.034492,-1.463887,-0.3405171,14.10457,NaN,NaN,-0.02428953,0.8273616,-1.54634E-07,1.022551,9.310027E-09,1.383617
539.9282,-1.474491,0.0004881091,NaN,-0.3255698,0.0003415871,NaN,0.5250278,-14.24636,NaN,-2.03656,-1.464936,-0.3407426,14.10583,NaN,NaN,-0.02420513,0.8264419,-1.474815E-07,1.024138,1.40784E-08,1.387787
539.9429,-1.477649,0.000488301,NaN,-0.3255814,0.0003421612,NaN,0.5242662,-14.24549,NaN,-2.038597,-1.463755,-0.3409716,14.10441,NaN,NaN,-0.02412241,0.8272716,-1.421171E-07,1.022349,1.40784E-08,1.376303
539.9576,-1.477649,0.000488301,NaN,-0.3255814,0.0003421612,NaN,0.5242662,-14.24549,NaN,-2.038597,-1.463755,-0.3409716,14.10441,NaN,NaN,-0.02412241,0.8272716,-1.421171E-07,1.022349,1.40784E-08,1.376303
539.9719,-1.479817,0.0004880811,NaN,-0.3255919,0.0003426184,NaN,0.5233657,-14.24582,NaN,-2.040951,-1.461882,-0.3412201,14.10242,NaN,NaN,-0.02404119,0.8268865,-1.331764E-07,1.019596,1.646258E-08,1.37564
539.9874,-1.481353,0.0004881343,NaN,-0.3256027,0.0003430071,NaN,0.5224398,-14.24727,NaN,-2.043357,-1.46655,-0.3414964,14.10769,NaN,NaN,-0.02396161,0.8256047,-1.254278E-07,1.026554,1.884677E-08,1.385598
540.0021,-1.482486,0.0004884762,NaN,-0.3256143,0.0003439501,NaN,0.5215393,-14.24616,NaN,-2.045714,-1.462249,-0.3417738,14.10287,NaN,NaN,-0.02388361,0.8265809,-1.164871E-07,1.020162,1.40784E-08,1.378361
540.0169,-1.482486,0.0004884762,NaN,-0.3256143,0.0003439501,NaN,0.5215393,-14.24616,NaN,-2.045714,-1.462249,-0.3417738,14.10287,NaN,NaN,-0.02388361,0.8265809,-1.164871E-07,1.020162,1.40784E-08,1.378361
540.0312,-1.483359,0.0004889689,NaN,-0.3256267,0.0003437983,NaN,0.520676,-14.2471,NaN,-2.047997,-1.47769,-0.3420418,14.11975,NaN,NaN,-0.02380714,0.8261759,-1.099306E-07,1.042989,1.646258E-08,1.390536
540.0467,-1.48334,0.0004893854,NaN,-0.3256372,0.0003437598,NaN,0.5196789,-14.24845,NaN,-2.050579,-1.475352,-0.3423222,14.11736,NaN,NaN,-0.02373204,0.8247793,-9.800962E-08,1.039571,1.646258E-08,1.394761
540.0616,-1.482759,0.000489674,NaN,-0.3256472,0.0003434028,NaN,0.5186561,-14.24813,NaN,-2.053206,-1.477114,-0.3426301,14.11922,NaN,NaN,-0.02365846,0.8251311,-8.728079E-08,1.042153,9.310027E-09,1.391271
540.0764,-1.482759,0.000489674,NaN,-0.3256472,0.0003434028,NaN,0.5186561,-14.24813,NaN,-2.053206,-1.477114,-0.3426301,14.11922,NaN,NaN,-0.02365846,0.8251311,-8.728079E-08,1.042153,9.310027E-09,1.391271
540.0916,-1.481826,0.0004901303,NaN,-0.325657,0.0003439575,NaN,0.5176581,-14.24596,NaN,-2.055782,-1.469087,-0.3429395,14.11026,NaN,NaN,-0.02358634,0.8271371,-7.595591E-08,1.030256,1.169421E-08,1.376472
540.106,-1.480676,0.0004902791,NaN,-0.3256668,0.0003445153,NaN,0.5166977,-14.24599,NaN,-2.058278,-1.464099,-0.3432395,14.10484,NaN,NaN,-0.02351564,0.8269643,-6.641917E-08,1.022887,6.92584E-09,1.375898
540.1209,-1.478667,0.0004901642,NaN,-0.3256744,0.0003450129,NaN,0.515604,-14.24607,NaN,-2.061073,-1.462503,-0.3435486,14.1031,NaN,NaN,-0.02344617,0.8268291,-5.330615E-08,1.020528,1.169421E-08,1.375659
540.1355,-1.478667,0.0004901642,NaN,-0.3256744,0.0003450129,NaN,0.515604,-14.24607,NaN,-2.061073,-1.462503,-0.3435486,14.1031,NaN,NaN,-0.02344617,0.8268291,-5.330615E-08,1.020528,1.169421E-08,1.375659
540.1497,-1.476125,0.0004900467,NaN,-0.3256806,0.0003456176,NaN,0.5144847,-14.24681,NaN,-2.063906,-1.461642,-0.3438859,14.10226,NaN,NaN,-0.02337812,0.8260533,-4.138522E-08,1.019289,6.92584E-09,1.378461
540.1652,-1.473258,0.0004892681,NaN,-0.325686,0.0003449801,NaN,0.5133917,-14.24738,NaN,-2.066683,-1.461385,-0.3442248,14.10206,NaN,NaN,-0.02331142,0.8254737,-2.886824E-08,1.018937,9.310027E-09,1.378563
540.1798,-1.473258,0.0004892681,NaN,-0.325686,0.0003449801,NaN,0.5133917,-14.24738,NaN,-2.066683,-1.461385,-0.3442248,14.10206,NaN,NaN,-0.02331142,0.8254737,-2.886824E-08,1.018937,9.310027E-09,1.378563
540.1943,-1.469471,0.000489332,NaN,-0.3256885,0.000344464,NaN,0.5121688,-14.24907,NaN,-2.069751,-1.474966,-0.3445717,14.11701,NaN,NaN,-0.02324587,0.8242654,-1.456313E-08,1.039033,9.310027E-09,1.395738
540.2098,-1.465121,0.0004897507,NaN,-0.3256899,0.0003450583,NaN,0.5109264,-14.24919,NaN,-2.072845,-1.46689,-0.344946,14.10828,NaN,NaN,-0.02318165,0.8239844,-8.540608E-10,1.027144,1.169421E-08,1.394206
540.2247,-1.460435,0.0004901449,NaN,-0.3256907,0.0003460388,NaN,0.5097174,-14.24795,NaN,-2.075865,-1.461507,-0.3453203,14.10229,NaN,NaN,-0.02311872,0.8250651,1.225896E-08,1.019167,1.169421E-08,1.385675
540.2394,-1.460435,0.0004901449,NaN,-0.3256907,0.0003460388,NaN,0.5097174,-14.24795,NaN,-2.075865,-1.461507,-0.3453203,14.10229,NaN,NaN,-0.02311872,0.8250651,1.225896E-08,1.019167,1.169421E-08,1.385675
540.2535,-1.455557,0.000490295,NaN,-0.3256914,0.0003467673,NaN,0.5085548,-14.24818,NaN,-2.078784,-1.461029,-0.3456824,14.1018,NaN,NaN,-0.02305702,0.8248173,2.537198E-08,1.018473,1.40784E-08,1.38665
540.2691,-1.449851,0.0004904601,NaN,-0.3256906,0.0003475015,NaN,0.5072667,-14.24827,NaN,-2.081983,-1.461268,-0.3460446,14.10207,NaN,NaN,-0.02299635,0.8247341,4.206128E-08,1.018826,1.169421E-08,1.388702
540.2841,-1.443647,0.000489876,NaN,-0.3256887,0.0003477159,NaN,0.5059571,-14.24767,NaN,-2.085203,-1.461125,-0.3464342,14.10182,NaN,NaN,-0.02293692,0.825323,5.755849E-08,1.018582,6.92584E-09,1.382121
540.2988,-1.443647,0.000489876,NaN,-0.3256887,0.0003477159,NaN,0.5059571,-14.24767,NaN,-2.085203,-1.461125,-0.3464342,14.10182,NaN,NaN,-0.02293692,0.825323,5.755849E-08,1.018582,6.92584E-09,1.382121
540.3152,-1.437156,0.0004894339,NaN,-0.325686,0.0003482269,NaN,0.5046791,-14.24792,NaN,-2.088348,-1.46108,-0.3468247,14.1018,NaN,NaN,-0.02287868,0.8250739,7.305569E-08,1.018527,9.310027E-09,1.383771
540.3285,-1.430512,0.0004891187,NaN,-0.3256828,0.000348831,NaN,0.5034468,-14.24816,NaN,-2.091391,-1.460972,-0.3472036,14.10171,NaN,NaN,-0.02282159,0.8248221,8.736081E-08,1.018379,1.646258E-08,1.38517
540.3434,-1.423072,0.0004890643,NaN,-0.3256768,0.0003493307,NaN,0.5020895,-14.24932,NaN,-2.094711,-1.464329,-0.347578,14.10551,NaN,NaN,-0.02276542,0.8237879,1.046462E-07,1.023381,2.361514E-08,1.392526
540.3594,-1.423072,0.0004890643,NaN,-0.3256768,0.0003493307,NaN,0.5020895,-14.24932,NaN,-2.094711,-1.464329,-0.347578,14.10551,NaN,NaN,-0.02276542,0.8237879,1.046462E-07,1.023381,2.361514E-08,1.392526
540.3723,-1.415161,0.0004887464,NaN,-0.3256688,0.0003497396,NaN,0.5007095,-14.24798,NaN,-2.098049,-1.462108,-0.3479808,14.10292,NaN,NaN,-0.02271039,0.8250455,1.231236E-07,1.02005,2.599933E-08,1.384097
540.3878,-1.406988,0.0004887069,NaN,-0.3256594,0.0003493986,NaN,0.4993613,-14.24961,NaN,-2.101308,-1.47626,-0.3483854,14.11846,NaN,NaN,-0.02265647,0.8239065,1.380248E-07,1.040977,2.838351E-08,1.399938
540.4024,-1.398683,0.0004888229,NaN,-0.3256489,0.0003498907,NaN,0.4980603,-14.24784,NaN,-2.104461,-1.466068,-0.3487783,14.10724,NaN,NaN,-0.02260362,0.8254555,1.547141E-07,1.025922,2.599933E-08,1.385439
540.4173,-1.398683,0.0004888229,NaN,-0.3256489,0.0003498907,NaN,0.4980603,-14.24784,NaN,-2.104461,-1.466068,-0.3487783,14.10724,NaN,NaN,-0.02260362,0.8254555,1.547141E-07,1.025922,2.599933E-08,1.385439
540.4313,-1.389603,0.0004887369,NaN,-0.3256354,0.0003504035,NaN,0.4966363,-14.2483,NaN,-2.107886,-1.463128,-0.3491619,14.10411,NaN,NaN,-0.02255158,0.8248985,1.749796E-07,1.021605,2.123096E-08,1.386243
540.4471,-1.380073,0.000488155,NaN,-0.3256196,0.0003506265,NaN,0.4951894,-14.24814,NaN,-2.111325,-1.462103,-0.3495744,14.10296,NaN,NaN,-0.02250061,0.8250182,1.92265E-07,1.020082,2.123096E-08,1.384923
540.462,-1.3703,0.0004880856,NaN,-0.325602,0.0003513587,NaN,0.4937751,-14.24868,NaN,-2.114679,-1.46137,-0.3499892,14.10224,NaN,NaN,-0.02245066,0.8244497,2.125306E-07,1.019026,2.361514E-08,1.388875
540.4768,-1.3703,0.0004880856,NaN,-0.325602,0.0003513587,NaN,0.4937751,-14.24868,NaN,-2.114679,-1.46137,-0.3499892,14.10224,NaN,NaN,-0.02245066,0.8244497,2.125306E-07,1.019026,2.361514E-08,1.388875
540.491,-1.359686,0.0004881506,NaN,-0.3255808,0.0003520656,NaN,0.4922403,-14.24879,NaN,-2.118303,-1.461306,-0.3503944,14.10218,NaN,NaN,-0.02240146,0.8243268,2.375645E-07,1.018933,1.884677E-08,1.39078
540.5066,-1.348588,0.0004875469,NaN,-0.3255567,0.0003522552,NaN,0.4906878,-14.24807,NaN,-2.121926,-1.461446,-0.3508283,14.10221,NaN,NaN,-0.02235328,0.8250419,2.590222E-07,1.019099,1.884677E-08,1.384912
540.5214,-1.337233,0.0004869798,NaN,-0.3255303,0.0003526849,NaN,0.4891742,-14.24829,NaN,-2.12545,-1.460973,-0.3512635,14.10173,NaN,NaN,-0.02230607,0.8247955,2.757115E-07,1.018411,2.361514E-08,1.38588
540.5372,-1.337233,0.0004869798,NaN,-0.3255303,0.0003526849,NaN,0.4891742,-14.24829,NaN,-2.12545,-1.460973,-0.3512635,14.10173,NaN,NaN,-0.02230607,0.8247955,2.757115E-07,1.018411,2.361514E-08,1.38588
540.5513,-1.325762,0.0004868737,NaN,-0.3255024,0.0003534373,NaN,0.4877156,-14.24859,NaN,-2.128849,-1.460784,-0.3516853,14.10156,NaN,NaN,-0.0222598,0.8244876,2.959771E-07,1.018147,2.361514E-08,1.388887
540.5659,-1.313539,0.0004861075,NaN,-0.3254712,0.000353581,NaN,0.4861418,-14.24894,NaN,-2.132505,-1.460825,-0.3520868,14.10165,NaN,NaN,-0.02221417,0.8241367,3.20415E-07,1.018223,2.123095E-08,1.390994
540.5806,-1.300894,0.0004856458,NaN,-0.3254372,0.0003531481,NaN,0.4845473,-14.25048,NaN,-2.136159,-1.474409,-0.3525167,14.11654,NaN,NaN,-0.02216948,0.8230808,3.442568E-07,1.03829,1.646258E-08,1.402827
540.5953,-1.300894,0.0004856458,NaN,-0.3254372,0.0003531481,NaN,0.4845473,-14.25048,NaN,-2.136159,-1.474409,-0.3525167,14.11654,NaN,NaN,-0.02216948,0.8230808,3.442568E-07,1.03829,1.646258E-08,1.402827
540.6093,-1.288037,0.0004849342,NaN,-0.3254011,0.0003532362,NaN,0.4829884,-14.24932,NaN,-2.139716,-1.462077,-0.3529495,14.1031,NaN,NaN,-0.0221257,0.8239639,3.663106E-07,1.020118,1.169421E-08,1.394459
540.6249,-1.275099,0.0004848191,NaN,-0.3253636,0.0003534839,NaN,0.4814828,-14.24878,NaN,-2.143148,-1.467535,-0.3533703,14.10892,NaN,NaN,-0.02208279,0.8246787,3.877682E-07,1.028126,6.925839E-09,1.390811
540.6398,-1.275099,0.0004848191,NaN,-0.3253636,0.0003534839,NaN,0.4814828,-14.24878,NaN,-2.143148,-1.467535,-0.3533703,14.10892,NaN,NaN,-0.02208279,0.8246787,3.877682E-07,1.028126,6.925839E-09,1.390811
540.6539,-1.261438,0.0004841735,NaN,-0.325323,0.0003535607,NaN,0.4798623,-14.2492,NaN,-2.146838,-1.462072,-0.3537662,14.10307,NaN,NaN,-0.02204043,0.8240933,4.133982E-07,1.020104,2.157468E-09,1.392879
540.6694,-1.247378,0.0004837728,NaN,-0.3252797,0.000354043,NaN,0.4782186,-14.24936,NaN,-2.150525,-1.461605,-0.3541916,14.10259,NaN,NaN,-0.02199895,0.8239128,4.402203E-07,1.019428,2.157468E-09,1.392223
540.6843,-1.233126,0.0004835246,NaN,-0.3252341,0.0003545911,NaN,0.4766098,-14.24939,NaN,-2.154112,-1.461559,-0.3546215,14.10254,NaN,NaN,-0.02195831,0.8238709,4.652543E-07,1.019364,2.157468E-09,1.393349
540.699,-1.233126,0.0004835246,NaN,-0.3252341,0.0003545911,NaN,0.4766098,-14.24939,NaN,-2.154112,-1.461559,-0.3546215,14.10254,NaN,NaN,-0.02195831,0.8238709,4.652543E-07,1.019364,2.157468E-09,1.393349
540.7134,-1.218085,0.0004832331,NaN,-0.3251849,0.0003540728,NaN,0.4748872,-14.25005,NaN,-2.157955,-1.476537,-0.3550279,14.1188,NaN,NaN,-0.02191818,0.8237241,4.926724E-07,1.041433,2.157468E-09,1.400167
540.7289,-1.202611,0.0004830136,NaN,-0.3251322,0.0003543882,NaN,0.4731456,-14.24893,NaN,-2.161783,-1.465078,-0.3554641,14.1063,NaN,NaN,-0.02187889,0.824613,5.171103E-07,1.024543,2.157468E-09,1.391387
540.7437,-1.186929,0.0004830997,NaN,-0.3250768,0.0003550354,NaN,0.4714445,-14.24928,NaN,-2.165498,-1.462828,-0.3559045,14.10391,NaN,NaN,-0.0218404,0.8242021,5.427403E-07,1.021245,-2.267178E-10,1.393205
540.7587,-1.186929,0.0004830997,NaN,-0.3250768,0.0003550354,NaN,0.4714445,-14.24928,NaN,-2.165498,-1.462828,-0.3559045,14.10391,NaN,NaN,-0.0218404,0.8242021,5.427403E-07,1.021245,-2.267178E-10,1.393205
540.7739,-1.171182,0.0004830282,NaN,-0.3250196,0.0003555261,NaN,0.4698027,-14.24894,NaN,-2.169074,-1.462196,-0.3563325,14.10318,NaN,NaN,-0.02180269,0.8245152,5.665821E-07,1.020297,-2.267178E-10,1.388871
540.7885,-1.154732,0.0004831011,NaN,-0.3249594,0.0003557916,NaN,0.4680538,-14.25044,NaN,-2.172895,-1.467349,-0.3567248,14.10896,NaN,NaN,-0.02176538,0.8232064,5.934042E-07,1.027955,4.541654E-09,1.398794
540.8032,-1.137908,0.0004831357,NaN,-0.324896,0.0003561972,NaN,0.4662825,-14.24971,NaN,-2.176702,-1.464884,-0.3571461,14.1062,NaN,NaN,-0.02172885,0.8238567,6.208223E-07,1.024301,4.541654E-09,1.393506
540.8193,-1.137908,0.0004831357,NaN,-0.324896,0.0003561972,NaN,0.4662825,-14.24971,NaN,-2.176702,-1.464884,-0.3571461,14.1062,NaN,NaN,-0.02172885,0.8238567,6.208223E-07,1.024301,4.541654E-09,1.393506
540.8321,-1.12092,0.0004837376,NaN,-0.3248303,0.0003561256,NaN,0.4645478,-14.25053,NaN,-2.180397,-1.476277,-0.3575734,14.11861,NaN,NaN,-0.02169308,0.8233971,6.494325E-07,1.041099,1.169421E-08,1.403192
540.8474,-1.1039,0.0004838976,NaN,-0.3247633,0.0003564642,NaN,0.4628698,-14.2496,NaN,-2.183955,-1.465468,-0.3579903,14.10683,NaN,NaN,-0.02165802,0.8241155,6.762546E-07,1.025173,1.169421E-08,1.395784
540.8624,-1.086203,0.0004841603,NaN,-0.3246934,0.0003571128,NaN,0.4610589,-14.24902,NaN,-2.187068,-1.463268,-0.3584245,14.10437,NaN,NaN,-0.02162253,0.8246295,7.227462E-07,1.021911,9.310025E-09,1.391659
540.8773,-1.086203,0.0004841603,NaN,-0.3246934,0.0003571128,NaN,0.4610589,-14.24902,NaN,-2.187068,-1.463268,-0.3584245,14.10437,NaN,NaN,-0.02162253,0.8246295,7.227462E-07,1.021911,9.310025E-09,1.391659
540.8915,-1.068153,0.0004841411,NaN,-0.3246207,0.0003575726,NaN,0.4591883,-14.24912,NaN,-2.18872,-1.462462,-0.3589758,14.10351,NaN,NaN,-0.02158677,0.8245075,7.853311E-07,1.020729,4.541653E-09,1.391856
540.9076,-1.049958,0.0004842631,NaN,-0.3245458,0.0003582684,NaN,0.4573484,-14.24983,NaN,-2.188997,-1.461173,-0.3595659,14.10222,NaN,NaN,-0.0215516,0.8237604,8.491081E-07,1.018866,4.541653E-09,1.395644
540.9222,-1.031748,0.0004848361,NaN,-0.3244697,0.000358169,NaN,0.4555807,-14.24988,NaN,-2.188465,-1.47562,-0.3601316,14.11781,NaN,NaN,-0.02151749,0.8242141,9.075206E-07,1.040119,6.925839E-09,1.402674
540.9369,-1.031748,0.0004848361,NaN,-0.3244697,0.000358169,NaN,0.4555807,-14.24988,NaN,-2.188465,-1.47562,-0.3601316,14.11781,NaN,NaN,-0.02151749,0.8242141,9.075206E-07,1.040119,6.925839E-09,1.402674
540.9511,-1.012876,0.0004845682,NaN,-0.3243909,0.000358185,NaN,0.453727,-14.25086,NaN,-2.188088,-1.462424,-0.3606256,14.10366,NaN,NaN,-0.02148418,0.822984,9.623568E-07,1.020719,6.925839E-09,1.399759
540.9669,-0.9936669,0.0004847771,NaN,-0.3243094,0.0003585466,NaN,0.4518592,-14.24957,NaN,-2.187819,-1.465909,-0.3611366,14.10724,NaN,NaN,-0.02145181,0.8243821,1.012425E-06,1.025787,4.541653E-09,1.395368
540.9827,-0.9743263,0.0004852326,NaN,-0.3242258,0.0003594495,NaN,0.4500351,-14.24995,NaN,-2.187624,-1.462225,-0.3616531,14.10331,NaN,NaN,-0.02142026,0.8238999,1.05832E-06,1.020386,4.541653E-09,1.397625
540.9966,-0.9743263,0.0004852326,NaN,-0.3242258,0.0003594495,NaN,0.4500351,-14.24995,NaN,-2.187624,-1.462225,-0.3616531,14.10331,NaN,NaN,-0.02142026,0.8238999,1.05832E-06,1.020386,4.541653E-09,1.397625
541.0109,-0.9542559,0.000485619,NaN,-0.3241386,0.0003603315,NaN,0.4481114,-14.2503,NaN,-2.187864,-1.461224,-0.3621391,14.10228,NaN,NaN,-0.02138909,0.823521,1.102428E-06,1.018933,2.157468E-09,1.399829
541.0265,-0.9338106,0.000485729,NaN,-0.3240479,0.0003599101,NaN,0.4461721,-14.25075,NaN,-2.188107,-1.476966,-0.3626719,14.11933,NaN,NaN,-0.02135848,0.8236157,1.1519E-06,1.042109,2.157468E-09,1.40359
541.0414,-0.913215,0.000485939,NaN,-0.3239544,0.0003605423,NaN,0.4442813,-14.25088,NaN,-2.188177,-1.464306,-0.3632245,14.10567,NaN,NaN,-0.02132849,0.8232488,1.198391E-06,1.023484,2.157468E-09,1.400027
541.0572,-0.913215,0.000485939,NaN,-0.3239544,0.0003605423,NaN,0.4442813,-14.25088,NaN,-2.188177,-1.464306,-0.3632245,14.10567,NaN,NaN,-0.02132849,0.8232488,1.198391E-06,1.023484,2.157468E-09,1.400027
541.0703,-0.892611,0.0004862708,NaN,-0.3238593,0.0003603132,NaN,0.4424641,-14.25042,NaN,-2.188076,-1.476787,-0.3637707,14.11905,NaN,NaN,-0.02129917,0.8240839,1.240115E-06,1.04181,4.541653E-09,1.403236
541.0862,-0.8713601,0.0004868263,NaN,-0.3237616,0.0003600219,NaN,0.4405583,-14.25184,NaN,-2.188269,-1.478507,-0.3642767,14.12106,NaN,NaN,-0.02127018,0.8226979,1.284222E-06,1.044376,-2.267182E-10,1.412343
541.1012,-0.8497914,0.0004881805,NaN,-0.3236608,0.0003613087,NaN,0.4386396,-14.2498,NaN,-2.188419,-1.46941,-0.3648211,14.11102,NaN,NaN,-0.02124176,0.824562,1.33131E-06,1.030944,2.157468E-09,1.396117
541.116,-0.8497914,0.0004881805,NaN,-0.3236608,0.0003613087,NaN,0.4386396,-14.2498,NaN,-2.188419,-1.46941,-0.3648211,14.11102,NaN,NaN,-0.02124176,0.824562,1.33131E-06,1.030944,2.157468E-09,1.396117
541.1303,-0.828113,0.0004887566,NaN,-0.3235578,0.0003620874,NaN,0.4367689,-14.25003,NaN,-2.188413,-1.464859,-0.3653799,14.10612,NaN,NaN,-0.02121396,0.8242127,1.370649E-06,1.024247,2.157468E-09,1.398634
541.1459,-0.8064562,0.0004890211,NaN,-0.3234538,0.0003627482,NaN,0.4349701,-14.25064,NaN,-2.188272,-1.462876,-0.36593,14.10405,NaN,NaN,-0.02118682,0.8235422,1.41118E-06,1.021353,-2.267182E-10,1.398573
541.1612,-0.7841761,0.0004893442,NaN,-0.3233476,0.0003625051,NaN,0.4330806,-14.25158,NaN,-2.188458,-1.476826,-0.3664412,14.11923,NaN,NaN,-0.02115998,0.8230644,1.457076E-06,1.041911,-2.267182E-10,1.41047
541.176,-0.7841761,0.0004893442,NaN,-0.3233476,0.0003625051,NaN,0.4330806,-14.25158,NaN,-2.188458,-1.476826,-0.3664412,14.11923,NaN,NaN,-0.02115998,0.8230644,1.457076E-06,1.041911,-2.267182E-10,1.41047
541.1923,-0.761597,0.0004894723,NaN,-0.3232387,0.0003630999,NaN,0.4311772,-14.24987,NaN,-2.18862,-1.463102,-0.3669913,14.10422,NaN,NaN,-0.02113365,0.824513,1.499395E-06,1.021679,4.541653E-09,1.396903
541.2059,-0.7389246,0.0004898653,NaN,-0.3231279,0.0003636727,NaN,0.4293213,-14.25172,NaN,-2.188628,-1.466075,-0.3675566,14.10768,NaN,NaN,-0.0211079,0.8227642,1.543502E-06,1.026135,4.541653E-09,1.408148
541.2206,-0.7162881,0.0004897919,NaN,-0.3230164,0.0003641271,NaN,0.427537,-14.25021,NaN,-2.188496,-1.461686,-0.3681136,14.10274,NaN,NaN,-0.02108276,0.8241292,1.581053E-06,1.019614,6.925839E-09,1.397878
541.2355,-0.7162881,0.0004897919,NaN,-0.3230164,0.0003641271,NaN,0.427537,-14.25021,NaN,-2.188496,-1.461686,-0.3681136,14.10274,NaN,NaN,-0.02108276,0.8241292,1.581053E-06,1.019614,6.925839E-09,1.397878
541.2496,-0.6930415,0.0004898597,NaN,-0.3229029,0.0003638331,NaN,0.4256619,-14.25187,NaN,-2.188686,-1.474873,-0.3686332,14.11721,NaN,NaN,-0.02105787,0.822939,1.625757E-06,1.039098,1.40784E-08,1.410016
541.2654,-0.6695084,0.0004901637,NaN,-0.322787,0.0003646582,NaN,0.4237737,-14.2507,NaN,-2.188847,-1.462756,-0.3691914,14.10399,NaN,NaN,-0.02103347,0.8238518,1.666288E-06,1.021241,1.40784E-08,1.400647
541.2802,-0.6458936,0.0004904843,NaN,-0.3226692,0.0003646245,NaN,0.4219336,-14.25244,NaN,-2.18885,-1.473989,-0.3697641,14.11635,NaN,NaN,-0.0210096,0.8224838,1.706223E-06,1.037843,1.169421E-08,1.412203
541.2965,-0.6458936,0.0004904843,NaN,-0.3226692,0.0003646245,NaN,0.4219336,-14.25244,NaN,-2.18885,-1.473989,-0.3697641,14.11635,NaN,NaN,-0.0210096,0.8224838,1.706223E-06,1.037843,1.169421E-08,1.412203
541.3094,-0.6217706,0.0004908716,NaN,-0.3225491,0.0003640019,NaN,0.4200389,-14.25157,NaN,-2.189013,-1.480427,-0.3703151,14.12317,NaN,NaN,-0.02098602,0.8234841,1.744072E-06,1.047273,9.310025E-09,1.408697
541.3253,-0.597429,0.0004905575,NaN,-0.3224265,0.0003627177,NaN,0.4181562,-14.2506,NaN,-2.189085,-1.4679,-0.370892,14.10954,NaN,NaN,-0.02096294,0.8242643,1.786093E-06,1.028816,9.310025E-09,1.39513
541.3402,-0.5730518,0.0004909532,NaN,-0.3223024,0.0003630561,NaN,0.4163325,-14.25107,NaN,-2.189008,-1.465524,-0.3714728,14.10702,NaN,NaN,-0.0209404,0.8237495,1.824538E-06,1.025334,4.541653E-09,1.402161
541.3552,-0.5730518,0.0004909532,NaN,-0.3223024,0.0003630561,NaN,0.4163325,-14.25107,NaN,-2.189008,-1.465524,-0.3714728,14.10702,NaN,NaN,-0.0209404,0.8237495,1.824538E-06,1.025334,4.541653E-09,1.402161
541.3693,-0.548754,0.0004911716,NaN,-0.322178,0.0003635617,NaN,0.4145842,-14.25104,NaN,-2.188827,-1.463282,-0.3720391,14.10459,NaN,NaN,-0.02091844,0.8237174,1.859407E-06,1.022032,4.541653E-09,1.398464
541.3851,-0.524608,0.0004906379,NaN,-0.3220546,0.0003635761,NaN,0.4129116,-14.24997,NaN,-2.18861,-1.46259,-0.3725836,14.10369,NaN,NaN,-0.02089705,0.8247712,1.893083E-06,1.020961,2.157468E-09,1.395134
541.4009,-0.5006585,0.0004907459,NaN,-0.3219334,0.0003630302,NaN,0.411309,-14.25089,NaN,-2.188412,-1.47771,-0.373106,14.12016,NaN,NaN,-0.0208762,0.82437,1.922588E-06,1.043269,6.925839E-09,1.40708
541.415,-0.5006585,0.0004907459,NaN,-0.3219334,0.0003630302,NaN,0.411309,-14.25089,NaN,-2.188412,-1.47771,-0.373106,14.12016,NaN,NaN,-0.0208762,0.82437,1.922588E-06,1.043269,6.925839E-09,1.40708
541.4292,-0.4769329,0.0004908014,NaN,-0.321815,0.0003620183,NaN,0.4097699,-14.2496,NaN,-2.188256,-1.480222,-0.3736092,14.12273,NaN,NaN,-0.02085585,0.8256962,1.94792E-06,1.046936,4.541653E-09,1.399512
541.4448,-0.4534474,0.0004907956,NaN,-0.3217004,0.0003602614,NaN,0.4082887,-14.24968,NaN,-2.18814,-1.472766,-0.3740962,14.11463,NaN,NaN,-0.02083598,0.8254887,1.972059E-06,1.03593,2.157468E-09,1.392085
541.4597,-0.4534474,0.0004907956,NaN,-0.3217004,0.0003602614,NaN,0.4082887,-14.24968,NaN,-2.18814,-1.472766,-0.3740962,14.11463,NaN,NaN,-0.02083598,0.8254887,1.972059E-06,1.03593,2.157468E-09,1.392085
541.474,-0.4302114,0.0004906859,NaN,-0.3215898,0.0003597952,NaN,0.4068611,-14.24905,NaN,-2.188051,-1.464019,-0.3745694,14.10506,NaN,NaN,-0.02081655,0.8259098,1.997391E-06,1.023001,2.157468E-09,1.388561
541.4897,-0.4072298,0.0004900928,NaN,-0.3214836,0.0003594171,NaN,0.405484,-14.2503,NaN,-2.187974,-1.462374,-0.3750301,14.10343,NaN,NaN,-0.02079754,0.8246006,2.018849E-06,1.020619,2.157468E-09,1.396566
541.5047,-0.3845043,0.0004895077,NaN,-0.321382,0.0003594809,NaN,0.4041551,-14.25011,NaN,-2.187899,-1.461878,-0.3754791,14.10284,NaN,NaN,-0.02077895,0.8247616,2.038221E-06,1.019867,-2.267182E-10,1.39362
541.5198,-0.3845043,0.0004895077,NaN,-0.321382,0.0003594809,NaN,0.4041551,-14.25011,NaN,-2.187899,-1.461878,-0.3754791,14.10284,NaN,NaN,-0.02077895,0.8247616,2.038221E-06,1.019867,-2.267182E-10,1.39362
541.5341,-0.3620353,0.0004891205,NaN,-0.321285,0.0003599648,NaN,0.4028726,-14.25049,NaN,-2.187822,-1.461027,-0.3759164,14.10196,NaN,NaN,-0.02076078,0.8243441,2.057294E-06,1.018622,2.157468E-09,1.394836
541.5498,-0.3398218,0.0004887669,NaN,-0.3211927,0.0003604112,NaN,0.4016349,-14.25015,NaN,-2.187741,-1.461607,-0.3763422,14.10252,NaN,NaN,-0.02074302,0.8246853,2.074579E-06,1.019448,4.541653E-09,1.39072
541.5648,-0.317862,0.0004890495,NaN,-0.3211051,0.0003613292,NaN,0.4004408,-14.25045,NaN,-2.187659,-1.46143,-0.3767565,14.10236,NaN,NaN,-0.02072565,0.8243809,2.08963E-06,1.019194,-2.267182E-10,1.393213
541.5797,-0.317862,0.0004890495,NaN,-0.3211051,0.0003613292,NaN,0.4004408,-14.25045,NaN,-2.187659,-1.46143,-0.3767565,14.10236,NaN,NaN,-0.02072565,0.8243809,2.08963E-06,1.019194,-2.267182E-10,1.393213
541.5962,-0.2961538,0.0004888386,NaN,-0.3210221,0.0003617838,NaN,0.399289,-14.25049,NaN,-2.187576,-1.460757,-0.3771595,14.10162,NaN,NaN,-0.02070868,0.8243012,2.104829E-06,1.0182,2.157468E-09,1.39182
541.6097,-0.2810685,0.0004890518,NaN,-0.3209642,0.0003616746,NaN,0.3996398,-14.25229,NaN,-2.184017,-1.473631,-0.3776499,14.11579,NaN,NaN,-0.02069531,0.8229635,2.063106E-06,1.037235,2.157468E-09,1.407892
541.6249,-0.2702127,0.0004893602,NaN,-0.3209398,0.0003609819,NaN,0.400756,-14.25159,NaN,-2.180704,-1.480272,-0.3775903,14.12285,NaN,NaN,-0.02068341,0.8238058,1.993964E-06,1.046975,6.925839E-09,1.405251
541.6396,-0.2702127,0.0004893602,NaN,-0.3209398,0.0003609819,NaN,0.400756,-14.25159,NaN,-2.180704,-1.480272,-0.3775903,14.12285,NaN,NaN,-0.02068341,0.8238058,1.993964E-06,1.046975,6.925839E-09,1.405251
541.6539,-0.2620638,0.000489837,NaN,-0.3209424,0.0003615851,NaN,0.4020246,-14.2497,NaN,-2.178614,-1.467343,-0.3772634,14.10868,NaN,NaN,-0.0206716,0.8254902,1.925866E-06,1.027901,4.541653E-09,1.39221
541.6694,-0.2556526,0.0004898499,NaN,-0.320963,0.0003617774,NaN,0.403183,-14.25095,NaN,-2.177352,-1.467502,-0.3769142,14.10901,NaN,NaN,-0.02065926,0.8242677,1.871477E-06,1.028187,6.925839E-09,1.397506
541.6847,-0.250362,0.0004901118,NaN,-0.3209966,0.0003624125,NaN,0.4041896,-14.25046,NaN,-2.176645,-1.464467,-0.3766068,14.10566,NaN,NaN,-0.02064682,0.824675,1.826922E-06,1.023697,4.541653E-09,1.393571
541.6996,-0.250362,0.0004901118,NaN,-0.3209966,0.0003624125,NaN,0.4041896,-14.25046,NaN,-2.176645,-1.464467,-0.3766068,14.10566,NaN,NaN,-0.02064682,0.824675,1.826922E-06,1.023697,4.541653E-09,1.393571
541.7141,-0.2457986,0.000489957,NaN,-0.3210388,0.0003629216,NaN,0.405066,-14.2503,NaN,-2.176302,-1.461412,-0.3763476,14.10233,NaN,NaN,-0.02063446,0.8247475,1.786689E-06,1.01919,2.157468E-09,1.390752
541.7298,-0.2417121,0.0004890923,NaN,-0.3210868,0.0003629178,NaN,0.4058444,-14.25094,NaN,-2.176193,-1.460855,-0.3761278,14.10182,NaN,NaN,-0.02062226,0.8240991,1.747946E-06,1.018403,-2.610904E-09,1.394626
541.7448,-0.2379427,0.0004888615,NaN,-0.3211382,0.0003635901,NaN,0.4065533,-14.25142,NaN,-2.176234,-1.460612,-0.3759369,14.10162,NaN,NaN,-0.02061024,0.8236105,1.712034E-06,1.018069,-9.763461E-09,1.398277
541.7613,-0.2344267,0.000488768,NaN,-0.3337963,0.000364113,NaN,0.4062741,-14.25176,NaN,-2.179469,-1.462281,-0.3796008,14.10347,NaN,NaN,-0.02060726,0.8233405,1.56049E-06,1.02054,-1.453183E-08,1.398165
541.7749,-0.2344267,0.000488768,NaN,-0.3337963,0.000364113,NaN,0.4062741,-14.25176,NaN,-2.179469,-1.462281,-0.3796008,14.10347,NaN,NaN,-0.02060726,0.8233405,1.56049E-06,1.02054,-1.453183E-08,1.398165
541.7903,-0.2311636,0.0004880402,NaN,-0.3540791,0.0003641235,NaN,0.4066944,-14.25049,NaN,-2.183532,-1.461744,-0.3830061,14.1027,NaN,NaN,-0.02060298,0.8245873,1.434202E-06,1.019688,-1.93002E-08,1.392351
541.805,-0.2281107,0.0004880209,NaN,-0.3789286,0.0003648513,NaN,0.4075116,-14.25094,NaN,-2.187013,-1.461378,-0.3858469,14.10237,NaN,NaN,-0.02059638,0.8241249,1.347403E-06,1.019171,-2.168439E-08,1.395573
541.8198,-0.2281107,0.0004880209,NaN,-0.3789286,0.0003648513,NaN,0.4075116,-14.25094,NaN,-2.187013,-1.461378,-0.3858469,14.10237,NaN,NaN,-0.02059638,0.8241249,1.347403E-06,1.019171,-2.168439E-08,1.395573
541.8341,-0.2252159,0.0004878261,NaN,-0.4057079,0.0003653175,NaN,0.4084785,-14.25094,NaN,-2.188501,-1.461421,-0.3881137,14.10241,NaN,NaN,-0.02058696,0.824129,1.307691E-06,1.019233,-1.691602E-08,1.394897
541.8497,-0.2224348,0.0004870252,NaN,-0.4335513,0.0003645023,NaN,0.4094196,-14.251,NaN,-2.188381,-1.461381,-0.3901215,14.10237,NaN,NaN,-0.02057713,0.8240586,1.276548E-06,1.01918,-1.453183E-08,1.39621
541.8646,-0.2197364,0.0004870197,NaN,-0.4619227,0.000364704,NaN,0.4103377,-14.25232,NaN,-2.187471,-1.465258,-0.3919208,14.10675,NaN,NaN,-0.02056779,0.8228795,1.243318E-06,1.024951,-1.691602E-08,1.405538
541.8796,-0.2197364,0.0004870197,NaN,-0.4619227,0.000364704,NaN,0.4103377,-14.25232,NaN,-2.187471,-1.465258,-0.3919208,14.10675,NaN,NaN,-0.02056779,0.8228795,1.243318E-06,1.024951,-1.691602E-08,1.405538
541.8941,-0.2170999,0.0004873704,NaN,-0.49049,0.0003648398,NaN,0.4112372,-14.25289,NaN,-2.186469,-1.470695,-0.3935409,14.11268,NaN,NaN,-0.02055911,0.8224769,1.19936E-06,1.032967,-1.453183E-08,1.410083
541.91,-0.214508,0.0004875918,NaN,-0.5182858,0.0003649864,NaN,0.4121709,-14.2521,NaN,-2.185563,-1.469061,-0.3947812,14.11082,NaN,NaN,-0.02055038,0.823225,1.157488E-06,1.030537,-1.333974E-08,1.402689
541.925,-0.2119501,0.0004878546,NaN,-0.5454823,0.0003657574,NaN,0.4130209,-14.25122,NaN,-2.185043,-1.462078,-0.3959395,14.10317,NaN,NaN,-0.02054213,0.8239048,1.110847E-06,1.020235,-1.453183E-08,1.397201
541.9402,-0.2094209,0.0004879934,NaN,-0.572187,0.0003663445,NaN,0.4137988,-14.25127,NaN,-2.184894,-1.462033,-0.3970742,14.10312,NaN,NaN,-0.02053418,0.8238614,1.061822E-06,1.02017,-1.214765E-08,1.397671
541.9552,-0.2094209,0.0004879934,NaN,-0.572187,0.0003663445,NaN,0.4137988,-14.25127,NaN,-2.184894,-1.462033,-0.3970742,14.10312,NaN,NaN,-0.02053418,0.8238614,1.061822E-06,1.02017,-1.214765E-08,1.397671
541.9691,-0.206918,0.0004878652,NaN,-0.5984672,0.000366806,NaN,0.4145263,-14.25131,NaN,-2.184964,-1.46124,-0.3981951,14.10226,NaN,NaN,-0.02052634,0.8237941,1.013394E-06,1.019004,-1.453183E-08,1.396204
541.986,-0.2044357,0.0004872673,NaN,-0.6236041,0.0003669334,NaN,0.4152818,-14.25105,NaN,-2.184908,-1.461472,-0.399058,14.10247,NaN,NaN,-0.02051798,0.824051,9.743526E-07,1.019332,-1.333974E-08,1.394996
541.9998,-0.2044357,0.0004872673,NaN,-0.6236041,0.0003669334,NaN,0.4152818,-14.25105,NaN,-2.184908,-1.461472,-0.399058,14.10247,NaN,NaN,-0.02051798,0.824051,9.743526E-07,1.019332,-1.333974E-08,1.394996
542.0141,-0.2019718,0.000487024,NaN,-0.6479251,0.0003662904,NaN,0.4159727,-14.25205,NaN,-2.184837,-1.476807,-0.3999068,14.11917,NaN,NaN,-0.02050985,0.8235855,9.362056E-07,1.041945,-1.214765E-08,1.406692
542.0296,-0.1995262,0.0004872686,NaN,-0.6716344,0.0003655561,NaN,0.4166223,-14.25107,NaN,-2.184794,-1.478898,-0.4007595,14.12131,NaN,NaN,-0.02050199,0.8245945,8.995488E-07,1.044996,-1.333974E-08,1.400869
542.0447,-0.1971002,0.0004876263,NaN,-0.6948592,0.0003654762,NaN,0.4172525,-14.25074,NaN,-2.184778,-1.471956,-0.4016032,14.11375,NaN,NaN,-0.02049431,0.8247908,8.593156E-07,1.034754,-1.691602E-08,1.393785
542.0595,-0.1971002,0.0004876263,NaN,-0.6948592,0.0003654762,NaN,0.4172525,-14.25074,NaN,-2.184778,-1.471956,-0.4016032,14.11375,NaN,NaN,-0.02049431,0.8247908,8.593156E-07,1.034754,-1.691602E-08,1.393785
542.0739,-0.1946894,0.0004881582,NaN,-0.7169182,0.0003660608,NaN,0.417934,-14.25074,NaN,-2.184582,-1.467636,-0.4021862,14.10907,NaN,NaN,-0.02048622,0.8246905,8.295133E-07,1.028384,-1.93002E-08,1.399057
542.0897,-0.1922927,0.0004888989,NaN,-0.7381626,0.0003672274,NaN,0.4185652,-14.2509,NaN,-2.184403,-1.462956,-0.402754,14.10401,NaN,NaN,-0.02047844,0.8243933,7.967307E-07,1.021491,-1.691602E-08,1.400051
542.1044,-0.1899112,0.0004894601,NaN,-0.7588108,0.0003682401,NaN,0.4191625,-14.25119,NaN,-2.184311,-1.461811,-0.4033292,14.1028,NaN,NaN,-0.02047096,0.824056,7.630541E-07,1.019814,-1.691602E-08,1.398311
542.1194,-0.1899112,0.0004894601,NaN,-0.7588108,0.0003682401,NaN,0.4191625,-14.25119,NaN,-2.184311,-1.461811,-0.4033292,14.1028,NaN,NaN,-0.02047096,0.824056,7.630541E-07,1.019814,-1.691602E-08,1.398311
542.1339,-0.1875408,0.0004896069,NaN,-0.7782373,0.000368853,NaN,0.4198027,-14.25136,NaN,-2.184104,-1.461092,-0.4036627,14.10204,NaN,NaN,-0.02046312,0.8238638,7.368281E-07,1.018759,-1.572393E-08,1.392342
542.1498,-0.1851806,0.0004894608,NaN,-0.7968282,0.0003690949,NaN,0.4203889,-14.25192,NaN,-2.183956,-1.464273,-0.4039979,14.10555,NaN,NaN,-0.0204556,0.8234146,7.070258E-07,1.023464,-1.214765E-08,1.396841
542.1644,-0.1828325,0.000489091,NaN,-0.8148232,0.0003694307,NaN,0.4209401,-14.25156,NaN,-2.183908,-1.461472,-0.4043544,14.10246,NaN,NaN,-0.02044836,0.8236827,6.766274E-07,1.019324,-7.379275E-09,1.393395
542.1804,-0.1804988,0.0004895852,NaN,-0.8323714,0.0003704003,NaN,0.4214757,-14.25167,NaN,-2.18393,-1.462712,-0.4047203,14.10381,NaN,NaN,-0.02044128,0.8236061,6.46229E-07,1.021151,-3.802996E-09,1.39426
542.1947,-0.1804988,0.0004895852,NaN,-0.8323714,0.0003704003,NaN,0.4214757,-14.25167,NaN,-2.18393,-1.462712,-0.4047203,14.10381,NaN,NaN,-0.02044128,0.8236061,6.46229E-07,1.021151,-3.802996E-09,1.39426
542.2089,-0.1781751,0.0004901143,NaN,-0.8488042,0.0003706102,NaN,0.4220642,-14.25364,NaN,-2.183783,-1.471757,-0.4048451,14.11384,NaN,NaN,-0.02043376,0.8219467,6.253674E-07,1.034547,-6.187182E-09,1.409976
542.2244,-0.1758602,0.000490494,NaN,-0.8644817,0.0003714038,NaN,0.4226037,-14.25187,NaN,-2.183645,-1.462752,-0.4049726,14.10394,NaN,NaN,-0.02042654,0.8234965,6.009295E-07,1.021264,-6.187182E-09,1.396906
542.2409,-0.1735559,0.0004908239,NaN,-0.8796268,0.0003712515,NaN,0.4231115,-14.25366,NaN,-2.183582,-1.475332,-0.4051229,14.11776,NaN,NaN,-0.02041961,0.8221325,5.758955E-07,1.039853,-7.975321E-09,1.412164
542.2545,-0.1735559,0.0004908239,NaN,-0.8796268,0.0003712515,NaN,0.4231115,-14.25366,NaN,-2.183582,-1.475332,-0.4051229,14.11776,NaN,NaN,-0.02041961,0.8221325,5.758955E-07,1.039853,-7.975321E-09,1.412164
542.2685,-0.1712647,0.0004912232,NaN,-0.8943779,0.0003707919,NaN,0.4236057,-14.25398,NaN,-2.183583,-1.47772,-0.4052853,14.12036,NaN,NaN,-0.02041285,0.8218533,5.532457E-07,1.043367,-6.187181E-09,1.413518
542.2843,-0.1689819,0.0004910604,NaN,-0.9080596,0.0003693368,NaN,0.4241534,-14.25164,NaN,-2.18342,-1.467692,-0.4052108,14.1093,NaN,NaN,-0.02040567,0.8239999,5.353643E-07,1.028578,-6.783228E-09,1.40143
542.2992,-0.1689819,0.0004910604,NaN,-0.9080596,0.0003693368,NaN,0.4241534,-14.25164,NaN,-2.18342,-1.467692,-0.4052108,14.1093,NaN,NaN,-0.02040567,0.8239999,5.353643E-07,1.028578,-6.783228E-09,1.40143
542.3135,-0.1667058,0.0004915274,NaN,-0.921028,0.0003690922,NaN,0.4246517,-14.25174,NaN,-2.183278,-1.469557,-0.4051442,14.11133,NaN,NaN,-0.02039878,0.8239553,5.150987E-07,1.031329,-5.591135E-09,1.395239
542.3293,-0.1644385,0.0004919267,NaN,-0.9335032,0.0003695891,NaN,0.4251182,-14.25187,NaN,-2.183217,-1.464245,-0.4051066,14.1056,NaN,NaN,-0.02039216,0.8236826,4.93045E-07,1.023518,-7.97532E-09,1.398042
542.3448,-0.1621827,0.0004923901,NaN,-0.9456213,0.0003703703,NaN,0.4255713,-14.2522,NaN,-2.183226,-1.46288,-0.4050869,14.10417,NaN,NaN,-0.02038573,0.8233196,4.692032E-07,1.021524,-4.995088E-09,1.399919
542.3596,-0.1621827,0.0004923901,NaN,-0.9456213,0.0003703703,NaN,0.4255713,-14.2522,NaN,-2.183226,-1.46288,-0.4050869,14.10417,NaN,NaN,-0.02038573,0.8233196,4.692032E-07,1.021524,-4.995088E-09,1.399919
542.3759,-0.1599337,0.0004922559,NaN,-0.9567052,0.0003706439,NaN,0.4260776,-14.25199,NaN,-2.183071,-1.463632,-0.404837,14.10495,NaN,NaN,-0.02037886,0.8235509,4.53706E-07,1.02262,-2.610902E-09,1.398326
542.3898,-0.1576894,0.0004921466,NaN,-0.9671105,0.0003711371,NaN,0.4265344,-14.25227,NaN,-2.182936,-1.462486,-0.4046013,14.10375,NaN,NaN,-0.02037228,0.8232214,4.334404E-07,1.020948,-1.418809E-09,1.39937
542.4046,-0.1554522,0.0004919523,NaN,-0.9770562,0.0003715857,NaN,0.4269596,-14.25231,NaN,-2.182882,-1.461934,-0.4044003,14.10315,NaN,NaN,-0.02036598,0.8231629,4.14963E-07,1.020137,-2.610902E-09,1.399106
542.4193,-0.1554522,0.0004919523,NaN,-0.9770562,0.0003715857,NaN,0.4269596,-14.25231,NaN,-2.182882,-1.461934,-0.4044003,14.10315,NaN,NaN,-0.02036598,0.8231629,4.14963E-07,1.020137,-2.610902E-09,1.399106
542.4337,-0.1532176,0.0004920924,NaN,-0.985916,0.0003722343,NaN,0.4274287,-14.25238,NaN,-2.182701,-1.462294,-0.4039854,14.10354,NaN,NaN,-0.02035931,0.8230973,4.042341E-07,1.020669,-4.995088E-09,1.401978
542.4493,-0.150984,0.0004922944,NaN,-0.9940767,0.000372214,NaN,0.4278449,-14.25409,NaN,-2.182573,-1.472144,-0.4035976,14.1144,NaN,NaN,-0.02035295,0.8217129,3.881409E-07,1.035231,-4.995088E-09,1.411232
542.4645,-0.1487546,0.0004919901,NaN,-1.001776,0.0003722732,NaN,0.4282286,-14.25223,NaN,-2.182543,-1.4643,-0.4032547,14.10574,NaN,NaN,-0.02034686,0.8233688,3.702595E-07,1.023654,-6.187181E-09,1.399668
542.4795,-0.1487546,0.0004919901,NaN,-1.001776,0.0003722732,NaN,0.4282286,-14.25223,NaN,-2.182543,-1.4643,-0.4032547,14.10574,NaN,NaN,-0.02034686,0.8233688,3.702595E-07,1.023654,-6.187181E-09,1.399668
542.4938,-0.1465336,0.0004913334,NaN,-1.009162,0.0003722897,NaN,0.4286006,-14.252,NaN,-2.182583,-1.462285,-0.4029432,14.10353,NaN,NaN,-0.02034092,0.8235287,3.553583E-07,1.020679,-6.783227E-09,1.39679
542.5098,-0.1443168,0.0004902522,NaN,-1.015561,0.000371151,NaN,0.4290271,-14.25224,NaN,-2.182451,-1.462892,-0.4024141,14.10421,NaN,NaN,-0.02033454,0.8232971,3.464176E-07,1.021584,-8.273343E-09,1.398606
542.5247,-0.142102,0.0004890466,NaN,-1.021335,0.0003704819,NaN,0.4294052,-14.25189,NaN,-2.18233,-1.461721,-0.4019102,14.1029,NaN,NaN,-0.02032845,0.8235936,3.327085E-07,1.019848,-6.783227E-09,1.396132
542.5398,-0.142102,0.0004890466,NaN,-1.021335,0.0003704819,NaN,0.4294052,-14.25189,NaN,-2.18233,-1.461721,-0.4019102,14.1029,NaN,NaN,-0.02032845,0.8235936,3.327085E-07,1.019848,-6.783227E-09,1.396132
542.554,-0.1398923,0.0004881185,NaN,-1.026704,0.000370262,NaN,0.4297533,-14.25224,NaN,-2.182285,-1.462202,-0.4014506,14.10347,NaN,NaN,-0.02032263,0.8232477,3.207876E-07,1.020573,-5.591134E-09,1.397462
542.5706,-0.1376917,0.0004875637,NaN,-1.031803,0.0003704911,NaN,0.4300909,-14.25233,NaN,-2.182305,-1.462516,-0.401023,14.10381,NaN,NaN,-0.02031698,0.8231605,3.052904E-07,1.021039,-4.697064E-09,1.39813
542.5847,-0.1354959,0.0004872472,NaN,-1.035955,0.0003698652,NaN,0.4304832,-14.25384,NaN,-2.182158,-1.476553,-0.4003801,14.11916,NaN,NaN,-0.02031088,0.8221195,2.957537E-07,1.041747,-5.591134E-09,1.411449
542.5995,-0.1354959,0.0004872472,NaN,-1.035955,0.0003698652,NaN,0.4304832,-14.25384,NaN,-2.182158,-1.476553,-0.4003801,14.11916,NaN,NaN,-0.02031088,0.8221195,2.957537E-07,1.041747,-5.591134E-09,1.411449
542.6138,-0.1333024,0.0004871097,NaN,-1.039515,0.0003700779,NaN,0.430827,-14.25227,NaN,-2.182031,-1.466129,-0.3997656,14.10775,NaN,NaN,-0.02030507,0.8234785,2.880051E-07,1.02639,-8.571366E-09,1.399406
542.6296,-0.1311141,0.0004872099,NaN,-1.042701,0.0003706095,NaN,0.4311406,-14.25276,NaN,-2.181984,-1.463832,-0.3991993,14.10533,NaN,NaN,-0.02029952,0.8229184,2.748921E-07,1.023032,-5.889157E-09,1.401135
542.6444,-0.1289355,0.00048722,NaN,-1.045646,0.000370484,NaN,0.4314434,-14.25422,NaN,-2.181987,-1.471742,-0.3986701,14.11406,NaN,NaN,-0.02029412,0.8217077,2.629712E-07,1.034723,-6.485203E-09,1.410743
542.6594,-0.1289355,0.00048722,NaN,-1.045646,0.000370484,NaN,0.4314434,-14.25422,NaN,-2.181987,-1.471742,-0.3986701,14.11406,NaN,NaN,-0.02029412,0.8217077,2.629712E-07,1.034723,-6.485203E-09,1.410743
542.6737,-0.1267624,0.0004876161,NaN,-1.047671,0.0003713189,NaN,0.4318018,-14.25311,NaN,-2.181824,-1.463727,-0.3979287,14.10529,NaN,NaN,-0.0202883,0.8226286,2.599909E-07,1.022915,-6.485203E-09,1.40398
542.6895,-0.1245919,0.0004879374,NaN,-1.049131,0.0003720252,NaN,0.43211,-14.25339,NaN,-2.18163,-1.462645,-0.3972241,14.10416,NaN,NaN,-0.02028269,0.822311,2.546265E-07,1.021337,-8.571366E-09,1.40459
542.7056,-0.1224272,0.0004883045,NaN,-1.050243,0.0003727956,NaN,0.4323878,-14.25346,NaN,-2.181451,-1.462225,-0.3965741,14.10371,NaN,NaN,-0.0202773,0.822227,2.456858E-07,1.020721,-5.889157E-09,1.405254
542.7195,-0.1224272,0.0004883045,NaN,-1.050243,0.0003727956,NaN,0.4323878,-14.25346,NaN,-2.181451,-1.462225,-0.3965741,14.10371,NaN,NaN,-0.0202773,0.822227,2.456858E-07,1.020721,-5.889157E-09,1.405254
542.734,-0.1202646,0.0004887347,NaN,-1.050378,0.0003725608,NaN,0.4327116,-14.25374,NaN,-2.181098,-1.476803,-0.3957281,14.11943,NaN,NaN,-0.02027155,0.822428,2.450897E-07,1.042142,-8.273343E-09,1.411784
542.7496,-0.1181022,0.0004891178,NaN,-1.049927,0.0003731758,NaN,0.4329819,-14.25328,NaN,-2.180719,-1.466185,-0.394932,14.10793,NaN,NaN,-0.02026604,0.8226829,2.421095E-07,1.026523,-6.783227E-09,1.405281
542.7655,-0.1159579,0.0004893724,NaN,-1.04912,0.00037302,NaN,0.4332324,-14.25459,NaN,-2.180356,-1.474471,-0.3941936,14.11703,NaN,NaN,-0.02026076,0.8216176,2.379372E-07,1.038752,-5.591134E-09,1.413881
542.7795,-0.1159579,0.0004893724,NaN,-1.04912,0.00037302,NaN,0.4332324,-14.25459,NaN,-2.180356,-1.474471,-0.3941936,14.11703,NaN,NaN,-0.02026076,0.8216176,2.379372E-07,1.038752,-5.591134E-09,1.413881
542.7938,-0.113843,0.0004894646,NaN,-1.048102,0.0003724267,NaN,0.4334865,-14.25439,NaN,-2.180019,-1.475939,-0.3934951,14.11857,NaN,NaN,-0.02025564,0.8218325,2.337648E-07,1.040898,-6.932238E-09,1.410816
542.8096,-0.1117522,0.00048884,NaN,-1.046198,0.0003718605,NaN,0.4338048,-14.25391,NaN,-2.179507,-1.465909,-0.3925895,14.10772,NaN,NaN,-0.02025012,0.8221167,2.343609E-07,1.026153,-7.528285E-09,1.406122
542.8245,-0.1097038,0.0004886503,NaN,-1.043769,0.0003716388,NaN,0.4340942,-14.25329,NaN,-2.17896,-1.469031,-0.3917216,14.111,NaN,NaN,-0.0202448,0.8228167,2.337648E-07,1.030718,-1.006148E-08,1.402016
542.8398,-0.1097038,0.0004886503,NaN,-1.043769,0.0003716388,NaN,0.4340942,-14.25329,NaN,-2.17896,-1.469031,-0.3917216,14.111,NaN,NaN,-0.0202448,0.8228167,2.337648E-07,1.030718,-1.006148E-08,1.402016
542.8538,-0.1077006,0.0004890085,NaN,-1.041031,0.0003723238,NaN,0.4343695,-14.25356,NaN,-2.178427,-1.464424,-0.3909084,14.10607,NaN,NaN,-0.02023969,0.8224236,2.313807E-07,1.023962,-1.080654E-08,1.40581
542.8693,-0.1057397,0.0004892402,NaN,-1.03812,0.0003729013,NaN,0.4346441,-14.25395,NaN,-2.177922,-1.462984,-0.3901359,14.10458,NaN,NaN,-0.02023475,0.8219812,2.289965E-07,1.021867,-1.006148E-08,1.40608
542.8846,-0.1038082,0.0004900291,NaN,-1.034353,0.0003728762,NaN,0.4349751,-14.25481,NaN,-2.177248,-1.476723,-0.3891625,14.11947,NaN,NaN,-0.02022941,0.8215647,2.331688E-07,1.042081,-1.125357E-08,1.41559
542.8994,-0.1038082,0.0004900291,NaN,-1.034353,0.0003728762,NaN,0.4349751,-14.25481,NaN,-2.177248,-1.476723,-0.3891625,14.11947,NaN,NaN,-0.02022941,0.8215647,2.331688E-07,1.042081,-1.125357E-08,1.41559
542.9138,-0.1019195,0.0004903479,NaN,-1.030085,0.0003733311,NaN,0.4352707,-14.25327,NaN,-2.176541,-1.465073,-0.3882317,14.10677,NaN,NaN,-0.02022428,0.8228922,2.35553E-07,1.024941,-1.095555E-08,1.403497
542.9297,-0.1000737,0.0004907051,NaN,-1.025532,0.0003737407,NaN,0.4355473,-14.25464,NaN,-2.175853,-1.467313,-0.3873597,14.10937,NaN,NaN,-0.02021936,0.8216085,2.349569E-07,1.028293,-9.912471E-09,1.410878
542.9445,-0.09826688,0.0004902694,NaN,-1.020825,0.0003737014,NaN,0.4358195,-14.25303,NaN,-2.175199,-1.463112,-0.3865325,14.10464,NaN,NaN,-0.02021461,0.8231012,2.349569E-07,1.022062,-9.465436E-09,1.40267
542.9608,-0.09648604,0.0004904355,NaN,-1.015283,0.0003741363,NaN,0.436144,-14.25301,NaN,-2.174378,-1.465804,-0.3855111,14.10753,NaN,NaN,-0.02020947,0.8232172,2.427055E-07,1.026019,-8.273344E-09,1.401901
542.9747,-0.09648604,0.0004904355,NaN,-1.015283,0.0003741363,NaN,0.436144,-14.25301,NaN,-2.174378,-1.465804,-0.3855111,14.10753,NaN,NaN,-0.02020947,0.8232172,2.427055E-07,1.026019,-8.273344E-09,1.401901
542.9889,-0.09474336,0.0004900898,NaN,-1.009259,0.0003743376,NaN,0.4364311,-14.25292,NaN,-2.17353,-1.462633,-0.3845361,14.1041,NaN,NaN,-0.02020454,0.8232119,2.4807E-07,1.021355,-8.422355E-09,1.400014
543.0043,-0.09303904,0.0004894567,NaN,-1.002968,0.0003741369,NaN,0.4366976,-14.25342,NaN,-2.172706,-1.465762,-0.3836231,14.10755,NaN,NaN,-0.02019983,0.8228087,2.462818E-07,1.025981,-7.975321E-09,1.404197
543.0195,-0.09303904,0.0004894567,NaN,-1.002968,0.0003741369,NaN,0.4366976,-14.25342,NaN,-2.172706,-1.465762,-0.3836231,14.10755,NaN,NaN,-0.02019983,0.8228087,2.462818E-07,1.025981,-7.975321E-09,1.404197
543.0337,-0.09136127,0.0004895921,NaN,-0.99578,0.0003748789,NaN,0.4370083,-14.25373,NaN,-2.171719,-1.462284,-0.3825332,14.10384,NaN,NaN,-0.02019478,0.8223997,2.516462E-07,1.020884,-5.889158E-09,1.405811
543.0493,-0.0897213,0.0004889797,NaN,-0.9880782,0.0003740125,NaN,0.4372796,-14.25386,NaN,-2.170714,-1.462034,-0.3815002,14.10359,NaN,NaN,-0.02018996,0.8222628,2.540304E-07,1.020524,-4.995089E-09,1.404326
543.0645,-0.08811853,0.0004884314,NaN,-0.980097,0.0003738434,NaN,0.43753,-14.25373,NaN,-2.169741,-1.461778,-0.3805358,14.10329,NaN,NaN,-0.02018537,0.822378,2.564146E-07,1.020143,-6.187181E-09,1.403859
543.0794,-0.08811853,0.0004884314,NaN,-0.980097,0.0003738434,NaN,0.43753,-14.25373,NaN,-2.169741,-1.461778,-0.3805358,14.10329,NaN,NaN,-0.02018537,0.822378,2.564146E-07,1.020143,-6.187181E-09,1.403859
543.0939,-0.08654866,0.0004880933,NaN,-0.9719797,0.000374162,NaN,0.4377749,-14.25387,NaN,-2.168813,-1.46146,-0.379624,14.10296,NaN,NaN,-0.02018094,0.8222271,2.576067E-07,1.019682,-6.783228E-09,1.405114
543.1097,-0.08499932,0.0004882695,NaN,-0.963052,0.0003737272,NaN,0.4380682,-14.25469,NaN,-2.167728,-1.476531,-0.3785317,14.11929,NaN,NaN,-0.02017615,0.8219147,2.689316E-07,1.041855,-4.995088E-09,1.416475
543.1247,-0.08348112,0.0004884349,NaN,-0.9536704,0.0003741768,NaN,0.4383228,-14.2536,NaN,-2.166626,-1.464307,-0.3774933,14.10601,NaN,NaN,-0.02017157,0.8227826,2.778723E-07,1.023872,-5.293112E-09,1.404493
543.1395,-0.08348112,0.0004884349,NaN,-0.9536704,0.0003741768,NaN,0.4383228,-14.2536,NaN,-2.166626,-1.464307,-0.3774933,14.10601,NaN,NaN,-0.02017157,0.8227826,2.778723E-07,1.023872,-5.293112E-09,1.404493
543.1549,-0.0819941,0.000488801,NaN,-0.9440525,0.0003737279,NaN,0.4385559,-14.25401,NaN,-2.165556,-1.478258,-0.3765224,14.12109,NaN,NaN,-0.02016722,0.822809,2.826407E-07,1.044391,-5.889158E-09,1.411178
543.1694,-0.08053493,0.000488787,NaN,-0.9343315,0.0003737699,NaN,0.4387825,-14.25427,NaN,-2.164532,-1.465833,-0.3756041,14.10772,NaN,NaN,-0.02016303,0.8223458,2.891972E-07,1.026128,-7.081251E-09,1.410248
543.1881,-0.07909247,0.0004886506,NaN,-0.9238271,0.0003736346,NaN,0.4390546,-14.25339,NaN,-2.163352,-1.468569,-0.3745109,14.11056,NaN,NaN,-0.02015848,0.8233041,2.963497E-07,1.030118,-5.591135E-09,1.407999
543.1993,-0.07909247,0.0004886506,NaN,-0.9238271,0.0003736346,NaN,0.4390546,-14.25339,NaN,-2.163352,-1.468569,-0.3745109,14.11056,NaN,NaN,-0.02015848,0.8233041,2.963497E-07,1.030118,-5.591135E-09,1.407999
543.2137,-0.07767697,0.0004887619,NaN,-0.9128912,0.0003741249,NaN,0.4392873,-14.25363,NaN,-2.162156,-1.464156,-0.3734736,14.10583,NaN,NaN,-0.02015415,0.8229415,2.9933E-07,1.023645,-4.101019E-09,1.40512
543.2293,-0.07628877,0.0004892085,NaN,-0.9017392,0.0003748972,NaN,0.4394981,-14.25457,NaN,-2.160994,-1.463918,-0.3725049,14.10571,NaN,NaN,-0.02015004,0.8220084,3.064825E-07,1.023343,-3.206949E-09,1.410571
543.2444,-0.07492511,0.0004895624,NaN,-0.8905028,0.0003756015,NaN,0.4397022,-14.25465,NaN,-2.15988,-1.462752,-0.3715902,14.10447,NaN,NaN,-0.02014608,0.8218825,3.106549E-07,1.021639,-4.995089E-09,1.41116
543.2595,-0.07492511,0.0004895624,NaN,-0.8905028,0.0003756015,NaN,0.4397022,-14.25465,NaN,-2.15988,-1.462752,-0.3715902,14.10447,NaN,NaN,-0.02014608,0.8218825,3.106549E-07,1.021639,-4.995089E-09,1.41116
543.2737,-0.07358275,0.0004895041,NaN,-0.8792626,0.0003759921,NaN,0.4399057,-14.25415,NaN,-2.158813,-1.461844,-0.3707176,14.10342,NaN,NaN,-0.02014225,0.8223491,3.136351E-07,1.020285,-5.889158E-09,1.403366
543.2896,-0.07225899,0.0004895017,NaN,-0.8680682,0.0003761794,NaN,0.4401099,-14.25556,NaN,-2.157787,-1.466794,-0.3698802,14.10895,NaN,NaN,-0.02013853,0.8211172,3.207876E-07,1.027626,-6.485205E-09,1.412289
543.3045,-0.0709518,0.0004894125,NaN,-0.8569496,0.0003765793,NaN,0.4403143,-14.25417,NaN,-2.156799,-1.462885,-0.3690736,14.10456,NaN,NaN,-0.02013491,0.8223892,3.225758E-07,1.021836,-4.697065E-09,1.404063
543.3195,-0.0709518,0.0004894125,NaN,-0.8569496,0.0003765793,NaN,0.4403143,-14.25417,NaN,-2.156799,-1.462885,-0.3690736,14.10456,NaN,NaN,-0.02013491,0.8223892,3.225758E-07,1.021836,-4.697065E-09,1.404063
543.334,-0.06966647,0.0004892079,NaN,-0.8466868,0.0003768916,NaN,0.4404758,-14.25465,NaN,-2.156043,-1.462958,-0.3685031,14.10471,NaN,NaN,-0.02013183,0.821907,3.201916E-07,1.021967,-4.697065E-09,1.405532
543.3499,-0.06839082,0.0004886531,NaN,-0.8369898,0.0003769255,NaN,0.4406761,-14.25441,NaN,-2.155372,-1.462565,-0.3679364,14.10425,NaN,NaN,-0.02012874,0.8221344,3.166153E-07,1.02138,-4.995089E-09,1.405791
543.3646,-0.06712174,0.0004880217,NaN,-0.8276801,0.0003770371,NaN,0.4408964,-14.2544,NaN,-2.154728,-1.462243,-0.3673572,14.1039,NaN,NaN,-0.02012562,0.8221329,3.166153E-07,1.020908,-6.783228E-09,1.404686
543.3794,-0.06712174,0.0004880217,NaN,-0.8276801,0.0003770371,NaN,0.4408964,-14.2544,NaN,-2.154728,-1.462243,-0.3673572,14.1039,NaN,NaN,-0.02012562,0.8221329,3.166153E-07,1.020908,-6.783228E-09,1.404686
543.3937,-0.06585943,0.0004874918,NaN,-0.8186474,0.0003773351,NaN,0.4411207,-14.25444,NaN,-2.15409,-1.461865,-0.3667763,14.10349,NaN,NaN,-0.02012252,0.8220817,3.184035E-07,1.020354,-7.379275E-09,1.404513
543.4094,-0.06461153,0.0004868133,NaN,-0.8105853,0.0003775228,NaN,0.441301,-14.25437,NaN,-2.153655,-1.461494,-0.3664072,14.10308,NaN,NaN,-0.02011994,0.8221308,3.130391E-07,1.019807,-9.167413E-09,1.403764
543.4244,-0.06336933,0.0004862525,NaN,-0.8031507,0.0003778647,NaN,0.4415165,-14.25447,NaN,-2.153281,-1.461332,-0.3660276,14.10292,NaN,NaN,-0.0201173,0.8220284,3.076746E-07,1.019573,-1.035951E-08,1.404064
543.4393,-0.06336933,0.0004862525,NaN,-0.8031507,0.0003778647,NaN,0.4415165,-14.25447,NaN,-2.153281,-1.461332,-0.3660276,14.10292,NaN,NaN,-0.0201173,0.8220284,3.076746E-07,1.019573,-1.035951E-08,1.404064
543.4537,-0.06213145,0.0004857962,NaN,-0.7961322,0.0003781984,NaN,0.4417487,-14.25428,NaN,-2.152913,-1.462187,-0.3656253,14.10381,NaN,NaN,-0.02011463,0.822236,3.040984E-07,1.020818,-1.214765E-08,1.404124
543.4692,-0.06089906,0.0004852272,NaN,-0.7893988,0.0003784589,NaN,0.4419828,-14.25444,NaN,-2.152536,-1.461637,-0.3652128,14.10323,NaN,NaN,-0.02011197,0.8220559,3.005221E-07,1.020018,-1.214765E-08,1.403649
543.4844,-0.05968016,0.0004847235,NaN,-0.7836313,0.0003788051,NaN,0.4421721,-14.25456,NaN,-2.152351,-1.461533,-0.3650034,14.10314,NaN,NaN,-0.02010979,0.821924,2.927735E-07,1.019872,-1.274369E-08,1.404211
543.4993,-0.05968016,0.0004847235,NaN,-0.7836313,0.0003788051,NaN,0.4421721,-14.25456,NaN,-2.152351,-1.461533,-0.3650034,14.10314,NaN,NaN,-0.02010979,0.821924,2.927735E-07,1.019872,-1.274369E-08,1.404211
543.5137,-0.05846727,0.0004846987,NaN,-0.7784792,0.0003788477,NaN,0.4423955,-14.2563,NaN,-2.152215,-1.47006,-0.3647774,14.11255,NaN,NaN,-0.02010756,0.8204795,2.826407E-07,1.032475,-1.095555E-08,1.417498
543.5292,-0.05725926,0.0004845047,NaN,-0.7737263,0.0003788933,NaN,0.4426351,-14.25458,NaN,-2.152078,-1.466051,-0.3645231,14.10803,NaN,NaN,-0.02010527,0.8220926,2.778723E-07,1.026535,-1.274369E-08,1.405893
543.5452,-0.05605727,0.0004849176,NaN,-0.7692385,0.0003798126,NaN,0.4428762,-14.25487,NaN,-2.151924,-1.462163,-0.3642536,14.10388,NaN,NaN,-0.02010299,0.821681,2.748921E-07,1.020839,-1.393578E-08,1.406946
543.5594,-0.05605727,0.0004849176,NaN,-0.7692385,0.0003798126,NaN,0.4428762,-14.25487,NaN,-2.151924,-1.462163,-0.3642536,14.10388,NaN,NaN,-0.02010299,0.821681,2.748921E-07,1.020839,-1.393578E-08,1.406946
543.5736,-0.05486898,0.0004854281,NaN,-0.7656946,0.0003807373,NaN,0.4430726,-14.25527,NaN,-2.151955,-1.46151,-0.3641814,14.10324,NaN,NaN,-0.02010117,0.8212613,2.647593E-07,1.019902,-1.393578E-08,1.409906
543.5891,-0.05368751,0.0004852678,NaN,-0.7627437,0.0003810237,NaN,0.443303,-14.25481,NaN,-2.15203,-1.461716,-0.3640881,14.10339,NaN,NaN,-0.02009929,0.8217177,2.570107E-07,1.020182,-1.15516E-08,1.404758
543.6038,-0.05251167,0.0004852712,NaN,-0.7601687,0.0003815107,NaN,0.4435496,-14.25488,NaN,-2.152097,-1.46215,-0.3639623,14.10386,NaN,NaN,-0.02009735,0.8216617,2.510502E-07,1.020823,-9.167413E-09,1.406841
543.6188,-0.05251167,0.0004852712,NaN,-0.7601687,0.0003815107,NaN,0.4435496,-14.25488,NaN,-2.152097,-1.46215,-0.3639623,14.10386,NaN,NaN,-0.02009735,0.8216617,2.510502E-07,1.020823,-9.167413E-09,1.406841
543.6347,-0.05134823,0.0004855522,NaN,-0.7585971,0.0003822242,NaN,0.4437569,-14.25556,NaN,-2.152343,-1.461605,-0.3640198,14.10337,NaN,NaN,-0.02009584,0.8209646,2.379372E-07,1.020056,-7.975321E-09,1.411047
543.649,-0.05019067,0.0004853594,NaN,-0.7576466,0.0003822874,NaN,0.4439994,-14.2553,NaN,-2.152624,-1.46485,-0.3640468,14.10681,NaN,NaN,-0.02009425,0.8213283,2.278044E-07,1.024803,-5.591135E-09,1.41082
543.6639,-0.04903795,0.0004852846,NaN,-0.7570806,0.0003827489,NaN,0.4442576,-14.25566,NaN,-2.152886,-1.462312,-0.3640345,14.10413,NaN,NaN,-0.02009257,0.820883,2.200558E-07,1.021094,-3.802996E-09,1.412178
543.679,-0.04903795,0.0004852846,NaN,-0.7570806,0.0003827489,NaN,0.4442576,-14.25566,NaN,-2.152886,-1.462312,-0.3640345,14.10413,NaN,NaN,-0.02009257,0.820883,2.200558E-07,1.021094,-3.802996E-09,1.412178
543.6935,-0.04789111,0.0004857052,NaN,-0.7567527,0.0003824657,NaN,0.4445164,-14.25601,NaN,-2.153118,-1.476395,-0.3639975,14.11928,NaN,NaN,-0.02009089,0.8209934,2.134993E-07,1.041763,-3.802996E-09,1.420339
543.7092,-0.04675756,0.0004855958,NaN,-0.7573301,0.0003823642,NaN,0.4447295,-14.2555,NaN,-2.153522,-1.465447,-0.3641489,14.10747,NaN,NaN,-0.02008965,0.8212996,1.997902E-07,1.025687,-3.802996E-09,1.41247
543.7241,-0.04563724,0.0004854239,NaN,-0.7584625,0.0003823014,NaN,0.444979,-14.25548,NaN,-2.153955,-1.466132,-0.3642723,14.1082,NaN,NaN,-0.02008833,0.8213462,1.905515E-07,1.026692,-3.206949E-09,1.412243
543.74,-0.04453189,0.0004853491,NaN,-0.75993,0.0003826437,NaN,0.4452486,-14.25596,NaN,-2.154366,-1.463408,-0.3643548,14.10533,NaN,NaN,-0.02008693,0.8207842,1.807167E-07,1.022718,-2.610903E-09,1.413178
543.754,-0.04453189,0.0004853491,NaN,-0.75993,0.0003826437,NaN,0.4452486,-14.25596,NaN,-2.154366,-1.463408,-0.3643548,14.10533,NaN,NaN,-0.02008693,0.8207842,1.807167E-07,1.022718,-2.610903E-09,1.413178
543.7682,-0.04344169,0.0004853426,NaN,-0.7615962,0.0003830862,NaN,0.4455223,-14.25632,NaN,-2.154743,-1.462443,-0.3644096,14.10434,NaN,NaN,-0.02008551,0.8203886,1.732662E-07,1.021318,-3.206949E-09,1.414314
543.7838,-0.04237211,0.0004846269,NaN,-0.7641387,0.0003820234,NaN,0.4457511,-14.25631,NaN,-2.15529,-1.461888,-0.3646526,14.10375,NaN,NaN,-0.02008453,0.8203779,1.58663E-07,1.020507,-3.206949E-09,1.413874
543.7986,-0.04237211,0.0004846269,NaN,-0.7641387,0.0003820234,NaN,0.4457511,-14.25631,NaN,-2.15529,-1.461888,-0.3646526,14.10375,NaN,NaN,-0.02008453,0.8203779,1.58663E-07,1.020507,-3.206949E-09,1.413874
543.8131,-0.0413222,0.0004846255,NaN,-0.767207,0.0003823145,NaN,0.4460184,-14.25664,NaN,-2.155863,-1.461454,-0.3648639,14.10332,NaN,NaN,-0.02008346,0.8200373,1.467421E-07,1.019886,-5.591135E-09,1.419137
543.8287,-0.04029015,0.0004843604,NaN,-0.7705842,0.0003824363,NaN,0.4463055,-14.25558,NaN,-2.156411,-1.461743,-0.3650315,14.10347,NaN,NaN,-0.02008231,0.8210925,1.333311E-07,1.020257,-5.591135E-09,1.408777
543.844,-0.03927413,0.0004843098,NaN,-0.7741358,0.0003821108,NaN,0.4465959,-14.25739,NaN,-2.156923,-1.471671,-0.3651688,14.11439,NaN,NaN,-0.02008111,0.8196217,1.243904E-07,1.034908,-6.187181E-09,1.422477
543.8591,-0.03927413,0.0004843098,NaN,-0.7741358,0.0003821108,NaN,0.4465959,-14.25739,NaN,-2.156923,-1.471671,-0.3651688,14.11439,NaN,NaN,-0.02008111,0.8196217,1.243904E-07,1.034908,-6.187181E-09,1.422477
543.8735,-0.03827857,0.0004840587,NaN,-0.7785404,0.0003813163,NaN,0.4468398,-14.25671,NaN,-2.157602,-1.474286,-0.365494,14.1171,NaN,NaN,-0.02008037,0.820354,1.121714E-07,1.038719,-6.783228E-09,1.418085
543.889,-0.03730157,0.0004843661,NaN,-0.7834488,0.00038177,NaN,0.4471214,-14.25531,NaN,-2.158305,-1.46584,-0.3657858,14.10787,NaN,NaN,-0.02007953,0.8215756,1.020386E-07,1.026292,-6.187181E-09,1.407626
543.904,-0.03634091,0.0004843622,NaN,-0.7886444,0.0003820181,NaN,0.4474227,-14.25529,NaN,-2.15898,-1.464381,-0.3660314,14.1063,NaN,NaN,-0.0200786,0.8215452,9.011768E-08,1.02415,-7.975321E-09,1.407014
543.9193,-0.03634091,0.0004843622,NaN,-0.7886444,0.0003820181,NaN,0.4474227,-14.25529,NaN,-2.15898,-1.464381,-0.3660314,14.1063,NaN,NaN,-0.0200786,0.8215452,9.011768E-08,1.02415,-7.975321E-09,1.407014
543.9353,-0.03540077,0.0004845403,NaN,-0.794755,0.0003825222,NaN,0.4476833,-14.25545,NaN,-2.159819,-1.46354,-0.3664536,14.10541,NaN,NaN,-0.02007808,0.8213587,7.581257E-08,1.022923,-5.591135E-09,1.408176
543.9491,-0.03447859,0.0004849321,NaN,-0.8014001,0.0003828043,NaN,0.4479834,-14.25654,NaN,-2.160674,-1.468706,-0.366834,14.11111,NaN,NaN,-0.02007745,0.8204284,6.389163E-08,1.030553,-7.379275E-09,1.415288
543.9637,-0.03357186,0.0004854222,NaN,-0.8083437,0.0003834364,NaN,0.448303,-14.25635,NaN,-2.161492,-1.465184,-0.3671625,14.1073,NaN,NaN,-0.02007671,0.8205178,5.077861E-08,1.025382,-5.591135E-09,1.413493
543.9788,-0.03357186,0.0004854222,NaN,-0.8083437,0.0003834364,NaN,0.448303,-14.25635,NaN,-2.161492,-1.465184,-0.3671625,14.1073,NaN,NaN,-0.02007671,0.8205178,5.077861E-08,1.025382,-5.591135E-09,1.413493
543.9932,-0.03267852,0.0004856426,NaN,-0.8154398,0.0003838793,NaN,0.448625,-14.2567,NaN,-2.162263,-1.463773,-0.3674537,14.10583,NaN,NaN,-0.02007592,0.8201233,3.975175E-08,1.023329,-3.206949E-09,1.412094
544.0089,-0.03180339,0.0004859109,NaN,-0.8233595,0.0003844959,NaN,0.4488974,-14.25697,NaN,-2.163193,-1.462295,-0.3679321,14.10428,NaN,NaN,-0.02007558,0.8198017,2.336047E-08,1.021174,-3.802996E-09,1.416428
544.0237,-0.03094389,0.0004862696,NaN,-0.8317499,0.0003848977,NaN,0.4492071,-14.25788,NaN,-2.164138,-1.465942,-0.3683726,14.10831,NaN,NaN,-0.02007513,0.8190147,8.757335E-09,1.026557,-3.206949E-09,1.420713
544.0386,-0.03094389,0.0004862696,NaN,-0.8317499,0.0003848977,NaN,0.4492071,-14.25788,NaN,-2.164138,-1.465942,-0.3683726,14.10831,NaN,NaN,-0.02007513,0.8190147,8.757335E-09,1.026557,-3.206949E-09,1.420713
544.0532,-0.03009775,0.0004864311,NaN,-0.8403919,0.0003853091,NaN,0.4495366,-14.25627,NaN,-2.165048,-1.462946,-0.3687618,14.10489,NaN,NaN,-0.02007457,0.82052,-2.567547E-09,1.022104,-3.206949E-09,1.410157
544.0685,-0.02926324,0.000486827,NaN,-0.84915,0.000384909,NaN,0.4498695,-14.25726,NaN,-2.165911,-1.476693,-0.3691129,14.11976,NaN,NaN,-0.02007396,0.8199782,-1.389243E-08,1.042303,-7.081251E-09,1.42136
544.0838,-0.02844573,0.0004868766,NaN,-0.858702,0.000385015,NaN,0.450152,-14.25595,NaN,-2.166933,-1.464184,-0.3696533,14.10621,NaN,NaN,-0.0200738,0.8210577,-3.356196E-08,1.023938,-6.783228E-09,1.411095
544.1001,-0.02764244,0.0004866206,NaN,-0.8686993,0.0003850241,NaN,0.4504728,-14.25587,NaN,-2.167969,-1.463288,-0.3701549,14.10524,NaN,NaN,-0.02007353,0.8211157,-4.607893E-08,1.022623,-7.975321E-09,1.410436
544.1138,-0.02764244,0.0004866206,NaN,-0.8686993,0.0003850241,NaN,0.4504728,-14.25587,NaN,-2.167969,-1.463288,-0.3701549,14.10524,NaN,NaN,-0.02007353,0.8211157,-4.607893E-08,1.022623,-7.975321E-09,1.410436
544.1301,-0.02685113,0.0004863536,NaN,-0.8789256,0.000385176,NaN,0.4508144,-14.25624,NaN,-2.168968,-1.462929,-0.370603,14.1049,NaN,NaN,-0.02007314,0.8207366,-5.799986E-08,1.022116,-8.273344E-09,1.410823
544.1437,-0.0260702,0.0004860727,NaN,-0.8892469,0.0003854271,NaN,0.4511602,-14.25602,NaN,-2.169919,-1.462244,-0.3710109,14.10413,NaN,NaN,-0.02007269,0.8209321,-6.932474E-08,1.021102,-8.273344E-09,1.410219
544.1589,-0.0260702,0.0004860727,NaN,-0.8892469,0.0003854271,NaN,0.4511602,-14.25602,NaN,-2.169919,-1.462244,-0.3710109,14.10413,NaN,NaN,-0.02007269,0.8209321,-6.932474E-08,1.021102,-8.273344E-09,1.410219
544.1728,-0.02530556,0.0004862572,NaN,-0.9003423,0.0003849838,NaN,0.4514541,-14.25731,NaN,-2.171026,-1.475498,-0.3716099,14.11854,NaN,NaN,-0.02007269,0.8200897,-8.601404E-08,1.040603,-8.273344E-09,1.423568
544.1885,-0.02455404,0.0004860024,NaN,-0.911864,0.0003847343,NaN,0.451787,-14.25605,NaN,-2.172146,-1.465555,-0.3721689,14.10774,NaN,NaN,-0.02007258,0.8211575,-9.972311E-08,1.025995,-1.035951E-08,1.412749
544.2032,-0.02381337,0.0004851543,NaN,-0.9235963,0.0003842504,NaN,0.4521416,-14.25672,NaN,-2.173227,-1.462967,-0.3726721,14.10504,NaN,NaN,-0.02007235,0.8204209,-1.140282E-07,1.022227,-8.869391E-09,1.414574
544.2183,-0.02381337,0.0004851543,NaN,-0.9235963,0.0003842504,NaN,0.4521416,-14.25672,NaN,-2.173227,-1.462967,-0.3726721,14.10504,NaN,NaN,-0.02007235,0.8204209,-1.140282E-07,1.022227,-8.869391E-09,1.414574
544.2328,-0.02308938,0.0004843181,NaN,-0.9361675,0.0003839504,NaN,0.4524505,-14.25635,NaN,-2.174462,-1.462798,-0.3733561,14.1048,NaN,NaN,-0.02007254,0.8207818,-1.319096E-07,1.02196,-7.677298E-09,1.411646
544.2485,-0.02237815,0.0004838215,NaN,-0.9491985,0.0003839263,NaN,0.4528007,-14.25627,NaN,-2.175702,-1.464541,-0.3739922,14.10666,NaN,NaN,-0.02007259,0.8209231,-1.474068E-07,1.02451,-9.167413E-09,1.413279
544.2637,-0.02167717,0.0004838751,NaN,-0.9624541,0.0003845409,NaN,0.4531729,-14.25658,NaN,-2.176896,-1.462296,-0.3745666,14.10429,NaN,NaN,-0.02007251,0.8205395,-1.611159E-07,1.021231,-8.571367E-09,1.41492
544.2787,-0.02167717,0.0004838751,NaN,-0.9624541,0.0003845409,NaN,0.4531729,-14.25658,NaN,-2.176896,-1.462296,-0.3745666,14.10429,NaN,NaN,-0.02007251,0.8205395,-1.611159E-07,1.021231,-8.571367E-09,1.41492
544.293,-0.02098489,0.0004843751,NaN,-0.9757887,0.0003847603,NaN,0.4535492,-14.25814,NaN,-2.178031,-1.470395,-0.3750945,14.11319,NaN,NaN,-0.02007235,0.8192515,-1.694605E-07,1.033176,-1.006148E-08,1.426681
544.3091,-0.02030814,0.0004844476,NaN,-0.9898736,0.0003850697,NaN,0.4538699,-14.25597,NaN,-2.179317,-1.462672,-0.375816,14.10465,NaN,NaN,-0.02007266,0.8212135,-1.861498E-07,1.021794,-1.065753E-08,1.40967
544.3248,-0.01964275,0.0004840229,NaN,-1.004358,0.0003850427,NaN,0.4542298,-14.25571,NaN,-2.180609,-1.462401,-0.3764946,14.10432,NaN,NaN,-0.02007284,0.8214648,-2.016471E-07,1.021384,-1.125358E-08,1.408896
544.3387,-0.01964275,0.0004840229,NaN,-1.004358,0.0003850427,NaN,0.4542298,-14.25571,NaN,-2.180609,-1.462401,-0.3764946,14.10432,NaN,NaN,-0.02007284,0.8214648,-2.016471E-07,1.021384,-1.125358E-08,1.408896
544.353,-0.01898633,0.0004843803,NaN,-1.019023,0.0003847714,NaN,0.4546121,-14.25704,NaN,-2.181856,-1.474452,-0.3771128,14.11745,NaN,NaN,-0.02007288,0.8205404,-2.14164E-07,1.039132,-1.184962E-08,1.420869
544.3684,-0.01833753,0.0004846102,NaN,-1.033733,0.0003850401,NaN,0.4549997,-14.25562,NaN,-2.183046,-1.464938,-0.377684,14.10707,NaN,NaN,-0.02007285,0.8217546,-2.237008E-07,1.025138,-1.021049E-08,1.410035
544.3834,-0.01770393,0.0004846826,NaN,-1.049167,0.0003854063,NaN,0.455316,-14.25642,NaN,-2.184022,-1.462987,-0.3784846,14.10508,NaN,NaN,-0.02007286,0.8209076,-2.350257E-07,1.022308,-1.147709E-08,1.412087
544.3982,-0.01770393,0.0004846826,NaN,-1.049167,0.0003854063,NaN,0.455316,-14.25642,NaN,-2.184022,-1.462987,-0.3784846,14.10508,NaN,NaN,-0.02007286,0.8209076,-2.350257E-07,1.022308,-1.147709E-08,1.412087
544.4125,-0.01708073,0.0004851917,NaN,-1.064978,0.0003862641,NaN,0.4556677,-14.25703,NaN,-2.184484,-1.462133,-0.3792643,14.10424,NaN,NaN,-0.02007245,0.8202684,-2.362178E-07,1.021081,-1.222215E-08,1.418514
544.4281,-0.01646547,0.0004853548,NaN,-1.080951,0.0003867715,NaN,0.4560527,-14.25708,NaN,-2.184494,-1.461431,-0.3799773,14.10349,NaN,NaN,-0.02007187,0.8201953,-2.380059E-07,1.020053,-1.337699E-08,1.416148
544.4433,-0.01585696,0.0004858412,NaN,-1.096951,0.000386538,NaN,0.4564587,-14.25785,NaN,-2.18426,-1.475653,-0.3806197,14.11883,NaN,NaN,-0.02007132,0.8199072,-2.380059E-07,1.040928,-1.399166E-08,1.426013
544.4585,-0.01585696,0.0004858412,NaN,-1.096951,0.000386538,NaN,0.4564587,-14.25785,NaN,-2.18426,-1.475653,-0.3806197,14.11883,NaN,NaN,-0.02007132,0.8199072,-2.380059E-07,1.040928,-1.399166E-08,1.426013
544.4728,-0.01526344,0.0004864102,NaN,-1.113659,0.0003862731,NaN,0.45682,-14.25884,NaN,-2.184186,-1.47571,-0.3814339,14.119,NaN,NaN,-0.0200714,0.8189224,-2.463505E-07,1.041037,-1.484848E-08,1.42999
544.4885,-0.01467935,0.0004869072,NaN,-1.130728,0.000386614,NaN,0.4572256,-14.25699,NaN,-2.184161,-1.468904,-0.382189,14.1115,NaN,NaN,-0.02007137,0.8206399,-2.564833E-07,1.031021,-1.574255E-08,1.416494
544.5032,-0.01410217,0.0004876171,NaN,-1.147943,0.0003871178,NaN,0.4576548,-14.25868,NaN,-2.184129,-1.468763,-0.3828717,14.11156,NaN,NaN,-0.02007119,0.8189592,-2.600596E-07,1.030875,-1.425243E-08,1.426831
544.5184,-0.01410217,0.0004876171,NaN,-1.147943,0.0003871178,NaN,0.4576548,-14.25868,NaN,-2.184129,-1.468763,-0.3828717,14.11156,NaN,NaN,-0.02007119,0.8189592,-2.600596E-07,1.030875,-1.425243E-08,1.426831
544.5338,-0.01354009,0.0004878741,NaN,-1.165933,0.0003875709,NaN,0.458035,-14.25699,NaN,-2.184288,-1.463799,-0.3837306,14.10603,NaN,NaN,-0.02007144,0.8205183,-2.695963E-07,1.023544,-1.306034E-08,1.416111
544.5482,-0.01298656,0.0004879933,NaN,-1.184321,0.0003880698,NaN,0.4584547,-14.25724,NaN,-2.184419,-1.461955,-0.3845356,14.10408,NaN,NaN,-0.02007145,0.8202109,-2.761529E-07,1.020851,-1.231528E-08,1.417209
544.5643,-0.01243895,0.000488279,NaN,-1.202871,0.0003887531,NaN,0.4588967,-14.25756,NaN,-2.184447,-1.461408,-0.3852684,14.10353,NaN,NaN,-0.02007126,0.8198721,-2.803252E-07,1.020063,-1.097418E-08,1.419068
544.5781,-0.01243895,0.000488279,NaN,-1.202871,0.0003887531,NaN,0.4588967,-14.25756,NaN,-2.184447,-1.461408,-0.3852684,14.10353,NaN,NaN,-0.02007126,0.8198721,-2.803252E-07,1.020063,-1.097418E-08,1.419068
544.5923,-0.01189637,0.0004885717,NaN,-1.221439,0.0003893748,NaN,0.4593455,-14.25753,NaN,-2.184387,-1.461843,-0.3859398,14.10398,NaN,NaN,-0.02007098,0.8199192,-2.821133E-07,1.020697,-8.589993E-09,1.419154
544.6082,-0.01136834,0.0004884274,NaN,-1.240697,0.0003897215,NaN,0.4597399,-14.25762,NaN,-2.184495,-1.460922,-0.3867937,14.10301,NaN,NaN,-0.02007121,0.8197947,-2.928422E-07,1.019351,-1.008011E-08,1.418569
544.6231,-0.01084756,0.000488261,NaN,-1.260294,0.0003901144,NaN,0.4601718,-14.25768,NaN,-2.184588,-1.460951,-0.3875962,14.10304,NaN,NaN,-0.02007123,0.8197345,-3.017829E-07,1.019395,-6.801854E-09,1.417409
544.6379,-0.01084756,0.000488261,NaN,-1.260294,0.0003901144,NaN,0.4601718,-14.25768,NaN,-2.184588,-1.460951,-0.3875962,14.10304,NaN,NaN,-0.02007123,0.8197345,-3.017829E-07,1.019395,-6.801854E-09,1.417409
544.6524,-0.01033156,0.0004883765,NaN,-1.280013,0.0003905107,NaN,0.4606257,-14.25866,NaN,-2.184599,-1.463803,-0.3883278,14.10623,NaN,NaN,-0.02007106,0.818857,-3.059552E-07,1.023619,-6.205807E-09,1.424054
544.668,-0.009819675,0.0004885679,NaN,-1.299719,0.0003908994,NaN,0.461086,-14.25842,NaN,-2.18454,-1.46387,-0.388999,14.10626,NaN,NaN,-0.02007081,0.8190974,-3.113196E-07,1.023704,-5.311738E-09,1.421635
544.6835,-0.009322056,0.0004882565,NaN,-1.320084,0.0003909713,NaN,0.4614924,-14.25684,NaN,-2.184657,-1.461686,-0.3898512,14.1037,NaN,NaN,-0.02007105,0.820591,-3.184722E-07,1.020436,-6.801854E-09,1.414816
544.6982,-0.009322056,0.0004882565,NaN,-1.320084,0.0003909713,NaN,0.4614924,-14.25684,NaN,-2.184657,-1.461686,-0.3898512,14.1037,NaN,NaN,-0.02007105,0.820591,-3.184722E-07,1.020436,-6.801854E-09,1.414816
544.7125,-0.008830404,0.0004877839,NaN,-1.340765,0.0003909386,NaN,0.4619348,-14.25696,NaN,-2.184759,-1.462681,-0.3906533,14.10478,NaN,NaN,-0.02007108,0.8205079,-3.268168E-07,1.0219,-7.993947E-09,1.414974
544.7282,-0.008342365,0.0004877138,NaN,-1.361549,0.0003913238,NaN,0.462398,-14.25779,NaN,-2.184777,-1.462853,-0.3913856,14.10508,NaN,NaN,-0.02007092,0.8196879,-3.297971E-07,1.022192,-5.013715E-09,1.419505
544.7432,-0.007857562,0.0004878535,NaN,-1.382304,0.0003918898,NaN,0.4628673,-14.25742,NaN,-2.184721,-1.461415,-0.3920574,14.10348,NaN,NaN,-0.02007067,0.8200043,-3.297971E-07,1.020066,-4.417668E-09,1.417335
544.7582,-0.007857562,0.0004878535,NaN,-1.382304,0.0003918898,NaN,0.4628673,-14.25742,NaN,-2.184721,-1.461415,-0.3920574,14.10348,NaN,NaN,-0.02007067,0.8200043,-3.297971E-07,1.020066,-4.417668E-09,1.417335
544.7723,-0.007199084,0.0004879154,NaN,-1.390341,0.0003920858,NaN,0.4642173,-14.25807,NaN,-2.181131,-1.465243,-0.3888127,14.10767,NaN,NaN,-0.02006183,0.8194794,-2.225087E-07,1.025707,-1.437436E-09,1.419986
544.7878,-0.006477348,0.0004884877,NaN,-1.390497,0.0003930251,NaN,0.464812,-14.2574,NaN,-2.177523,-1.46243,-0.3857663,14.10456,NaN,NaN,-0.02005607,0.8200613,-1.635001E-07,1.021557,-2.033483E-09,1.419339
544.803,-0.005696412,0.0004887905,NaN,-1.385828,0.0003934851,NaN,0.4648527,-14.25825,NaN,-2.174374,-1.463909,-0.3834315,14.10626,NaN,NaN,-0.02005204,0.8192605,-1.271413E-07,1.023765,-3.225576E-09,1.421231
544.8179,-0.005696412,0.0004887905,NaN,-1.385828,0.0003934851,NaN,0.4648527,-14.25825,NaN,-2.174374,-1.463909,-0.3834315,14.10626,NaN,NaN,-0.02005204,0.8192605,-1.271413E-07,1.023765,-3.225576E-09,1.421231
544.8325,-0.004945559,0.0004895358,NaN,-1.378233,0.0003933489,NaN,0.4647394,-14.2584,NaN,-2.171736,-1.475903,-0.3815876,14.1191,NaN,NaN,-0.020049,0.819485,-1.062796E-07,1.04133,-6.205807E-09,1.427091
544.848,-0.004252919,0.0004901152,NaN,-1.368886,0.0003941492,NaN,0.4646447,-14.258,NaN,-2.169524,-1.463497,-0.3800263,14.10577,NaN,NaN,-0.02004643,0.8196459,-8.899431E-08,1.023145,-7.993947E-09,1.420269
544.8634,-0.003614434,0.0004910602,NaN,-1.35851,0.000394059,NaN,0.4646093,-14.25751,NaN,-2.167633,-1.476747,-0.3786295,14.11987,NaN,NaN,-0.02004405,0.8205475,-7.468919E-08,1.042523,-9.186039E-09,1.422136
544.8783,-0.003614434,0.0004910602,NaN,-1.35851,0.000394059,NaN,0.4646093,-14.25751,NaN,-2.167633,-1.476747,-0.3786295,14.11987,NaN,NaN,-0.02004405,0.8205475,-7.468919E-08,1.042523,-9.186039E-09,1.422136
544.8926,-0.003017165,0.0004918764,NaN,-1.347548,0.0003950236,NaN,0.4646259,-14.25822,NaN,-2.165972,-1.464509,-0.3773372,14.10681,NaN,NaN,-0.02004177,0.8196234,-5.978803E-08,1.02459,-8.589993E-09,1.423322
544.9083,-0.002448937,0.000492394,NaN,-1.336273,0.0003957523,NaN,0.4646851,-14.25762,NaN,-2.164474,-1.46287,-0.3761285,14.10496,NaN,NaN,-0.02003959,0.820164,-4.548291E-08,1.022158,-9.186039E-09,1.417426
544.9235,-0.001900748,0.0004927822,NaN,-1.324855,0.0003963978,NaN,0.4647737,-14.25794,NaN,-2.163093,-1.462331,-0.3749764,14.10442,NaN,NaN,-0.02003747,0.8198291,-3.356199E-08,1.021381,-5.013714E-09,1.419718
544.9383,-0.001900748,0.0004927822,NaN,-1.324855,0.0003963978,NaN,0.4647737,-14.25794,NaN,-2.163093,-1.462331,-0.3749764,14.10442,NaN,NaN,-0.02003747,0.8198291,-3.356199E-08,1.021381,-5.013714E-09,1.419718
544.9524,-0.001366558,0.0004932396,NaN,-1.313398,0.0003967481,NaN,0.4648783,-14.25902,NaN,-2.161797,-1.467205,-0.3738706,14.10979,NaN,NaN,-0.02003541,0.818914,-1.687268E-08,1.02857,-4.417668E-09,1.427158
544.9679,-0.0008424966,0.0004934843,NaN,-1.301967,0.0003972921,NaN,0.46499,-14.25806,NaN,-2.160564,-1.462171,-0.3728057,14.10427,NaN,NaN,-0.0200334,0.8197228,1.604755E-09,1.021161,-3.821622E-09,1.418048
544.9832,-0.0003261157,0.0004942963,NaN,-1.290601,0.0003971422,NaN,0.464383,-14.2579,NaN,-2.159301,-1.476065,-0.3708768,14.11912,NaN,NaN,-0.02002871,0.8203355,5.822917E-08,1.041502,9.467498E-10,1.423956
544.9981,-0.0003261157,0.0004942963,NaN,-1.290601,0.0003971422,NaN,0.464383,-14.2579,NaN,-2.159301,-1.476065,-0.3708768,14.11912,NaN,NaN,-0.02002871,0.8203355,5.822917E-08,1.041502,9.467498E-10,1.423956
545.0137,0.0001840679,0.0004945887,NaN,-1.279326,0.0003961049,NaN,0.4629508,-14.25712,NaN,-2.158064,-1.47976,-0.3691163,14.12298,NaN,NaN,-0.02002455,0.8211777,1.041247E-07,1.046897,3.330936E-09,1.420743
545.0281,0.0006889706,0.0004946098,NaN,-1.268155,0.0003957619,NaN,0.4610684,-14.25671,NaN,-2.156882,-1.467671,-0.3675999,14.10994,NaN,NaN,-0.02002108,0.8213915,1.416757E-07,1.029143,3.926982E-09,1.415054
545.0433,0.001189153,0.0004944935,NaN,-1.257097,0.0003958591,NaN,0.4589852,-14.25735,NaN,-2.155753,-1.462586,-0.3662439,14.10455,NaN,NaN,-0.02001805,0.8206187,1.732661E-07,1.021702,6.311168E-09,1.413704
545.0586,0.001189153,0.0004944935,NaN,-1.257097,0.0003958591,NaN,0.4589852,-14.25735,NaN,-2.155753,-1.462586,-0.3662439,14.10455,NaN,NaN,-0.02001805,0.8206187,1.732661E-07,1.021702,6.311168E-09,1.413704
545.0729,0.001684976,0.0004938897,NaN,-1.246156,0.0003956215,NaN,0.4560969,-14.25766,NaN,-2.154592,-1.462442,-0.3640834,14.10443,NaN,NaN,-0.02001254,0.8203194,2.453878E-07,1.021499,5.715121E-09,1.415835
545.0884,0.002176621,0.0004937004,NaN,-1.235336,0.00039593,NaN,0.452363,-14.25842,NaN,-2.15346,-1.46286,-0.3621294,14.10498,NaN,NaN,-0.02000768,0.8195762,3.085687E-07,1.022143,3.330936E-09,1.419709
