JMolnar6/NonAnthroHands_User_Study/HandsLoggerWithURDF/tempdata/PID 0 (test)/files/Reachy_JointMotion_gesture_8_39.csv
Time,r_shoulder,r_shoulder_x,r_upper_arm,r_forearm,r_wrist,r_wrist2hand,
763.7301,0.04496357,0.0004464383,NaN,-0.3273523,0.000406335,NaN,-0.5366316,-14.52662,NaN,-1.316475,-1.467213,0.3496121,14.11175,NaN,NaN,0.3694611,0.813446,0.8108139,1.046006,-8.092038E-05,1.369235
763.7451,0.04496368,0.0004462825,NaN,-0.3273495,0.0004067452,NaN,-0.5340582,-14.52735,NaN,-1.317022,-1.465693,0.3473587,14.11023,NaN,NaN,0.3693726,0.8126893,0.8072828,1.043817,-7.932186E-05,1.371318
763.7591,0.04496368,0.0004462825,NaN,-0.3273495,0.0004067452,NaN,-0.5340582,-14.52735,NaN,-1.317022,-1.465693,0.3473587,14.11023,NaN,NaN,0.3693726,0.8126893,0.8072828,1.043817,-7.932186E-05,1.371318
763.7733,0.04496382,0.0004463265,NaN,-0.3273467,0.0004070754,NaN,-0.5343826,-14.52822,NaN,-1.316943,-1.468335,0.3474807,14.11312,NaN,NaN,0.3676336,0.8118923,0.8080213,1.047688,-7.778328E-05,1.376744
763.7889,0.04496397,0.0004466374,NaN,-0.3273439,0.0004067694,NaN,-0.5333401,-14.52843,NaN,-1.316849,-1.477656,0.3466988,14.12297,NaN,NaN,0.3663988,0.811901,0.8080336,1.061236,-7.625385E-05,1.380684
763.8063,0.04496413,0.0004461192,NaN,-0.3273412,0.0004062969,NaN,-0.532304,-14.52731,NaN,-1.316818,-1.467804,0.3458509,14.11245,NaN,NaN,0.3652474,0.8128776,0.8082489,1.046893,-7.47638E-05,1.37171
763.8192,0.04496413,0.0004461192,NaN,-0.3273412,0.0004062969,NaN,-0.532304,-14.52731,NaN,-1.316818,-1.467804,0.3458509,14.11245,NaN,NaN,0.3652474,0.8128776,0.8082489,1.046893,-7.47638E-05,1.37171
763.8335,0.04496427,0.0004460737,NaN,-0.3273385,0.0004060559,NaN,-0.5328158,-14.5272,NaN,-1.316527,-1.472584,0.3461864,14.11749,NaN,NaN,0.3645541,0.8131038,0.8101815,1.053844,-7.327824E-05,1.371097
763.8495,0.04496442,0.000446318,NaN,-0.3273359,0.0004052556,NaN,-0.5332435,-14.52771,NaN,-1.316255,-1.480021,0.3463591,14.12541,NaN,NaN,0.3645955,0.8127416,0.811441,1.064682,-7.184545E-05,1.37497
763.8643,0.04496457,0.0004464739,NaN,-0.3273332,0.0004056163,NaN,-0.5332724,-14.52634,NaN,-1.316161,-1.468161,0.3462092,14.11273,NaN,NaN,0.3652666,0.8139539,0.8117124,1.047408,-7.045135E-05,1.363696
763.8793,0.04496457,0.0004464739,NaN,-0.3273332,0.0004056163,NaN,-0.5332724,-14.52634,NaN,-1.316161,-1.468161,0.3462092,14.11273,NaN,NaN,0.3652666,0.8139539,0.8117124,1.047408,-7.045135E-05,1.363696
763.8937,0.04496472,0.0004465759,NaN,-0.3273307,0.0004048886,NaN,-0.5348286,-14.52697,NaN,-1.31592,-1.479808,0.3473218,14.12513,NaN,NaN,0.3666032,0.8135936,0.81343,1.064384,-6.907847E-05,1.369904
763.9092,0.04496472,0.0004464899,NaN,-0.3273282,0.0004050624,NaN,-0.533962,-14.52735,NaN,-1.319142,-1.4677,0.345939,14.11235,NaN,NaN,0.3697924,0.813064,0.8087531,1.04676,-6.77186E-05,1.368325
763.9252,0.0449648,0.0004466387,NaN,-0.3273258,0.0004043791,NaN,-0.5373749,-14.52782,NaN,-1.316835,-1.479589,0.3484278,14.12496,NaN,NaN,0.3682076,0.8128789,0.8104163,1.064065,-6.639776E-05,1.372771
763.939,0.0449648,0.0004466387,NaN,-0.3273258,0.0004043791,NaN,-0.5373749,-14.52782,NaN,-1.316835,-1.479589,0.3484278,14.12496,NaN,NaN,0.3682076,0.8128789,0.8104163,1.064065,-6.639776E-05,1.372771
763.9534,0.0449648,0.0004467677,NaN,-0.3273234,0.0004048163,NaN,-0.5363969,-14.52723,NaN,-1.318671,-1.46855,0.3474271,14.11322,NaN,NaN,0.3703778,0.8133238,0.8069355,1.047988,-6.511091E-05,1.370032
763.969,0.04496486,0.0004462266,NaN,-0.327321,0.0004046249,NaN,-0.5389943,-14.52652,NaN,-1.316756,-1.467552,0.3498812,14.11207,NaN,NaN,0.3705631,0.8140046,0.8099865,1.046507,-6.383008E-05,1.365659
763.984,0.04496488,0.0004455851,NaN,-0.3273187,0.000404504,NaN,-0.5376946,-14.52709,NaN,-1.31841,-1.467323,0.3492078,14.11189,NaN,NaN,0.3749656,0.8134228,0.8088388,1.04619,-6.256419E-05,1.367551
763.999,0.04496488,0.0004455851,NaN,-0.3273187,0.000404504,NaN,-0.5376946,-14.52709,NaN,-1.31841,-1.467323,0.3492078,14.11189,NaN,NaN,0.3749656,0.8134228,0.8088388,1.04619,-6.256419E-05,1.367551
764.0134,0.04496484,0.0004453053,NaN,-0.3273164,0.0004049012,NaN,-0.5371761,-14.52787,NaN,-1.31984,-1.466751,0.3487834,14.11138,NaN,NaN,0.3779109,0.8126292,0.8067589,1.045382,-6.133326E-05,1.372462
764.0292,0.04496489,0.000445588,NaN,-0.3273141,0.0004046252,NaN,-0.5357474,-14.52859,NaN,-1.319219,-1.478101,0.3487433,14.12345,NaN,NaN,0.3810739,0.8121952,0.8074007,1.061908,-6.013758E-05,1.377975
764.0444,0.04496483,0.0004458138,NaN,-0.3273119,0.0004053272,NaN,-0.5344577,-14.5278,NaN,-1.322497,-1.467664,0.3482336,14.11234,NaN,NaN,0.3871246,0.8128315,0.8071724,1.046717,-5.89384E-05,1.371537
764.0593,0.04496483,0.0004458138,NaN,-0.3273119,0.0004053272,NaN,-0.5344577,-14.5278,NaN,-1.322497,-1.467664,0.3482336,14.11234,NaN,NaN,0.3871246,0.8128315,0.8071724,1.046717,-5.89384E-05,1.371537
764.0735,0.04496485,0.00044589,NaN,-0.3273097,0.0004057986,NaN,-0.5336767,-14.52781,NaN,-1.322191,-1.467374,0.3488783,14.11203,NaN,NaN,0.3919159,0.8128174,0.8093109,1.046293,-5.778606E-05,1.370792
764.0894,0.04496487,0.000445606,NaN,-0.3273075,0.0004060254,NaN,-0.5335552,-14.5278,NaN,-1.323682,-1.466201,0.3497801,14.11078,NaN,NaN,0.3984342,0.812791,0.8119716,1.044585,-5.664269E-05,1.367496
764.104,0.04496488,0.0004455164,NaN,-0.3273054,0.0004064132,NaN,-0.5328627,-14.52852,NaN,-1.325564,-1.46684,0.3500207,14.11154,NaN,NaN,0.4051503,0.812083,0.8119265,1.04554,-5.5533E-05,1.371659
764.1204,0.04496479,0.0004458822,NaN,-0.3273033,0.0004061013,NaN,-0.5302816,-14.5284,NaN,-1.328894,-1.478546,0.3485359,14.12387,NaN,NaN,0.4120803,0.812501,0.8071943,1.062544,-5.444494E-05,1.375674
764.134,0.04496479,0.0004458822,NaN,-0.3273033,0.0004061013,NaN,-0.5302816,-14.5284,NaN,-1.328894,-1.478546,0.3485359,14.12387,NaN,NaN,0.4120803,0.812501,0.8071943,1.062544,-5.444494E-05,1.375674
764.1483,0.04496479,0.0004460397,NaN,-0.3273012,0.0004067487,NaN,-0.5291318,-14.52796,NaN,-1.3286,-1.466757,0.3494935,14.11136,NaN,NaN,0.4170231,0.8127613,0.8077811,1.04539,-5.335909E-05,1.368874
764.1639,0.04496477,0.0004454904,NaN,-0.3272991,0.0004065407,NaN,-0.5277926,-14.52836,NaN,-1.330666,-1.46756,0.350161,14.11226,NaN,NaN,0.4239354,0.8123771,0.8093336,1.04657,-5.22922E-05,1.370936
764.179,0.04496477,0.0004454904,NaN,-0.3272991,0.0004065407,NaN,-0.5277926,-14.52836,NaN,-1.330666,-1.46756,0.350161,14.11226,NaN,NaN,0.4239354,0.8123771,0.8093336,1.04657,-5.22922E-05,1.370936
764.1935,0.04496469,0.0004447966,NaN,-0.3272971,0.0004059195,NaN,-0.5262212,-14.52842,NaN,-1.333391,-1.471162,0.3500027,14.11606,NaN,NaN,0.4299579,0.8123918,0.8078896,1.051805,-5.125564E-05,1.372031
764.209,0.04496469,0.0004440495,NaN,-0.327295,0.0004056587,NaN,-0.5253506,-14.52793,NaN,-1.333248,-1.466452,0.35146,14.11102,NaN,NaN,0.4348105,0.8127704,0.8094398,1.04494,-5.025655E-05,1.368107
764.2241,0.04496469,0.0004433238,NaN,-0.327293,0.0004056389,NaN,-0.524601,-14.52802,NaN,-1.334863,-1.465196,0.3529268,14.1097,NaN,NaN,0.4413331,0.8126373,0.8115141,1.043113,-4.926823E-05,1.367605
764.239,0.04496469,0.0004433238,NaN,-0.327293,0.0004056389,NaN,-0.524601,-14.52802,NaN,-1.334863,-1.465196,0.3529268,14.1097,NaN,NaN,0.4413331,0.8126373,0.8115141,1.043113,-4.926823E-05,1.367605
764.2533,0.04496461,0.0004432013,NaN,-0.3272911,0.0004050041,NaN,-0.522195,-14.52794,NaN,-1.338086,-1.477442,0.3522564,14.12261,NaN,NaN,0.4478556,0.8130501,0.8082847,1.060911,-4.830618E-05,1.371442
764.2701,0.04496452,0.0004429492,NaN,-0.3272891,0.0004050345,NaN,-0.5194213,-14.52827,NaN,-1.339649,-1.467368,0.3520159,14.11199,NaN,NaN,0.4528352,0.8125641,0.8052757,1.046259,-4.737266E-05,1.369983
764.2854,0.0449645,0.0004431206,NaN,-0.3272872,0.0004045863,NaN,-0.5179468,-14.52938,NaN,-1.340117,-1.47725,0.3538816,14.12255,NaN,NaN,0.4578785,0.8116966,0.8076771,1.060659,-4.644454E-05,1.380166
764.2991,0.0449645,0.0004431206,NaN,-0.3272872,0.0004045863,NaN,-0.5179468,-14.52938,NaN,-1.340117,-1.47725,0.3538816,14.12255,NaN,NaN,0.4578785,0.8116966,0.8076771,1.060659,-4.644454E-05,1.380166
764.3156,0.04496442,0.0004431777,NaN,-0.3272853,0.0004051326,NaN,-0.5165722,-14.52812,NaN,-1.342902,-1.466088,0.3548348,14.11064,NaN,NaN,0.4635336,0.8127838,0.8083411,1.044412,-4.553728E-05,1.370177
764.329,0.04496438,0.0004435297,NaN,-0.3272834,0.0004050041,NaN,-0.5163766,-14.52927,NaN,-1.343527,-1.476725,0.3570219,14.12201,NaN,NaN,0.4674712,0.8119187,0.8098403,1.059917,-4.462623E-05,1.379289
764.344,0.04496429,0.0004440964,NaN,-0.3272815,0.0004046941,NaN,-0.51433,-14.5292,NaN,-1.345636,-1.479528,0.3574688,14.12495,NaN,NaN,0.4724609,0.8120249,0.8079342,1.063985,-4.375615E-05,1.379852
764.3589,0.04496429,0.0004440964,NaN,-0.3272815,0.0004046941,NaN,-0.51433,-14.5292,NaN,-1.345636,-1.479528,0.3574688,14.12495,NaN,NaN,0.4724609,0.8120249,0.8079342,1.063985,-4.375615E-05,1.379852
764.3731,0.04496421,0.0004440679,NaN,-0.3272797,0.0004044317,NaN,-0.5135019,-14.52789,NaN,-1.346886,-1.47065,0.359128,14.11543,NaN,NaN,0.4761614,0.8132096,0.8075001,1.051051,-4.289725E-05,1.37008
764.3889,0.0449641,0.0004441848,NaN,-0.3272779,0.0004041363,NaN,-0.5125498,-14.5279,NaN,-1.348339,-1.473455,0.3606363,14.11839,NaN,NaN,0.4794362,0.813261,0.8066044,1.055133,-4.206226E-05,1.371662
764.4039,0.04496409,0.000444569,NaN,-0.3272761,0.0004048941,NaN,-0.5105643,-14.52785,NaN,-1.348422,-1.467925,0.3626255,14.11254,NaN,NaN,0.4839655,0.8132042,0.8084465,1.047083,-4.124732E-05,1.371479
764.4191,0.04496409,0.000444569,NaN,-0.3272761,0.0004048941,NaN,-0.5105643,-14.52785,NaN,-1.348422,-1.467925,0.3626255,14.11254,NaN,NaN,0.4839655,0.8132042,0.8084465,1.047083,-4.124732E-05,1.371479
764.4336,0.04496401,0.0004448906,NaN,-0.3272743,0.0004051929,NaN,-0.5091726,-14.52908,NaN,-1.350859,-1.471415,0.3640187,14.11638,NaN,NaN,0.4889774,0.8120667,0.8089796,1.052202,-4.044437E-05,1.376274
764.4491,0.04496393,0.0004450772,NaN,-0.3272726,0.0004058751,NaN,-0.5080113,-14.52813,NaN,-1.35223,-1.466249,0.3655662,14.11081,NaN,NaN,0.4927471,0.8129066,0.8085819,1.044665,-3.965021E-05,1.371455
764.4641,0.04496384,0.0004449908,NaN,-0.3272708,0.0004056971,NaN,-0.5070116,-14.52793,NaN,-1.353451,-1.472618,0.3674393,14.1175,NaN,NaN,0.4962017,0.8132686,0.8082229,1.053919,-3.888116E-05,1.370517
764.4791,0.04496384,0.0004449908,NaN,-0.3272708,0.0004056971,NaN,-0.5070116,-14.52793,NaN,-1.353451,-1.472618,0.3674393,14.1175,NaN,NaN,0.4962017,0.8132686,0.8082229,1.053919,-3.888116E-05,1.370517
764.4935,0.04496375,0.0004451793,NaN,-0.3272691,0.0004052001,NaN,-0.5061945,-14.52923,NaN,-1.354631,-1.477675,0.3695453,14.123,NaN,NaN,0.4993048,0.812071,0.8079632,1.061313,-3.811852E-05,1.377914
764.51,0.04496375,0.0004446499,NaN,-0.3272674,0.0004046515,NaN,-0.5042347,-14.52807,NaN,-1.354907,-1.468282,0.371905,14.11296,NaN,NaN,0.5039912,0.8130872,0.8098465,1.047634,-3.736721E-05,1.368954
764.5239,0.04496368,0.0004448472,NaN,-0.3272657,0.000404558,NaN,-0.5027691,-14.52762,NaN,-1.357469,-1.47276,0.3734386,14.11763,NaN,NaN,0.5088681,0.8136439,0.8098156,1.054136,-3.665016E-05,1.366688
764.5389,0.04496368,0.0004448472,NaN,-0.3272657,0.000404558,NaN,-0.5027691,-14.52762,NaN,-1.357469,-1.47276,0.3734386,14.11763,NaN,NaN,0.5088681,0.8136439,0.8098156,1.054136,-3.665016E-05,1.366688
764.553,0.04496359,0.0004451812,NaN,-0.3272641,0.000404009,NaN,-0.5014449,-14.52937,NaN,-1.358852,-1.478579,0.3751316,14.12399,NaN,NaN,0.5123937,0.8120143,0.8088977,1.06266,-3.592418E-05,1.378252
764.5688,0.04496351,0.0004459568,NaN,-0.3272625,0.0004036647,NaN,-0.5001165,-14.52775,NaN,-1.360109,-1.479597,0.3771173,14.12489,NaN,NaN,0.5157155,0.8136365,0.8082979,1.064107,-3.524096E-05,1.370646
764.5838,0.04496343,0.000446332,NaN,-0.3272609,0.0004032849,NaN,-0.4986137,-14.52763,NaN,-1.361402,-1.476322,0.3791234,14.1214,NaN,NaN,0.5190182,0.8137118,0.8079984,1.059333,-3.454031E-05,1.365723
764.5988,0.04496343,0.000446332,NaN,-0.3272609,0.0004032849,NaN,-0.4986137,-14.52763,NaN,-1.361402,-1.476322,0.3791234,14.1214,NaN,NaN,0.5190182,0.8137118,0.8079984,1.059333,-3.454031E-05,1.365723
764.6133,0.04496334,0.0004463852,NaN,-0.3272592,0.0004034451,NaN,-0.4969043,-14.52786,NaN,-1.362752,-1.468334,0.3810069,14.11296,NaN,NaN,0.5223116,0.8133479,0.8078173,1.047705,-3.385262E-05,1.367105
764.629,0.04496325,0.000446429,NaN,-0.3272577,0.0004038078,NaN,-0.4949943,-14.5283,NaN,-1.364149,-1.46743,0.3827412,14.11205,NaN,NaN,0.5255538,0.8128867,0.8075919,1.0464,-3.319011E-05,1.368953
764.644,0.04496315,0.000446664,NaN,-0.3272561,0.0004045677,NaN,-0.4929294,-14.52878,NaN,-1.365575,-1.466137,0.3843687,14.11074,NaN,NaN,0.5286935,0.8123661,0.807301,1.044533,-3.254489E-05,1.376641
764.6589,0.04496315,0.000446664,NaN,-0.3272561,0.0004045677,NaN,-0.4929294,-14.52878,NaN,-1.365575,-1.466137,0.3843687,14.11074,NaN,NaN,0.5286935,0.8123661,0.807301,1.044533,-3.254489E-05,1.376641
764.6733,0.04496305,0.0004466792,NaN,-0.3272545,0.0004039803,NaN,-0.4907783,-14.52761,NaN,-1.366998,-1.478678,0.3859369,14.12381,NaN,NaN,0.5316865,0.8138602,0.8070222,1.062712,-3.191219E-05,1.369125
764.6888,0.04496295,0.0004471156,NaN,-0.327253,0.0004042636,NaN,-0.4886067,-14.5301,NaN,-1.368388,-1.474023,0.3875223,14.11914,NaN,NaN,0.5344952,0.8113002,0.8068154,1.055981,-3.128068E-05,1.383712
764.705,0.04496284,0.000447198,NaN,-0.3272515,0.0004045544,NaN,-0.4864362,-14.52806,NaN,-1.369747,-1.469495,0.3891231,14.11412,NaN,NaN,0.5371317,0.8132411,0.8066849,1.049348,-3.066869E-05,1.367793
764.7188,0.04496284,0.000447198,NaN,-0.3272515,0.0004045544,NaN,-0.4864362,-14.52806,NaN,-1.369747,-1.469495,0.3891231,14.11412,NaN,NaN,0.5371317,0.8132411,0.8066849,1.049348,-3.066869E-05,1.367793
764.733,0.04496273,0.0004472559,NaN,-0.3272499,0.0004049556,NaN,-0.4843141,-14.529,NaN,-1.371048,-1.468054,0.390791,14.11272,NaN,NaN,0.5395811,0.8122597,0.8066429,1.047285,-3.006951E-05,1.3715
764.7487,0.04496261,0.0004471473,NaN,-0.3272485,0.0004042973,NaN,-0.4822407,-14.5288,NaN,-1.372312,-1.477868,0.392501,14.12304,NaN,NaN,0.5418797,0.8126959,0.8066546,1.061542,-2.948956E-05,1.373607
764.7648,0.0449625,0.0004476532,NaN,-0.327247,0.0004039311,NaN,-0.4802735,-14.52985,NaN,-1.373505,-1.478834,0.3943185,14.12417,NaN,NaN,0.5440061,0.8116469,0.8067502,1.062969,-2.892928E-05,1.379215
764.7784,0.0449625,0.0004476532,NaN,-0.327247,0.0004039311,NaN,-0.4802735,-14.52985,NaN,-1.373505,-1.478834,0.3943185,14.12417,NaN,NaN,0.5440061,0.8116469,0.8067502,1.062969,-2.892928E-05,1.379215
764.7928,0.04496238,0.0004484389,NaN,-0.3272455,0.000404214,NaN,-0.4783648,-14.5286,NaN,-1.374671,-1.476243,0.3961761,14.1213,NaN,NaN,0.5460196,0.8128352,0.8068418,1.059176,-2.835975E-05,1.367971
764.8083,0.04496227,0.0004487394,NaN,-0.3272441,0.000404473,NaN,-0.4766144,-14.52859,NaN,-1.375751,-1.472078,0.3981847,14.11689,NaN,NaN,0.5478694,0.8127624,0.8070365,1.053115,-2.780141E-05,1.370675
764.8234,0.04496215,0.0004489487,NaN,-0.3272427,0.000405282,NaN,-0.4748713,-14.52916,NaN,-1.376838,-1.46592,0.4001775,14.11044,NaN,NaN,0.5496622,0.8120686,0.8071201,1.044171,-2.724664E-05,1.372706
764.8384,0.04496215,0.0004489487,NaN,-0.3272427,0.000405282,NaN,-0.4748713,-14.52916,NaN,-1.376838,-1.46592,0.4001775,14.11044,NaN,NaN,0.5496622,0.8120686,0.8071201,1.044171,-2.724664E-05,1.372706
764.8528,0.04496208,0.0004490862,NaN,-0.3272412,0.000406006,NaN,-0.4721184,-14.52945,NaN,-1.377796,-1.465004,0.4019537,14.1095,NaN,NaN,0.5527223,0.811743,0.8077091,1.042848,-2.670513E-05,1.374049
764.8681,0.04496198,0.0004491567,NaN,-0.3272398,0.0004055338,NaN,-0.4695516,-14.52952,NaN,-1.379537,-1.47755,0.4033453,14.12272,NaN,NaN,0.5559,0.8120171,0.807903,1.061069,-2.617972E-05,1.374772
764.8832,0.04496187,0.0004492074,NaN,-0.3272385,0.0004061611,NaN,-0.4680499,-14.52924,NaN,-1.380746,-1.46631,0.4053343,14.11083,NaN,NaN,0.557682,0.8121072,0.8079625,1.044724,-2.567039E-05,1.370293
764.8981,0.04496187,0.0004492074,NaN,-0.3272385,0.0004061611,NaN,-0.4680499,-14.52924,NaN,-1.380746,-1.46631,0.4053343,14.11083,NaN,NaN,0.557682,0.8121072,0.8079625,1.044724,-2.567039E-05,1.370293
764.9144,0.04496175,0.0004493672,NaN,-0.3272371,0.0004059623,NaN,-0.4673155,-14.53011,NaN,-1.381452,-1.475926,0.4081439,14.12107,NaN,NaN,0.5587355,0.8114778,0.8084725,1.058726,-2.516063E-05,1.374572
764.928,0.04496164,0.0004493604,NaN,-0.3272358,0.000406137,NaN,-0.4662936,-14.52934,NaN,-1.382277,-1.468969,0.4107563,14.11365,NaN,NaN,0.5599409,0.8121105,0.8084427,1.048599,-2.466814E-05,1.368369
764.9431,0.04496152,0.0004496211,NaN,-0.3272344,0.0004055721,NaN,-0.4653564,-14.5294,NaN,-1.383051,-1.479087,0.4134828,14.12431,NaN,NaN,0.5610442,0.8122823,0.8084596,1.063299,-2.417342E-05,1.372876
764.9579,0.04496152,0.0004496211,NaN,-0.3272344,0.0004055721,NaN,-0.4653564,-14.5294,NaN,-1.383051,-1.479087,0.4134828,14.12431,NaN,NaN,0.5610442,0.8122823,0.8084596,1.063299,-2.417342E-05,1.372876
764.9722,0.04496141,0.0004495991,NaN,-0.3272331,0.000405842,NaN,-0.4643203,-14.529,NaN,-1.383862,-1.466831,0.4161315,14.11133,NaN,NaN,0.562152,0.8124968,0.808375,1.045468,-2.370582E-05,1.366758
764.9879,0.0449613,0.0004501234,NaN,-0.3272319,0.0004055509,NaN,-0.4632967,-14.52952,NaN,-1.384658,-1.479487,0.4187954,14.12473,NaN,NaN,0.5631871,0.8122978,0.8083645,1.063876,-2.321975E-05,1.375114
765.0029,0.04496119,0.0004506136,NaN,-0.3272306,0.0004049746,NaN,-0.4621907,-14.53009,NaN,-1.385448,-1.48071,0.4213863,14.12607,NaN,NaN,0.564196,0.81174,0.8083208,1.065656,-2.273531E-05,1.376772
765.0182,0.04496119,0.0004506136,NaN,-0.3272306,0.0004049746,NaN,-0.4621907,-14.53009,NaN,-1.385448,-1.48071,0.4213863,14.12607,NaN,NaN,0.564196,0.81174,0.8083208,1.065656,-2.273531E-05,1.376772
765.0326,0.04496108,0.0004504247,NaN,-0.3272293,0.0004047715,NaN,-0.4610652,-14.52897,NaN,-1.386223,-1.468129,0.4239615,14.11268,NaN,NaN,0.5651567,0.8127059,0.8083264,1.047352,-2.22771E-05,1.367967
765.0479,0.04496096,0.0004505787,NaN,-0.3272281,0.0004045935,NaN,-0.4599217,-14.52868,NaN,-1.386994,-1.473666,0.426512,14.11849,NaN,NaN,0.5660738,0.8131396,0.8083551,1.055397,-2.183022E-05,1.366541
765.0632,0.04496085,0.0004506209,NaN,-0.3272268,0.000405003,NaN,-0.4587933,-14.52912,NaN,-1.387743,-1.467368,0.4290648,14.11188,NaN,NaN,0.5669298,0.8125846,0.8084227,1.046249,-2.138109E-05,1.367704
765.0781,0.04496085,0.0004506209,NaN,-0.3272268,0.000405003,NaN,-0.4587933,-14.52912,NaN,-1.387743,-1.467368,0.4290648,14.11188,NaN,NaN,0.5669298,0.8125846,0.8084227,1.046249,-2.138109E-05,1.367704
765.0923,0.04496074,0.000450606,NaN,-0.3272256,0.0004053978,NaN,-0.457682,-14.52972,NaN,-1.388475,-1.466624,0.431618,14.11117,NaN,NaN,0.5677289,0.8119798,0.8085055,1.04519,-2.094747E-05,1.369232
765.1089,0.04496063,0.0004506701,NaN,-0.3272244,0.0004054364,NaN,-0.4566016,-14.5305,NaN,-1.389185,-1.471827,0.4341828,14.11676,NaN,NaN,0.5684682,0.811336,0.8086042,1.052778,-2.052979E-05,1.373328
765.1229,0.04496052,0.0004505677,NaN,-0.3272232,0.0004058344,NaN,-0.4555498,-14.5296,NaN,-1.389874,-1.466665,0.4367557,14.11121,NaN,NaN,0.5691515,0.8121254,0.8087031,1.045256,-2.013402E-05,1.369762
765.1376,0.04496052,0.0004505677,NaN,-0.3272232,0.0004058344,NaN,-0.4555498,-14.5296,NaN,-1.389874,-1.466665,0.4367557,14.11121,NaN,NaN,0.5691515,0.8121254,0.8087031,1.045256,-2.013402E-05,1.369762
765.1522,0.04496041,0.0004507018,NaN,-0.3272221,0.0004053442,NaN,-0.4545307,-14.53023,NaN,-1.390546,-1.47843,0.4393314,14.12369,NaN,NaN,0.5697942,0.8118076,0.8088179,1.062375,-1.974897E-05,1.374725
765.1693,0.04496029,0.0004508202,NaN,-0.3272209,0.0004057619,NaN,-0.4535354,-14.52933,NaN,-1.391197,-1.469172,0.4419018,14.11383,NaN,NaN,0.5703881,0.8125671,0.8089158,1.048902,-1.934902E-05,1.370001
765.1828,0.04496018,0.000450856,NaN,-0.3272198,0.0004061635,NaN,-0.4525777,-14.5299,NaN,-1.391826,-1.467573,0.4444858,14.1122,NaN,NaN,0.5709295,0.8119584,0.809019,1.046594,-1.897813E-05,1.369918
765.1978,0.04496018,0.000450856,NaN,-0.3272198,0.0004061635,NaN,-0.4525777,-14.5299,NaN,-1.391826,-1.467573,0.4444858,14.1122,NaN,NaN,0.5709295,0.8119584,0.809019,1.046594,-1.897813E-05,1.369918
765.2122,0.04496012,0.000450867,NaN,-0.3272186,0.0004066631,NaN,-0.4502039,-14.5299,NaN,-1.392538,-1.465979,0.4465556,14.11051,NaN,NaN,0.5732144,0.8119153,0.8094479,1.044274,-1.86059E-05,1.370946
765.2279,0.04496004,0.0004513719,NaN,-0.3272175,0.00040653,NaN,-0.4478967,-14.53062,NaN,-1.393948,-1.477694,0.4482586,14.12295,NaN,NaN,0.5758169,0.8115094,0.8098179,1.061319,-1.823591E-05,1.378392
765.2443,0.04495994,0.0004515055,NaN,-0.3272163,0.0004070837,NaN,-0.4463152,-14.52967,NaN,-1.395054,-1.467083,0.4501363,14.11166,NaN,NaN,0.5773409,0.8122935,0.8097775,1.045883,-1.788603E-05,1.369718
765.258,0.04495994,0.0004515055,NaN,-0.3272163,0.0004070837,NaN,-0.4463152,-14.52967,NaN,-1.395054,-1.467083,0.4501363,14.11166,NaN,NaN,0.5773409,0.8122935,0.8097775,1.045883,-1.788603E-05,1.369718
765.2722,0.04495984,0.0004513818,NaN,-0.3272152,0.0004074804,NaN,-0.445555,-14.52971,NaN,-1.395662,-1.465878,0.452827,14.11038,NaN,NaN,0.5780658,0.8122172,0.8101956,1.044129,-1.752661E-05,1.368179
765.288,0.04495974,0.0004511861,NaN,-0.3272141,0.0004076629,NaN,-0.4445854,-14.53002,NaN,-1.396343,-1.468241,0.4553971,14.11291,NaN,NaN,0.5788924,0.8119582,0.8101957,1.04757,-1.716898E-05,1.369179
765.3039,0.04495964,0.0004510987,NaN,-0.327213,0.0004081707,NaN,-0.4436631,-14.53006,NaN,-1.396989,-1.46567,0.4580428,14.11019,NaN,NaN,0.5796427,0.8118542,0.8101968,1.043833,-1.682238E-05,1.37178
765.3177,0.04495964,0.0004510987,NaN,-0.327213,0.0004081707,NaN,-0.4436631,-14.53006,NaN,-1.396989,-1.46567,0.4580428,14.11019,NaN,NaN,0.5796427,0.8118542,0.8101968,1.043833,-1.682238E-05,1.37178
765.3321,0.04495954,0.0004510018,NaN,-0.327212,0.0004086631,NaN,-0.4426817,-14.53024,NaN,-1.397653,-1.465208,0.4606468,14.10972,NaN,NaN,0.5803825,0.811654,0.8101435,1.043164,-1.64956E-05,1.37202
765.3477,0.04495944,0.0004511561,NaN,-0.3272109,0.0004089046,NaN,-0.4417109,-14.5312,NaN,-1.398299,-1.470445,0.4632532,14.11536,NaN,NaN,0.5810444,0.8108421,0.8101212,1.050805,-1.616822E-05,1.378793
765.3628,0.04495934,0.0004514254,NaN,-0.3272099,0.0004086305,NaN,-0.4407572,-14.53122,NaN,-1.398924,-1.476659,0.4658594,14.12189,NaN,NaN,0.5816199,0.8109476,0.8101278,1.059823,-1.587229E-05,1.377496
765.3777,0.04495934,0.0004514254,NaN,-0.3272099,0.0004086305,NaN,-0.4407572,-14.53122,NaN,-1.398924,-1.476659,0.4658594,14.12189,NaN,NaN,0.5816199,0.8109476,0.8101278,1.059823,-1.587229E-05,1.377496
765.3922,0.04495924,0.0004515459,NaN,-0.3272088,0.0004092225,NaN,-0.4398321,-14.5307,NaN,-1.399521,-1.466597,0.4684714,14.11123,NaN,NaN,0.5821046,0.8112989,0.8101622,1.0452,-1.555191E-05,1.371042
765.4078,0.04495914,0.0004512365,NaN,-0.3272078,0.0004092513,NaN,-0.4389334,-14.5301,NaN,-1.400092,-1.467726,0.4710857,14.11233,NaN,NaN,0.58251,0.8119183,0.8102136,1.046813,-1.524495E-05,1.369072
765.4228,0.04495904,0.0004509597,NaN,-0.3272068,0.0004095583,NaN,-0.4380585,-14.53072,NaN,-1.400639,-1.466275,0.473699,14.11088,NaN,NaN,0.5828481,0.8112612,0.810275,1.044723,-1.495631E-05,1.370381
765.4376,0.04495904,0.0004509597,NaN,-0.3272068,0.0004095583,NaN,-0.4380585,-14.53072,NaN,-1.400639,-1.466275,0.473699,14.11088,NaN,NaN,0.5828481,0.8112612,0.810275,1.044723,-1.495631E-05,1.370381
765.452,0.04495894,0.0004507398,NaN,-0.3272058,0.0004098516,NaN,-0.437203,-14.5308,NaN,-1.401167,-1.46706,0.4763067,14.1117,NaN,NaN,0.5831304,0.8111951,0.8103419,1.045861,-1.467721E-05,1.370942
765.4678,0.04495884,0.0004509254,NaN,-0.3272049,0.0004101364,NaN,-0.4363624,-14.53141,NaN,-1.401677,-1.470652,0.4789045,14.11555,NaN,NaN,0.5833681,0.8106771,0.8104116,1.051095,-1.440869E-05,1.37677
765.4828,0.04495874,0.0004503446,NaN,-0.3272039,0.0004099375,NaN,-0.4355344,-14.53057,NaN,-1.402173,-1.46544,0.4814889,14.10996,NaN,NaN,0.5835674,0.8113948,0.810483,1.043504,-1.413451E-05,1.370106
765.4987,0.04495874,0.0004503446,NaN,-0.3272039,0.0004099375,NaN,-0.4355344,-14.53057,NaN,-1.402173,-1.46544,0.4814889,14.10996,NaN,NaN,0.5835674,0.8113948,0.810483,1.043504,-1.413451E-05,1.370106
765.513,0.04495864,0.0004501381,NaN,-0.3272029,0.000410338,NaN,-0.4347203,-14.53062,NaN,-1.402655,-1.465658,0.4840599,14.11019,NaN,NaN,0.5837317,0.811344,0.8105584,1.043821,-1.384811E-05,1.371139
765.5276,0.04495855,0.0004502687,NaN,-0.327202,0.000410567,NaN,-0.4339186,-14.53156,NaN,-1.403124,-1.470145,0.4866157,14.11504,NaN,NaN,0.5838647,0.8105307,0.8106365,1.050371,-1.358093E-05,1.376634
765.5427,0.04495845,0.0004498824,NaN,-0.3272011,0.0004105661,NaN,-0.4331277,-14.52982,NaN,-1.403581,-1.466144,0.4891539,14.11061,NaN,NaN,0.5839714,0.8121615,0.8107162,1.044509,-1.330958E-05,1.367082
765.5576,0.04495845,0.0004498824,NaN,-0.3272011,0.0004105661,NaN,-0.4331277,-14.52982,NaN,-1.403581,-1.466144,0.4891539,14.11061,NaN,NaN,0.5839714,0.8121615,0.8107162,1.044509,-1.330958E-05,1.367082
765.5718,0.04495839,0.0004497427,NaN,-0.3272001,0.0004102802,NaN,-0.4311182,-14.53107,NaN,-1.404184,-1.472788,0.4912573,14.11778,NaN,NaN,0.585686,0.8110899,0.811151,1.054212,-1.304211E-05,1.374152
765.5874,0.04495831,0.0004500362,NaN,-0.3271992,0.0004097254,NaN,-0.4297471,-14.53093,NaN,-1.405101,-1.478285,0.4932751,14.12354,NaN,NaN,0.5871046,0.8113336,0.8114883,1.062186,-1.277404E-05,1.37681
765.6026,0.04495822,0.0004500407,NaN,-0.3271983,0.0004095144,NaN,-0.4287559,-14.52957,NaN,-1.405753,-1.470567,0.4952626,14.11525,NaN,NaN,0.5877524,0.812561,0.8109692,1.050945,-1.251446E-05,1.368084
765.6177,0.04495822,0.0004500407,NaN,-0.3271983,0.0004095144,NaN,-0.4287559,-14.52957,NaN,-1.405753,-1.470567,0.4952626,14.11525,NaN,NaN,0.5877524,0.812561,0.8109692,1.050945,-1.251446E-05,1.368084
765.6318,0.04495812,0.0004505746,NaN,-0.3271973,0.0004090152,NaN,-0.4278723,-14.5305,NaN,-1.406239,-1.47994,0.4975263,14.12525,NaN,NaN,0.5881367,0.8118348,0.8106485,1.064597,-1.226769E-05,1.374835
765.6474,0.04495803,0.0004507879,NaN,-0.3271964,0.000409421,NaN,-0.4269147,-14.52951,NaN,-1.40678,-1.468577,0.4997825,14.11315,NaN,NaN,0.5885016,0.8126811,0.8104362,1.048063,-1.200499E-05,1.366595
765.6625,0.04495793,0.0004505373,NaN,-0.3271956,0.0004096047,NaN,-0.4259952,-14.52943,NaN,-1.407293,-1.466614,0.5020342,14.11106,NaN,NaN,0.5887224,0.8127149,0.8103077,1.045201,-1.176702E-05,1.364825
765.6774,0.04495793,0.0004505373,NaN,-0.3271956,0.0004096047,NaN,-0.4259952,-14.52943,NaN,-1.407293,-1.466614,0.5020342,14.11106,NaN,NaN,0.5887224,0.8127149,0.8103077,1.045201,-1.176702E-05,1.364825
765.6938,0.04495787,0.0004510731,NaN,-0.3271947,0.0004097603,NaN,-0.4257082,-14.53064,NaN,-1.407182,-1.474827,0.5041701,14.11988,NaN,NaN,0.5872286,0.8117272,0.8103496,1.057184,-1.150267E-05,1.374965
765.7086,0.04495782,0.0004515225,NaN,-0.3271938,0.0004104339,NaN,-0.4255403,-14.5302,NaN,-1.407078,-1.469221,0.5065573,14.11391,NaN,NaN,0.585574,0.8120683,0.8110223,1.049026,-1.127781E-05,1.371197
765.7223,0.04495779,0.0004514601,NaN,-0.3271929,0.0004106572,NaN,-0.4252654,-14.52933,NaN,-1.40707,-1.468129,0.5087646,14.11264,NaN,NaN,0.5840387,0.8129076,0.811592,1.047406,-1.104759E-05,1.364658
765.7369,0.04495779,0.0004514601,NaN,-0.3271929,0.0004106572,NaN,-0.4252654,-14.52933,NaN,-1.40707,-1.468129,0.5087646,14.11264,NaN,NaN,0.5840387,0.8129076,0.811592,1.047406,-1.104759E-05,1.364658
765.7512,0.04495776,0.0004520516,NaN,-0.327192,0.0004104982,NaN,-0.4250291,-14.5302,NaN,-1.407056,-1.478617,0.5108894,14.12383,NaN,NaN,0.5825188,0.812297,0.812007,1.062691,-1.08348E-05,1.372528
765.767,0.04495776,0.0004524055,NaN,-0.3271912,0.0004111855,NaN,-0.4252949,-14.52949,NaN,-1.406563,-1.468645,0.5126501,14.11322,NaN,NaN,0.5794501,0.8128617,0.812075,1.048179,-1.061203E-05,1.366831
765.7821,0.04495776,0.0004526549,NaN,-0.3271903,0.000411676,NaN,-0.4254252,-14.52939,NaN,-1.406199,-1.469274,0.5141229,14.11387,NaN,NaN,0.5758277,0.8129712,0.8114643,1.049089,-1.04195E-05,1.366191
765.7971,0.04495776,0.0004526549,NaN,-0.3271903,0.000411676,NaN,-0.4254252,-14.52939,NaN,-1.406199,-1.469274,0.5141229,14.11387,NaN,NaN,0.5758277,0.8129712,0.8114643,1.049089,-1.04195E-05,1.366191
765.8118,0.04495779,0.000452304,NaN,-0.3271894,0.000411814,NaN,-0.42488,-14.52926,NaN,-1.40571,-1.466121,0.5156149,14.11052,NaN,NaN,0.5728287,0.8130216,0.8116546,1.044498,-1.019926E-05,1.36255
765.8271,0.0449579,0.000451732,NaN,-0.3271886,0.0004119707,NaN,-0.4250632,-14.52924,NaN,-1.404944,-1.464874,0.5182683,14.10919,NaN,NaN,0.571208,0.8130025,0.8150463,1.042683,-1.000659E-05,1.3627
765.8422,0.044958,0.0004514727,NaN,-0.3271877,0.000411869,NaN,-0.4248857,-14.53053,NaN,-1.404393,-1.471621,0.5186712,14.11649,NaN,NaN,0.5687751,0.8118988,0.814164,1.052547,-9.810045E-06,1.371057
765.8569,0.044958,0.0004514727,NaN,-0.3271877,0.000411869,NaN,-0.4248857,-14.53053,NaN,-1.404393,-1.471621,0.5186712,14.11649,NaN,NaN,0.5687751,0.8118988,0.814164,1.052547,-9.810045E-06,1.371057
765.8712,0.04495814,0.0004509031,NaN,-0.3271868,0.0004118631,NaN,-0.4252662,-14.52896,NaN,-1.404056,-1.466032,0.5201805,14.1104,NaN,NaN,0.5666329,0.8133453,0.8155552,1.044379,-9.59979E-06,1.361849
765.8867,0.04495829,0.000450642,NaN,-0.3271859,0.0004122675,NaN,-0.4253677,-14.52973,NaN,-1.403745,-1.466159,0.5212907,14.11063,NaN,NaN,0.5647603,0.8125831,0.8165843,1.044594,-9.398177E-06,1.366691
765.9028,0.04495846,0.0004510514,NaN,-0.327185,0.0004119884,NaN,-0.4253476,-14.52916,NaN,-1.40344,-1.478595,0.5221474,14.12368,NaN,NaN,0.5630705,0.8134773,0.8170473,1.062652,-9.21683E-06,1.368159
765.9168,0.04495846,0.0004510514,NaN,-0.327185,0.0004119884,NaN,-0.4253476,-14.52916,NaN,-1.40344,-1.478595,0.5221474,14.12368,NaN,NaN,0.5630705,0.8134773,0.8170473,1.062652,-9.21683E-06,1.368159
765.9308,0.04495866,0.000451416,NaN,-0.3271841,0.0004126171,NaN,-0.4255376,-14.52874,NaN,-1.402664,-1.469802,0.522709,14.11433,NaN,NaN,0.5602108,0.8137584,0.8173958,1.049843,-9.036675E-06,1.361592
765.9466,0.04495887,0.0004515752,NaN,-0.3271833,0.000413323,NaN,-0.4261288,-14.52905,NaN,-1.402179,-1.466042,0.523353,14.11038,NaN,NaN,0.556923,0.8133587,0.8177384,1.044379,-8.865311E-06,1.363309
765.9617,0.0449591,0.0004521327,NaN,-0.3271824,0.0004131788,NaN,-0.4264919,-14.5296,NaN,-1.401597,-1.478349,0.5238529,14.12346,NaN,NaN,0.5537368,0.8131377,0.8180056,1.062306,-8.689627E-06,1.369439
765.9766,0.0449591,0.0004521327,NaN,-0.3271824,0.0004131788,NaN,-0.4264919,-14.5296,NaN,-1.401597,-1.478349,0.5238529,14.12346,NaN,NaN,0.5537368,0.8131377,0.8180056,1.062306,-8.689627E-06,1.369439
765.991,0.04495931,0.0004527193,NaN,-0.3271815,0.0004137006,NaN,-0.4265713,-14.53059,NaN,-1.401478,-1.472474,0.524866,14.11735,NaN,NaN,0.5523994,0.8120704,0.8188767,1.053775,-8.510068E-06,1.373773
766.0067,0.04495952,0.0004523708,NaN,-0.3271807,0.0004135745,NaN,-0.4266068,-14.52966,NaN,-1.401319,-1.466721,0.5258567,14.11117,NaN,NaN,0.5518276,0.81287,0.8198818,1.045387,-8.349433E-06,1.364946
766.0214,0.04495974,0.0004519961,NaN,-0.3271798,0.0004134204,NaN,-0.4263384,-14.52885,NaN,-1.401271,-1.468839,0.5265345,14.11329,NaN,NaN,0.5519012,0.8137334,0.8204349,1.048438,-8.201465E-06,1.362589
766.0364,0.04495974,0.0004519961,NaN,-0.3271798,0.0004134204,NaN,-0.4263384,-14.52885,NaN,-1.401271,-1.468839,0.5265345,14.11329,NaN,NaN,0.5519012,0.8137334,0.8204349,1.048438,-8.201465E-06,1.362589
766.0508,0.04495994,0.0004516297,NaN,-0.327179,0.0004133368,NaN,-0.4259033,-14.52966,NaN,-1.401414,-1.468641,0.5269321,14.11318,NaN,NaN,0.5521866,0.8129101,0.8201409,1.04818,-8.030846E-06,1.36518
766.0666,0.04496014,0.0004512559,NaN,-0.3271782,0.0004134279,NaN,-0.4258901,-14.52958,NaN,-1.401557,-1.467014,0.5276882,14.11145,NaN,NaN,0.5521976,0.8129467,0.8201232,1.04581,-7.867232E-06,1.364358
766.0813,0.04496034,0.0004504745,NaN,-0.3271774,0.0004131843,NaN,-0.4252088,-14.52894,NaN,-1.401822,-1.465659,0.527913,14.10993,NaN,NaN,0.552658,0.8135458,0.8193593,1.043817,-7.699445E-06,1.363332
766.0974,0.04496034,0.0004504745,NaN,-0.3271774,0.0004131843,NaN,-0.4252088,-14.52894,NaN,-1.401822,-1.465659,0.527913,14.10993,NaN,NaN,0.552658,0.8135458,0.8193593,1.043817,-7.699445E-06,1.363332
766.1116,0.04496053,0.000450287,NaN,-0.3271766,0.0004134634,NaN,-0.4254573,-14.5298,NaN,-1.401972,-1.467941,0.5287929,14.11246,NaN,NaN,0.5523938,0.8127401,0.8194698,1.04717,-7.541791E-06,1.367736
766.1266,0.04496073,0.0004504023,NaN,-0.3271758,0.0004138324,NaN,-0.4248779,-14.52996,NaN,-1.402068,-1.468979,0.5292582,14.11357,NaN,NaN,0.5528125,0.8126054,0.819555,1.048684,-7.39263E-06,1.368447
766.1411,0.0449608,0.0004504665,NaN,-0.327175,0.0004139769,NaN,-0.4250803,-14.53001,NaN,-1.402201,-1.47022,0.5299831,14.11488,NaN,NaN,0.5524205,0.8125783,0.8195134,1.050491,-7.250473E-06,1.367512
766.1559,0.0449608,0.0004504665,NaN,-0.327175,0.0004139769,NaN,-0.4250803,-14.53001,NaN,-1.402201,-1.47022,0.5299831,14.11488,NaN,NaN,0.5524205,0.8125783,0.8195134,1.050491,-7.250473E-06,1.367512
766.1702,0.04496086,0.0004502841,NaN,-0.3271742,0.000414288,NaN,-0.4245735,-14.52883,NaN,-1.402246,-1.465994,0.5304793,14.11027,NaN,NaN,0.5527194,0.8136496,0.8196542,1.044307,-7.122025E-06,1.361455
766.1873,0.0449609,0.000450519,NaN,-0.3271735,0.0004147367,NaN,-0.4246964,-14.52991,NaN,-1.402335,-1.469192,0.5311916,14.11378,NaN,NaN,0.5524115,0.8126642,0.8197231,1.049001,-6.984636E-06,1.368904
766.2008,0.04496094,0.0004504793,NaN,-0.3271728,0.0004151021,NaN,-0.4241772,-14.5294,NaN,-1.402441,-1.466075,0.5315561,14.11042,NaN,NaN,0.5526575,0.8130945,0.8195177,1.044452,-6.851867E-06,1.363164
766.216,0.04496094,0.0004504793,NaN,-0.3271728,0.0004151021,NaN,-0.4241772,-14.5294,NaN,-1.402441,-1.466075,0.5315561,14.11042,NaN,NaN,0.5526575,0.8130945,0.8195177,1.044452,-6.851867E-06,1.363164
766.2303,0.04423303,0.0004506698,NaN,-0.3271738,0.0004148032,NaN,-0.4246694,-14.53066,NaN,-1.401512,-1.476064,0.5328836,14.12114,NaN,NaN,0.5519383,0.8121021,0.8207216,1.059029,-6.688699E-06,1.373055
766.2458,0.04305014,0.0004512006,NaN,-0.3271754,0.0004142056,NaN,-0.4247746,-14.52964,NaN,-1.400403,-1.480549,0.5336783,14.12575,NaN,NaN,0.5515229,0.8131813,0.8213385,1.065525,-6.538793E-06,1.370706
766.2612,0.04158595,0.0004516043,NaN,-0.327177,0.0004141798,NaN,-0.425037,-14.52891,NaN,-1.398692,-1.474169,0.5347812,14.11892,NaN,NaN,0.5511205,0.8138235,0.8227022,1.056225,-6.395891E-06,1.365131
766.2759,0.04158595,0.0004516043,NaN,-0.327177,0.0004141798,NaN,-0.425037,-14.52891,NaN,-1.398692,-1.474169,0.5347812,14.11892,NaN,NaN,0.5511205,0.8138235,0.8227022,1.056225,-6.395891E-06,1.365131
766.2902,0.03922265,0.0004517908,NaN,-0.3271807,0.0004148151,NaN,-0.4255094,-14.52932,NaN,-1.395954,-1.466712,0.5363724,14.11107,NaN,NaN,0.5508149,0.8132721,0.8252028,1.045376,-6.27996E-06,1.366224
766.3067,0.03630345,0.0004516911,NaN,-0.3271849,0.0004152321,NaN,-0.4311621,-14.52943,NaN,-1.39167,-1.465417,0.5406343,14.10971,NaN,NaN,0.5460922,0.8131285,0.8287508,1.043493,-6.13214E-06,1.363146
766.3204,0.03304683,0.0004512836,NaN,-0.3271885,0.0004154501,NaN,-0.4322728,-14.52888,NaN,-1.387574,-1.464879,0.5421,14.10906,NaN,NaN,0.5447946,0.8136482,0.8279888,1.042686,-6.007567E-06,1.359096
766.3355,0.03304683,0.0004512836,NaN,-0.3271885,0.0004154501,NaN,-0.4322728,-14.52888,NaN,-1.387574,-1.464879,0.5421,14.10906,NaN,NaN,0.5447946,0.8136482,0.8279888,1.042686,-6.007567E-06,1.359096
766.3502,0.02959141,0.0004514517,NaN,-0.3271914,0.000414971,NaN,-0.4372905,-14.52878,NaN,-1.383061,-1.477496,0.545119,14.12238,NaN,NaN,0.5395323,0.8141002,0.8270023,1.061042,-5.881205E-06,1.363108
766.3656,0.0252972,0.0004515086,NaN,-0.3271959,0.0004154503,NaN,-0.4365354,-14.52885,NaN,-1.37841,-1.466738,0.5451797,14.11099,NaN,NaN,0.5382084,0.8138641,0.8235051,1.045371,-5.772277E-06,1.359715
766.3806,0.02049325,0.0004514648,NaN,-0.3272,0.0004147689,NaN,-0.4371073,-14.52918,NaN,-1.373137,-1.478606,0.5465224,14.12358,NaN,NaN,0.5361952,0.8138343,0.8239738,1.062659,-5.65128E-06,1.363464
766.3955,0.02049325,0.0004514648,NaN,-0.3272,0.0004147689,NaN,-0.4371073,-14.52918,NaN,-1.373137,-1.478606,0.5465224,14.12358,NaN,NaN,0.5361952,0.8138343,0.8239738,1.062659,-5.65128E-06,1.363464
766.4101,0.01538862,0.0004519669,NaN,-0.3272031,0.0004140493,NaN,-0.4394613,-14.52927,NaN,-1.367939,-1.481124,0.54791,14.12625,NaN,NaN,0.5314793,0.8137656,0.8235477,1.066324,-5.546227E-06,1.366765
766.4257,0.01011623,0.0004521935,NaN,-0.3272049,0.0004137251,NaN,-0.4427972,-14.52869,NaN,-1.361398,-1.47434,0.5498005,14.119,NaN,NaN,0.5245215,0.8142442,0.822324,1.056429,-5.418375E-06,1.35867
766.4406,0.004032166,0.0004516601,NaN,-0.3272079,0.0004125518,NaN,-0.443624,-14.52883,NaN,-1.354047,-1.467572,0.550987,14.11183,NaN,NaN,0.5196538,0.8139718,0.821964,1.046572,-5.306169E-06,1.357374
766.4555,0.004032166,0.0004516601,NaN,-0.3272079,0.0004125518,NaN,-0.443624,-14.52883,NaN,-1.354047,-1.467572,0.550987,14.11183,NaN,NaN,0.5196538,0.8139718,0.821964,1.046572,-5.306169E-06,1.357374
766.4698,-0.002537071,0.000450931,NaN,-0.32721,0.0004118002,NaN,-0.4442577,-14.5286,NaN,-1.347002,-1.467095,0.5515861,14.11129,NaN,NaN,0.5153436,0.8141841,0.8221249,1.045865,-5.221307E-06,1.358448
766.4857,-0.009384004,0.0004504074,NaN,-0.3272108,0.0004112922,NaN,-0.445628,-14.52917,NaN,-1.339339,-1.469413,0.5523653,14.11381,NaN,NaN,0.5102754,0.8136683,0.8224844,1.04926,-5.117148E-06,1.360044
766.5018,-0.01637691,0.0004501988,NaN,-0.3272107,0.0004108948,NaN,-0.4477164,-14.5297,NaN,-1.33097,-1.472195,0.5537758,14.11682,NaN,NaN,0.5048271,0.8132056,0.8236477,1.053326,-5.016491E-06,1.364276
766.5159,-0.01637691,0.0004501988,NaN,-0.3272107,0.0004108948,NaN,-0.4477164,-14.5297,NaN,-1.33097,-1.472195,0.5537758,14.11682,NaN,NaN,0.5048271,0.8132056,0.8236477,1.053326,-5.016491E-06,1.364276
766.5297,-0.02416073,0.0004504975,NaN,-0.3272115,0.0004110764,NaN,-0.4515701,-14.53,NaN,-1.3219,-1.472495,0.555856,14.11716,NaN,NaN,0.496942,0.8129014,0.8236725,1.053768,-4.893705E-06,1.369902
766.5454,-0.03240943,0.0004508905,NaN,-0.3272116,0.0004111297,NaN,-0.4543771,-14.53021,NaN,-1.311685,-1.475128,0.5574485,14.11996,NaN,NaN,0.4893088,0.8127429,0.8228635,1.057601,-4.790664E-06,1.369691
766.5605,-0.04091593,0.0004513647,NaN,-0.327211,0.0004106597,NaN,-0.4570282,-14.52986,NaN,-1.301396,-1.480437,0.5593124,14.12552,NaN,NaN,0.4828483,0.8131731,0.8240421,1.065312,-4.697457E-06,1.368297
766.5756,-0.04091593,0.0004513647,NaN,-0.327211,0.0004106597,NaN,-0.4570282,-14.52986,NaN,-1.301396,-1.480437,0.5593124,14.12552,NaN,NaN,0.4828483,0.8131731,0.8240421,1.065312,-4.697457E-06,1.368297
766.5899,-0.0502774,0.0004511916,NaN,-0.327211,0.0004104095,NaN,-0.462871,-14.52859,NaN,-1.290141,-1.469017,0.5626327,14.11331,NaN,NaN,0.4726043,0.8142968,0.8246045,1.04867,-4.595412E-06,1.359291
766.6057,-0.06013743,0.0004511845,NaN,-0.3272101,0.0004101566,NaN,-0.4617195,-14.52839,NaN,-1.279699,-1.472604,0.56055,14.11709,NaN,NaN,0.4662438,0.8145866,0.8184325,1.053892,-4.491365E-06,1.358052
766.6206,-0.07026982,0.0004512274,NaN,-0.3272082,0.0004104811,NaN,-0.4593062,-14.52926,NaN,-1.269211,-1.468091,0.5574315,14.11241,NaN,NaN,0.4594998,0.8136204,0.8123174,1.047346,-4.397841E-06,1.361427
766.6355,-0.07026982,0.0004512274,NaN,-0.3272082,0.0004104811,NaN,-0.4593062,-14.52926,NaN,-1.269211,-1.468091,0.5574315,14.11241,NaN,NaN,0.4594998,0.8136204,0.8123174,1.047346,-4.397841E-06,1.361427
766.65,-0.08053109,0.0004513573,NaN,-0.3272051,0.0004111329,NaN,-0.4556909,-14.52942,NaN,-1.258619,-1.466179,0.5535775,14.1104,NaN,NaN,0.4525203,0.813421,0.8079098,1.044571,-4.30554E-06,1.364463
766.6669,-0.09155875,0.0004516027,NaN,-0.327203,0.0004106826,NaN,-0.4510526,-14.53007,NaN,-1.247235,-1.479143,0.5490623,14.12419,NaN,NaN,0.4451613,0.8131123,0.80532,1.063461,-4.215621E-06,1.368174
766.6804,-0.1030224,0.0004518075,NaN,-0.3271998,0.0004113263,NaN,-0.4421762,-14.52928,NaN,-1.236986,-1.468219,0.5404336,14.11256,NaN,NaN,0.4395868,0.8137449,0.7990803,1.04755,-4.126028E-06,1.362924
766.6966,-0.1030224,0.0004518075,NaN,-0.3271998,0.0004113263,NaN,-0.4421762,-14.52928,NaN,-1.236986,-1.468219,0.5404336,14.11256,NaN,NaN,0.4395868,0.8137449,0.7990803,1.04755,-4.126028E-06,1.362924
766.7097,-0.1147122,0.0004519243,NaN,-0.3271945,0.0004113863,NaN,-0.4307894,-14.52985,NaN,-1.225817,-1.472717,0.5297297,14.11739,NaN,NaN,0.4339858,0.8132836,0.7923865,1.054118,-4.052416E-06,1.362844
766.7252,-0.1264952,0.000452302,NaN,-0.3271874,0.0004109556,NaN,-0.4178636,-14.5301,NaN,-1.214354,-1.479484,0.5175801,14.12456,NaN,NaN,0.428761,0.8131632,0.7843791,1.063972,-3.975414E-06,1.368352
766.7402,-0.1390159,0.0004522161,NaN,-0.3271811,0.0004106531,NaN,-0.4045344,-14.52905,NaN,-1.202054,-1.471444,0.5050015,14.11595,NaN,NaN,0.4232036,0.8140946,0.7758087,1.052251,-3.89979E-06,1.360557
766.7551,-0.1390159,0.0004522161,NaN,-0.3271811,0.0004106531,NaN,-0.4045344,-14.52905,NaN,-1.202054,-1.471444,0.5050015,14.11595,NaN,NaN,0.4232036,0.8140946,0.7758087,1.052251,-3.89979E-06,1.360557
766.7694,-0.1519479,0.0004520978,NaN,-0.3271732,0.0004109862,NaN,-0.3905749,-14.52979,NaN,-1.189095,-1.46667,0.4917387,14.11097,NaN,NaN,0.4173266,0.813266,0.7661783,1.045319,-3.818281E-06,1.362388
766.785,-0.1650846,0.0004520807,NaN,-0.3271632,0.0004115574,NaN,-0.376175,-14.52992,NaN,-1.175633,-1.465313,0.4779879,14.10955,NaN,NaN,0.4110756,0.8130944,0.7556008,1.043347,-3.737442E-06,1.364956
766.8002,-0.1782949,0.0004518787,NaN,-0.3271511,0.0004117613,NaN,-0.3614392,-14.52996,NaN,-1.161792,-1.467545,0.4638896,14.11191,NaN,NaN,0.404478,0.8131179,0.7442185,1.046592,-3.663532E-06,1.360644
766.8153,-0.1782949,0.0004518787,NaN,-0.3271511,0.0004117613,NaN,-0.3614392,-14.52996,NaN,-1.161792,-1.467545,0.4638896,14.11191,NaN,NaN,0.404478,0.8131179,0.7442185,1.046592,-3.663532E-06,1.360644
766.8294,-0.1922244,0.0004516378,NaN,-0.32714,0.0004122362,NaN,-0.3460456,-14.53034,NaN,-1.146899,-1.464707,0.4493079,14.10895,NaN,NaN,0.3973405,0.8126697,0.7317569,1.042475,-3.591858E-06,1.361612
766.8453,-0.2065479,0.0004516899,NaN,-0.3271272,0.0004118345,NaN,-0.3300084,-14.5314,NaN,-1.13124,-1.476954,0.4341213,14.12201,NaN,NaN,0.3896438,0.8119556,0.718181,1.06032,-3.521524E-06,1.371754
766.8603,-0.2210592,0.0004512188,NaN,-0.327112,0.0004115765,NaN,-0.3136712,-14.53021,NaN,-1.114961,-1.46737,0.4187104,14.11177,NaN,NaN,0.3814175,0.8129868,0.7039487,1.046363,-3.459685E-06,1.362759
766.8752,-0.2210592,0.0004512188,NaN,-0.327112,0.0004115765,NaN,-0.3136712,-14.53021,NaN,-1.114961,-1.46737,0.4187104,14.11177,NaN,NaN,0.3814175,0.8129868,0.7039487,1.046363,-3.459685E-06,1.362759
766.8915,-0.236356,0.000451365,NaN,-0.3270972,0.0004117106,NaN,-0.2974198,-14.53013,NaN,-1.098783,-1.47155,0.4037279,14.11617,NaN,NaN,0.373545,0.8131702,0.6901444,1.052441,-3.393225E-06,1.361658
766.9049,-0.2520827,0.0004519747,NaN,-0.32708,0.0004114705,NaN,-0.2813491,-14.53023,NaN,-1.082895,-1.479246,0.3889314,14.12431,NaN,NaN,0.3658269,0.8132212,0.6766112,1.063643,-3.327064E-06,1.366761
766.9199,-0.2520827,0.0004519747,NaN,-0.32708,0.0004114705,NaN,-0.2813491,-14.53023,NaN,-1.082895,-1.479246,0.3889314,14.12431,NaN,NaN,0.3658269,0.8132212,0.6766112,1.063643,-3.327064E-06,1.366761
766.934,-0.2680138,0.0004522024,NaN,-0.3270599,0.0004118649,NaN,-0.2655406,-14.52986,NaN,-1.067452,-1.469556,0.3743386,14.11402,NaN,NaN,0.3582601,0.8134598,0.6633435,1.049534,-3.258519E-06,1.362141
766.9498,-0.2840067,0.0004523957,NaN,-0.3270374,0.0004116758,NaN,-0.2500375,-14.53116,NaN,-1.052473,-1.475551,0.3599882,14.12052,NaN,NaN,0.3508416,0.8122985,0.650336,1.058301,-3.192656E-06,1.367185
766.9648,-0.3006997,0.0004525281,NaN,-0.3270155,0.0004123174,NaN,-0.2346812,-14.53059,NaN,-1.037498,-1.466891,0.3459127,14.11131,NaN,NaN,0.3435685,0.8127239,0.6375834,1.045697,-3.128581E-06,1.366341
766.9797,-0.3006997,0.0004525281,NaN,-0.3270155,0.0004123174,NaN,-0.2346812,-14.53059,NaN,-1.037498,-1.466891,0.3459127,14.11131,NaN,NaN,0.3435685,0.8127239,0.6375834,1.045697,-3.128581E-06,1.366341
766.9941,-0.317763,0.0004528133,NaN,-0.3269914,0.0004131379,NaN,-0.2195339,-14.53106,NaN,-1.022781,-1.466296,0.3320435,14.11074,NaN,NaN,0.3364379,0.8122398,0.6250809,1.044847,-3.069274E-06,1.37124
767.0098,-0.3349876,0.0004529045,NaN,-0.3269648,0.0004137015,NaN,-0.2046309,-14.53121,NaN,-1.008405,-1.465832,0.3183853,14.11026,NaN,NaN,0.329447,0.8120828,0.6128237,1.044176,-3.013246E-06,1.367638
767.0248,-0.3522414,0.0004531918,NaN,-0.326936,0.0004134919,NaN,-0.1899812,-14.53196,NaN,-0.9943829,-1.47726,0.3049467,14.1224,NaN,NaN,0.3225932,0.8116354,0.6008068,1.060808,-2.954833E-06,1.373004
767.0398,-0.3522414,0.0004531918,NaN,-0.326936,0.0004134919,NaN,-0.1899812,-14.53196,NaN,-0.9943829,-1.47726,0.3049467,14.1224,NaN,NaN,0.3225932,0.8116354,0.6008068,1.060808,-2.954833E-06,1.373004
767.054,-0.3701696,0.000453557,NaN,-0.3269081,0.000412778,NaN,-0.1754196,-14.5313,NaN,-0.9802684,-1.48047,0.2917388,14.12571,NaN,NaN,0.3158737,0.812349,0.5890254,1.065458,-2.901189E-06,1.36867
767.0696,-0.3884467,0.0004536516,NaN,-0.3268783,0.0004123426,NaN,-0.1610304,-14.53087,NaN,-0.966361,-1.473678,0.2787043,14.11849,NaN,NaN,0.3092857,0.8126906,0.5774751,1.055572,-2.844565E-06,1.359679
767.0856,-0.4068666,0.000453936,NaN,-0.3268459,0.0004130589,NaN,-0.1468622,-14.53147,NaN,-0.9527648,-1.466971,0.2658525,14.11147,NaN,NaN,0.3028269,0.8119656,0.5661513,1.04583,-2.78496E-06,1.366858
767.0996,-0.4068666,0.000453936,NaN,-0.3268459,0.0004130589,NaN,-0.1468622,-14.53147,NaN,-0.9527648,-1.466971,0.2658525,14.11147,NaN,NaN,0.3028269,0.8119656,0.5661513,1.04583,-2.78496E-06,1.366858
767.114,-0.4260273,0.0004544798,NaN,-0.3268138,0.0004130935,NaN,-0.132765,-14.53216,NaN,-0.9390627,-1.476154,0.2531979,14.12123,NaN,NaN,0.2964945,0.8115133,0.5550494,1.059196,-2.73966E-06,1.371904
767.1307,-0.4455736,0.0004546778,NaN,-0.326779,0.0004136748,NaN,-0.1188339,-14.53095,NaN,-0.925568,-1.467638,0.2407009,14.11211,NaN,NaN,0.2902863,0.8125858,0.5441653,1.046796,-2.681248E-06,1.364175
767.1445,-0.4652803,0.0004544359,NaN,-0.326741,0.0004139319,NaN,-0.1051193,-14.5304,NaN,-0.912388,-1.46627,0.2283744,14.11059,NaN,NaN,0.2841997,0.8130947,0.5334945,1.044784,-2.63416E-06,1.356886
767.1594,-0.4652803,0.0004544359,NaN,-0.326741,0.0004139319,NaN,-0.1051193,-14.5304,NaN,-0.912388,-1.46627,0.2283744,14.11059,NaN,NaN,0.2841997,0.8130947,0.5334945,1.044784,-2.63416E-06,1.356886
767.1738,-0.4850052,0.0004545056,NaN,-0.3267005,0.000414431,NaN,-0.09163728,-14.53117,NaN,-0.8995457,-1.467126,0.2162307,14.11159,NaN,NaN,0.2782326,0.8123484,0.5230331,1.046056,-2.578132E-06,1.362099
767.1895,-0.5053871,0.0004545221,NaN,-0.3266608,0.0004149944,NaN,-0.07821078,-14.53081,NaN,-0.8865883,-1.465181,0.2042623,14.10948,NaN,NaN,0.2723823,0.8126617,0.5127767,1.043214,-2.535216E-06,1.359085
767.2043,-0.5260968,0.00045422,NaN,-0.3266189,0.0004152926,NaN,-0.06493249,-14.53095,NaN,-0.8738213,-1.465034,0.192438,14.10934,NaN,NaN,0.2666468,0.8125144,0.5027215,1.043005,-2.486937E-06,1.357678
767.2194,-0.5260968,0.00045422,NaN,-0.3266189,0.0004152926,NaN,-0.06493249,-14.53095,NaN,-0.8738213,-1.465034,0.192438,14.10934,NaN,NaN,0.2666468,0.8125144,0.5027215,1.043005,-2.486937E-06,1.357678
767.2338,-0.5469256,0.0004542315,NaN,-0.3265742,0.0004150039,NaN,-0.05185217,-14.53238,NaN,-0.8613515,-1.475251,0.1807681,14.12031,NaN,NaN,0.2610237,0.8113766,0.4928634,1.057912,-2.442829E-06,1.369631
767.2494,-0.5677421,0.0004542707,NaN,-0.3265274,0.0004156554,NaN,-0.03898665,-14.53111,NaN,-0.8492037,-1.465881,0.1692628,14.11029,NaN,NaN,0.2555109,0.8124778,0.4831987,1.044273,-2.396933E-06,1.360013
767.2647,-0.5891917,0.0004547189,NaN,-0.3264818,0.0004155131,NaN,-0.02614876,-14.53196,NaN,-0.8369241,-1.477581,0.1578966,14.12275,NaN,NaN,0.2501062,0.811956,0.4737234,1.061312,-2.34627E-06,1.368343
767.2794,-0.5891917,0.0004547189,NaN,-0.3264818,0.0004155131,NaN,-0.02614876,-14.53196,NaN,-0.8369241,-1.477581,0.1578966,14.12275,NaN,NaN,0.2501062,0.811956,0.4737234,1.061312,-2.34627E-06,1.368343
767.2948,-0.6109496,0.0004553421,NaN,-0.3264341,0.0004151526,NaN,-0.01344047,-14.53195,NaN,-0.8248213,-1.480134,0.1466556,14.12543,NaN,NaN,0.2448074,0.811983,0.464434,1.06502,-2.295606E-06,1.369747
767.3095,-0.6328102,0.0004556472,NaN,-0.3263839,0.0004151006,NaN,-0.0009140167,-14.5309,NaN,-0.8130044,-1.473917,0.1355529,14.11875,NaN,NaN,0.2396126,0.812946,0.4553267,1.055959,-2.24971E-06,1.362597
767.3243,-0.6546435,0.0004561886,NaN,-0.3263316,0.0004146742,NaN,0.01141256,-14.53137,NaN,-0.8014997,-1.479834,0.1245982,14.12504,NaN,NaN,0.2345197,0.8125798,0.446398,1.064573,-2.205007E-06,1.367027
767.3393,-0.6546435,0.0004561886,NaN,-0.3263316,0.0004146742,NaN,0.01141256,-14.53137,NaN,-0.8014997,-1.479834,0.1245982,14.12504,NaN,NaN,0.2345197,0.8125798,0.446398,1.064573,-2.205007E-06,1.367027
767.3537,-0.6765893,0.0004566391,NaN,-0.3262791,0.0004155533,NaN,0.02359995,-14.53054,NaN,-0.7901659,-1.46815,0.1137793,14.1126,NaN,NaN,0.2295268,0.8132471,0.4376445,1.047559,-2.159111E-06,1.360671
767.3694,-0.6985139,0.0004569362,NaN,-0.3262258,0.0004152502,NaN,0.03561845,-14.53117,NaN,-0.7790873,-1.478597,0.1030962,14.12372,NaN,NaN,0.2246319,0.8128707,0.4290626,1.062778,-2.115004E-06,1.363561
767.3845,-0.7203332,0.0004571404,NaN,-0.3261721,0.000415613,NaN,0.04745724,-14.53036,NaN,-0.7682866,-1.470984,0.09255103,14.11558,NaN,NaN,0.219833,0.8135543,0.420649,1.051682,-2.07328E-06,1.359504
767.3997,-0.7203332,0.0004571404,NaN,-0.3261721,0.000415613,NaN,0.04745724,-14.53036,NaN,-0.7682866,-1.470984,0.09255103,14.11558,NaN,NaN,0.219833,0.8135543,0.420649,1.051682,-2.07328E-06,1.359504
767.414,-0.7419951,0.0004570789,NaN,-0.3261186,0.0004155575,NaN,0.05911604,-14.53071,NaN,-0.7577627,-1.471535,0.08214331,14.11619,NaN,NaN,0.2151284,0.8132166,0.4124004,1.052491,-2.036325E-06,1.358909
767.4298,-0.7634673,0.0004569116,NaN,-0.3260659,0.000415789,NaN,0.07059921,-14.53095,NaN,-0.7475065,-1.467662,0.07187052,14.11212,NaN,NaN,0.2105161,0.8128848,0.4043135,1.046859,-1.994006E-06,1.359557
767.4448,-0.7847303,0.0004572578,NaN,-0.3260142,0.0004153738,NaN,0.08191247,-14.53129,NaN,-0.7375075,-1.478981,0.06172911,14.12411,NaN,NaN,0.2059944,0.8128288,0.3963853,1.063329,-1.958839E-06,1.366164
767.4598,-0.7847303,0.0004572578,NaN,-0.3260142,0.0004153738,NaN,0.08191247,-14.53129,NaN,-0.7375075,-1.478981,0.06172911,14.12411,NaN,NaN,0.2059944,0.8128288,0.3963853,1.063329,-1.958839E-06,1.366164
767.477,-0.805773,0.0004576049,NaN,-0.325964,0.0004160003,NaN,0.09306139,-14.53179,NaN,-0.7277557,-1.469463,0.05171536,14.1141,NaN,NaN,0.2015615,0.8121971,0.3886125,1.049492,-1.926653E-06,1.367877
767.4899,-0.826589,0.0004576868,NaN,-0.3259155,0.0004155118,NaN,0.1040509,-14.53099,NaN,-0.7182428,-1.477658,0.04182572,14.12263,NaN,NaN,0.1972156,0.8131801,0.3809922,1.061372,-1.891486E-06,1.363188
767.5047,-0.8471755,0.0004576048,NaN,-0.3258688,0.0004155029,NaN,0.1148853,-14.53059,NaN,-0.7089613,-1.470131,0.03205698,14.11463,NaN,NaN,0.192955,0.8134503,0.3735213,1.050409,-1.856021E-06,1.358714
767.5197,-0.8471755,0.0004576048,NaN,-0.3258688,0.0004155029,NaN,0.1148853,-14.53059,NaN,-0.7089613,-1.470131,0.03205698,14.11463,NaN,NaN,0.192955,0.8134503,0.3735213,1.050409,-1.856021E-06,1.358714
767.5341,-0.8675317,0.0004573008,NaN,-0.325824,0.0004157421,NaN,0.1255683,-14.531,NaN,-0.699905,-1.465989,0.02240631,14.11029,NaN,NaN,0.1887782,0.8129442,0.3661969,1.044391,-1.818769E-06,1.358416
767.5497,-0.8876579,0.0004572843,NaN,-0.3257812,0.0004163453,NaN,0.1361029,-14.53141,NaN,-0.6910684,-1.465302,0.01287117,14.10961,NaN,NaN,0.1846833,0.8125176,0.3590162,1.043404,-1.78241E-06,1.363792
767.5648,-0.9075553,0.0004574069,NaN,-0.3257402,0.0004167244,NaN,0.146492,-14.53218,NaN,-0.6824463,-1.46856,0.003449336,14.11314,NaN,NaN,0.1806689,0.8118371,0.3519762,1.048168,-1.748733E-06,1.367218
767.5798,-0.9075553,0.0004574069,NaN,-0.3257402,0.0004167244,NaN,0.146492,-14.53218,NaN,-0.6824463,-1.46856,0.003449336,14.11314,NaN,NaN,0.1806689,0.8118371,0.3519762,1.048168,-1.748733E-06,1.367218
767.5943,-0.9272258,0.0004571666,NaN,-0.3257012,0.0004167292,NaN,0.1567382,-14.53131,NaN,-0.6740342,-1.468211,-0.005861248,14.11265,NaN,NaN,0.1767334,0.8126926,0.3450743,1.047628,-1.713864E-06,1.359864
767.6113,-0.9466712,0.0004563712,NaN,-0.3256641,0.0004162957,NaN,0.1668436,-14.53186,NaN,-0.6658278,-1.466859,-0.01506242,14.11129,NaN,NaN,0.1728751,0.812113,0.3383077,1.045681,-1.680486E-06,1.362581
767.6249,-0.9658939,0.0004553604,NaN,-0.3256288,0.0004159201,NaN,0.1768106,-14.53108,NaN,-0.6578227,-1.465024,-0.02415587,14.10925,NaN,NaN,0.1690927,0.8128362,0.3316739,1.042982,-1.645617E-06,1.356589
767.64,-0.9658939,0.0004553604,NaN,-0.3256288,0.0004159201,NaN,0.1768106,-14.53108,NaN,-0.6578227,-1.465024,-0.02415587,14.10925,NaN,NaN,0.1690927,0.8128362,0.3316739,1.042982,-1.645617E-06,1.356589
767.6541,-0.9848962,0.0004540677,NaN,-0.3255954,0.0004152724,NaN,0.186641,-14.53166,NaN,-0.6500149,-1.46521,-0.03314316,14.10952,NaN,NaN,0.1653846,0.8122542,0.3251702,1.043275,-1.609258E-06,1.360425
767.6708,-1.00368,0.000453503,NaN,-0.3255637,0.0004150395,NaN,0.196337,-14.53272,NaN,-0.6424006,-1.46983,-0.04202574,14.11453,NaN,NaN,0.1617493,0.8113293,0.318794,1.050029,-1.577221E-06,1.367885
767.6849,-1.022249,0.0004533327,NaN,-0.3255338,0.0004145046,NaN,0.2059002,-14.53304,NaN,-0.6349759,-1.47547,-0.05080498,14.1205,NaN,NaN,0.1581856,0.8111286,0.3125429,1.058229,-1.546673E-06,1.370518
767.6997,-1.022249,0.0004533327,NaN,-0.3255338,0.0004145046,NaN,0.2059002,-14.53304,NaN,-0.6349759,-1.47547,-0.05080498,14.1205,NaN,NaN,0.1581856,0.8111286,0.3125429,1.058229,-1.546673E-06,1.370518
767.7141,-1.040604,0.0004532606,NaN,-0.3255055,0.0004150321,NaN,0.2153324,-14.53198,NaN,-0.627737,-1.465748,-0.05948216,14.11014,NaN,NaN,0.1546918,0.8120191,0.3064143,1.044085,-1.518063E-06,1.361846
767.7297,-1.058749,0.0004533663,NaN,-0.3254788,0.0004157282,NaN,0.2246354,-14.53238,NaN,-0.6206803,-1.465303,-0.06805845,14.10972,NaN,NaN,0.1512667,0.8116045,0.3004059,1.043451,-1.488633E-06,1.364525
767.7448,-1.076685,0.0004535527,NaN,-0.3254537,0.0004158418,NaN,0.2338107,-14.53369,NaN,-0.6138021,-1.472185,-0.07653491,14.11713,NaN,NaN,0.147909,0.8104897,0.2945154,1.053494,-1.459874E-06,1.372183
767.7597,-1.076685,0.0004535527,NaN,-0.3254537,0.0004158418,NaN,0.2338107,-14.53369,NaN,-0.6138021,-1.472185,-0.07653491,14.11713,NaN,NaN,0.147909,0.8104897,0.2945154,1.053494,-1.459874E-06,1.372183
767.774,-1.094415,0.0004539216,NaN,-0.3254302,0.0004153567,NaN,0.2428599,-14.5333,NaN,-0.6070989,-1.479473,-0.08491258,14.12474,NaN,NaN,0.1446172,0.8110228,0.2887404,1.064057,-1.430007E-06,1.373248
767.7899,-1.111941,0.0004540388,NaN,-0.3254081,0.000415992,NaN,0.2517844,-14.5326,NaN,-0.6005671,-1.465991,-0.09319238,14.11047,NaN,NaN,0.1413902,0.8115461,0.2830786,1.044469,-1.401974E-06,1.365065
767.8047,-1.129266,0.0004539267,NaN,-0.3253875,0.0004164525,NaN,0.2605855,-14.53242,NaN,-0.5942032,-1.465001,-0.1013752,14.1094,NaN,NaN,0.1382266,0.8116938,0.2775278,1.04302,-1.373662E-06,1.363603
767.8198,-1.129266,0.0004539267,NaN,-0.3253875,0.0004164525,NaN,0.2605855,-14.53242,NaN,-0.5942032,-1.465001,-0.1013752,14.1094,NaN,NaN,0.1382266,0.8116938,0.2775278,1.04302,-1.373662E-06,1.363603
767.8342,-1.146392,0.000453706,NaN,-0.3253683,0.0004167756,NaN,0.2692647,-14.53237,NaN,-0.5880039,-1.466249,-0.1094618,14.1107,NaN,NaN,0.1351252,0.8117738,0.2720859,1.044829,-1.345051E-06,1.365443
767.8498,-1.163321,0.0004537576,NaN,-0.3253504,0.0004169068,NaN,0.2778232,-14.53358,NaN,-0.5819658,-1.471198,-0.117453,14.11607,NaN,NaN,0.1320848,0.8106871,0.2667508,1.052062,-1.318825E-06,1.371596
767.866,-1.180055,0.0004536908,NaN,-0.3253339,0.0004173834,NaN,0.2862621,-14.53247,NaN,-0.5760856,-1.465498,-0.1253494,14.10993,NaN,NaN,0.1291043,0.8116634,0.2615202,1.043756,-1.292152E-06,1.363643
767.8796,-1.180055,0.0004536908,NaN,-0.3253339,0.0004173834,NaN,0.2862621,-14.53247,NaN,-0.5760856,-1.465498,-0.1253494,14.10993,NaN,NaN,0.1291043,0.8116634,0.2615202,1.043756,-1.292152E-06,1.363643
767.8941,-1.196598,0.000453966,NaN,-0.3253186,0.0004169781,NaN,0.2945827,-14.53271,NaN,-0.5703599,-1.477989,-0.1331518,14.12312,NaN,NaN,0.1261823,0.8117576,0.2563922,1.061907,-1.268608E-06,1.369592
767.9096,-1.21295,0.0004538469,NaN,-0.3253046,0.0004168567,NaN,0.3027861,-14.53209,NaN,-0.5647857,-1.469463,-0.1408605,14.11405,NaN,NaN,0.1233178,0.8122314,0.2513647,1.049502,-1.241041E-06,1.363788
767.9247,-1.229114,0.0004535043,NaN,-0.3252918,0.000416598,NaN,0.3108732,-14.53244,NaN,-0.5593598,-1.469582,-0.1484763,14.11422,NaN,NaN,0.1205096,0.8118691,0.2464359,1.049685,-1.218093E-06,1.363375
767.9396,-1.229114,0.0004535043,NaN,-0.3252918,0.000416598,NaN,0.3108732,-14.53244,NaN,-0.5593598,-1.469582,-0.1484763,14.11422,NaN,NaN,0.1205096,0.8118691,0.2464359,1.049685,-1.218093E-06,1.363375
767.9541,-1.244871,0.000453895,NaN,-0.3252794,0.0004161761,NaN,0.3187291,-14.53335,NaN,-0.5542107,-1.47823,-0.155919,14.12344,NaN,NaN,0.1177567,0.8111567,0.2416037,1.062275,-1.194848E-06,1.372826
767.9696,-1.260307,0.0004537986,NaN,-0.3252684,0.0004159496,NaN,0.3264332,-14.5321,NaN,-0.5492411,-1.469491,-0.1632439,14.11409,NaN,NaN,0.1150579,0.812265,0.2368663,1.049558,-1.1719E-06,1.363913
767.9847,-1.275476,0.0004531522,NaN,-0.3252592,0.0004154896,NaN,0.3340178,-14.53242,NaN,-0.5444111,-1.467152,-0.1704734,14.11166,NaN,NaN,0.1124121,0.8118961,0.2322217,1.046167,-1.148058E-06,1.365663
767.9996,-1.275476,0.0004531522,NaN,-0.3252592,0.0004154896,NaN,0.3340178,-14.53242,NaN,-0.5444111,-1.467152,-0.1704734,14.11166,NaN,NaN,0.1124121,0.8118961,0.2322217,1.046167,-1.148058E-06,1.365663
768.0142,-1.289686,0.00045225,NaN,-0.3252492,0.0004150583,NaN,0.3410906,-14.5318,NaN,-0.5401363,-1.465536,-0.1773252,14.10987,NaN,NaN,0.1098183,0.8124738,0.2276683,1.043796,-1.125408E-06,1.359676
768.03,-1.303233,0.000452005,NaN,-0.3252417,0.0004151266,NaN,0.3479308,-14.53283,NaN,-0.5361035,-1.46908,-0.1840013,14.11374,NaN,NaN,0.1072753,0.8115428,0.2232042,1.048985,-1.104249E-06,1.367113
768.0447,-1.316306,0.0004518424,NaN,-0.3252372,0.0004154136,NaN,0.3546474,-14.53249,NaN,-0.53219,-1.467134,-0.1905789,14.11164,NaN,NaN,0.1047824,0.8118304,0.2188275,1.046146,-1.084579E-06,1.363649
768.0606,-1.329027,0.000451401,NaN,-0.3252355,0.0004155305,NaN,0.3612763,-14.53189,NaN,-0.5283546,-1.465716,-0.1970823,14.11006,NaN,NaN,0.1023385,0.8123907,0.2145368,1.044062,-1.06491E-06,1.360073
768.076,-1.329027,0.000451401,NaN,-0.3252355,0.0004155305,NaN,0.3612763,-14.53189,NaN,-0.5283546,-1.465716,-0.1970823,14.11006,NaN,NaN,0.1023385,0.8123907,0.2145368,1.044062,-1.06491E-06,1.360073
768.0889,-1.340746,0.0004510343,NaN,-0.325234,0.0004146449,NaN,0.3673953,-14.53209,NaN,-0.5250165,-1.478047,-0.2031975,14.1231,NaN,NaN,0.09994248,0.8125219,0.2103301,1.061992,-1.044644E-06,1.363954
768.1042,-1.351784,0.0004507057,NaN,-0.325234,0.0004147579,NaN,0.3732971,-14.5319,NaN,-0.5218733,-1.46723,-0.2091422,14.11165,NaN,NaN,0.09759346,0.8125451,0.206206,1.046257,-1.021994E-06,1.360917
768.1193,-1.351784,0.0004507057,NaN,-0.325234,0.0004147579,NaN,0.3732971,-14.5319,NaN,-0.5218733,-1.46723,-0.2091422,14.11165,NaN,NaN,0.09759346,0.8125451,0.206206,1.046257,-1.021994E-06,1.360917
768.1337,-1.36235,0.0004506827,NaN,-0.3252354,0.0004140827,NaN,0.3790921,-14.53287,NaN,-0.5188102,-1.478379,-0.2149971,14.12354,NaN,NaN,0.0952906,0.8118457,0.2021627,1.062499,-9.993446E-07,1.369641
768.1492,-1.372572,0.0004503824,NaN,-0.3252378,0.000413907,NaN,0.3848147,-14.53193,NaN,-0.5157924,-1.4683,-0.220786,14.1128,NaN,NaN,0.09303302,0.8126307,0.1981987,1.047831,-9.778869E-07,1.362516
768.1647,-1.381809,0.0004504143,NaN,-0.3252395,0.000413008,NaN,0.3900177,-14.53222,NaN,-0.5132396,-1.479862,-0.226169,14.12503,NaN,NaN,0.09081955,0.8126157,0.1943125,1.064646,-9.582174E-07,1.36424
768.1794,-1.381809,0.0004504143,NaN,-0.3252395,0.000413008,NaN,0.3900177,-14.53222,NaN,-0.5132396,-1.479862,-0.226169,14.12503,NaN,NaN,0.09081955,0.8126157,0.1943125,1.064646,-9.582174E-07,1.36424
768.194,-1.390387,0.0004505551,NaN,-0.3252424,0.0004133734,NaN,0.3950104,-14.53195,NaN,-0.5108554,-1.468826,-0.2313824,14.11334,NaN,NaN,0.0886495,0.8127262,0.1905024,1.048585,-9.385478E-07,1.361139
768.2095,-1.398515,0.0004504925,NaN,-0.3252472,0.0004137321,NaN,0.3999089,-14.53229,NaN,-0.5085284,-1.466793,-0.2365137,14.11122,NaN,NaN,0.08652208,0.8123372,0.1867671,1.045634,-9.206664E-07,1.362399
768.2247,-1.406325,0.0004508477,NaN,-0.3252545,0.0004134181,NaN,0.4047478,-14.53215,NaN,-0.5062253,-1.477843,-0.2415881,14.12285,NaN,NaN,0.08443648,0.812762,0.183105,1.061685,-8.998048E-07,1.365625
768.2394,-1.406325,0.0004508477,NaN,-0.3252545,0.0004134181,NaN,0.4047478,-14.53215,NaN,-0.5062253,-1.477843,-0.2415881,14.12285,NaN,NaN,0.08443648,0.812762,0.183105,1.061685,-8.998048E-07,1.365625
768.2559,-1.413176,0.0004508139,NaN,-0.3252614,0.0004135163,NaN,0.4090574,-14.53218,NaN,-0.5043637,-1.468037,-0.246241,14.11248,NaN,NaN,0.08239153,0.8125756,0.1795147,1.047417,-8.801352E-07,1.36297
768.2695,-1.419393,0.0004510891,NaN,-0.3252703,0.000412893,NaN,0.4131633,-14.53291,NaN,-0.5026504,-1.479723,-0.2507264,14.1249,NaN,NaN,0.08038667,0.8121216,0.1759948,1.064426,-8.616578E-07,1.369222
768.2844,-1.425187,0.0004514461,NaN,-0.3252814,0.000413413,NaN,0.4171857,-14.53324,NaN,-0.5009754,-1.470389,-0.2551365,14.11507,NaN,NaN,0.07842118,0.8116711,0.172544,1.050858,-8.443724E-07,1.369742
768.2993,-1.425187,0.0004514461,NaN,-0.3252814,0.000413413,NaN,0.4171857,-14.53324,NaN,-0.5009754,-1.470389,-0.2551365,14.11507,NaN,NaN,0.07842118,0.8116711,0.172544,1.050858,-8.443724E-07,1.369742
768.3137,-1.429961,0.0004511135,NaN,-0.3252923,0.0004131804,NaN,0.4206745,-14.53258,NaN,-0.4997246,-1.470022,-0.2591177,14.11459,NaN,NaN,0.07649393,0.8123156,0.1691608,1.050299,-8.276832E-07,1.364589
768.3293,-1.434074,0.0004509914,NaN,-0.3253047,0.0004135021,NaN,0.4239757,-14.53236,NaN,-0.4985972,-1.467755,-0.2629425,14.11216,NaN,NaN,0.07460444,0.8124667,0.165844,1.046991,-8.12782E-07,1.363069
768.3443,-1.437755,0.0004512428,NaN,-0.325319,0.0004142735,NaN,0.4272143,-14.53282,NaN,-0.4974827,-1.466746,-0.2667075,14.11115,NaN,NaN,0.07275206,0.8119804,0.1625922,1.045537,-7.972848E-07,1.366633
768.3597,-1.437755,0.0004512428,NaN,-0.325319,0.0004142735,NaN,0.4272143,-14.53282,NaN,-0.4974827,-1.466746,-0.2667075,14.11115,NaN,NaN,0.07275206,0.8119804,0.1625922,1.045537,-7.972848E-07,1.366633
768.3739,-1.441147,0.0004513757,NaN,-0.3253349,0.0004147792,NaN,0.4304253,-14.53345,NaN,-0.4963505,-1.467034,-0.2704388,14.11152,NaN,NaN,0.07093605,0.811354,0.1594041,1.045975,-7.794034E-07,1.36906
768.3896,-1.443616,0.0004517063,NaN,-0.3253497,0.0004144386,NaN,0.4331117,-14.53371,NaN,-0.4956164,-1.478164,-0.2737424,14.12327,NaN,NaN,0.06915533,0.8113703,0.1562786,1.062142,-7.662903E-07,1.374574
768.4045,-1.445493,0.0004520797,NaN,-0.3253649,0.0004148795,NaN,0.435618,-14.5326,NaN,-0.4949933,-1.471645,-0.2768924,14.11627,NaN,NaN,0.06740945,0.8123729,0.1532144,1.052647,-7.507931E-07,1.364702
768.4194,-1.445493,0.0004520797,NaN,-0.3253649,0.0004148795,NaN,0.435618,-14.5326,NaN,-0.4949933,-1.471645,-0.2768924,14.11627,NaN,NaN,0.06740945,0.8123729,0.1532144,1.052647,-7.507931E-07,1.364702
768.4339,-1.44699,0.0004524534,NaN,-0.3253809,0.0004157961,NaN,0.4380696,-14.53297,NaN,-0.4943747,-1.466702,-0.2799877,14.11109,NaN,NaN,0.06569783,0.8118989,0.1502102,1.045472,-7.36488E-07,1.367373
768.4504,-1.448243,0.0004524295,NaN,-0.3253975,0.0004162208,NaN,0.4405026,-14.53281,NaN,-0.4937299,-1.465459,-0.2830558,14.10976,NaN,NaN,0.06401983,0.8120192,0.1472649,1.043658,-7.221829E-07,1.363203
768.4645,-1.448607,0.0004529891,NaN,-0.3254122,0.0004160825,NaN,0.4424126,-14.5324,NaN,-0.4934722,-1.477066,-0.2856937,14.12193,NaN,NaN,0.06237435,0.8127464,0.1443774,1.060505,-7.090699E-07,1.367477
768.4794,-1.448607,0.0004529891,NaN,-0.3254122,0.0004160825,NaN,0.4424126,-14.5324,NaN,-0.4934722,-1.477066,-0.2856937,14.12193,NaN,NaN,0.06237435,0.8127464,0.1443774,1.060505,-7.090699E-07,1.367477
768.4937,-1.448412,0.0004537259,NaN,-0.3254263,0.0004157817,NaN,0.4441531,-14.53342,NaN,-0.4933144,-1.48001,-0.2881853,14.12515,NaN,NaN,0.06076105,0.8117616,0.1415466,1.064808,-6.935726E-07,1.373153
768.5093,-1.447866,0.0004542087,NaN,-0.3254404,0.0004161884,NaN,0.4458529,-14.53204,NaN,-0.4931499,-1.47208,-0.2906329,14.11663,NaN,NaN,0.0591794,0.8130274,0.1387712,1.053256,-6.804596E-07,1.363609
768.5244,-1.447102,0.0004540732,NaN,-0.3254545,0.0004164408,NaN,0.4475491,-14.53216,NaN,-0.4929481,-1.465973,-0.2930655,14.11018,NaN,NaN,0.05762879,0.8127831,0.1360502,1.044372,-6.661545E-07,1.361087
768.5394,-1.447102,0.0004540732,NaN,-0.3254545,0.0004164408,NaN,0.4475491,-14.53216,NaN,-0.4929481,-1.465973,-0.2930655,14.11018,NaN,NaN,0.05762879,0.8127831,0.1360502,1.044372,-6.661545E-07,1.361087
768.5573,-1.445475,0.0004543367,NaN,-0.3254663,0.0004159274,NaN,0.4487323,-14.53275,NaN,-0.4931204,-1.478698,-0.295074,14.12369,NaN,NaN,0.0561082,0.8125262,0.1333826,1.062894,-6.518494E-07,1.369163
768.5696,-1.443312,0.0004549174,NaN,-0.3254768,0.0004156021,NaN,0.4497603,-14.53351,NaN,-0.4933812,-1.478815,-0.2969469,14.12388,NaN,NaN,0.05461733,0.8117633,0.1307674,1.063074,-6.375443E-07,1.372953
768.5843,-1.44082,0.0004555117,NaN,-0.3254866,0.0004155744,NaN,0.4507643,-14.53218,NaN,-0.4936238,-1.476951,-0.2987894,14.12176,NaN,NaN,0.05315569,0.8130533,0.1282033,1.060335,-6.232392E-07,1.360811
768.5995,-1.44082,0.0004555117,NaN,-0.3254866,0.0004155744,NaN,0.4507643,-14.53218,NaN,-0.4936238,-1.476951,-0.2987894,14.12176,NaN,NaN,0.05315569,0.8130533,0.1282033,1.060335,-6.232392E-07,1.360811
768.6136,-1.437405,0.0004558795,NaN,-0.3254936,0.0004159005,NaN,0.4512686,-14.53176,NaN,-0.49423,-1.4721,-0.3002185,14.11658,NaN,NaN,0.05172231,0.8133856,0.1256896,1.053263,-6.113183E-07,1.361641
768.6294,-1.433423,0.0004560062,NaN,-0.3254987,0.0004160103,NaN,0.451644,-14.5332,NaN,-0.4949052,-1.471628,-0.3015336,14.11624,NaN,NaN,0.05031695,0.8119324,0.1232252,1.052616,-6.029736E-07,1.367193
768.6456,-1.429101,0.0004562546,NaN,-0.3255025,0.0004164364,NaN,0.4520235,-14.53329,NaN,-0.4955417,-1.469978,-0.3028415,14.1145,NaN,NaN,0.04893916,0.8118011,0.120809,1.050218,-5.934369E-07,1.369515
768.6593,-1.429101,0.0004562546,NaN,-0.3255025,0.0004164364,NaN,0.4520235,-14.53329,NaN,-0.4955417,-1.469978,-0.3028415,14.1145,NaN,NaN,0.04893916,0.8118011,0.120809,1.050218,-5.934369E-07,1.369515
768.6735,-1.424582,0.0004565247,NaN,-0.3255055,0.0004159445,NaN,0.4524427,-14.53315,NaN,-0.4961106,-1.479015,-0.3041704,14.124,NaN,NaN,0.04758842,0.8121396,0.1184403,1.063339,-5.803238E-07,1.370191
768.689,-1.419231,0.000457145,NaN,-0.3255064,0.0004161062,NaN,0.4523898,-14.53373,NaN,-0.4970251,-1.475892,-0.3051079,14.12076,NaN,NaN,0.04626378,0.8115169,0.116118,1.058804,-5.684029E-07,1.37287
768.7041,-1.413379,0.0004573009,NaN,-0.3255064,0.000416694,NaN,0.4522221,-14.53201,NaN,-0.4980024,-1.466591,-0.3059429,14.11075,NaN,NaN,0.04496502,0.8130609,0.1138412,1.045248,-5.540978E-07,1.359828
768.7191,-1.413379,0.0004573009,NaN,-0.3255064,0.000416694,NaN,0.4522221,-14.53201,NaN,-0.4980024,-1.466591,-0.3059429,14.11075,NaN,NaN,0.04496502,0.8130609,0.1138412,1.045248,-5.540978E-07,1.359828
768.7334,-1.407236,0.0004574553,NaN,-0.325506,0.0004172116,NaN,0.4520686,-14.53285,NaN,-0.498938,-1.467516,-0.3067793,14.11183,NaN,NaN,0.04369174,0.8122473,0.1116091,1.04662,-5.469453E-07,1.365586
768.7491,-1.400936,0.0004579405,NaN,-0.3255051,0.0004173492,NaN,0.4519646,-14.53361,NaN,-0.4998027,-1.474858,-0.3076451,14.11966,NaN,NaN,0.04244346,0.8116769,0.1094208,1.057313,-5.374085E-07,1.372403
768.7642,-1.393834,0.0004583116,NaN,-0.3255017,0.0004166428,NaN,0.4514023,-14.53301,NaN,-0.5010085,-1.481186,-0.3081305,14.12625,NaN,NaN,0.04121927,0.8123811,0.1072753,1.066489,-5.266797E-07,1.368775
768.7792,-1.393834,0.0004583116,NaN,-0.3255017,0.0004166428,NaN,0.4514023,-14.53301,NaN,-0.5010085,-1.481186,-0.3081305,14.12625,NaN,NaN,0.04121927,0.8123811,0.1072753,1.066489,-5.266797E-07,1.368775
768.7937,-1.386259,0.0004588428,NaN,-0.3254963,0.0004161338,NaN,0.450738,-14.5321,NaN,-0.5022715,-1.479313,-0.3085236,14.12417,NaN,NaN,0.04001899,0.8132603,0.1051719,1.063747,-5.159508E-07,1.364465
768.8093,-1.378418,0.0004585673,NaN,-0.3254894,0.0004155329,NaN,0.4501017,-14.53138,NaN,-0.5034865,-1.470725,-0.3089294,14.11501,NaN,NaN,0.03884226,0.8138537,0.1031098,1.051232,-5.05222E-07,1.358999
768.8242,-1.370441,0.000458227,NaN,-0.3254816,0.0004150747,NaN,0.4495294,-14.53096,NaN,-0.5046238,-1.470124,-0.3093767,14.11432,NaN,NaN,0.03768864,0.8142571,0.1010881,1.050345,-4.938971E-07,1.354977
768.8403,-1.361685,0.0004582656,NaN,-0.3254708,0.0004145045,NaN,0.4485195,-14.53344,NaN,-0.5060955,-1.475718,-0.3094612,14.12055,NaN,NaN,0.03655726,0.8119215,0.09910602,1.058573,-4.837643E-07,1.368481
768.8542,-1.361685,0.0004582656,NaN,-0.3254708,0.0004145045,NaN,0.4485195,-14.53344,NaN,-0.5060955,-1.475718,-0.3094612,14.12055,NaN,NaN,0.03655726,0.8119215,0.09910602,1.058573,-4.837643E-07,1.368481
768.8685,-1.352475,0.0004576804,NaN,-0.3254576,0.0004139417,NaN,0.4474245,-14.53236,NaN,-0.5076171,-1.467494,-0.3094675,14.11175,NaN,NaN,0.03544798,0.812853,0.09716282,1.046599,-4.754197E-07,1.362615
768.8842,-1.343019,0.0004569878,NaN,-0.3254427,0.0004133208,NaN,0.4463731,-14.53149,NaN,-0.5090834,-1.469363,-0.3094994,14.11362,NaN,NaN,0.03436046,0.8137644,0.09525772,1.049289,-4.658829E-07,1.356271
768.899,-1.343019,0.0004569878,NaN,-0.3254427,0.0004133208,NaN,0.4463731,-14.53149,NaN,-0.5090834,-1.469363,-0.3094994,14.11362,NaN,NaN,0.03436046,0.8137644,0.09525772,1.049289,-4.658829E-07,1.356271
768.9136,-1.332718,0.0004559506,NaN,-0.3254243,0.0004127064,NaN,0.4449049,-14.53137,NaN,-0.5108777,-1.465998,-0.3091867,14.11004,NaN,NaN,0.03329392,0.8138034,0.09338998,1.044391,-4.575383E-07,1.35702
768.9291,-1.32193,0.0004559813,NaN,-0.3254029,0.0004118494,NaN,0.4433792,-14.53189,NaN,-0.5127058,-1.478688,-0.308819,14.12354,NaN,NaN,0.03224822,0.8136256,0.09155886,1.062886,-4.468095E-07,1.364705
768.9444,-1.31088,0.0004560403,NaN,-0.3253793,0.0004120995,NaN,0.4419245,-14.53124,NaN,-0.5144612,-1.468371,-0.3084996,14.11255,NaN,NaN,0.03122306,0.8141149,0.08976363,1.047853,-4.396569E-07,1.356935
768.9594,-1.31088,0.0004560403,NaN,-0.3253793,0.0004120995,NaN,0.4419245,-14.53124,NaN,-0.5144612,-1.468371,-0.3084996,14.11255,NaN,NaN,0.03122306,0.8141149,0.08976363,1.047853,-4.396569E-07,1.356935
768.9738,-1.299712,0.0004554825,NaN,-0.3253541,0.0004118822,NaN,0.4405732,-14.53179,NaN,-0.5161155,-1.466638,-0.3082548,14.11078,NaN,NaN,0.03021807,0.8135151,0.08800361,1.045349,-4.325044E-07,1.36011
768.9894,-1.287788,0.0004546187,NaN,-0.3253257,0.0004116028,NaN,0.438836,-14.53142,NaN,-0.5180846,-1.465537,-0.3076921,14.10957,NaN,NaN,0.02923244,0.8138385,0.0862781,1.043733,-4.247558E-07,1.356762
769.0043,-1.275438,0.0004540356,NaN,-0.3252945,0.0004119276,NaN,0.4370521,-14.53177,NaN,-0.520085,-1.464712,-0.3070832,14.10873,NaN,NaN,0.02826608,0.8134549,0.08458643,1.042545,-4.176032E-07,1.358722
769.0206,-1.262873,0.0004540939,NaN,-0.3252611,0.0004115036,NaN,0.435344,-14.53188,NaN,-0.5220127,-1.477728,-0.3065267,14.1225,NaN,NaN,0.0273187,0.8137103,0.08292792,1.061486,-4.110467E-07,1.364013
769.0353,-1.262873,0.0004540939,NaN,-0.3252611,0.0004115036,NaN,0.435344,-14.53188,NaN,-0.5220127,-1.477728,-0.3065267,14.1225,NaN,NaN,0.0273187,0.8137103,0.08292792,1.061486,-4.110467E-07,1.364013
769.0495,-1.250224,0.0004540578,NaN,-0.3252263,0.0004118971,NaN,0.4337436,-14.53157,NaN,-0.5238393,-1.467219,-0.3060483,14.11134,NaN,NaN,0.02638996,0.8138467,0.08130193,1.046178,-4.050862E-07,1.358482
769.0642,-1.236847,0.0004538128,NaN,-0.3251884,0.0004121281,NaN,0.4317739,-14.5321,NaN,-0.5259806,-1.467259,-0.3052668,14.11145,NaN,NaN,0.02547913,0.8133123,0.07970782,1.046253,-3.979337E-07,1.360328
769.0789,-1.236847,0.0004538128,NaN,-0.3251884,0.0004121281,NaN,0.4317739,-14.5321,NaN,-0.5259806,-1.467259,-0.3052668,14.11145,NaN,NaN,0.02547913,0.8133123,0.07970782,1.046253,-3.979337E-07,1.360328
769.0936,-1.223069,0.0004533382,NaN,-0.3251477,0.0004123348,NaN,0.4297676,-14.53172,NaN,-0.528151,-1.465475,-0.3044475,14.1095,NaN,NaN,0.02458609,0.8136332,0.07814497,1.04364,-3.913772E-07,1.357926
769.109,-1.209096,0.0004532032,NaN,-0.3251048,0.0004116788,NaN,0.4278457,-14.53247,NaN,-0.5302455,-1.47816,-0.3036873,14.12302,NaN,NaN,0.0237106,0.8132311,0.07661276,1.06213,-3.842246E-07,1.366537
769.124,-1.195059,0.0004533015,NaN,-0.3250606,0.0004123967,NaN,0.4260399,-14.53167,NaN,-0.5322348,-1.466929,-0.303012,14.11104,NaN,NaN,0.02285235,0.813858,0.07511059,1.045764,-3.776681E-07,1.35866
769.1392,-1.195059,0.0004533015,NaN,-0.3250606,0.0004123967,NaN,0.4260399,-14.53167,NaN,-0.5322348,-1.466929,-0.303012,14.11104,NaN,NaN,0.02285235,0.813858,0.07511059,1.045764,-3.776681E-07,1.35866
769.1534,-1.180312,0.0004535098,NaN,-0.3250135,0.0004128265,NaN,0.423885,-14.53248,NaN,-0.5345358,-1.469225,-0.3020517,14.11357,NaN,NaN,0.02201063,0.8130936,0.07363787,1.049134,-3.714096E-07,1.363881
769.1691,-1.165181,0.0004534732,NaN,-0.3249634,0.0004132422,NaN,0.4217058,-14.53176,NaN,-0.5368615,-1.466168,-0.3010634,14.11024,NaN,NaN,0.02118537,0.813728,0.07219403,1.044659,-3.657472E-07,1.358728
769.1841,-1.14987,0.000453853,NaN,-0.3249112,0.0004133376,NaN,0.4196203,-14.53317,NaN,-0.5391065,-1.474166,-0.3001418,14.11888,NaN,NaN,0.02037634,0.8125337,0.0707785,1.056353,-3.577006E-07,1.36997
769.1993,-1.14987,0.000453853,NaN,-0.3249112,0.0004133376,NaN,0.4196203,-14.53317,NaN,-0.5391065,-1.474166,-0.3001418,14.11888,NaN,NaN,0.02037634,0.8125337,0.0707785,1.056353,-3.577006E-07,1.36997
769.2136,-1.133784,0.0004540998,NaN,-0.3248553,0.0004141713,NaN,0.4172057,-14.53204,NaN,-0.5416589,-1.466089,-0.2989521,14.11021,NaN,NaN,0.0195829,0.8135005,0.06939073,1.044577,-3.5025E-07,1.361213
769.23,-1.117276,0.0004543304,NaN,-0.3247958,0.0004139142,NaN,0.4147905,-14.53323,NaN,-0.5442218,-1.477378,-0.2977539,14.1223,NaN,NaN,0.01880495,0.8126152,0.06803016,1.06105,-3.430974E-07,1.370352
769.2441,-1.100573,0.000454588,NaN,-0.3247336,0.0004141044,NaN,0.4124915,-14.5319,NaN,-0.546688,-1.473055,-0.2966402,14.11758,NaN,NaN,0.01804231,0.8138657,0.06669628,1.054728,-3.362429E-07,1.360021
769.259,-1.100573,0.000454588,NaN,-0.3247336,0.0004141044,NaN,0.4124915,-14.5319,NaN,-0.546688,-1.473055,-0.2966402,14.11758,NaN,NaN,0.01804231,0.8138657,0.06669628,1.054728,-3.362429E-07,1.360021
769.2731,-1.083816,0.0004548188,NaN,-0.3246697,0.0004149097,NaN,0.4103367,-14.53215,NaN,-0.5490299,-1.466541,-0.2956338,14.11071,NaN,NaN,0.0172947,0.8134744,0.06538855,1.045249,-3.287923E-07,1.361839
769.2888,-1.066369,0.0004548507,NaN,-0.3246027,0.0004154684,NaN,0.4078796,-14.53228,NaN,-0.5516689,-1.465542,-0.2943833,14.10966,NaN,NaN,0.01656151,0.8133067,0.06410645,1.043798,-3.216398E-07,1.361808
769.3038,-1.048559,0.0004546353,NaN,-0.3245326,0.0004158538,NaN,0.4054267,-14.53246,NaN,-0.5543181,-1.465026,-0.2931283,14.10913,NaN,NaN,0.01584269,0.81311,0.06284949,1.043051,-3.138912E-07,1.36126
769.3187,-1.048559,0.0004546353,NaN,-0.3245326,0.0004158538,NaN,0.4054267,-14.53246,NaN,-0.5543181,-1.465026,-0.2931283,14.10913,NaN,NaN,0.01584269,0.81311,0.06284949,1.043051,-3.138912E-07,1.36126
769.3331,-1.030596,0.0004548625,NaN,-0.3244601,0.0004154243,NaN,0.4030885,-14.5323,NaN,-0.556873,-1.477282,-0.2919562,14.12205,NaN,NaN,0.01513805,0.813607,0.06161718,1.06087,-3.083777E-07,1.364849
769.3488,-1.012612,0.0004549105,NaN,-0.3243863,0.0004156529,NaN,0.4008925,-14.53223,NaN,-0.5593055,-1.468712,-0.2908891,14.11297,NaN,NaN,0.01444731,0.8135228,0.06040903,1.048389,-3.033043E-07,1.362491
769.364,-0.9939626,0.0004549211,NaN,-0.3243098,0.0004161836,NaN,0.3984064,-14.53292,NaN,-0.5620373,-1.465602,-0.2895894,14.10975,NaN,NaN,0.01376987,0.8127527,0.05922458,1.043881,-2.981635E-07,1.364714
769.379,-0.9939626,0.0004549211,NaN,-0.3243098,0.0004161836,NaN,0.3984064,-14.53292,NaN,-0.5620373,-1.465602,-0.2895894,14.10975,NaN,NaN,0.01376987,0.8127527,0.05922458,1.043881,-2.981635E-07,1.364714
769.3935,-0.974972,0.0004548412,NaN,-0.3242304,0.0004166814,NaN,0.395929,-14.53312,NaN,-0.5647793,-1.464831,-0.2882882,14.10896,NaN,NaN,0.0131057,0.8125128,0.05806334,1.042764,-2.913089E-07,1.365741
769.4091,-0.9558465,0.0004548832,NaN,-0.3241489,0.0004162317,NaN,0.3935687,-14.5339,NaN,-0.5674255,-1.476882,-0.2870711,14.12177,NaN,NaN,0.01245461,0.8120731,0.05692487,1.06031,-2.851995E-07,1.371009
769.4251,-0.9367163,0.0004549985,NaN,-0.3240663,0.0004167881,NaN,0.3913527,-14.53273,NaN,-0.5699472,-1.467947,-0.2859602,14.1122,NaN,NaN,0.01181636,0.8130834,0.05580873,1.047292,-2.810271E-07,1.3657
769.4389,-0.9367163,0.0004549985,NaN,-0.3240663,0.0004167881,NaN,0.3913527,-14.53273,NaN,-0.5699472,-1.467947,-0.2859602,14.1122,NaN,NaN,0.01181636,0.8130834,0.05580873,1.047292,-2.810271E-07,1.3657
769.4532,-0.9169353,0.0004550144,NaN,-0.3239811,0.000417244,NaN,0.3888619,-14.53332,NaN,-0.5727671,-1.466687,-0.2846301,14.11094,NaN,NaN,0.01119042,0.8124588,0.05471447,1.045477,-2.783449E-07,1.365923
769.4687,-0.8968277,0.0004549659,NaN,-0.3238932,0.0004172934,NaN,0.3863863,-14.53382,NaN,-0.5755945,-1.470481,-0.2833034,14.115,NaN,NaN,0.01057674,0.8120649,0.05364167,1.051009,-2.723845E-07,1.367904
769.4855,-0.8765989,0.0004548028,NaN,-0.3238033,0.0004177326,NaN,0.3840313,-14.53317,NaN,-0.5783231,-1.465262,-0.2820629,14.10941,NaN,NaN,0.009975151,0.8125846,0.05258989,1.043401,-2.697022E-07,1.36483
769.4989,-0.8765989,0.0004548028,NaN,-0.3238033,0.0004177326,NaN,0.3840313,-14.53317,NaN,-0.5783231,-1.465262,-0.2820629,14.10941,NaN,NaN,0.009975151,0.8125846,0.05258989,1.043401,-2.697022E-07,1.36483
769.5134,-0.8556507,0.0004545446,NaN,-0.32371,0.0004180194,NaN,0.3814178,-14.53343,NaN,-0.5813469,-1.466236,-0.2806163,14.11047,NaN,NaN,0.009385166,0.8123515,0.05155874,1.044825,-2.643378E-07,1.364933
769.5292,-0.8343378,0.0004540282,NaN,-0.323613,0.0004181191,NaN,0.3788383,-14.53279,NaN,-0.5843652,-1.465387,-0.2791876,14.10948,NaN,NaN,0.008806736,0.8129643,0.05054781,1.043563,-2.607615E-07,1.36168
769.5444,-0.8128846,0.0004540324,NaN,-0.3235134,0.0004175744,NaN,0.3763965,-14.53382,NaN,-0.5872699,-1.477437,-0.2778579,14.12234,NaN,NaN,0.008239725,0.8122624,0.0495567,1.061128,-2.577813E-07,1.372659
769.5594,-0.8128846,0.0004540324,NaN,-0.3235134,0.0004175744,NaN,0.3763965,-14.53382,NaN,-0.5872699,-1.477437,-0.2778579,14.12234,NaN,NaN,0.008239725,0.8122624,0.0495567,1.061128,-2.577813E-07,1.372659
769.5737,-0.7914329,0.0004542403,NaN,-0.3234123,0.0004177507,NaN,0.3741159,-14.53428,NaN,-0.5900336,-1.471349,-0.2766467,14.11595,NaN,NaN,0.007683911,0.8117094,0.04858503,1.052283,-2.548011E-07,1.372292
769.5894,-0.7693442,0.000454526,NaN,-0.3233086,0.0004173808,NaN,0.3715972,-14.5343,NaN,-0.5930837,-1.477355,-0.2752481,14.12228,NaN,NaN,0.007138829,0.8117996,0.0476324,1.061005,-2.476485E-07,1.374863
769.6042,-0.7469473,0.0004543795,NaN,-0.3232019,0.0004170936,NaN,0.3691121,-14.53274,NaN,-0.5961297,-1.470774,-0.273867,14.11516,NaN,NaN,0.006604428,0.8132466,0.04669846,1.051404,-2.446683E-07,1.364904
769.6205,-0.7244503,0.0004540118,NaN,-0.3230932,0.0004170655,NaN,0.3667585,-14.53266,NaN,-0.5990661,-1.467303,-0.2725795,14.11147,NaN,NaN,0.006080568,0.8132445,0.04578282,1.04635,-2.398999E-07,1.363012
769.6343,-0.7244503,0.0004540118,NaN,-0.3230932,0.0004170655,NaN,0.3667585,-14.53266,NaN,-0.5990661,-1.467303,-0.2725795,14.11147,NaN,NaN,0.006080568,0.8132445,0.04578282,1.04635,-2.398999E-07,1.363012
769.6486,-0.7019845,0.0004535762,NaN,-0.3229836,0.000416965,NaN,0.3645594,-14.53343,NaN,-0.601865,-1.468386,-0.2714044,14.11271,NaN,NaN,0.005567065,0.8125095,0.04488514,1.047954,-2.393038E-07,1.366379
769.6642,-0.6789047,0.0004527347,NaN,-0.3228719,0.0004163858,NaN,0.3621291,-14.53339,NaN,-0.604954,-1.468627,-0.2700485,14.11296,NaN,NaN,0.005063467,0.8125538,0.04400505,1.048302,-2.339394E-07,1.367205
769.6793,-0.6789047,0.0004527347,NaN,-0.3228719,0.0004163858,NaN,0.3621291,-14.53339,NaN,-0.604954,-1.468627,-0.2700485,14.11296,NaN,NaN,0.005063467,0.8125538,0.04400505,1.048302,-2.339394E-07,1.367205
769.6937,-0.6555353,0.0004518194,NaN,-0.3227577,0.000416055,NaN,0.3597324,-14.53265,NaN,-0.6080403,-1.465561,-0.2687094,14.10962,NaN,NaN,0.004569741,0.8132072,0.04314223,1.043819,-2.315552E-07,1.362369
769.7095,-0.6320816,0.00045183,NaN,-0.3226416,0.0004165478,NaN,0.357465,-14.53355,NaN,-0.611017,-1.467392,-0.2674612,14.11167,NaN,NaN,0.004085755,0.8123626,0.04229632,1.046516,-2.27979E-07,1.368853
769.7246,-0.6086731,0.0004518615,NaN,-0.322525,0.0004166935,NaN,0.3553499,-14.53388,NaN,-0.6138555,-1.470233,-0.2663227,14.11471,NaN,NaN,0.003611336,0.8121067,0.041467,1.050656,-2.196343E-07,1.369488
769.7396,-0.6086731,0.0004518615,NaN,-0.322525,0.0004166935,NaN,0.3553499,-14.53388,NaN,-0.6138555,-1.470233,-0.2663227,14.11471,NaN,NaN,0.003611336,0.8121067,0.041467,1.050656,-2.196343E-07,1.369488
769.7539,-0.5848354,0.0004517082,NaN,-0.3224072,0.0004167028,NaN,0.3466426,-14.53359,NaN,-0.6250299,-1.469462,-0.2600494,14.11385,NaN,NaN,0.01062861,0.8123705,0.04185928,1.049526,-2.124818E-07,1.367286
769.7697,-0.5608279,0.0004514789,NaN,-0.322288,0.0004171128,NaN,0.3154005,-14.53318,NaN,-0.6635568,-1.465229,-0.236533,14.10933,NaN,NaN,0.04066097,0.8126774,0.04667333,1.043357,-1.89832E-07,1.364664
769.7847,-0.536814,0.0004516933,NaN,-0.3221682,0.0004172953,NaN,0.2884488,-14.53451,NaN,-0.7007765,-1.471838,-0.2170817,14.11648,NaN,NaN,0.06616801,0.8115362,0.05049448,1.053017,-1.874478E-07,1.374464
769.7998,-0.536814,0.0004516933,NaN,-0.3221682,0.0004172953,NaN,0.2884488,-14.53451,NaN,-0.7007765,-1.471838,-0.2170817,14.11648,NaN,NaN,0.06616801,0.8115362,0.05049448,1.053017,-1.874478E-07,1.374464
769.8152,-0.5128967,0.0004517653,NaN,-0.3220488,0.0004178783,NaN,0.263852,-14.53323,NaN,-0.7383262,-1.465973,-0.1998571,14.11014,NaN,NaN,0.09093667,0.8126864,0.05422268,1.044459,-1.737387E-07,1.365835
769.8298,-0.4891402,0.0004517069,NaN,-0.3219309,0.0004179755,NaN,0.2416692,-14.53402,NaN,-0.7754114,-1.469851,-0.1847477,14.11433,NaN,NaN,0.1148888,0.8119988,0.05795285,1.050128,-1.791031E-07,1.369002
769.8447,-0.4655843,0.0004517479,NaN,-0.3218155,0.0004185747,NaN,0.2215129,-14.53348,NaN,-0.8119517,-1.465803,-0.1713602,14.10999,NaN,NaN,0.138245,0.8124451,0.06178083,1.044227,-1.850636E-07,1.367408
769.8597,-0.4655843,0.0004517479,NaN,-0.3218155,0.0004185747,NaN,0.2215129,-14.53348,NaN,-0.8119517,-1.465803,-0.1713602,14.10999,NaN,NaN,0.138245,0.8124451,0.06178083,1.044227,-1.850636E-07,1.367408
769.874,-0.4422532,0.0004517325,NaN,-0.3217031,0.0004185812,NaN,0.2031047,-14.53444,NaN,-0.8478403,-1.471373,-0.1594202,14.11599,NaN,NaN,0.1610227,0.8116358,0.06573436,1.052359,-1.802952E-07,1.371225
769.8898,-0.4191613,0.0004517349,NaN,-0.3215945,0.0004191578,NaN,0.186204,-14.53384,NaN,-0.8830251,-1.465574,-0.1487018,14.1098,NaN,NaN,0.1832295,0.8121089,0.06982365,1.043917,-1.76719E-07,1.369141
769.9047,-0.3963165,0.0004519834,NaN,-0.32149,0.0004187841,NaN,0.1706091,-14.53454,NaN,-0.9174809,-1.477943,-0.1390208,14.12293,NaN,NaN,0.2048715,0.8117547,0.07405079,1.061916,-1.77613E-07,1.375657
769.9199,-0.3963165,0.0004519834,NaN,-0.32149,0.0004187841,NaN,0.1706091,-14.53454,NaN,-0.9174809,-1.477943,-0.1390208,14.12293,NaN,NaN,0.2048715,0.8117547,0.07405079,1.061916,-1.77613E-07,1.375657
769.9343,-0.3737229,0.000452078,NaN,-0.3213898,0.0004192048,NaN,0.1561536,-14.53361,NaN,-0.9511951,-1.468122,-0.1302276,14.11247,NaN,NaN,0.2259534,0.8125356,0.0784132,1.047625,-1.695664E-07,1.368603
769.9515,-0.351382,0.0004522517,NaN,-0.321294,0.0004198521,NaN,0.1427014,-14.53383,NaN,-0.984157,-1.46664,-0.1222009,14.11093,NaN,NaN,0.2464771,0.8122761,0.08290531,1.045476,-1.653941E-07,1.370172
769.9653,-0.3292936,0.0004525831,NaN,-0.3212028,0.0004194826,NaN,0.1301337,-14.53418,NaN,-1.016373,-1.479045,-0.1148371,14.12405,NaN,NaN,0.2664558,0.8122459,0.08752242,1.063517,-1.618178E-07,1.374988
769.9801,-0.3074566,0.0004526501,NaN,-0.3211162,0.0004197459,NaN,0.1183539,-14.53385,NaN,-1.047843,-1.468573,-0.108052,14.11296,NaN,NaN,0.2858958,0.8124354,0.0922576,1.048286,-1.558574E-07,1.368718
769.9961,-0.3074566,0.0004526501,NaN,-0.3211162,0.0004197459,NaN,0.1183539,-14.53385,NaN,-1.047843,-1.468573,-0.108052,14.11296,NaN,NaN,0.2858958,0.8124354,0.0922576,1.048286,-1.558574E-07,1.368718
770.0096,-0.2858692,0.0004525869,NaN,-0.321034,0.0004196404,NaN,0.1072784,-14.53457,NaN,-1.078575,-1.471737,-0.1017741,14.11638,NaN,NaN,0.3048078,0.8117978,0.09710443,1.052906,-1.582415E-07,1.371586
770.0252,-0.2645293,0.000453008,NaN,-0.3209563,0.0004190406,NaN,0.09683605,-14.53449,NaN,-1.108577,-1.480718,-0.0959428,14.12583,NaN,NaN,0.3232034,0.812066,0.1020561,1.065948,-1.517595E-07,1.376677
770.04,-0.249808,0.0004537302,NaN,-0.3209035,0.0004186653,NaN,0.09003629,-14.53505,NaN,-1.128931,-1.480198,-0.09216312,14.12533,NaN,NaN,0.3367548,0.8114984,0.1062825,1.065197,-1.396151E-07,1.379214
770.0551,-0.249808,0.0004537302,NaN,-0.3209035,0.0004186653,NaN,0.09003629,-14.53505,NaN,-1.128931,-1.480198,-0.09216312,14.12533,NaN,NaN,0.3367548,0.8114984,0.1062825,1.065197,-1.396151E-07,1.379214
770.0694,-0.2393118,0.0004541826,NaN,-0.3208836,0.0004184499,NaN,0.08521132,-14.53358,NaN,-1.143627,-1.476351,-0.0895823,14.12111,NaN,NaN,0.3470629,0.8129103,0.1100079,1.059578,-1.440854E-07,1.370028
770.0852,-0.2315184,0.0004543358,NaN,-0.3208884,0.0004184912,NaN,0.08164485,-14.53349,NaN,-1.154542,-1.470606,-0.08775882,14.11502,NaN,NaN,0.3549271,0.8129137,0.1133098,1.051216,-1.378269E-07,1.366888
770.1003,-0.2254586,0.0004543891,NaN,-0.3209118,0.0004186562,NaN,0.07886516,-14.53422,NaN,-1.163045,-1.469291,-0.08639459,14.11371,NaN,NaN,0.3611701,0.8121488,0.116313,1.049323,-1.327605E-07,1.369644
770.1157,-0.2254586,0.0004543891,NaN,-0.3209118,0.0004186562,NaN,0.07886516,-14.53422,NaN,-1.163045,-1.469291,-0.08639459,14.11371,NaN,NaN,0.3611701,0.8121488,0.116313,1.049323,-1.327605E-07,1.369644
770.1298,-0.2205152,0.0004543599,NaN,-0.3209483,0.0004182918,NaN,0.07659052,-14.53436,NaN,-1.170003,-1.474105,-0.08531649,14.1188,NaN,NaN,0.3663521,0.8121252,0.1191081,1.056321,-1.303764E-07,1.369926
770.1456,-0.216295,0.000454918,NaN,-0.3209936,0.0004178041,NaN,0.07464787,-14.53369,NaN,-1.175964,-1.479978,-0.08442233,14.12491,NaN,NaN,0.3708379,0.8128912,0.121757,1.064836,-1.265021E-07,1.36832
770.1605,-0.2125476,0.0004547886,NaN,-0.3210445,0.0004172965,NaN,0.07292916,-14.53304,NaN,-1.181269,-1.471058,-0.08365051,14.11541,NaN,NaN,0.3748612,0.8134277,0.1243014,1.051844,-1.273961E-07,1.363389
770.1757,-0.2125476,0.0004547886,NaN,-0.3210445,0.0004172965,NaN,0.07292916,-14.53304,NaN,-1.181269,-1.471058,-0.08365051,14.11541,NaN,NaN,0.3748612,0.8134277,0.1243014,1.051844,-1.273961E-07,1.363389
770.191,-0.2091135,0.0004547171,NaN,-0.3210989,0.0004170772,NaN,0.07065414,-14.53352,NaN,-1.185696,-1.470613,-0.0855562,14.11499,NaN,NaN,0.3782916,0.8129368,0.1283722,1.051209,-1.2531E-07,1.366067
770.2056,-0.2058908,0.0004546065,NaN,-0.3211553,0.0004173253,NaN,0.06794129,-14.53403,NaN,-1.18961,-1.466813,-0.08837138,14.11103,NaN,NaN,0.3813132,0.8123511,0.1326225,1.045697,-1.199456E-07,1.367434
770.2203,-0.2028146,0.0004540957,NaN,-0.3212128,0.0004172842,NaN,0.06514031,-14.53317,NaN,-1.193147,-1.466091,-0.09143429,14.11015,NaN,NaN,0.383987,0.8131898,0.1366147,1.044612,-1.26204E-07,1.35978
770.2355,-0.2028146,0.0004540957,NaN,-0.3212128,0.0004172842,NaN,0.06514031,-14.53317,NaN,-1.193147,-1.466091,-0.09143429,14.11015,NaN,NaN,0.383987,0.8131898,0.1366147,1.044612,-1.26204E-07,1.35978
770.2498,-0.1998435,0.0004530601,NaN,-0.3212709,0.0004167815,NaN,0.06274255,-14.534,NaN,-1.196529,-1.465971,-0.09483869,14.11013,NaN,NaN,0.3865156,0.8123567,0.1400224,1.044469,-1.220317E-07,1.365031
770.2657,-0.196951,0.0004521917,NaN,-0.321329,0.0004166304,NaN,0.06055076,-14.53427,NaN,-1.199861,-1.465685,-0.09698191,14.10986,NaN,NaN,0.3890476,0.812075,0.142798,1.044064,-1.199456E-07,1.36423
770.2806,-0.1941199,0.0004523184,NaN,-0.3213869,0.0004161123,NaN,0.05856513,-14.53446,NaN,-1.203292,-1.477994,-0.09868769,14.12286,NaN,NaN,0.3917145,0.8122238,0.1454126,1.061955,-1.145811E-07,1.371468
770.2957,-0.1941199,0.0004523184,NaN,-0.3213869,0.0004161123,NaN,0.05856513,-14.53446,NaN,-1.203292,-1.477994,-0.09868769,14.12286,NaN,NaN,0.3917145,0.8122238,0.1454126,1.061955,-1.145811E-07,1.371468
770.3102,-0.1913394,0.000452091,NaN,-0.3214446,0.0004160869,NaN,0.05671039,-14.53387,NaN,-1.206716,-1.467421,-0.1002931,14.11163,NaN,NaN,0.394407,0.8126464,0.1479927,1.046573,-1.089187E-07,1.363615
770.3261,-0.1886023,0.0004519344,NaN,-0.3215019,0.0004155654,NaN,0.05493327,-14.53496,NaN,-1.210115,-1.474774,-0.101883,14.11953,NaN,NaN,0.3971025,0.8117486,0.1505421,1.0573,-1.011701E-07,1.370969
770.341,-0.1859039,0.000451663,NaN,-0.3215587,0.0004156448,NaN,0.05352902,-14.53407,NaN,-1.213686,-1.467062,-0.1023458,14.11129,NaN,NaN,0.3999187,0.8125044,0.152366,1.046071,-1.041503E-07,1.363621
770.3561,-0.1859039,0.000451663,NaN,-0.3215587,0.0004156448,NaN,0.05352902,-14.53407,NaN,-1.213686,-1.467062,-0.1023458,14.11129,NaN,NaN,0.3999187,0.8125044,0.152366,1.046071,-1.041503E-07,1.363621
770.3724,-0.1832411,0.0004516681,NaN,-0.321615,0.0004150801,NaN,0.05237582,-14.53535,NaN,-1.217331,-1.477093,-0.102428,14.12204,NaN,NaN,0.4028151,0.8114931,0.1540499,1.060699,-9.669974E-08,1.373393
770.386,-0.1806119,0.0004520631,NaN,-0.3216709,0.0004143013,NaN,0.05132091,-14.53424,NaN,-1.221002,-1.480498,-0.1024177,14.12549,NaN,NaN,0.4057495,0.8126407,0.1557607,1.065618,-9.371951E-08,1.368681
770.4009,-0.1780148,0.0004525475,NaN,-0.3217262,0.0004140931,NaN,0.05030976,-14.53378,NaN,-1.224651,-1.476157,-0.1023938,14.12085,NaN,NaN,0.4086734,0.813045,0.1574953,1.05929,-9.520962E-08,1.36517
770.4175,-0.1780148,0.0004525475,NaN,-0.3217262,0.0004140931,NaN,0.05030976,-14.53378,NaN,-1.224651,-1.476157,-0.1023938,14.12085,NaN,NaN,0.4086734,0.813045,0.1574953,1.05929,-9.520962E-08,1.36517
770.4304,-0.1754488,0.0004526566,NaN,-0.3217809,0.0004143125,NaN,0.04962957,-14.5338,NaN,-1.228491,-1.468973,-0.1012325,14.11325,NaN,NaN,0.4117107,0.8129052,0.158566,1.048833,-9.550764E-08,1.363356
770.4463,-0.172913,0.0004523502,NaN,-0.3218352,0.0004144438,NaN,0.04916722,-14.53369,NaN,-1.232391,-1.46605,-0.09969226,14.11013,NaN,NaN,0.4147754,0.8129518,0.159528,1.044574,-9.938195E-08,1.357834
770.4612,-0.1704068,0.0004518845,NaN,-0.3218889,0.0004146748,NaN,0.04878417,-14.53364,NaN,-1.236286,-1.464909,-0.09806672,14.10891,NaN,NaN,0.4178239,0.8129646,0.1605437,1.042907,-1.008721E-07,1.359567
770.4767,-0.1704068,0.0004518845,NaN,-0.3218889,0.0004146748,NaN,0.04878417,-14.53364,NaN,-1.236286,-1.464909,-0.09806672,14.10891,NaN,NaN,0.4178239,0.8129646,0.1605437,1.042907,-1.008721E-07,1.359567
770.4908,-0.1679297,0.0004522081,NaN,-0.3219421,0.0004143614,NaN,0.04872248,-14.53356,NaN,-1.240379,-1.477695,-0.09528255,14.1224,NaN,NaN,0.420978,0.8134133,0.1609609,1.061493,-9.87859E-08,1.364599
770.5065,-0.1654813,0.000452052,NaN,-0.3219947,0.0004143991,NaN,0.04886703,-14.53341,NaN,-1.244528,-1.467628,-0.09212962,14.11173,NaN,NaN,0.4241177,0.8134016,0.1612978,1.046836,-9.520963E-08,1.360173
770.5217,-0.1630611,0.0004518938,NaN,-0.3220468,0.000414727,NaN,0.04909051,-14.53381,NaN,-1.248638,-1.466343,-0.08891008,14.11041,NaN,NaN,0.4271865,0.8129684,0.1617063,1.044976,-9.014323E-08,1.361617
770.5366,-0.1630611,0.0004518938,NaN,-0.3220468,0.000414727,NaN,0.04909051,-14.53381,NaN,-1.248638,-1.466343,-0.08891008,14.11041,NaN,NaN,0.4271865,0.8129684,0.1617063,1.044976,-9.014323E-08,1.361617
770.5532,-0.1606689,0.0004518298,NaN,-0.3220984,0.0004151288,NaN,0.04933378,-14.53435,NaN,-1.252683,-1.466614,-0.08569679,14.11075,NaN,NaN,0.4301822,0.8124362,0.1622006,1.045386,-8.567288E-08,1.364682
770.5669,-0.1583042,0.0004522996,NaN,-0.3221495,0.0004149244,NaN,0.04985807,-14.53349,NaN,-1.256916,-1.477888,-0.08133807,14.12253,NaN,NaN,0.4332725,0.8135868,0.1621328,1.061736,-8.209661E-08,1.364541
770.5819,-0.1559667,0.000452587,NaN,-0.3222,0.0004140297,NaN,0.05057918,-14.53288,NaN,-1.261186,-1.480541,-0.07663494,14.12526,NaN,NaN,0.436304,0.8142279,0.1619804,1.065583,-8.254364E-08,1.360295
770.5968,-0.1559667,0.000452587,NaN,-0.3222,0.0004140297,NaN,0.05057918,-14.53288,NaN,-1.261186,-1.480541,-0.07663494,14.12526,NaN,NaN,0.436304,0.8142279,0.1619804,1.065583,-8.254364E-08,1.360295
770.6113,-0.1536561,0.0004530752,NaN,-0.32225,0.0004134116,NaN,0.051381,-14.53462,NaN,-1.265389,-1.478937,-0.07188766,14.12373,NaN,NaN,0.4392183,0.8124604,0.1618996,1.063274,-8.179858E-08,1.365813
770.6274,-0.1513721,0.0004531591,NaN,-0.3222996,0.0004131497,NaN,0.05219707,-14.5334,NaN,-1.26951,-1.470664,-0.06716006,14.11485,NaN,NaN,0.4420364,0.8135383,0.1619234,1.051211,-8.46298E-08,1.357375
770.6422,-0.1491143,0.0004535246,NaN,-0.3223486,0.0004123778,NaN,0.05328127,-14.53412,NaN,-1.273805,-1.480356,-0.06128389,14.12517,NaN,NaN,0.4449381,0.8130211,0.1614284,1.065326,-8.284167E-08,1.363743
770.6574,-0.1491143,0.0004535246,NaN,-0.3223486,0.0004123778,NaN,0.05328127,-14.53412,NaN,-1.273805,-1.480356,-0.06128389,14.12517,NaN,NaN,0.4449381,0.8130211,0.1614284,1.065326,-8.284167E-08,1.363743
770.6716,-0.1468825,0.0004536815,NaN,-0.3223972,0.0004124933,NaN,0.05460571,-14.53442,NaN,-1.27807,-1.469743,-0.05495004,14.11396,NaN,NaN,0.4477609,0.8125821,0.1610341,1.049878,-8.522585E-08,1.359996
770.6874,-0.1446764,0.0004537246,NaN,-0.3224452,0.0004116268,NaN,0.05662882,-14.53309,NaN,-1.282658,-1.479524,-0.04917618,14.1241,NaN,NaN,0.4506034,0.8141192,0.1601502,1.064041,-8.865312E-08,1.356988
770.7027,-0.1424956,0.0004534967,NaN,-0.3224928,0.0004115689,NaN,0.05883239,-14.53353,NaN,-1.287047,-1.468153,-0.04360773,14.11209,NaN,NaN,0.4531822,0.8135087,0.1592665,1.04748,-7.911638E-08,1.357047
770.7177,-0.1424956,0.0004534967,NaN,-0.3224928,0.0004115689,NaN,0.05883239,-14.53353,NaN,-1.287047,-1.468153,-0.04360773,14.11209,NaN,NaN,0.4531822,0.8135087,0.1592665,1.04748,-7.911638E-08,1.357047
770.7342,-0.1403399,0.0004535466,NaN,-0.3225398,0.0004108219,NaN,0.06100819,-14.53441,NaN,-1.291451,-1.47899,-0.03666153,14.12364,NaN,NaN,0.4557467,0.8128946,0.1582204,1.063275,-7.613615E-08,1.363395
770.7477,-0.138209,0.0004535366,NaN,-0.3225864,0.0004110499,NaN,0.06244083,-14.53362,NaN,-1.295556,-1.467913,-0.02861506,14.11184,NaN,NaN,0.4580698,0.8135195,0.1580391,1.047137,-7.762626E-08,1.356769
770.7629,-0.1361026,0.0004536878,NaN,-0.3226326,0.0004106626,NaN,0.06327101,-14.53474,NaN,-1.299379,-1.476651,-0.01996713,14.12121,NaN,NaN,0.4601758,0.8126152,0.1585978,1.059887,-8.030847E-08,1.363423
770.7778,-0.1361026,0.0004536878,NaN,-0.3226326,0.0004106626,NaN,0.06327101,-14.53474,NaN,-1.299379,-1.476651,-0.01996713,14.12121,NaN,NaN,0.4601758,0.8126152,0.1585978,1.059887,-8.030847E-08,1.363423
770.7924,-0.1340204,0.0004538886,NaN,-0.3226782,0.0004104847,NaN,0.06342541,-14.53482,NaN,-1.302984,-1.474319,-0.009333053,14.11874,NaN,NaN,0.4621111,0.8124847,0.1596598,1.056491,-7.971242E-08,1.363545
770.808,-0.1319621,0.0004544735,NaN,-0.3227234,0.0004100178,NaN,0.06717858,-14.53378,NaN,-1.307551,-1.480855,-0.00117818,14.12551,NaN,NaN,0.4652958,0.8136294,0.1574708,1.065959,-8.075551E-08,1.361975
770.8232,-0.1299274,0.0004548219,NaN,-0.3227682,0.0004106034,NaN,0.07076239,-14.53334,NaN,-1.312398,-1.469786,0.006998629,14.11374,NaN,NaN,0.4687611,0.8139297,0.1557454,1.04983,-7.80733E-08,1.357893
770.8384,-0.1299274,0.0004548219,NaN,-0.3227682,0.0004106034,NaN,0.07076239,-14.53334,NaN,-1.312398,-1.469786,0.006998629,14.11374,NaN,NaN,0.4687611,0.8139297,0.1557454,1.04983,-7.80733E-08,1.357893
770.8527,-0.1279162,0.0004550403,NaN,-0.3228124,0.0004113391,NaN,0.07429282,-14.53396,NaN,-1.317173,-1.466646,0.01510119,14.11048,NaN,NaN,0.4721378,0.8132326,0.1542372,1.045274,-8.299068E-08,1.360677
770.8686,-0.125928,0.0004549267,NaN,-0.3228562,0.0004115148,NaN,0.07816866,-14.5338,NaN,-1.322016,-1.468868,0.02428881,14.11279,NaN,NaN,0.4756166,0.8134555,0.1522671,1.048494,-8.19476E-08,1.355576
770.8856,-0.1239628,0.0004551294,NaN,-0.3228995,0.0004113537,NaN,0.08202016,-14.53528,NaN,-1.32684,-1.475741,0.03392284,14.12024,NaN,NaN,0.4790874,0.8121427,0.1505329,1.058544,-8.313969E-08,1.365702
770.8986,-0.1239628,0.0004551294,NaN,-0.3228995,0.0004113537,NaN,0.08202016,-14.53528,NaN,-1.32684,-1.475741,0.03392284,14.12024,NaN,NaN,0.4790874,0.8121427,0.1505329,1.058544,-8.313969E-08,1.365702
770.9129,-0.1220201,0.0004554966,NaN,-0.3229424,0.0004107107,NaN,0.08585203,-14.53435,NaN,-1.331578,-1.480443,0.04360487,14.12509,NaN,NaN,0.4824746,0.81315,0.1490254,1.065352,-8.433178E-08,1.361787
770.9286,-0.1200997,0.0004559152,NaN,-0.3229849,0.0004109897,NaN,0.08964669,-14.53349,NaN,-1.336212,-1.472838,0.05323832,14.11694,NaN,NaN,0.4857619,0.8138999,0.1477222,1.054263,-8.299067E-08,1.355328
770.9438,-0.1182014,0.0004560279,NaN,-0.3230269,0.0004114401,NaN,0.09378973,-14.53411,NaN,-1.34089,-1.467693,0.06396982,14.11156,NaN,NaN,0.4891566,0.813172,0.1459893,1.046785,-7.866934E-08,1.354832
770.9587,-0.1182014,0.0004560279,NaN,-0.3230269,0.0004114401,NaN,0.09378973,-14.53411,NaN,-1.34089,-1.467693,0.06396982,14.11156,NaN,NaN,0.4891566,0.813172,0.1459893,1.046785,-7.866934E-08,1.354832
770.973,-0.116325,0.0004560838,NaN,-0.3230685,0.0004112765,NaN,0.0979037,-14.53469,NaN,-1.345526,-1.474076,0.07514139,14.11837,NaN,NaN,0.4925223,0.8127497,0.144508,1.056088,-7.509306E-08,1.358331
770.9886,-0.1144701,0.0004560693,NaN,-0.3231096,0.0004118092,NaN,0.1019962,-14.53424,NaN,-1.350064,-1.466378,0.08635084,14.11018,NaN,NaN,0.4957924,0.8130547,0.1432631,1.044875,-7.375196E-08,1.357182
771.0037,-0.1126365,0.0004559736,NaN,-0.3231504,0.0004122489,NaN,0.1060474,-14.53458,NaN,-1.354491,-1.466026,0.09750399,14.10984,NaN,NaN,0.4989579,0.8126984,0.1422361,1.044371,-6.198004E-08,1.357239
771.0189,-0.1126365,0.0004559736,NaN,-0.3231504,0.0004122489,NaN,0.1060474,-14.53458,NaN,-1.354491,-1.466026,0.09750399,14.10984,NaN,NaN,0.4989579,0.8126984,0.1422361,1.044371,-6.198004E-08,1.357239
771.0331,-0.110824,0.0004558033,NaN,-0.3231907,0.0004119125,NaN,0.110448,-14.53485,NaN,-1.358931,-1.473823,0.1097567,14.1181,NaN,NaN,0.5022253,0.8126388,0.1408086,1.055716,-5.691365E-08,1.359524
771.049,-0.1090324,0.0004556928,NaN,-0.3232305,0.0004123191,NaN,0.1148192,-14.5344,NaN,-1.36331,-1.467143,0.122437,14.11098,NaN,NaN,0.5054439,0.8129556,0.1396407,1.045984,-5.914882E-08,1.355123
771.0641,-0.1072613,0.0004559644,NaN,-0.32327,0.0004128271,NaN,0.1191658,-14.53526,NaN,-1.36758,-1.469554,0.1351455,14.11363,NaN,NaN,0.508558,0.812156,0.1387172,1.049519,-5.63176E-08,1.361571
771.0793,-0.1072613,0.0004559644,NaN,-0.32327,0.0004128271,NaN,0.1191658,-14.53526,NaN,-1.36758,-1.469554,0.1351455,14.11363,NaN,NaN,0.508558,0.812156,0.1387172,1.049519,-5.63176E-08,1.361571
771.0934,-0.1055106,0.0004562826,NaN,-0.3233091,0.0004136119,NaN,0.12386,-14.5352,NaN,-1.371836,-1.467113,0.1489799,14.11104,NaN,NaN,0.511764,0.812148,0.1374411,1.045966,-6.488577E-08,1.361338
771.1102,-0.1037801,0.000456525,NaN,-0.3233477,0.0004132162,NaN,0.1285265,-14.53499,NaN,-1.37601,-1.478867,0.1632333,14.1234,NaN,NaN,0.5148988,0.8126552,0.1364413,1.063036,-5.825475E-08,1.360726
771.1241,-0.1020694,0.00045654,NaN,-0.323386,0.0004136875,NaN,0.1331634,-14.53451,NaN,-1.380057,-1.467235,0.1775071,14.11106,NaN,NaN,0.5179145,0.8129763,0.1357025,1.046107,-4.60358E-08,1.355477
771.139,-0.1020694,0.00045654,NaN,-0.323386,0.0004136875,NaN,0.1331634,-14.53451,NaN,-1.380057,-1.467235,0.1775071,14.11106,NaN,NaN,0.5179145,0.8129763,0.1357025,1.046107,-4.60358E-08,1.355477
771.1533,-0.1003784,0.0004565707,NaN,-0.3234238,0.0004134375,NaN,0.1377503,-14.53568,NaN,-1.383978,-1.475026,0.1917098,14.11943,NaN,NaN,0.5208123,0.8120153,0.1352096,1.057478,-4.521624E-08,1.362162
771.169,-0.09870683,0.0004567201,NaN,-0.3234613,0.0004141144,NaN,0.142687,-14.53458,NaN,-1.387852,-1.467337,0.2070107,14.11119,NaN,NaN,0.5238034,0.8129677,0.1343695,1.046271,-4.633382E-08,1.356723
771.1842,-0.09705449,0.0004566634,NaN,-0.3234983,0.0004145417,NaN,0.1475977,-14.53459,NaN,-1.391627,-1.466541,0.2227101,14.11034,NaN,NaN,0.5267128,0.8129331,0.1337992,1.04511,-4.372612E-08,1.355504
771.1991,-0.09705449,0.0004566634,NaN,-0.3234983,0.0004145417,NaN,0.1475977,-14.53459,NaN,-1.391627,-1.466541,0.2227101,14.11034,NaN,NaN,0.5267128,0.8129331,0.1337992,1.04511,-4.372612E-08,1.355504
771.2137,-0.09542114,0.0004567579,NaN,-0.323535,0.0004143925,NaN,0.1524741,-14.53585,NaN,-1.395271,-1.474613,0.2384207,14.11902,NaN,NaN,0.5295008,0.8118941,0.133493,1.056895,-3.96283E-08,1.363806
771.2294,-0.09380658,0.000456518,NaN,-0.3235713,0.0004145907,NaN,0.1572954,-14.53467,NaN,-1.398786,-1.466787,0.2540534,14.11063,NaN,NaN,0.5321658,0.8129293,0.1334388,1.045492,-4.119292E-08,1.355113
771.2446,-0.09221058,0.0004570476,NaN,-0.3236072,0.0004143816,NaN,0.1624668,-14.53469,NaN,-1.402216,-1.478422,0.2707842,14.12292,NaN,NaN,0.5349204,0.8132122,0.1330571,1.062413,-3.918127E-08,1.358742
771.2598,-0.09221058,0.0004570476,NaN,-0.3236072,0.0004143816,NaN,0.1624668,-14.53469,NaN,-1.402216,-1.478422,0.2707842,14.12292,NaN,NaN,0.5349204,0.8132122,0.1330571,1.062413,-3.918127E-08,1.358742
771.274,-0.09063292,0.0004570824,NaN,-0.3236428,0.0004146152,NaN,0.1676141,-14.53458,NaN,-1.405533,-1.468024,0.2878988,14.1119,NaN,NaN,0.5375828,0.8131778,0.1329437,1.047276,-3.620103E-08,1.355322
