JMolnar6/NonAnthroHands_User_Study/HandsLoggerWithURDF/tempdata/PID 0 (test)/files/Reachy_PID0_JointMotion_gesture_11_55.csv
Time,r_shoulder,r_shoulder_x,r_upper_arm,r_forearm,r_wrist,r_wrist2hand,
773.6401,-0.8421111,-5.506797E-10,NaN,-0.3582382,-1.32569E-07,NaN,1.154003,-5.065598E-07,NaN,-0.6689382,2.167981E-05,0.4314139,8.299921E-08,NaN,NaN,-0.01018048,-5.634502E-10,-6.603165E-07,-1.102177E-07,-1.88141E-08,-2.622604E-08
773.6547,-0.8421111,-5.506797E-10,NaN,-0.3582382,-1.32569E-07,NaN,1.154003,-5.065598E-07,NaN,-0.6689382,2.167981E-05,0.4314139,8.299921E-08,NaN,NaN,-0.01018048,-5.634502E-10,-6.603165E-07,-1.102177E-07,-1.88141E-08,-2.622604E-08
773.6697,-0.8400357,-5.49998E-10,NaN,-0.3575225,-1.325685E-07,NaN,1.153897,-5.071151E-07,NaN,-0.6662234,2.168022E-05,0.4324742,8.355586E-08,NaN,NaN,-0.01001079,-5.727634E-10,-6.627007E-07,-1.102157E-07,-1.88141E-08,-2.622604E-08
773.6844,-0.8378501,-5.493156E-10,NaN,-0.356768,-1.325678E-07,NaN,1.153698,-5.077447E-07,NaN,-0.6632201,2.168063E-05,0.43372,8.418683E-08,NaN,NaN,-0.009844392,-5.727634E-10,-6.66277E-07,-1.102155E-07,-2.000619E-08,-2.861022E-08
773.6989,-0.8378501,-5.493156E-10,NaN,-0.356768,-1.325678E-07,NaN,1.153698,-5.077447E-07,NaN,-0.6632201,2.168063E-05,0.43372,8.418683E-08,NaN,NaN,-0.009844392,-5.727634E-10,-6.66277E-07,-1.102155E-07,-2.000619E-08,-2.861022E-08
773.715,-0.835605,-5.486331E-10,NaN,-0.3559932,-1.325675E-07,NaN,1.153524,-5.081447E-07,NaN,-0.6601046,2.168103E-05,0.4349974,8.458817E-08,NaN,NaN,-0.009681357,-5.7742E-10,-6.698533E-07,-1.102157E-07,-1.762201E-08,-2.622604E-08
773.7281,-0.8333322,-5.479506E-10,NaN,-0.3552098,-1.325674E-07,NaN,1.153401,-5.079048E-07,NaN,-0.6569621,2.168144E-05,0.4362524,8.434963E-08,NaN,NaN,-0.009521624,-5.820766E-10,-6.734296E-07,-1.102161E-07,-1.166154E-08,-2.861022E-08
773.743,-0.8312644,-5.47268E-10,NaN,-0.3545015,-1.325675E-07,NaN,1.153675,-5.07616E-07,NaN,-0.6543212,2.168185E-05,0.4369926,8.406215E-08,NaN,NaN,-0.009449231,-5.867332E-10,-6.674691E-07,-1.102166E-07,-1.046945E-08,-2.622604E-08
773.7576,-0.8312644,-5.47268E-10,NaN,-0.3545015,-1.325675E-07,NaN,1.153675,-5.07616E-07,NaN,-0.6543212,2.168185E-05,0.4369926,8.406215E-08,NaN,NaN,-0.009449231,-5.867332E-10,-6.674691E-07,-1.102166E-07,-1.046945E-08,-2.622604E-08
773.7715,-0.8293332,-5.465854E-10,NaN,-0.353842,-1.325677E-07,NaN,1.154084,-5.073046E-07,NaN,-0.6520352,2.168225E-05,0.4374919,8.375208E-08,NaN,NaN,-0.009378355,-5.820766E-10,-6.579324E-07,-1.102172E-07,-8.085266E-09,-2.861022E-08
773.7868,-0.8274955,-5.459033E-10,NaN,-0.3532152,-1.32568E-07,NaN,1.154501,-5.069795E-07,NaN,-0.6499357,2.168266E-05,0.4379074,8.342826E-08,NaN,NaN,-0.009308827,-5.7742E-10,-6.53164E-07,-1.102178E-07,-5.70108E-09,-2.622604E-08
773.8016,-0.8257241,-5.452212E-10,NaN,-0.3526111,-1.325683E-07,NaN,1.154889,-5.066522E-07,NaN,-0.6479402,2.168308E-05,0.4382976,8.310231E-08,NaN,NaN,-0.009240604,-5.820766E-10,-6.460115E-07,-1.102184E-07,-4.508987E-09,-2.861022E-08
773.8165,-0.8257241,-5.452212E-10,NaN,-0.3526111,-1.325683E-07,NaN,1.154889,-5.066522E-07,NaN,-0.6479402,2.168308E-05,0.4382976,8.310231E-08,NaN,NaN,-0.009240604,-5.820766E-10,-6.460115E-07,-1.102184E-07,-4.508987E-09,-2.861022E-08
773.8302,-0.8242139,-5.445392E-10,NaN,-0.3521004,-1.325686E-07,NaN,1.155599,-5.063256E-07,NaN,-0.6464978,2.168349E-05,0.438206,8.27771E-08,NaN,NaN,-0.009257833,-5.7742E-10,-6.257459E-07,-1.10219E-07,-1.046945E-08,-2.622604E-08
773.8458,-0.8228734,-5.438577E-10,NaN,-0.3516489,-1.325689E-07,NaN,1.156388,-5.066591E-07,NaN,-0.6454238,2.168391E-05,0.4379089,8.311201E-08,NaN,NaN,-0.00927471,-5.7742E-10,-6.102487E-07,-1.102182E-07,-5.70108E-09,-2.622604E-08
773.8604,-0.8216447,-5.431759E-10,NaN,-0.3512356,-1.325688E-07,NaN,1.157141,-5.064857E-07,NaN,-0.6445318,2.168433E-05,0.4375593,8.293983E-08,NaN,NaN,-0.00929114,-5.727634E-10,-5.935594E-07,-1.102185E-07,-5.70108E-09,-2.861022E-08
773.875,-0.8216447,-5.431759E-10,NaN,-0.3512356,-1.325688E-07,NaN,1.157141,-5.064857E-07,NaN,-0.6445318,2.168433E-05,0.4375593,8.293983E-08,NaN,NaN,-0.00929114,-5.727634E-10,-5.935594E-07,-1.102185E-07,-5.70108E-09,-2.861022E-08
773.8894,-0.8207034,-5.424945E-10,NaN,-0.3509243,-1.325689E-07,NaN,1.15819,-5.068987E-07,NaN,-0.6442206,2.168474E-05,0.4367361,8.33542E-08,NaN,NaN,-0.009391314,-5.634502E-10,-5.709096E-07,-1.102175E-07,-6.893172E-09,-2.622604E-08
773.905,-0.8199461,-5.418127E-10,NaN,-0.3506768,-1.325687E-07,NaN,1.159287,-5.073101E-07,NaN,-0.6442811,2.168517E-05,0.4357255,8.376692E-08,NaN,NaN,-0.00948945,-5.634502E-10,-5.49452E-07,-1.102177E-07,-9.327081E-10,-2.861022E-08
773.9195,-0.8199461,-5.418127E-10,NaN,-0.3506768,-1.325687E-07,NaN,1.159287,-5.073101E-07,NaN,-0.6442811,2.168517E-05,0.4357255,8.376692E-08,NaN,NaN,-0.00948945,-5.634502E-10,-5.49452E-07,-1.102177E-07,-9.327081E-10,-2.861022E-08
773.9337,-0.8193073,-5.411306E-10,NaN,-0.3504695,-1.325687E-07,NaN,1.160324,-5.070785E-07,NaN,-0.6445157,2.168559E-05,0.4346823,8.353672E-08,NaN,NaN,-0.009585507,-5.54137E-10,-5.256101E-07,-1.102181E-07,-2.124801E-09,-2.622604E-08
773.9507,-0.8187454,-5.404484E-10,NaN,-0.3502877,-1.325688E-07,NaN,1.161283,-5.068007E-07,NaN,-0.6448291,2.168602E-05,0.4336589,8.326023E-08,NaN,NaN,-0.009679544,-5.494804E-10,-5.005762E-07,-1.102186E-07,-5.70108E-09,-2.861022E-08
773.9649,-0.8184464,-5.397662E-10,NaN,-0.3501993,-1.32569E-07,NaN,1.162528,-5.065029E-07,NaN,-0.6456649,2.168643E-05,0.4321925,8.296377E-08,NaN,NaN,-0.009855786,-5.401671E-10,-4.695817E-07,-1.102192E-07,-8.085266E-09,-2.622604E-08
773.9796,-0.8184464,-5.397662E-10,NaN,-0.3501993,-1.32569E-07,NaN,1.162528,-5.065029E-07,NaN,-0.6456649,2.168643E-05,0.4321925,8.296377E-08,NaN,NaN,-0.009855786,-5.401671E-10,-4.695817E-07,-1.102192E-07,-8.085266E-09,-2.622604E-08
773.9935,-0.8183135,-5.390844E-10,NaN,-0.3501685,-1.325692E-07,NaN,1.163819,-5.068533E-07,NaN,-0.6468357,2.168686E-05,0.4305554,8.331543E-08,NaN,NaN,-0.0100285,-5.355105E-10,-4.421636E-07,-1.102183E-07,-5.70108E-09,-2.622604E-08
774.0081,-0.8182854,-5.384023E-10,NaN,-0.3501723,-1.325692E-07,NaN,1.165048,-5.066842E-07,NaN,-0.6481539,2.168729E-05,0.4288979,8.314763E-08,NaN,NaN,-0.01019768,-5.355105E-10,-4.111692E-07,-1.102185E-07,-3.316894E-09,-2.861022E-08
774.0225,-0.8183222,-5.377199E-10,NaN,-0.3501974,-1.325692E-07,NaN,1.166195,-5.064421E-07,NaN,-0.6495301,2.168771E-05,0.4272716,8.290694E-08,NaN,NaN,-0.01036339,-5.308539E-10,-3.873273E-07,-1.10219E-07,2.64357E-09,-2.622604E-08
774.0372,-0.8183222,-5.377199E-10,NaN,-0.3501974,-1.325692E-07,NaN,1.166195,-5.064421E-07,NaN,-0.6495301,2.168771E-05,0.4272716,8.290694E-08,NaN,NaN,-0.01036339,-5.308539E-10,-3.873273E-07,-1.10219E-07,2.64357E-09,-2.622604E-08
774.0513,-0.8186119,-5.370379E-10,NaN,-0.3503123,-1.325694E-07,NaN,1.167623,-5.068217E-07,NaN,-0.6514103,2.168813E-05,0.4252103,8.328783E-08,NaN,NaN,-0.01060985,-5.261973E-10,-3.587171E-07,-1.10218E-07,1.451477E-09,-2.622604E-08
774.0668,-0.819059,-5.363556E-10,NaN,-0.3504819,-1.325692E-07,NaN,1.169088,-5.066699E-07,NaN,-0.6536087,2.168856E-05,0.4229898,8.313746E-08,NaN,NaN,-0.01085141,-5.261973E-10,-3.253385E-07,-1.102183E-07,5.027756E-09,-2.861022E-08
774.0815,-0.819603,-5.35673E-10,NaN,-0.3506843,-1.325693E-07,NaN,1.170481,-5.064365E-07,NaN,-0.6559386,2.168898E-05,0.4207606,8.29054E-08,NaN,NaN,-0.01108805,-5.168841E-10,-2.943441E-07,-1.102187E-07,3.835662E-09,-2.622604E-08
774.096,-0.819603,-5.35673E-10,NaN,-0.3506843,-1.325693E-07,NaN,1.170481,-5.064365E-07,NaN,-0.6559386,2.168898E-05,0.4207606,8.29054E-08,NaN,NaN,-0.01108805,-5.168841E-10,-2.943441E-07,-1.102187E-07,3.835662E-09,-2.622604E-08
774.1102,-0.8204177,-5.349909E-10,NaN,-0.3509827,-1.325694E-07,NaN,1.172137,-5.068217E-07,NaN,-0.6587995,2.168941E-05,0.4180925,8.329186E-08,NaN,NaN,-0.01140395,-5.122275E-10,-2.573892E-07,-1.102178E-07,-9.32709E-10,-2.622604E-08
774.1257,-0.8213988,-5.343083E-10,NaN,-0.3513386,-1.325692E-07,NaN,1.173802,-5.066755E-07,NaN,-0.6619825,2.168984E-05,0.4152791,8.314703E-08,NaN,NaN,-0.01171354,-5.122275E-10,-2.228185E-07,-1.10218E-07,-9.277359E-09,-2.861022E-08
774.1405,-0.82248,-5.336254E-10,NaN,-0.3517279,-1.325692E-07,NaN,1.175372,-5.064447E-07,NaN,-0.6652905,2.169025E-05,0.4124744,8.291756E-08,NaN,NaN,-0.01201684,-5.029143E-10,-1.870557E-07,-1.102184E-07,-9.277359E-09,-2.622604E-08
774.1552,-0.82248,-5.336254E-10,NaN,-0.3517279,-1.325692E-07,NaN,1.175372,-5.064447E-07,NaN,-0.6652905,2.169025E-05,0.4124744,8.291756E-08,NaN,NaN,-0.01201684,-5.029143E-10,-1.870557E-07,-1.102184E-07,-9.277359E-09,-2.622604E-08
774.1693,-0.8236195,-5.329431E-10,NaN,-0.3521359,-1.325694E-07,NaN,1.17683,-5.068324E-07,NaN,-0.6686291,2.169068E-05,0.4097284,8.33065E-08,NaN,NaN,-0.012314,-4.982577E-10,-1.572534E-07,-1.102175E-07,-1.046945E-08,-2.622604E-08
774.1851,-0.8250029,-5.322603E-10,NaN,-0.3526302,-1.325692E-07,NaN,1.178544,-5.066859E-07,NaN,-0.6724426,2.169111E-05,0.406566,8.316135E-08,NaN,NaN,-0.01268914,-4.982577E-10,-1.167223E-07,-1.102177E-07,-6.893173E-09,-2.861022E-08
774.1995,-0.8250029,-5.322603E-10,NaN,-0.3526302,-1.325692E-07,NaN,1.178544,-5.066859E-07,NaN,-0.6724426,2.169111E-05,0.406566,8.316135E-08,NaN,NaN,-0.01268914,-4.982577E-10,-1.167223E-07,-1.102177E-07,-6.893173E-09,-2.861022E-08
774.2135,-0.8265333,-5.315772E-10,NaN,-0.353175,-1.325692E-07,NaN,1.180263,-5.064547E-07,NaN,-0.6765441,2.169153E-05,0.4032739,8.293156E-08,NaN,NaN,-0.01305683,-4.93601E-10,-7.73832E-08,-1.102181E-07,-1.046945E-08,-2.622604E-08
774.2299,-0.8281493,-5.308947E-10,NaN,-0.3537478,-1.325693E-07,NaN,1.181883,-5.06842E-07,NaN,-0.6807473,2.169195E-05,0.4000019,8.332013E-08,NaN,NaN,-0.01341709,-4.889444E-10,-3.446786E-08,-1.102172E-07,-1.88141E-08,-2.622604E-08
774.2433,-0.8298121,-5.302116E-10,NaN,-0.3543352,-1.325692E-07,NaN,1.183389,-5.066952E-07,NaN,-0.6849628,2.169238E-05,0.3967982,8.317467E-08,NaN,NaN,-0.0137701,-4.889444E-10,1.294929E-09,-1.102174E-07,-2.00062E-08,-2.861022E-08
774.2582,-0.8298121,-5.302116E-10,NaN,-0.3543352,-1.325692E-07,NaN,1.183389,-5.066952E-07,NaN,-0.6849628,2.169238E-05,0.3967982,8.317467E-08,NaN,NaN,-0.0137701,-4.889444E-10,1.294929E-09,-1.102174E-07,-2.00062E-08,-2.861022E-08
774.2721,-0.8317096,-5.295283E-10,NaN,-0.3550055,-1.325692E-07,NaN,1.185145,-5.059058E-07,NaN,-0.6896374,2.16928E-05,0.3931801,8.238662E-08,NaN,NaN,-0.01419988,-4.796312E-10,4.421027E-08,-1.102179E-07,-1.285364E-08,-2.622604E-08
774.2874,-0.833746,-5.288456E-10,NaN,-0.3557232,-1.325693E-07,NaN,1.186894,-5.060112E-07,NaN,-0.6945854,2.169323E-05,0.3894446,8.249335E-08,NaN,NaN,-0.01462113,-4.749746E-10,8.593352E-08,-1.102169E-07,-1.285364E-08,-2.622604E-08
774.302,-0.8358606,-5.28163E-10,NaN,-0.3564662,-1.325693E-07,NaN,1.188534,-5.054966E-07,NaN,-0.6996213,2.169366E-05,0.385742,8.198006E-08,NaN,NaN,-0.0150339,-4.796312E-10,1.216963E-07,-1.102153E-07,-1.046945E-08,-2.622604E-08
774.3169,-0.8358606,-5.28163E-10,NaN,-0.3564662,-1.325693E-07,NaN,1.188534,-5.054966E-07,NaN,-0.6996213,2.169366E-05,0.385742,8.198006E-08,NaN,NaN,-0.0150339,-4.796312E-10,1.216963E-07,-1.102153E-07,-1.046945E-08,-2.622604E-08
774.3309,-0.8382278,-5.274802E-10,NaN,-0.357298,-1.325691E-07,NaN,1.1904,-5.050625E-07,NaN,-0.7051445,2.16941E-05,0.3816202,8.154733E-08,NaN,NaN,-0.01552216,-4.842878E-10,1.634196E-07,-1.102135E-07,-9.27736E-09,-2.622604E-08
774.3463,-0.8407429,-5.267976E-10,NaN,-0.3581797,-1.325688E-07,NaN,1.19223,-5.046764E-07,NaN,-0.7109472,2.169454E-05,0.3773969,8.116254E-08,NaN,NaN,-0.01600071,-4.889444E-10,2.07527E-07,-1.102117E-07,-1.404573E-08,-2.622604E-08
774.3608,-0.8433399,-5.261148E-10,NaN,-0.3590875,-1.325684E-07,NaN,1.193925,-5.043203E-07,NaN,-0.7168328,2.169496E-05,0.3732249,8.080783E-08,NaN,NaN,-0.01646964,-4.796312E-10,2.516344E-07,-1.102098E-07,-1.523783E-08,-2.622604E-08
774.3755,-0.8433399,-5.261148E-10,NaN,-0.3590875,-1.325684E-07,NaN,1.193925,-5.043203E-07,NaN,-0.7168328,2.169496E-05,0.3732249,8.080783E-08,NaN,NaN,-0.01646964,-4.796312E-10,2.516344E-07,-1.102098E-07,-1.523783E-08,-2.622604E-08
774.3898,-0.8459772,-5.254319E-10,NaN,-0.3600068,-1.325679E-07,NaN,1.195483,-5.039824E-07,NaN,-0.7227079,2.169539E-05,0.3691491,8.047132E-08,NaN,NaN,-0.01692913,-4.70318E-10,2.909735E-07,-1.102079E-07,-1.523783E-08,-2.622604E-08
774.4052,-0.8488412,-5.24749E-10,NaN,-0.3610058,-1.325674E-07,NaN,1.197267,-5.036568E-07,NaN,-0.7290168,2.169583E-05,0.3646674,8.014701E-08,NaN,NaN,-0.01746308,-4.749746E-10,3.36273E-07,-1.10206E-07,-2.00062E-08,-2.622604E-08
774.4201,-0.8518348,-5.24066E-10,NaN,-0.3620481,-1.325669E-07,NaN,1.19901,-5.0335E-07,NaN,-0.7355736,2.169627E-05,0.3600991,7.984153E-08,NaN,NaN,-0.01798646,-4.842878E-10,3.815726E-07,-1.102041E-07,-1.88141E-08,-2.622604E-08
774.4365,-0.8518348,-5.24066E-10,NaN,-0.3620481,-1.325669E-07,NaN,1.19901,-5.0335E-07,NaN,-0.7355736,2.169627E-05,0.3600991,7.984153E-08,NaN,NaN,-0.01798646,-4.842878E-10,3.815726E-07,-1.102041E-07,-1.88141E-08,-2.622604E-08
774.4489,-0.8548967,-5.233828E-10,NaN,-0.3631116,-1.325664E-07,NaN,1.200621,-5.030491E-07,NaN,-0.7421927,2.16967E-05,0.3555937,7.9542E-08,NaN,NaN,-0.01849935,-4.842878E-10,4.244879E-07,-1.102022E-07,-1.523783E-08,-2.622604E-08
774.464,-0.8579885,-5.226996E-10,NaN,-0.3641831,-1.325659E-07,NaN,1.202095,-5.027541E-07,NaN,-0.7487856,2.169713E-05,0.351193,7.924831E-08,NaN,NaN,-0.01900195,-4.842878E-10,4.614428E-07,-1.102003E-07,-9.277361E-09,-2.622604E-08
774.48,-0.8579885,-5.226996E-10,NaN,-0.3641831,-1.325659E-07,NaN,1.202095,-5.027541E-07,NaN,-0.7487856,2.169713E-05,0.351193,7.924831E-08,NaN,NaN,-0.01900195,-4.842878E-10,4.614428E-07,-1.102003E-07,-9.277361E-09,-2.622604E-08
774.494,-0.8612988,-5.220162E-10,NaN,-0.3653314,-1.325654E-07,NaN,1.203792,-5.024619E-07,NaN,-0.7557987,2.169757E-05,0.3463826,7.895751E-08,NaN,NaN,-0.01957808,-4.842878E-10,5.115107E-07,-1.101984E-07,-6.893175E-09,-2.622604E-08
774.5085,-0.8647316,-5.213326E-10,NaN,-0.3665204,-1.325649E-07,NaN,1.205437,-5.021755E-07,NaN,-0.7630475,2.1698E-05,0.3414995,7.867238E-08,NaN,NaN,-0.02014281,-4.842878E-10,5.556181E-07,-1.101965E-07,-5.701082E-09,-2.622604E-08
774.5229,-0.8682262,-5.20649E-10,NaN,-0.3677283,-1.325644E-07,NaN,1.206943,-5.018917E-07,NaN,-0.7703471,2.169843E-05,0.3366931,7.838997E-08,NaN,NaN,-0.02069625,-4.842878E-10,5.985335E-07,-1.101947E-07,-6.893175E-09,-2.622604E-08
774.5377,-0.8682262,-5.20649E-10,NaN,-0.3677283,-1.325644E-07,NaN,1.206943,-5.018917E-07,NaN,-0.7703471,2.169843E-05,0.3366931,7.838997E-08,NaN,NaN,-0.02069625,-4.842878E-10,5.985335E-07,-1.101947E-07,-6.893175E-09,-2.622604E-08
774.5518,-0.871958,-5.199653E-10,NaN,-0.3690189,-1.325639E-07,NaN,1.208647,-5.016106E-07,NaN,-0.7780963,2.169887E-05,0.3314726,7.811025E-08,NaN,NaN,-0.02132211,-4.842878E-10,6.450251E-07,-1.101928E-07,-8.085268E-09,-2.622604E-08
774.5673,-0.8758218,-5.192815E-10,NaN,-0.370353,-1.325634E-07,NaN,1.210269,-5.013321E-07,NaN,-0.7860885,2.16993E-05,0.3261996,7.783314E-08,NaN,NaN,-0.02193559,-4.842878E-10,6.915167E-07,-1.101909E-07,-8.085268E-09,-2.622604E-08
774.5818,-0.8797516,-5.185975E-10,NaN,-0.3717069,-1.325629E-07,NaN,1.211732,-5.010563E-07,NaN,-0.7941282,2.169973E-05,0.3210229,7.75586E-08,NaN,NaN,-0.02253678,-4.842878E-10,7.332399E-07,-1.10189E-07,-8.085268E-09,-2.622604E-08
774.5966,-0.8797516,-5.185975E-10,NaN,-0.3717069,-1.325629E-07,NaN,1.211732,-5.010563E-07,NaN,-0.7941282,2.169973E-05,0.3210229,7.75586E-08,NaN,NaN,-0.02253678,-4.842878E-10,7.332399E-07,-1.10189E-07,-8.085268E-09,-2.622604E-08
774.6105,-0.8837061,-5.179139E-10,NaN,-0.3730664,-1.325619E-07,NaN,1.213046,-5.017361E-07,NaN,-0.8021231,2.170016E-05,0.315977,7.823975E-08,NaN,NaN,-0.02312595,-4.889444E-10,7.737711E-07,-1.101864E-07,-6.893175E-09,-2.622604E-08
774.6261,-0.8878729,-5.172304E-10,NaN,-0.3744999,-1.325604E-07,NaN,1.214568,-5.025491E-07,NaN,-0.8105167,2.170059E-05,0.3105178,7.905422E-08,NaN,NaN,-0.02378679,-4.93601E-10,8.166865E-07,-1.101835E-07,-1.046945E-08,-2.622604E-08
774.6408,-0.8921543,-5.165469E-10,NaN,-0.3759709,-1.325587E-07,NaN,1.216009,-5.034281E-07,NaN,-0.8191242,2.170101E-05,0.3050215,7.993452E-08,NaN,NaN,-0.02443459,-5.075709E-10,8.667544E-07,-1.101804E-07,-1.285364E-08,-2.622604E-08
774.6557,-0.8921543,-5.165469E-10,NaN,-0.3759709,-1.325587E-07,NaN,1.216009,-5.034281E-07,NaN,-0.8191242,2.170101E-05,0.3050215,7.993452E-08,NaN,NaN,-0.02443459,-5.075709E-10,8.667544E-07,-1.101804E-07,-1.285364E-08,-2.622604E-08
774.6697,-0.8964891,-5.158633E-10,NaN,-0.3774573,-1.325568E-07,NaN,1.217297,-5.043348E-07,NaN,-0.8277609,2.170142E-05,0.2996326,8.084265E-08,NaN,NaN,-0.02506944,-5.122275E-10,9.060934E-07,-1.101772E-07,-5.701083E-09,-2.622604E-08
774.6851,-0.900839,-5.151794E-10,NaN,-0.3789462,-1.325554E-07,NaN,1.218444,-5.048873E-07,NaN,-0.8363395,2.170182E-05,0.2943811,8.13965E-08,NaN,NaN,-0.02569164,-5.075709E-10,9.466246E-07,-1.101747E-07,-3.316897E-09,-2.622604E-08
774.7,-0.900839,-5.151794E-10,NaN,-0.3789462,-1.325554E-07,NaN,1.218444,-5.048873E-07,NaN,-0.8363395,2.170182E-05,0.2943811,8.13965E-08,NaN,NaN,-0.02569164,-5.075709E-10,9.466246E-07,-1.101747E-07,-3.316897E-09,-2.622604E-08
774.7138,-0.9053938,-5.144955E-10,NaN,-0.3805065,-1.325544E-07,NaN,1.219799,-5.052991E-07,NaN,-0.8453053,2.170223E-05,0.2887053,8.180967E-08,NaN,NaN,-0.0263848,-5.075709E-10,9.90732E-07,-1.101725E-07,-5.701083E-09,-2.622604E-08
774.7291,-0.9100569,-5.138113E-10,NaN,-0.3821022,-1.325536E-07,NaN,1.221065,-5.056265E-07,NaN,-0.854475,2.170264E-05,0.2830105,8.213851E-08,NaN,NaN,-0.02706428,-5.075709E-10,1.033647E-06,-1.101704E-07,-5.701083E-09,-2.622604E-08
774.7448,-0.9147678,-5.131271E-10,NaN,-0.3837113,-1.325529E-07,NaN,1.222178,-5.053578E-07,NaN,-0.8636645,2.170304E-05,0.2774369,8.187121E-08,NaN,NaN,-0.02773023,-5.122275E-10,1.077755E-06,-1.101684E-07,-4.50899E-09,-2.622604E-08
774.7586,-0.9147678,-5.131271E-10,NaN,-0.3837113,-1.325529E-07,NaN,1.222178,-5.053578E-07,NaN,-0.8636645,2.170304E-05,0.2774369,8.187121E-08,NaN,NaN,-0.02773023,-5.122275E-10,1.077755E-06,-1.101684E-07,-4.50899E-09,-2.622604E-08
774.7726,-0.9197027,-5.124429E-10,NaN,-0.385398,-1.325523E-07,NaN,1.223473,-5.050633E-07,NaN,-0.8732718,2.170345E-05,0.2714361,8.157807E-08,NaN,NaN,-0.02846622,-5.168841E-10,1.118286E-06,-1.101665E-07,-1.046945E-08,-2.622604E-08
774.788,-0.9247559,-5.117589E-10,NaN,-0.3871228,-1.325517E-07,NaN,1.224653,-5.047576E-07,NaN,-0.8830914,2.170385E-05,0.2654417,8.12737E-08,NaN,NaN,-0.02918768,-5.075709E-10,1.162393E-06,-1.101646E-07,-1.046945E-08,-2.622604E-08
774.8025,-0.9298614,-5.11075E-10,NaN,-0.388862,-1.325512E-07,NaN,1.225669,-5.044465E-07,NaN,-0.8929296,2.170426E-05,0.2595875,8.096399E-08,NaN,NaN,-0.02989477,-5.075709E-10,1.202925E-06,-1.101628E-07,-5.701082E-09,-2.622604E-08
774.8173,-0.9298614,-5.11075E-10,NaN,-0.388862,-1.325512E-07,NaN,1.225669,-5.044465E-07,NaN,-0.8929296,2.170426E-05,0.2595875,8.096399E-08,NaN,NaN,-0.02989477,-5.075709E-10,1.202925E-06,-1.101628E-07,-5.701082E-09,-2.622604E-08
774.8312,-0.9349781,-5.103912E-10,NaN,-0.3906017,-1.325507E-07,NaN,1.226546,-5.046211E-07,NaN,-0.9026951,2.170466E-05,0.2538906,8.113995E-08,NaN,NaN,-0.03058779,-5.075709E-10,1.241071E-06,-1.10161E-07,-1.046945E-08,-2.622604E-08
774.8468,-0.9402948,-5.097075E-10,NaN,-0.3924108,-1.325502E-07,NaN,1.227622,-5.04242E-07,NaN,-0.9128299,2.170507E-05,0.2477528,8.076225E-08,NaN,NaN,-0.03135031,-5.075709E-10,1.281603E-06,-1.101592E-07,-8.085268E-09,-2.622604E-08
774.8615,-0.9457132,-5.090238E-10,NaN,-0.3942522,-1.325497E-07,NaN,1.228587,-5.038647E-07,NaN,-0.9231504,2.170547E-05,0.2416399,8.038627E-08,NaN,NaN,-0.03209779,-5.075709E-10,1.317365E-06,-1.101574E-07,-3.912942E-09,-2.622604E-08
774.8761,-0.9457132,-5.090238E-10,NaN,-0.3942522,-1.325497E-07,NaN,1.228587,-5.038647E-07,NaN,-0.9231504,2.170547E-05,0.2416399,8.038627E-08,NaN,NaN,-0.03209779,-5.075709E-10,1.317365E-06,-1.101574E-07,-3.912942E-09,-2.622604E-08
774.8905,-0.9511719,-5.083402E-10,NaN,-0.3961043,-1.325493E-07,NaN,1.229401,-5.03489E-07,NaN,-0.9334732,2.170588E-05,0.235676,8.001199E-08,NaN,NaN,-0.03283042,-5.075709E-10,1.356705E-06,-1.101557E-07,-2.72085E-09,-2.622604E-08
774.9069,-0.9566329,-5.076571E-10,NaN,-0.397954,-1.325482E-07,NaN,1.230089,-5.040779E-07,NaN,-0.9437125,2.170628E-05,0.2298719,8.060216E-08,NaN,NaN,-0.0335485,-5.122275E-10,1.393659E-06,-1.101532E-07,-3.316896E-09,-2.622604E-08
774.9207,-0.9622873,-5.069737E-10,NaN,-0.399871,-1.325474E-07,NaN,1.230977,-5.044428E-07,NaN,-0.9543117,2.170669E-05,0.22361,8.096842E-08,NaN,NaN,-0.03433557,-5.168841E-10,1.431806E-06,-1.101511E-07,8.554291E-10,-2.622604E-08
774.9353,-0.9622873,-5.069737E-10,NaN,-0.399871,-1.325474E-07,NaN,1.230977,-5.044428E-07,NaN,-0.9543117,2.170669E-05,0.22361,8.096842E-08,NaN,NaN,-0.03433557,-5.168841E-10,1.431806E-06,-1.101511E-07,8.554291E-10,-2.622604E-08
774.9494,-0.9680378,-5.062903E-10,NaN,-0.4018184,-1.325466E-07,NaN,1.231747,-5.04191E-07,NaN,-0.9650882,2.170709E-05,0.2173975,8.071803E-08,NaN,NaN,-0.03510712,-5.122275E-10,1.467569E-06,-1.101491E-07,1.451475E-09,-2.622604E-08
774.965,-0.9738237,-5.05607E-10,NaN,-0.4037748,-1.32546E-07,NaN,1.232374,-5.039046E-07,NaN,-0.9758599,2.170748E-05,0.2113439,8.043302E-08,NaN,NaN,-0.03586337,-5.029143E-10,1.50214E-06,-1.101473E-07,2.643568E-09,-2.622604E-08
774.9797,-0.9738237,-5.05607E-10,NaN,-0.4037748,-1.32546E-07,NaN,1.232374,-5.039046E-07,NaN,-0.9758599,2.170748E-05,0.2113439,8.043302E-08,NaN,NaN,-0.03586337,-5.029143E-10,1.50214E-06,-1.101473E-07,2.643568E-09,-2.622604E-08
774.9956,-0.9798225,-5.049238E-10,NaN,-0.4058043,-1.325455E-07,NaN,1.233176,-5.036013E-07,NaN,-0.9870231,2.170789E-05,0.2048305,8.013098E-08,NaN,NaN,-0.03668781,-5.029143E-10,1.537903E-06,-1.101454E-07,3.239615E-09,-2.622604E-08
775.009,-0.9859278,-5.04241E-10,NaN,-0.4078673,-1.325444E-07,NaN,1.233842,-5.041932E-07,NaN,-0.9983736,2.170829E-05,0.1983956,8.072428E-08,NaN,NaN,-0.03749599,-5.075709E-10,1.574858E-06,-1.101429E-07,2.593827E-10,-2.622604E-08
775.0239,-0.9920734,-5.035581E-10,NaN,-0.4099401,-1.325435E-07,NaN,1.234363,-5.045527E-07,NaN,-1.009719,2.17087E-05,0.1921327,8.108513E-08,NaN,NaN,-0.03828815,-5.122275E-10,1.609428E-06,-1.101408E-07,-3.366637E-10,-2.622604E-08
775.0384,-0.9920734,-5.035581E-10,NaN,-0.4099401,-1.325435E-07,NaN,1.234363,-5.045527E-07,NaN,-1.009719,2.17087E-05,0.1921327,8.108513E-08,NaN,NaN,-0.03828815,-5.122275E-10,1.609428E-06,-1.101408E-07,-3.366637E-10,-2.622604E-08
775.0522,-0.9982182,-5.028751E-10,NaN,-0.4120091,-1.325428E-07,NaN,1.234773,-5.042928E-07,NaN,-1.020971,2.17091E-05,0.1860389,8.082663E-08,NaN,NaN,-0.03906463,-5.075709E-10,1.639231E-06,-1.101389E-07,-3.366637E-10,-2.622604E-08
775.0678,-1.004553,-5.021921E-10,NaN,-0.4141435,-1.325422E-07,NaN,1.235369,-5.039956E-07,NaN,-1.032569,2.170949E-05,0.1794646,8.053084E-08,NaN,NaN,-0.03990892,-5.029143E-10,1.669033E-06,-1.101371E-07,-3.366637E-10,-2.622604E-08
775.0825,-1.010978,-5.015093E-10,NaN,-0.416306,-1.325416E-07,NaN,1.235837,-5.036788E-07,NaN,-1.044328,2.17099E-05,0.1729914,8.021541E-08,NaN,NaN,-0.04073656,-5.122275E-10,1.700027E-06,-1.101353E-07,2.593827E-10,-2.622604E-08
775.0972,-1.010978,-5.015093E-10,NaN,-0.416306,-1.325416E-07,NaN,1.235837,-5.036788E-07,NaN,-1.044328,2.17099E-05,0.1729914,8.021541E-08,NaN,NaN,-0.04073656,-5.122275E-10,1.700027E-06,-1.101353E-07,2.593827E-10,-2.622604E-08
775.1111,-1.017431,-5.008269E-10,NaN,-0.4184749,-1.325406E-07,NaN,1.236179,-5.042577E-07,NaN,-1.05607,2.17103E-05,0.1666918,8.079559E-08,NaN,NaN,-0.04154783,-5.122275E-10,1.72983E-06,-1.101328E-07,-2.124803E-09,-2.622604E-08
775.1266,-1.023876,-5.001444E-10,NaN,-0.4206375,-1.325397E-07,NaN,1.236424,-5.046043E-07,NaN,-1.067708,2.17107E-05,0.1605592,8.114358E-08,NaN,NaN,-0.04234308,-5.122275E-10,1.752479E-06,-1.101308E-07,-2.124803E-09,-2.622604E-08
775.1414,-1.030505,-4.994618E-10,NaN,-0.4228635,-1.32539E-07,NaN,1.236849,-5.04329E-07,NaN,-1.079684,2.17111E-05,0.1539316,8.086963E-08,NaN,NaN,-0.04320576,-5.168841E-10,1.779898E-06,-1.101289E-07,-2.720849E-09,-2.622604E-08
775.1563,-1.030505,-4.994618E-10,NaN,-0.4228635,-1.32539E-07,NaN,1.236849,-5.04329E-07,NaN,-1.079684,2.17111E-05,0.1539316,8.086963E-08,NaN,NaN,-0.04320576,-5.168841E-10,1.779898E-06,-1.101289E-07,-2.720849E-09,-2.622604E-08
775.1702,-1.037219,-4.987792E-10,NaN,-0.4251159,-1.325384E-07,NaN,1.237148,-5.040167E-07,NaN,-1.091815,2.17115E-05,0.14743,8.05587E-08,NaN,NaN,-0.04405142,-5.122275E-10,1.806124E-06,-1.101271E-07,-2.124803E-09,-2.622604E-08
775.1859,-1.043957,-4.980967E-10,NaN,-0.4273733,-1.325378E-07,NaN,1.237334,-5.036879E-07,NaN,-1.103923,2.17119E-05,0.1411025,8.023126E-08,NaN,NaN,-0.04488039,-5.029143E-10,1.825197E-06,-1.101253E-07,-3.864042E-11,-2.622604E-08
775.2005,-1.050683,-4.974148E-10,NaN,-0.4296231,-1.325368E-07,NaN,1.237437,-5.04255E-07,NaN,-1.115923,2.17123E-05,0.13494,8.079967E-08,NaN,NaN,-0.04569301,-5.075709E-10,1.846655E-06,-1.101229E-07,1.749499E-09,-2.622604E-08
775.2151,-1.050683,-4.974148E-10,NaN,-0.4296231,-1.325368E-07,NaN,1.237437,-5.04255E-07,NaN,-1.115923,2.17123E-05,0.13494,8.079967E-08,NaN,NaN,-0.04569301,-5.075709E-10,1.846655E-06,-1.101229E-07,1.749499E-09,-2.622604E-08
775.2291,-1.057589,-4.967327E-10,NaN,-0.4319352,-1.325359E-07,NaN,1.237707,-5.045873E-07,NaN,-1.128255,2.171271E-05,0.1282731,8.113327E-08,NaN,NaN,-0.0465727,-5.122275E-10,1.86692E-06,-1.101209E-07,-6.346869E-10,-2.622604E-08
775.2466,-1.064577,-4.960505E-10,NaN,-0.4342727,-1.325352E-07,NaN,1.237856,-5.042979E-07,NaN,-1.140737,2.171311E-05,0.1217526,8.084523E-08,NaN,NaN,-0.04743506,-5.075709E-10,1.887186E-06,-1.10119E-07,-5.105035E-09,-2.622604E-08
775.2601,-1.071587,-4.953688E-10,NaN,-0.4366139,-1.32534E-07,NaN,1.237908,-5.048782E-07,NaN,-1.153192,2.17135E-05,0.1154042,8.142689E-08,NaN,NaN,-0.04828042,-5.029143E-10,1.903875E-06,-1.101165E-07,-6.297128E-09,-2.622604E-08
775.2739,-1.071587,-4.953688E-10,NaN,-0.4366139,-1.32534E-07,NaN,1.237908,-5.048782E-07,NaN,-1.153192,2.17135E-05,0.1154042,8.142689E-08,NaN,NaN,-0.04828042,-5.029143E-10,1.903875E-06,-1.101165E-07,-6.297128E-09,-2.622604E-08
775.2881,-1.078797,-4.946875E-10,NaN,-0.4390236,-1.325325E-07,NaN,1.238102,-5.055712E-07,NaN,-1.166011,2.171388E-05,0.1085556,8.212125E-08,NaN,NaN,-0.0491922,-4.93601E-10,1.922949E-06,-1.101138E-07,-6.297128E-09,-2.622604E-08
775.3032,-1.086101,-4.94006E-10,NaN,-0.4414614,-1.325308E-07,NaN,1.238174,-5.063154E-07,NaN,-1.178993,2.171427E-05,0.1018706,8.286685E-08,NaN,NaN,-0.05008601,-4.93601E-10,1.937254E-06,-1.101109E-07,-5.403058E-09,-2.622604E-08
775.3179,-1.086101,-4.94006E-10,NaN,-0.4414614,-1.325308E-07,NaN,1.238174,-5.063154E-07,NaN,-1.178993,2.171427E-05,0.1018706,8.286685E-08,NaN,NaN,-0.05008601,-4.93601E-10,1.937254E-06,-1.101109E-07,-5.403058E-09,-2.622604E-08
775.3318,-1.093432,-4.933247E-10,NaN,-0.4439041,-1.32529E-07,NaN,1.238153,-5.070816E-07,NaN,-1.191949,2.171466E-05,0.09535979,8.363447E-08,NaN,NaN,-0.05096222,-4.93601E-10,1.950367E-06,-1.101079E-07,-4.956024E-09,-2.622604E-08
775.3472,-1.100748,-4.926426E-10,NaN,-0.4463383,-1.325275E-07,NaN,1.238061,-5.073203E-07,NaN,-1.204791,2.171506E-05,0.08901314,8.387455E-08,NaN,NaN,-0.05182119,-5.075709E-10,1.958712E-06,-1.101075E-07,-6.744163E-09,-2.861022E-08
775.362,-1.108242,-4.919603E-10,NaN,-0.4488335,-1.325268E-07,NaN,1.238107,-5.067163E-07,NaN,-1.217954,2.171546E-05,0.08216335,8.327195E-08,NaN,NaN,-0.05274629,-5.075709E-10,1.970633E-06,-1.101077E-07,-6.297128E-09,-2.622604E-08
775.3766,-1.108242,-4.919603E-10,NaN,-0.4488335,-1.325268E-07,NaN,1.238107,-5.067163E-07,NaN,-1.217954,2.171546E-05,0.08216335,8.327195E-08,NaN,NaN,-0.05274629,-5.075709E-10,1.970633E-06,-1.101077E-07,-6.297128E-09,-2.622604E-08
775.3922,-1.115815,-4.91278E-10,NaN,-0.451352,-1.325265E-07,NaN,1.23805,-5.059069E-07,NaN,-1.231257,2.171587E-05,0.07548203,8.246389E-08,NaN,NaN,-0.05365319,-5.122275E-10,1.981361E-06,-1.101083E-07,-8.085268E-09,-2.861022E-08
775.4067,-1.123403,-4.905969E-10,NaN,-0.4538721,-1.325262E-07,NaN,1.237915,-5.061503E-07,NaN,-1.244521,2.171626E-05,0.06896864,8.270871E-08,NaN,NaN,-0.05454225,-5.122275E-10,1.987322E-06,-1.101064E-07,-8.159773E-09,-2.622604E-08
775.4211,-1.13097,-4.899162E-10,NaN,-0.4563816,-1.325252E-07,NaN,1.237721,-5.066429E-07,NaN,-1.257665,2.171666E-05,0.06261503,8.320261E-08,NaN,NaN,-0.05541384,-5.122275E-10,1.993282E-06,-1.10104E-07,-8.308785E-09,-2.622604E-08
775.4359,-1.13097,-4.899162E-10,NaN,-0.4563816,-1.325252E-07,NaN,1.237721,-5.066429E-07,NaN,-1.257665,2.171666E-05,0.06261503,8.320261E-08,NaN,NaN,-0.05541384,-5.122275E-10,1.993282E-06,-1.10104E-07,-8.308785E-09,-2.622604E-08
775.4501,-1.133462,-4.892357E-10,NaN,-0.4570992,-1.325243E-07,NaN,1.233619,-5.064038E-07,NaN,-1.259729,2.171707E-05,0.07140207,8.296488E-08,NaN,NaN,-0.05435923,-5.215407E-10,1.922949E-06,-1.101021E-07,-9.370493E-09,-2.622604E-08
775.4655,-1.132832,-4.885553E-10,NaN,-0.4567737,-1.325231E-07,NaN,1.230481,-5.069562E-07,NaN,-1.25445,2.171747E-05,0.0799153,8.351858E-08,NaN,NaN,-0.0533251,-5.215407E-10,1.83235E-06,-1.100996E-07,-1.017143E-08,-2.622604E-08
775.4802,-1.130256,-4.87875E-10,NaN,-0.455805,-1.325221E-07,NaN,1.22792,-5.067475E-07,NaN,-1.245693,2.171787E-05,0.08817888,8.331127E-08,NaN,NaN,-0.05231114,-5.308539E-10,1.765592E-06,-1.100976E-07,-6.362321E-09,-2.622604E-08
775.4948,-1.130256,-4.87875E-10,NaN,-0.455805,-1.325221E-07,NaN,1.22792,-5.067475E-07,NaN,-1.245693,2.171787E-05,0.08817888,8.331127E-08,NaN,NaN,-0.05231114,-5.308539E-10,1.765592E-06,-1.100976E-07,-6.362321E-09,-2.622604E-08
775.511,-1.126706,-4.871947E-10,NaN,-0.4545276,-1.325214E-07,NaN,1.225886,-5.059109E-07,NaN,-1.235813,2.171828E-05,0.09557878,8.247601E-08,NaN,NaN,-0.05140007,-5.401671E-10,1.710756E-06,-1.100957E-07,-8.709254E-09,-2.622604E-08
775.5242,-1.122569,-4.865144E-10,NaN,-0.4530709,-1.325202E-07,NaN,1.22405,-5.064416E-07,NaN,-1.225563,2.171868E-05,0.1028,8.300815E-08,NaN,NaN,-0.05050684,-5.401671E-10,1.65592E-06,-1.100933E-07,-8.783759E-09,-2.622604E-08
775.5391,-1.122569,-4.865144E-10,NaN,-0.4530709,-1.325202E-07,NaN,1.22405,-5.064416E-07,NaN,-1.225563,2.171868E-05,0.1028,8.300815E-08,NaN,NaN,-0.05050684,-5.401671E-10,1.65592E-06,-1.100933E-07,-8.783759E-09,-2.622604E-08
775.5531,-1.118091,-4.858343E-10,NaN,-0.4515139,-1.325188E-07,NaN,1.222346,-5.070776E-07,NaN,-1.215213,2.171908E-05,0.10986,8.36455E-08,NaN,NaN,-0.04963113,-5.401671E-10,1.607044E-06,-1.100906E-07,-9.975852E-09,-2.622604E-08
775.5683,-1.113421,-4.851542E-10,NaN,-0.4499044,-1.325176E-07,NaN,1.220734,-5.069086E-07,NaN,-1.204894,2.171948E-05,0.116769,8.347791E-08,NaN,NaN,-0.04877258,-5.448237E-10,1.561745E-06,-1.100885E-07,-9.677829E-09,-2.622604E-08
775.5831,-1.108873,-4.844741E-10,NaN,-0.4483483,-1.325168E-07,NaN,1.219382,-5.066329E-07,NaN,-1.195142,2.171989E-05,0.1228787,8.320356E-08,NaN,NaN,-0.04801396,-5.54137E-10,1.522405E-06,-1.100866E-07,-1.086992E-08,-2.622604E-08
775.5977,-1.108873,-4.844741E-10,NaN,-0.4483483,-1.325168E-07,NaN,1.219382,-5.066329E-07,NaN,-1.195142,2.171989E-05,0.1228787,8.320356E-08,NaN,NaN,-0.04801396,-5.54137E-10,1.522405E-06,-1.100866E-07,-1.086992E-08,-2.622604E-08
775.6118,-1.10442,-4.837941E-10,NaN,-0.446831,-1.325162E-07,NaN,1.218045,-5.057559E-07,NaN,-1.185829,2.17203E-05,0.1288584,8.232796E-08,NaN,NaN,-0.04727019,-5.634502E-10,1.484259E-06,-1.100849E-07,-1.116794E-08,-2.622604E-08
775.6274,-1.100044,-4.831141E-10,NaN,-0.4453437,-1.325151E-07,NaN,1.216727,-5.062583E-07,NaN,-1.176795,2.17207E-05,0.134721,8.283178E-08,NaN,NaN,-0.04654098,-5.634502E-10,1.447304E-06,-1.100825E-07,-1.131696E-08,-2.622604E-08
775.642,-1.095736,-4.824343E-10,NaN,-0.4438811,-1.325136E-07,NaN,1.21543,-5.06875E-07,NaN,-1.167964,2.172109E-05,0.1404693,8.344983E-08,NaN,NaN,-0.04582606,-5.634502E-10,1.409157E-06,-1.100799E-07,-1.072091E-08,-2.622604E-08
775.657,-1.095736,-4.824343E-10,NaN,-0.4438811,-1.325136E-07,NaN,1.21543,-5.06875E-07,NaN,-1.167964,2.172109E-05,0.1404693,8.344983E-08,NaN,NaN,-0.04582606,-5.634502E-10,1.409157E-06,-1.100799E-07,-1.072091E-08,-2.622604E-08
775.6708,-1.091705,-4.817544E-10,NaN,-0.4425169,-1.325123E-07,NaN,1.214363,-5.068085E-07,NaN,-1.159772,2.17215E-05,0.1454481,8.338471E-08,NaN,NaN,-0.04520827,-5.681068E-10,1.378162E-06,-1.100783E-07,-8.634747E-09,-2.622604E-08
775.6865,-1.087864,-4.810745E-10,NaN,-0.4412177,-1.325113E-07,NaN,1.213279,-5.066191E-07,NaN,-1.152042,2.17219E-05,0.1503178,8.319669E-08,NaN,NaN,-0.04460257,-5.634502E-10,1.344784E-06,-1.10077E-07,-7.889689E-09,-2.622604E-08
775.7012,-1.084155,-4.803947E-10,NaN,-0.4399631,-1.325105E-07,NaN,1.212189,-5.063657E-07,NaN,-1.14459,2.172231E-05,0.1550973,8.294462E-08,NaN,NaN,-0.04400873,-5.681068E-10,1.311405E-06,-1.100758E-07,-4.611433E-09,-2.622604E-08
775.7161,-1.084155,-4.803947E-10,NaN,-0.4399631,-1.325105E-07,NaN,1.212189,-5.063657E-07,NaN,-1.14459,2.172231E-05,0.1550973,8.294462E-08,NaN,NaN,-0.04400873,-5.681068E-10,1.311405E-06,-1.100758E-07,-4.611433E-09,-2.622604E-08
775.7302,-1.080763,-4.797149E-10,NaN,-0.438818,-1.325095E-07,NaN,1.211324,-5.068079E-07,NaN,-1.137804,2.172271E-05,0.1591301,8.338821E-08,NaN,NaN,-0.04350967,-5.634502E-10,1.283987E-06,-1.100736E-07,-4.31341E-09,-2.622604E-08
775.7454,-1.07758,-4.790351E-10,NaN,-0.4377437,-1.325087E-07,NaN,1.210429,-5.065281E-07,NaN,-1.131481,2.172312E-05,0.1630681,8.310975E-08,NaN,NaN,-0.04302037,-5.727634E-10,1.261337E-06,-1.100717E-07,-5.20748E-09,-2.622604E-08
775.761,-1.074541,-4.783555E-10,NaN,-0.4367169,-1.32508E-07,NaN,1.209517,-5.056386E-07,NaN,-1.125427,2.172352E-05,0.1669364,8.222167E-08,NaN,NaN,-0.04254064,-5.820766E-10,1.236303E-06,-1.1007E-07,-9.379805E-09,-2.622604E-08
775.775,-1.074541,-4.783555E-10,NaN,-0.4367169,-1.32508E-07,NaN,1.209517,-5.056386E-07,NaN,-1.125427,2.172352E-05,0.1669364,8.222167E-08,NaN,NaN,-0.04254064,-5.820766E-10,1.236303E-06,-1.1007E-07,-9.379805E-09,-2.622604E-08
775.789,-1.071604,-4.776759E-10,NaN,-0.4357232,-1.325068E-07,NaN,1.208603,-5.062416E-07,NaN,-1.119548,2.172392E-05,0.1707339,8.282603E-08,NaN,NaN,-0.04207031,-5.820766E-10,1.211269E-06,-1.100682E-07,-8.485736E-09,-2.622604E-08
775.8042,-1.06896,-4.769964E-10,NaN,-0.434831,-1.325051E-07,NaN,1.207928,-5.069399E-07,NaN,-1.114274,2.172431E-05,0.1738057,8.352573E-08,NaN,NaN,-0.04169235,-5.7742E-10,1.189812E-06,-1.100661E-07,-8.485736E-09,-2.622604E-08
775.819,-1.06896,-4.769964E-10,NaN,-0.434831,-1.325051E-07,NaN,1.207928,-5.069399E-07,NaN,-1.114274,2.172431E-05,0.1738057,8.352573E-08,NaN,NaN,-0.04169235,-5.7742E-10,1.189812E-06,-1.100661E-07,-8.485736E-09,-2.622604E-08
775.8331,-1.066509,-4.76317E-10,NaN,-0.434004,-1.325041E-07,NaN,1.207219,-5.067109E-07,NaN,-1.109421,2.172472E-05,0.1767926,8.329808E-08,NaN,NaN,-0.0413218,-5.867332E-10,1.17193E-06,-1.100641E-07,-7.293643E-09,-2.622604E-08
775.8485,-1.064188,-4.756376E-10,NaN,-0.4332202,-1.325034E-07,NaN,1.20649,-5.063876E-07,NaN,-1.104807,2.172513E-05,0.1797293,8.297611E-08,NaN,NaN,-0.04095849,-5.960464E-10,1.149281E-06,-1.100624E-07,-7.293643E-09,-2.622604E-08
775.8631,-1.061958,-4.749583E-10,NaN,-0.432466,-1.325022E-07,NaN,1.205755,-5.06874E-07,NaN,-1.100342,2.172553E-05,0.1826142,8.346397E-08,NaN,NaN,-0.04060228,-5.960464E-10,1.131399E-06,-1.1006E-07,-1.027388E-08,-2.622604E-08
775.8779,-1.061958,-4.749583E-10,NaN,-0.432466,-1.325022E-07,NaN,1.205755,-5.06874E-07,NaN,-1.100342,2.172553E-05,0.1826142,8.346397E-08,NaN,NaN,-0.04060228,-5.960464E-10,1.131399E-06,-1.1006E-07,-1.027388E-08,-2.622604E-08
775.8931,-1.060011,-4.74279E-10,NaN,-0.4318102,-1.325013E-07,NaN,1.205262,-5.066066E-07,NaN,-1.096458,2.172593E-05,0.1847947,8.319795E-08,NaN,NaN,-0.04033623,-6.00703E-10,1.118286E-06,-1.100582E-07,-1.146597E-08,-2.622604E-08
775.9073,-1.058248,-4.735997E-10,NaN,-0.431217,-1.325007E-07,NaN,1.204733,-5.057124E-07,NaN,-1.092975,2.172634E-05,0.1869005,8.230513E-08,NaN,NaN,-0.0400754,-6.100163E-10,1.105173E-06,-1.100565E-07,-1.325411E-08,-2.622604E-08
775.9221,-1.056607,-4.729205E-10,NaN,-0.4306645,-1.324996E-07,NaN,1.204175,-5.061894E-07,NaN,-1.089708,2.172674E-05,0.1889745,8.278347E-08,NaN,NaN,-0.03981965,-6.100163E-10,1.090868E-06,-1.100542E-07,-1.295608E-08,-2.622604E-08
775.9374,-1.056607,-4.729205E-10,NaN,-0.4306645,-1.324996E-07,NaN,1.204175,-5.061894E-07,NaN,-1.089708,2.172674E-05,0.1889745,8.278347E-08,NaN,NaN,-0.03981965,-6.100163E-10,1.090868E-06,-1.100542E-07,-1.295608E-08,-2.622604E-08
775.9512,-1.055265,-4.722415E-10,NaN,-0.4302163,-1.324982E-07,NaN,1.203851,-5.067755E-07,NaN,-1.087047,2.172714E-05,0.1903657,8.337089E-08,NaN,NaN,-0.0396521,-6.100163E-10,1.082524E-06,-1.100516E-07,-1.504225E-08,-2.622604E-08
775.9667,-1.054116,-4.715622E-10,NaN,-0.4298335,-1.324964E-07,NaN,1.203479,-5.074864E-07,NaN,-1.084788,2.172753E-05,0.191696,8.408328E-08,NaN,NaN,-0.03948782,-6.100163E-10,1.071795E-06,-1.100508E-07,-1.265806E-08,-2.861022E-08
775.9813,-1.053091,-4.708828E-10,NaN,-0.4294924,-1.324949E-07,NaN,1.203069,-5.080593E-07,NaN,-1.082736,2.172791E-05,0.1930119,8.465751E-08,NaN,NaN,-0.03932673,-5.960464E-10,1.062258E-06,-1.100503E-07,-1.385015E-08,-2.622604E-08
775.9958,-1.053091,-4.708828E-10,NaN,-0.4294924,-1.324949E-07,NaN,1.203069,-5.080593E-07,NaN,-1.082736,2.172791E-05,0.1930119,8.465751E-08,NaN,NaN,-0.03932673,-5.960464E-10,1.062258E-06,-1.100503E-07,-1.385015E-08,-2.622604E-08
776.0121,-1.052148,-4.702035E-10,NaN,-0.4291783,-1.324936E-07,NaN,1.202643,-5.085588E-07,NaN,-1.0808,2.172831E-05,0.194311,8.515839E-08,NaN,NaN,-0.03916879,-5.960464E-10,1.050337E-06,-1.100498E-07,-1.116794E-08,-2.861022E-08
776.0256,-1.051476,-4.695244E-10,NaN,-0.4289592,-1.324924E-07,NaN,1.202456,-5.090118E-07,NaN,-1.079409,2.17287E-05,0.1949429,8.561273E-08,NaN,NaN,-0.03909712,-5.867332E-10,1.044377E-06,-1.100495E-07,-1.236004E-08,-2.622604E-08
776.0402,-1.050977,-4.688454E-10,NaN,-0.428799,-1.324913E-07,NaN,1.202224,-5.094332E-07,NaN,-1.078382,2.172909E-05,0.1955241,8.603556E-08,NaN,NaN,-0.03902686,-5.867332E-10,1.039608E-06,-1.100492E-07,-1.146597E-08,-2.861022E-08
776.0549,-1.050977,-4.688454E-10,NaN,-0.428799,-1.324913E-07,NaN,1.202224,-5.094332E-07,NaN,-1.078382,2.172909E-05,0.1955241,8.603556E-08,NaN,NaN,-0.03902686,-5.867332E-10,1.039608E-06,-1.100492E-07,-1.146597E-08,-2.861022E-08
776.0687,-1.050588,-4.681672E-10,NaN,-0.4286758,-1.324907E-07,NaN,1.201951,-5.086192E-07,NaN,-1.077536,2.172949E-05,0.1961058,8.522287E-08,NaN,NaN,-0.03895795,-5.820766E-10,1.036032E-06,-1.100496E-07,-1.176399E-08,-2.622604E-08
776.0842,-1.050268,-4.674887E-10,NaN,-0.4285758,-1.324901E-07,NaN,1.201656,-5.088817E-07,NaN,-1.076782,2.172989E-05,0.1966857,8.548681E-08,NaN,NaN,-0.03889037,-5.867332E-10,1.032456E-06,-1.100497E-07,-1.206201E-08,-2.861022E-08
776.0991,-1.050268,-4.674887E-10,NaN,-0.4285758,-1.324901E-07,NaN,1.201656,-5.088817E-07,NaN,-1.076782,2.172989E-05,0.1966857,8.548681E-08,NaN,NaN,-0.03889037,-5.867332E-10,1.032456E-06,-1.100497E-07,-1.206201E-08,-2.861022E-08
776.113,-1.05021,-4.6681E-10,NaN,-0.4285675,-1.324893E-07,NaN,1.201601,-5.091983E-07,NaN,-1.076553,2.173027E-05,0.196614,8.580479E-08,NaN,NaN,-0.0389073,-5.7742E-10,1.032456E-06,-1.100496E-07,-9.975851E-09,-2.622604E-08
776.1285,-1.050315,-4.661314E-10,NaN,-0.4286149,-1.324884E-07,NaN,1.201494,-5.095397E-07,NaN,-1.07667,2.173066E-05,0.196505,8.614752E-08,NaN,NaN,-0.0389239,-5.681068E-10,1.037224E-06,-1.100494E-07,-1.206201E-08,-2.861022E-08
776.1432,-1.050522,-4.654537E-10,NaN,-0.4286963,-1.32488E-07,NaN,1.201342,-5.086782E-07,NaN,-1.076949,2.173107E-05,0.196411,8.528737E-08,NaN,NaN,-0.03894014,-5.727634E-10,1.03484E-06,-1.1005E-07,-1.116794E-08,-2.622604E-08
776.1579,-1.050522,-4.654537E-10,NaN,-0.4286963,-1.32488E-07,NaN,1.201342,-5.086782E-07,NaN,-1.076949,2.173107E-05,0.196411,8.528737E-08,NaN,NaN,-0.03894014,-5.727634E-10,1.03484E-06,-1.1005E-07,-1.116794E-08,-2.622604E-08
776.1721,-1.051007,-4.647756E-10,NaN,-0.4288753,-1.324874E-07,NaN,1.201411,-5.089111E-07,NaN,-1.07778,2.173146E-05,0.1956833,8.552168E-08,NaN,NaN,-0.03903923,-5.727634E-10,1.038416E-06,-1.100501E-07,-1.027387E-08,-2.861022E-08
776.1875,-1.051665,-4.640973E-10,NaN,-0.4291133,-1.324867E-07,NaN,1.201418,-5.092128E-07,NaN,-1.078959,2.173185E-05,0.1949348,8.582473E-08,NaN,NaN,-0.03913637,-5.634502E-10,1.0408E-06,-1.1005E-07,-9.379804E-09,-2.622604E-08
776.2023,-1.052427,-4.634192E-10,NaN,-0.4293863,-1.324858E-07,NaN,1.20137,-5.095451E-07,NaN,-1.080294,2.173224E-05,0.1942169,8.615847E-08,NaN,NaN,-0.03923156,-5.634502E-10,1.043185E-06,-1.100499E-07,-7.591665E-09,-2.861022E-08
776.217,-1.052427,-4.634192E-10,NaN,-0.4293863,-1.324858E-07,NaN,1.20137,-5.095451E-07,NaN,-1.080294,2.173224E-05,0.1942169,8.615847E-08,NaN,NaN,-0.03923156,-5.634502E-10,1.043185E-06,-1.100499E-07,-7.591665E-09,-2.861022E-08
776.231,-1.053251,-4.627417E-10,NaN,-0.4296794,-1.324855E-07,NaN,1.201289,-5.086777E-07,NaN,-1.081692,2.173264E-05,0.193526,8.529232E-08,NaN,NaN,-0.03932486,-5.587936E-10,1.047953E-06,-1.100504E-07,-9.677827E-09,-2.622604E-08
776.2464,-1.054326,-4.620639E-10,NaN,-0.4300606,-1.324849E-07,NaN,1.201435,-5.089075E-07,NaN,-1.083585,2.173304E-05,0.19221,8.552357E-08,NaN,NaN,-0.03949951,-5.587936E-10,1.051529E-06,-1.100505E-07,-6.995618E-09,-2.861022E-08
776.262,-1.055554,-4.613861E-10,NaN,-0.4304936,-1.324842E-07,NaN,1.201518,-5.092062E-07,NaN,-1.085792,2.173342E-05,0.1908867,8.582361E-08,NaN,NaN,-0.03967071,-5.494804E-10,1.059874E-06,-1.100505E-07,-7.889688E-09,-2.622604E-08
776.2768,-1.055554,-4.613861E-10,NaN,-0.4304936,-1.324842E-07,NaN,1.201518,-5.092062E-07,NaN,-1.085792,2.173342E-05,0.1908867,8.582361E-08,NaN,NaN,-0.03967071,-5.494804E-10,1.059874E-06,-1.100505E-07,-7.889688E-09,-2.622604E-08
776.2897,-1.056872,-4.607084E-10,NaN,-0.4309562,-1.324834E-07,NaN,1.201545,-5.095384E-07,NaN,-1.08813,2.173382E-05,0.1896055,8.615724E-08,NaN,NaN,-0.03983852,-5.494804E-10,1.068218E-06,-1.100503E-07,-1.05719E-08,-2.861022E-08
776.3051,-1.058239,-4.600314E-10,NaN,-0.4314348,-1.32483E-07,NaN,1.201538,-5.086708E-07,NaN,-1.090511,2.173423E-05,0.1883626,8.529099E-08,NaN,NaN,-0.04000301,-5.54137E-10,1.074179E-06,-1.100509E-07,-8.783758E-09,-2.622604E-08
776.3198,-1.058239,-4.600314E-10,NaN,-0.4314348,-1.32483E-07,NaN,1.201538,-5.086708E-07,NaN,-1.090511,2.173423E-05,0.1883626,8.529099E-08,NaN,NaN,-0.04000301,-5.54137E-10,1.074179E-06,-1.100509E-07,-8.783758E-09,-2.622604E-08
776.3337,-1.059849,-4.593539E-10,NaN,-0.4319978,-1.324825E-07,NaN,1.201751,-5.089006E-07,NaN,-1.09337,2.173462E-05,0.1865042,8.552214E-08,NaN,NaN,-0.04024744,-5.54137E-10,1.084908E-06,-1.10051E-07,-6.995618E-09,-2.861022E-08
776.3491,-1.061602,-4.586765E-10,NaN,-0.4326095,-1.324818E-07,NaN,1.201896,-5.091992E-07,NaN,-1.096527,2.173501E-05,0.1846545,8.582207E-08,NaN,NaN,-0.04048706,-5.448237E-10,1.095637E-06,-1.100509E-07,-5.803526E-09,-2.622604E-08
776.3638,-1.063438,-4.579991E-10,NaN,-0.433248,-1.324809E-07,NaN,1.201983,-5.095313E-07,NaN,-1.0998,2.17354E-05,0.1828585,8.615559E-08,NaN,NaN,-0.04072193,-5.448237E-10,1.101597E-06,-1.100508E-07,-5.803526E-09,-2.861022E-08
776.3816,-1.065316,-4.573225E-10,NaN,-0.4338996,-1.324806E-07,NaN,1.202032,-5.086636E-07,NaN,-1.103101,2.173581E-05,0.1811117,8.528926E-08,NaN,NaN,-0.04095216,-5.494804E-10,1.10875E-06,-1.100513E-07,-5.803526E-09,-2.622604E-08
776.3948,-1.065316,-4.573225E-10,NaN,-0.4338996,-1.324806E-07,NaN,1.202032,-5.086636E-07,NaN,-1.103101,2.173581E-05,0.1811117,8.528926E-08,NaN,NaN,-0.04095216,-5.494804E-10,1.10875E-06,-1.100513E-07,-5.803526E-09,-2.622604E-08
776.4074,-1.067431,-4.566454E-10,NaN,-0.4346333,-1.324801E-07,NaN,1.202293,-5.088933E-07,NaN,-1.106866,2.173621E-05,0.1787579,8.55203E-08,NaN,NaN,-0.04126104,-5.494804E-10,1.118286E-06,-1.100514E-07,-6.697595E-09,-2.861022E-08
776.4229,-1.069682,-4.559683E-10,NaN,-0.4354132,-1.324793E-07,NaN,1.202481,-5.091918E-07,NaN,-1.110915,2.173659E-05,0.1764297,8.582013E-08,NaN,NaN,-0.04156384,-5.401671E-10,1.130207E-06,-1.100514E-07,-4.31341E-09,-2.622604E-08
776.4379,-1.069682,-4.559683E-10,NaN,-0.4354132,-1.324793E-07,NaN,1.202481,-5.091918E-07,NaN,-1.110915,2.173659E-05,0.1764297,8.582013E-08,NaN,NaN,-0.04156384,-5.401671E-10,1.130207E-06,-1.100514E-07,-4.31341E-09,-2.622604E-08
776.4518,-1.07201,-4.552913E-10,NaN,-0.4362174,-1.324785E-07,NaN,1.202609,-5.095238E-07,NaN,-1.115067,2.173699E-05,0.1741655,8.615354E-08,NaN,NaN,-0.04186065,-5.401671E-10,1.139744E-06,-1.100512E-07,-1.631201E-09,-2.861022E-08
776.4675,-1.074592,-4.54615E-10,NaN,-0.4371095,-1.324782E-07,NaN,1.202929,-5.086561E-07,NaN,-1.119709,2.173739E-05,0.1713072,8.528711E-08,NaN,NaN,-0.04223477,-5.355105E-10,1.157625E-06,-1.100518E-07,-4.31341E-09,-2.622604E-08
776.4822,-1.077321,-4.539383E-10,NaN,-0.4380505,-1.324777E-07,NaN,1.203166,-5.088856E-07,NaN,-1.12464,2.173778E-05,0.168493,8.551805E-08,NaN,NaN,-0.04260152,-5.355105E-10,1.173123E-06,-1.100519E-07,-4.164398E-09,-2.861022E-08
776.4966,-1.077321,-4.539383E-10,NaN,-0.4380505,-1.324777E-07,NaN,1.203166,-5.088856E-07,NaN,-1.12464,2.173778E-05,0.168493,8.551805E-08,NaN,NaN,-0.04260152,-5.355105E-10,1.173123E-06,-1.100519E-07,-4.164398E-09,-2.861022E-08
776.5106,-1.080129,-4.532616E-10,NaN,-0.4390164,-1.32477E-07,NaN,1.203336,-5.09184E-07,NaN,-1.12967,2.173817E-05,0.165755,8.581779E-08,NaN,NaN,-0.04296103,-5.261973E-10,1.18862E-06,-1.100518E-07,-6.846607E-09,-2.622604E-08
776.527,-1.082974,-4.52585E-10,NaN,-0.4399929,-1.324761E-07,NaN,1.20346,-5.09516E-07,NaN,-1.134707,2.173856E-05,0.1630873,8.61511E-08,NaN,NaN,-0.04331345,-5.261973E-10,1.200541E-06,-1.100517E-07,-7.442653E-09,-2.861022E-08
776.5409,-1.086048,-4.519091E-10,NaN,-0.4410482,-1.324758E-07,NaN,1.203776,-5.086481E-07,NaN,-1.140183,2.173897E-05,0.1598292,8.528459E-08,NaN,NaN,-0.04374209,-5.308539E-10,1.214846E-06,-1.100522E-07,-5.058467E-09,-2.622604E-08
776.5554,-1.086048,-4.519091E-10,NaN,-0.4410482,-1.324758E-07,NaN,1.203776,-5.086481E-07,NaN,-1.140183,2.173897E-05,0.1598292,8.528459E-08,NaN,NaN,-0.04374209,-5.308539E-10,1.214846E-06,-1.100522E-07,-5.058467E-09,-2.622604E-08
776.5694,-1.08925,-4.512328E-10,NaN,-0.442146,-1.324753E-07,NaN,1.204012,-5.088776E-07,NaN,-1.145916,2.173937E-05,0.1566298,8.551544E-08,NaN,NaN,-0.04416228,-5.308539E-10,1.232727E-06,-1.100523E-07,-6.697595E-09,-2.861022E-08
776.5847,-1.092518,-4.505564E-10,NaN,-0.443264,-1.324746E-07,NaN,1.204184,-5.091758E-07,NaN,-1.151727,2.173975E-05,0.1535136,8.581507E-08,NaN,NaN,-0.04457418,-5.215407E-10,1.243456E-06,-1.100522E-07,-7.14463E-09,-2.622604E-08
776.5994,-1.092518,-4.505564E-10,NaN,-0.443264,-1.324746E-07,NaN,1.204184,-5.091758E-07,NaN,-1.151727,2.173975E-05,0.1535136,8.581507E-08,NaN,NaN,-0.04457418,-5.215407E-10,1.243456E-06,-1.100522E-07,-7.14463E-09,-2.622604E-08
776.6135,-1.096031,-4.498802E-10,NaN,-0.444466,-1.324738E-07,NaN,1.204528,-5.095077E-07,NaN,-1.158003,2.174015E-05,0.1498182,8.61483E-08,NaN,NaN,-0.04506112,-5.215407E-10,1.261338E-06,-1.100521E-07,-6.250561E-09,-2.861022E-08
776.629,-1.09968,-4.492046E-10,NaN,-0.4457126,-1.324735E-07,NaN,1.204783,-5.086397E-07,NaN,-1.164544,2.174055E-05,0.1461985,8.528171E-08,NaN,NaN,-0.04553846,-5.261973E-10,1.272066E-06,-1.100526E-07,-2.078235E-09,-2.622604E-08
776.6436,-1.103397,-4.485287E-10,NaN,-0.4469799,-1.32473E-07,NaN,1.204972,-5.088692E-07,NaN,-1.171158,2.174095E-05,0.1426717,8.551247E-08,NaN,NaN,-0.04600639,-5.261973E-10,1.286371E-06,-1.100527E-07,-3.940881E-09,-2.861022E-08
776.6582,-1.103397,-4.485287E-10,NaN,-0.4469799,-1.32473E-07,NaN,1.204972,-5.088692E-07,NaN,-1.171158,2.174095E-05,0.1426717,8.551247E-08,NaN,NaN,-0.04600639,-5.261973E-10,1.286371E-06,-1.100527E-07,-3.940881E-09,-2.861022E-08
776.6722,-1.107142,-4.478526E-10,NaN,-0.4482537,-1.324723E-07,NaN,1.205112,-5.091674E-07,NaN,-1.177756,2.174134E-05,0.1392318,8.581203E-08,NaN,NaN,-0.0464651,-5.168841E-10,1.2971E-06,-1.100526E-07,-2.674282E-09,-2.622604E-08
776.6878,-1.111105,-4.471767E-10,NaN,-0.4496026,-1.324715E-07,NaN,1.205422,-5.094992E-07,NaN,-1.184768,2.174173E-05,0.1352173,8.614517E-08,NaN,NaN,-0.04699792,-5.168841E-10,1.312598E-06,-1.100525E-07,-1.929224E-09,-2.861022E-08
776.7026,-1.115186,-4.465015E-10,NaN,-0.4509898,-1.324712E-07,NaN,1.205649,-5.086312E-07,NaN,-1.192015,2.174214E-05,0.1312904,8.527851E-08,NaN,NaN,-0.04752024,-5.215407E-10,1.326903E-06,-1.10053E-07,-3.121317E-09,-2.622604E-08
776.7175,-1.115186,-4.465015E-10,NaN,-0.4509898,-1.324712E-07,NaN,1.205649,-5.086312E-07,NaN,-1.192015,2.174214E-05,0.1312904,8.527851E-08,NaN,NaN,-0.04752024,-5.215407E-10,1.326903E-06,-1.10053E-07,-3.121317E-09,-2.622604E-08
776.7313,-1.119323,-4.458259E-10,NaN,-0.4523934,-1.324707E-07,NaN,1.205813,-5.088605E-07,NaN,-1.199316,2.174253E-05,0.1274612,8.550919E-08,NaN,NaN,-0.04803228,-5.215407E-10,1.338824E-06,-1.100531E-07,-4.611433E-09,-2.861022E-08
776.7468,-1.123477,-4.451502E-10,NaN,-0.4538001,-1.3247E-07,NaN,1.205933,-5.091586E-07,NaN,-1.206586,2.174292E-05,0.1237242,8.580866E-08,NaN,NaN,-0.04853424,-5.122275E-10,1.347168E-06,-1.100531E-07,-3.903628E-09,-2.622604E-08
776.7616,-1.127842,-4.444747E-10,NaN,-0.4552794,-1.324692E-07,NaN,1.20621,-5.094902E-07,NaN,-1.214258,2.174332E-05,0.1194201,8.614173E-08,NaN,NaN,-0.04910943,-5.122275E-10,1.359089E-06,-1.100529E-07,-3.112004E-09,-2.861022E-08
776.7782,-1.127842,-4.444747E-10,NaN,-0.4552794,-1.324692E-07,NaN,1.20621,-5.094902E-07,NaN,-1.214258,2.174332E-05,0.1194201,8.614173E-08,NaN,NaN,-0.04910943,-5.122275E-10,1.359089E-06,-1.100529E-07,-3.112004E-09,-2.861022E-08
776.7911,-1.132318,-4.437998E-10,NaN,-0.4567947,-1.324689E-07,NaN,1.206407,-5.086222E-07,NaN,-1.222153,2.174374E-05,0.1152145,8.527501E-08,NaN,NaN,-0.0496733,-5.215407E-10,1.369818E-06,-1.100534E-07,-3.288955E-09,-2.622604E-08
776.8055,-1.136844,-4.431245E-10,NaN,-0.4583243,-1.324684E-07,NaN,1.206545,-5.088514E-07,NaN,-1.230093,2.174414E-05,0.1111112,8.550562E-08,NaN,NaN,-0.05022608,-5.261973E-10,1.380547E-06,-1.100535E-07,-5.300612E-09,-2.861022E-08
776.8202,-1.141382,-4.42449E-10,NaN,-0.4598552,-1.324677E-07,NaN,1.20664,-5.091495E-07,NaN,-1.237993,2.174454E-05,0.1071053,8.580503E-08,NaN,NaN,-0.05076798,-5.168841E-10,1.3877E-06,-1.100535E-07,-5.859405E-09,-2.622604E-08
776.8349,-1.141382,-4.42449E-10,NaN,-0.4598552,-1.324677E-07,NaN,1.20664,-5.091495E-07,NaN,-1.237993,2.174454E-05,0.1071053,8.580503E-08,NaN,NaN,-0.05076798,-5.168841E-10,1.3877E-06,-1.100535E-07,-5.859405E-09,-2.622604E-08
776.8488,-1.146126,-4.417735E-10,NaN,-0.461457,-1.32467E-07,NaN,1.206877,-5.094811E-07,NaN,-1.246285,2.174495E-05,0.1025414,8.613802E-08,NaN,NaN,-0.05138232,-5.215407E-10,1.394852E-06,-1.100533E-07,-5.486876E-09,-2.861022E-08
