JMolnar6/NonAnthroHands_User_Study/HandsLoggerWithURDF/tempdata/PID 0 (test)/files/Reachy_JointMotion_gesture_9_46.csv
Time,r_shoulder,r_shoulder_x,r_upper_arm,r_forearm,r_wrist,r_wrist2hand,
914.0357,-0.2765377,0.0006107912,NaN,-0.5880439,0.0006501892,NaN,-0.2888661,-14.68903,NaN,-0.9779237,-1.468989,0.4138578,14.09974,NaN,NaN,-0.4875386,0.8156464,1.179868E-06,1.049001,-3.373045E-09,1.328376
914.05,-0.2717624,0.0006106472,NaN,-0.5879031,0.0006497282,NaN,-0.2902756,-14.68957,NaN,-0.9761681,-1.481096,0.4160142,14.11266,NaN,NaN,-0.4874204,0.8155571,1.167947E-06,1.066681,-5.459207E-09,1.332282
914.0649,-0.266832,0.0006104553,NaN,-0.5877559,0.000650466,NaN,-0.2917554,-14.68918,NaN,-0.9743733,-1.469226,0.4181573,14.1,NaN,NaN,-0.4873046,0.8156375,1.151258E-06,1.049348,-5.459207E-09,1.329282
914.08,-0.266832,0.0006104553,NaN,-0.5877559,0.000650466,NaN,-0.2917554,-14.68918,NaN,-0.9743733,-1.469226,0.4181573,14.1,NaN,NaN,-0.4873046,0.8156375,1.151258E-06,1.049348,-5.459207E-09,1.329282
914.0942,-0.261829,0.0006103184,NaN,-0.5876055,0.0006512996,NaN,-0.2932366,-14.68931,NaN,-0.9725456,-1.469128,0.420278,14.09991,NaN,NaN,-0.4871911,0.8154809,1.130992E-06,1.049209,-6.055254E-09,1.329786
914.1097,-0.2568041,0.0006107084,NaN,-0.5874541,0.0006512716,NaN,-0.2946909,-14.68922,NaN,-0.9706975,-1.481322,0.4223712,14.11283,NaN,NaN,-0.4870797,0.816018,1.114303E-06,1.066978,-3.075022E-09,1.333909
914.1252,-0.2521306,0.0006110636,NaN,-0.5873165,0.0006527011,NaN,-0.2954894,-14.68914,NaN,-0.9687918,-1.469262,0.4237032,14.09999,NaN,NaN,-0.4870165,0.8157827,1.085693E-06,1.049373,-9.478951E-11,1.331388
914.1395,-0.2521306,0.0006110636,NaN,-0.5873165,0.0006527011,NaN,-0.2954894,-14.68914,NaN,-0.9687918,-1.469262,0.4237032,14.09999,NaN,NaN,-0.4870165,0.8157827,1.085693E-06,1.049373,-9.478951E-11,1.331388
914.1539,-0.2476939,0.0006116855,NaN,-0.587188,0.000653016,NaN,-0.296154,-14.68862,NaN,-0.9669434,-1.479791,0.4249896,14.11109,NaN,NaN,-0.4869545,0.8166808,1.060659E-06,1.064698,5.012569E-10,1.329387
914.1697,-0.2434229,0.0006118797,NaN,-0.5870658,0.0006540207,NaN,-0.2967554,-14.68944,NaN,-0.9651516,-1.469266,0.4262402,14.09998,NaN,NaN,-0.4868938,0.8155748,1.041586E-06,1.04936,-6.908359E-10,1.33052
914.1849,-0.2392731,0.0006117955,NaN,-0.5869479,0.0006546606,NaN,-0.2973245,-14.68934,NaN,-0.9634079,-1.46815,0.4274606,14.09878,NaN,NaN,-0.4868343,0.8156211,1.018936E-06,1.047726,-1.882929E-09,1.328632
914.2012,-0.2355582,0.0006121182,NaN,-0.5868471,0.0006546341,NaN,-0.2972536,-14.69018,NaN,-0.9616546,-1.479693,0.4279271,14.11115,NaN,NaN,-0.4868217,0.8152283,9.903256E-07,1.0646,-3.671068E-09,1.337449
914.2148,-0.2355582,0.0006121182,NaN,-0.5868471,0.0006546341,NaN,-0.2972536,-14.69018,NaN,-0.9616546,-1.479693,0.4279271,14.11115,NaN,NaN,-0.4868217,0.8152283,9.903256E-07,1.0646,-3.671068E-09,1.337449
914.2289,-0.2321274,0.0006130502,NaN,-0.5867571,0.0006547614,NaN,-0.2970738,-14.68992,NaN,-0.9599905,-1.48283,0.4283549,14.11444,NaN,NaN,-0.4868095,0.8155511,9.688679E-07,1.069161,-6.055254E-09,1.337462
914.2444,-0.2288866,0.0006137371,NaN,-0.5866741,0.0006556282,NaN,-0.2968569,-14.68888,NaN,-0.9584033,-1.475699,0.428758,14.10674,NaN,NaN,-0.4867975,0.8164099,9.462181E-07,1.058722,-5.459208E-09,1.329828
914.2592,-0.2288866,0.0006137371,NaN,-0.5866741,0.0006556282,NaN,-0.2968569,-14.68888,NaN,-0.9584033,-1.475699,0.428758,14.10674,NaN,NaN,-0.4867975,0.8164099,9.462181E-07,1.058722,-5.459208E-09,1.329828
914.2736,-0.2261191,0.0006142658,NaN,-0.5866095,0.0006562166,NaN,-0.2960096,-14.6906,NaN,-0.9568283,-1.476493,0.4284177,14.10779,NaN,NaN,-0.4868316,0.8147179,9.199921E-07,1.059955,-6.055254E-09,1.338152
914.2892,-0.2236548,0.0006151596,NaN,-0.5865563,0.0006565029,NaN,-0.2950711,-14.68984,NaN,-0.9553573,-1.482501,0.4280485,14.11406,NaN,NaN,-0.4868651,0.8156477,8.985344E-07,1.068673,-1.022758E-08,1.336723
914.3041,-0.221388,0.0006155962,NaN,-0.5865102,0.0006573876,NaN,-0.2941144,-14.68878,NaN,-0.9539726,-1.473014,0.4276668,14.10385,NaN,NaN,-0.4868979,0.8164718,8.782688E-07,1.054796,-1.141967E-08,1.328717
914.3192,-0.221388,0.0006155962,NaN,-0.5865102,0.0006573876,NaN,-0.2941144,-14.68878,NaN,-0.9539726,-1.473014,0.4276668,14.10385,NaN,NaN,-0.4868979,0.8164718,8.782688E-07,1.054796,-1.141967E-08,1.328717
914.3345,-0.2192529,0.0006149783,NaN,-0.5864687,0.000657224,NaN,-0.2931681,-14.68901,NaN,-0.9526542,-1.468271,0.4272808,14.09883,NaN,NaN,-0.4869301,0.8160887,8.580033E-07,1.047883,-1.261176E-08,1.330051
914.3495,-0.21755,0.0006143835,NaN,-0.5864438,0.0006576244,NaN,-0.2916172,-14.68931,NaN,-0.9513366,-1.467683,0.4261705,14.09825,NaN,NaN,-0.4870074,0.8157676,8.258168E-07,1.047041,-1.43999E-08,1.329553
914.3643,-0.2161206,0.0006131521,NaN,-0.5864291,0.0006571077,NaN,-0.2899944,-14.68868,NaN,-0.9501142,-1.467297,0.4250469,14.09774,NaN,NaN,-0.4870833,0.8163775,8.043591E-07,1.046441,-1.5592E-08,1.327452
914.3792,-0.2161206,0.0006131521,NaN,-0.5864291,0.0006571077,NaN,-0.2899944,-14.68868,NaN,-0.9501142,-1.467297,0.4250469,14.09774,NaN,NaN,-0.4870833,0.8163775,8.043591E-07,1.046441,-1.5592E-08,1.327452
914.3936,-0.2148658,0.0006125727,NaN,-0.5864204,0.0006560684,NaN,-0.2883689,-14.68899,NaN,-0.9489715,-1.480749,0.4239258,14.11209,NaN,NaN,-0.4871577,0.816597,7.817093E-07,1.066085,-1.5592E-08,1.333327
914.4093,-0.2137239,0.0006128162,NaN,-0.5864155,0.0006561435,NaN,-0.2867673,-14.69039,NaN,-0.9478898,-1.47682,0.422815,14.10806,NaN,NaN,-0.4872306,0.8150842,7.6502E-07,1.060396,-1.916828E-08,1.340872
914.4244,-0.2129984,0.000612894,NaN,-0.5864258,0.0006571339,NaN,-0.2845715,-14.68914,NaN,-0.946805,-1.468022,0.4209927,14.09856,NaN,NaN,-0.487348,0.816062,7.38794E-07,1.047515,-2.274455E-08,1.330424
914.439,-0.2129984,0.000612894,NaN,-0.5864258,0.0006571339,NaN,-0.2845715,-14.68914,NaN,-0.946805,-1.468022,0.4209927,14.09856,NaN,NaN,-0.487348,0.816062,7.38794E-07,1.047515,-2.274455E-08,1.330424
914.4534,-0.2125321,0.0006133428,NaN,-0.5864452,0.0006572301,NaN,-0.2823172,-14.68999,NaN,-0.9458124,-1.480096,0.4191698,14.11151,NaN,NaN,-0.4874631,0.8156702,7.173364E-07,1.065171,-1.738014E-08,1.340055
914.4688,-0.2122274,0.0006133154,NaN,-0.5864697,0.0006579555,NaN,-0.2800731,-14.68903,NaN,-0.9448969,-1.469107,0.4173621,14.09971,NaN,NaN,-0.4875759,0.816328,6.970708E-07,1.049102,-1.618804E-08,1.33029
914.4838,-0.2120233,0.0006133578,NaN,-0.5864972,0.0006579218,NaN,-0.2778657,-14.69037,NaN,-0.9440404,-1.47755,0.4155771,14.10887,NaN,NaN,-0.4876865,0.8153033,6.815736E-07,1.061491,-1.797618E-08,1.340242
914.499,-0.2120233,0.0006133578,NaN,-0.5864972,0.0006579218,NaN,-0.2778657,-14.69037,NaN,-0.9440404,-1.47755,0.4155771,14.10887,NaN,NaN,-0.4876865,0.8153033,6.815736E-07,1.061491,-1.797618E-08,1.340242
914.5133,-0.212223,0.0006130798,NaN,-0.58654,0.0006584412,NaN,-0.2750745,-14.68931,NaN,-0.9431787,-1.468983,0.4130909,14.09964,NaN,NaN,-0.4878407,0.8161022,6.541554E-07,1.048953,-1.678409E-08,1.331411
914.529,-0.2126699,0.0006131646,NaN,-0.5865916,0.0006591713,NaN,-0.2722383,-14.69033,NaN,-0.9424073,-1.472377,0.4106159,14.10338,NaN,NaN,-0.487992,0.815214,6.315057E-07,1.053954,-1.380386E-08,1.339152
914.5442,-0.2132668,0.0006122377,NaN,-0.586648,0.0006585758,NaN,-0.2694251,-14.68984,NaN,-0.9417113,-1.468379,0.4081678,14.09907,NaN,NaN,-0.4881403,0.8155503,6.112401E-07,1.048101,-1.43999E-08,1.330328
914.559,-0.2132668,0.0006122377,NaN,-0.586648,0.0006585758,NaN,-0.2694251,-14.68984,NaN,-0.9417113,-1.468379,0.4081678,14.09907,NaN,NaN,-0.4881403,0.8155503,6.112401E-07,1.048101,-1.43999E-08,1.330328
914.5734,-0.2142949,0.0006106651,NaN,-0.5867206,0.000657554,NaN,-0.2660298,-14.68889,NaN,-0.9410226,-1.467771,0.4050231,14.09828,NaN,NaN,-0.4883316,0.8164688,5.862061E-07,1.047161,-1.5592E-08,1.329554
914.5889,-0.2155832,0.0006095277,NaN,-0.5868021,0.0006575594,NaN,-0.2626016,-14.68913,NaN,-0.9404334,-1.467193,0.4018986,14.0977,NaN,NaN,-0.488519,0.816202,5.623643E-07,1.046328,-1.618804E-08,1.330979
914.6049,-0.2170258,0.0006096872,NaN,-0.5868883,0.0006574319,NaN,-0.2592106,-14.68867,NaN,-0.9399256,-1.479789,0.3988109,14.11101,NaN,NaN,-0.4887028,0.8171437,5.504434E-07,1.064676,-1.916828E-08,1.332883
914.619,-0.2170258,0.0006096872,NaN,-0.5868883,0.0006574319,NaN,-0.2592106,-14.68867,NaN,-0.9399256,-1.479789,0.3988109,14.11101,NaN,NaN,-0.4887028,0.8171437,5.504434E-07,1.064676,-1.916828E-08,1.332883
914.6332,-0.2185564,0.0006089893,NaN,-0.5869767,0.0006569984,NaN,-0.2558831,-14.68957,NaN,-0.9394783,-1.468199,0.3957677,14.09877,NaN,NaN,-0.488883,0.8159376,5.349461E-07,1.047778,-1.916828E-08,1.334778
914.6488,-0.2204762,0.0006084121,NaN,-0.5870795,0.0006566237,NaN,-0.2519928,-14.68927,NaN,-0.9390241,-1.470783,0.3920386,14.10147,NaN,NaN,-0.4891055,0.8163324,5.122964E-07,1.051534,-1.797618E-08,1.332868
914.6638,-0.2226262,0.0006074656,NaN,-0.5871898,0.0006554851,NaN,-0.2480851,-14.6898,NaN,-0.9386586,-1.472269,0.3883435,14.10313,NaN,NaN,-0.4893236,0.8158513,4.884545E-07,1.053735,-1.320781E-08,1.336565
914.68,-0.2249079,0.0006065631,NaN,-0.5873038,0.0006550737,NaN,-0.2442258,-14.69002,NaN,-0.9383664,-1.469202,0.384697,14.09991,NaN,NaN,-0.4895374,0.8155262,4.681889E-07,1.049276,-8.439439E-09,1.335326
914.6936,-0.2249079,0.0006065631,NaN,-0.5873038,0.0006550737,NaN,-0.2442258,-14.69002,NaN,-0.9383664,-1.469202,0.384697,14.09991,NaN,NaN,-0.4895374,0.8155262,4.681889E-07,1.049276,-8.439439E-09,1.335326
914.7078,-0.2272603,0.000606172,NaN,-0.5874192,0.0006557337,NaN,-0.2404396,-14.69022,NaN,-0.9381289,-1.46832,0.3811061,14.099,NaN,NaN,-0.489747,0.8152911,4.514996E-07,1.048002,-6.055254E-09,1.338611
914.7236,-0.2299872,0.0006056259,NaN,-0.5875484,0.0006560709,NaN,-0.2360971,-14.68979,NaN,-0.9378794,-1.467243,0.3768341,14.09779,NaN,NaN,-0.4899983,0.8156768,4.288499E-07,1.046408,-7.247347E-09,1.333444
914.7385,-0.2299872,0.0006056259,NaN,-0.5875484,0.0006560709,NaN,-0.2360971,-14.68979,NaN,-0.9378794,-1.467243,0.3768341,14.09779,NaN,NaN,-0.4899983,0.8156768,4.288499E-07,1.046408,-7.247347E-09,1.333444
914.7531,-0.2329319,0.0006056958,NaN,-0.5876845,0.0006557229,NaN,-0.231748,-14.68948,NaN,-0.9377149,-1.479883,0.3726071,14.11116,NaN,NaN,-0.4902447,0.8164734,4.121605E-07,1.064821,-6.055254E-09,1.337088
914.7687,-0.2359969,0.0006057542,NaN,-0.5878237,0.0006562209,NaN,-0.2274572,-14.68956,NaN,-0.9376209,-1.470002,0.3684388,14.10066,NaN,NaN,-0.4904863,0.8161173,3.942791E-07,1.050399,-6.6513E-09,1.334387
914.7835,-0.239122,0.000606671,NaN,-0.5879639,0.0006569221,NaN,-0.223249,-14.69069,NaN,-0.9375793,-1.478357,0.3643354,14.10969,NaN,NaN,-0.490723,0.8152853,3.79974E-07,1.062646,-9.035486E-09,1.343797
914.7996,-0.239122,0.000606671,NaN,-0.5879639,0.0006569221,NaN,-0.223249,-14.69069,NaN,-0.9375793,-1.478357,0.3643354,14.10969,NaN,NaN,-0.490723,0.8152853,3.79974E-07,1.062646,-9.035486E-09,1.343797
914.814,-0.2426118,0.0006075288,NaN,-0.5881174,0.0006569604,NaN,-0.2184913,-14.68955,NaN,-0.9375227,-1.483093,0.3595541,14.11457,NaN,NaN,-0.491001,0.8165489,3.549401E-07,1.069506,-1.320781E-08,1.339105
914.8286,-0.2463097,0.0006078865,NaN,-0.5882773,0.0006569178,NaN,-0.2137382,-14.68861,NaN,-0.9375489,-1.475526,0.3548281,14.10641,NaN,NaN,-0.4912734,0.8172961,3.334824E-07,1.058424,-1.380386E-08,1.33208
914.8433,-0.2501186,0.0006080503,NaN,-0.5884398,0.0006570038,NaN,-0.2090534,-14.68907,NaN,-0.9376436,-1.472632,0.3501701,14.10338,NaN,NaN,-0.4915406,0.8167432,3.167931E-07,1.054216,-1.261177E-08,1.332869
914.8585,-0.2501186,0.0006080503,NaN,-0.5884398,0.0006570038,NaN,-0.2090534,-14.68907,NaN,-0.9376436,-1.472632,0.3501701,14.10338,NaN,NaN,-0.4915406,0.8167432,3.167931E-07,1.054216,-1.261177E-08,1.332869
914.8726,-0.2543204,0.000608663,NaN,-0.5886164,0.0006575517,NaN,-0.2038199,-14.6907,NaN,-0.9377362,-1.476351,0.3448345,14.10755,NaN,NaN,-0.4918482,0.8152457,2.929512E-07,1.059725,-1.201572E-08,1.344905
914.8883,-0.2587445,0.0006088378,NaN,-0.5887997,0.0006580931,NaN,-0.1986021,-14.68929,NaN,-0.9379205,-1.470166,0.3395624,14.1008,NaN,NaN,-0.4921498,0.8164571,2.726856E-07,1.050647,-1.261177E-08,1.333934
914.9034,-0.263285,0.0006097811,NaN,-0.5889854,0.0006584495,NaN,-0.1934651,-14.68989,NaN,-0.9381792,-1.481662,0.3343668,14.11311,NaN,NaN,-0.4924455,0.8162844,2.559963E-07,1.067456,-1.141967E-08,1.340707
914.9185,-0.263285,0.0006097811,NaN,-0.5889854,0.0006584495,NaN,-0.1934651,-14.68989,NaN,-0.9381792,-1.481662,0.3343668,14.11311,NaN,NaN,-0.4924455,0.8162844,2.559963E-07,1.067456,-1.141967E-08,1.340707
914.9327,-0.2678764,0.000610907,NaN,-0.5891713,0.0006586653,NaN,-0.1884324,-14.68929,NaN,-0.9384921,-1.483636,0.3292538,14.11514,NaN,NaN,-0.4927353,0.8169271,2.333466E-07,1.070317,-1.201572E-08,1.338106
914.9486,-0.2728204,0.0006111687,NaN,-0.5893699,0.000658562,NaN,-0.1828672,-14.68879,NaN,-0.9387887,-1.476266,0.3234677,14.10723,NaN,NaN,-0.4930652,0.8172666,2.106968E-07,1.059535,-9.631535E-09,1.326013
914.9641,-0.2779583,0.0006114712,NaN,-0.5895741,0.0006591055,NaN,-0.1773301,-14.68954,NaN,-0.9391664,-1.469878,0.3177572,14.10051,NaN,NaN,-0.4933887,0.8163365,1.856628E-07,1.050236,-3.075024E-09,1.327286
914.9788,-0.2779583,0.0006114712,NaN,-0.5895741,0.0006591055,NaN,-0.1773301,-14.68954,NaN,-0.9391664,-1.469878,0.3177572,14.10051,NaN,NaN,-0.4933887,0.8163365,1.856628E-07,1.050236,-3.075024E-09,1.327286
914.9951,-0.2831922,0.0006114101,NaN,-0.5897801,0.0006588086,NaN,-0.171882,-14.6894,NaN,-0.9396105,-1.472585,0.3121328,14.10337,NaN,NaN,-0.4937057,0.8165705,1.665893E-07,1.05418,-7.843395E-09,1.326143
915.0087,-0.2884611,0.0006115809,NaN,-0.5899858,0.0006579192,NaN,-0.1665449,-14.68994,NaN,-0.9401032,-1.482286,0.3065999,14.11376,NaN,NaN,-0.4940165,0.8163614,1.475159E-07,1.068368,-8.439442E-09,1.332269
915.0237,-0.29407,0.0006111886,NaN,-0.5902038,0.0006573495,NaN,-0.1606795,-14.68889,NaN,-0.9405749,-1.470381,0.3003939,14.10098,NaN,NaN,-0.4943669,0.8171287,1.200977E-07,1.050955,-9.631535E-09,1.324038
915.0385,-0.29407,0.0006111886,NaN,-0.5902038,0.0006573495,NaN,-0.1606795,-14.68889,NaN,-0.9405749,-1.470381,0.3003939,14.10098,NaN,NaN,-0.4943669,0.8171287,1.200977E-07,1.050955,-9.631535E-09,1.324038
915.0527,-0.299862,0.0006112516,NaN,-0.590427,0.000656357,NaN,-0.1548505,-14.68867,NaN,-0.941124,-1.481905,0.294273,14.11321,NaN,NaN,-0.4947105,0.8177637,9.744796E-08,1.067768,-1.141967E-08,1.326637
915.0684,-0.3057403,0.000611236,NaN,-0.5906517,0.0006566958,NaN,-0.1491177,-14.68957,NaN,-0.941737,-1.470489,0.2882465,14.10113,NaN,NaN,-0.4950472,0.8165861,7.122192E-08,1.051104,-9.035489E-09,1.328161
915.0834,-0.3116448,0.0006101615,NaN,-0.5908757,0.0006559584,NaN,-0.1435028,-14.6893,NaN,-0.9423965,-1.468675,0.2823189,14.09915,NaN,NaN,-0.4953773,0.8167816,5.214843E-08,1.048438,-1.261177E-08,1.325266
915.0986,-0.3116448,0.0006101615,NaN,-0.5908757,0.0006559584,NaN,-0.1435028,-14.6893,NaN,-0.9423965,-1.468675,0.2823189,14.09915,NaN,NaN,-0.4953773,0.8167816,5.214843E-08,1.048438,-1.261177E-08,1.325266
915.1129,-0.3178811,0.0006102488,NaN,-0.5911118,0.0006566099,NaN,-0.1373643,-14.69043,NaN,-0.9430328,-1.472665,0.2757173,14.10355,NaN,NaN,-0.4957467,0.8158025,2.234611E-08,1.05432,-1.022758E-08,1.335908
915.1284,-0.3242926,0.0006101003,NaN,-0.5913528,0.0006554397,NaN,-0.1312707,-14.68976,NaN,-0.9437445,-1.482124,0.2692097,14.1135,NaN,NaN,-0.4961088,0.8167899,-2.687839E-09,1.068083,-9.631536E-09,1.332004
915.1436,-0.3307827,0.00061003,NaN,-0.5915949,0.0006558576,NaN,-0.1252808,-14.68905,NaN,-0.9445184,-1.470753,0.2628042,14.10131,NaN,NaN,-0.4964638,0.8172023,-2.295342E-08,1.05145,-8.439443E-09,1.32514
915.1601,-0.3372915,0.0006107826,NaN,-0.591836,0.0006559789,NaN,-0.1194154,-14.68841,NaN,-0.9453377,-1.479692,0.2565048,14.11074,NaN,NaN,-0.4968117,0.8181527,-4.679528E-08,1.064474,-7.24735E-09,1.325005
915.1736,-0.3372915,0.0006107826,NaN,-0.591836,0.0006559789,NaN,-0.1194154,-14.68841,NaN,-0.9453377,-1.479692,0.2565048,14.11074,NaN,NaN,-0.4968117,0.8181527,-4.679528E-08,1.064474,-7.24735E-09,1.325005
915.1899,-0.3441249,0.0006110918,NaN,-0.5920891,0.0006568383,NaN,-0.1130312,-14.68912,NaN,-0.9461319,-1.470601,0.2495297,14.10112,NaN,NaN,-0.4971986,0.8171862,-7.898178E-08,1.051205,-3.671072E-09,1.325417
915.2034,-0.3511263,0.000610759,NaN,-0.5923467,0.0006563676,NaN,-0.1067,-14.6895,NaN,-0.9469999,-1.47348,0.242657,14.10423,NaN,NaN,-0.4975778,0.8168977,-1.016315E-07,1.05543,-3.671072E-09,1.328434
915.2185,-0.3511263,0.000610759,NaN,-0.5923467,0.0006563676,NaN,-0.1067,-14.6895,NaN,-0.9469999,-1.47348,0.242657,14.10423,NaN,NaN,-0.4975778,0.8168977,-1.016315E-07,1.05543,-3.671072E-09,1.328434
915.2327,-0.3581991,0.0006104177,NaN,-0.5926051,0.0006553495,NaN,-0.1004794,-14.69004,NaN,-0.9479289,-1.476426,0.2358938,14.10744,NaN,NaN,-0.4979495,0.8164472,-1.254734E-07,1.059758,-6.651304E-09,1.331008
915.2484,-0.3656263,0.0006099874,NaN,-0.592876,0.0006553598,NaN,-0.09374042,-14.68937,NaN,-0.948846,-1.469489,0.2284535,14.09997,NaN,NaN,-0.4983597,0.8168952,-1.564678E-07,1.049602,-6.055257E-09,1.326335
915.2632,-0.3732371,0.0006102065,NaN,-0.5931516,0.0006549213,NaN,-0.08706396,-14.69015,NaN,-0.9498463,-1.481141,0.2211232,14.11248,NaN,NaN,-0.4987618,0.8165417,-1.874622E-07,1.066657,-5.161187E-09,1.334717
915.2784,-0.3732371,0.0006102065,NaN,-0.5931516,0.0006549213,NaN,-0.08706396,-14.69015,NaN,-0.9498463,-1.481141,0.2211232,14.11248,NaN,NaN,-0.4987618,0.8165417,-1.874622E-07,1.066657,-5.161187E-09,1.334717
915.2927,-0.3809261,0.0006099198,NaN,-0.593428,0.0006546696,NaN,-0.08050855,-14.68917,NaN,-0.950914,-1.469857,0.21391,14.10035,NaN,NaN,-0.4991559,0.8172177,-2.124962E-07,1.050145,-1.882932E-09,1.325201
915.3083,-0.3886283,0.0006092996,NaN,-0.593703,0.0006535286,NaN,-0.07409415,-14.68976,NaN,-0.9520298,-1.474897,0.2068175,14.10579,NaN,NaN,-0.4995423,0.8168106,-2.375301E-07,1.057535,-2.478978E-09,1.330216
915.3235,-0.3966463,0.0006092688,NaN,-0.5939894,0.0006523873,NaN,-0.06717375,-14.69024,NaN,-0.9531215,-1.482076,0.1990476,14.11349,NaN,NaN,-0.4999668,0.8165495,-2.697167E-07,1.068037,-3.075025E-09,1.33542
915.3384,-0.3966463,0.0006092688,NaN,-0.5939894,0.0006523873,NaN,-0.06717375,-14.69024,NaN,-0.9531215,-1.482076,0.1990476,14.11349,NaN,NaN,-0.4999668,0.8165495,-2.697167E-07,1.068037,-3.075025E-09,1.33542
915.3528,-0.4048217,0.0006084699,NaN,-0.5942798,0.0006513133,NaN,-0.06032434,-14.68919,NaN,-0.9542863,-1.471323,0.1913968,14.10192,NaN,NaN,-0.5003829,0.817332,-2.99519E-07,1.052299,5.012539E-10,1.327963
915.3684,-0.4130565,0.0006082885,NaN,-0.5945704,0.0006509932,NaN,-0.05360078,-14.689,NaN,-0.9555112,-1.474733,0.1838709,14.10553,NaN,NaN,-0.5007908,0.8176357,-3.317055E-07,1.057274,5.012539E-10,1.326248
915.3846,-0.4212905,0.0006086761,NaN,-0.5948594,0.000650377,NaN,-0.04702166,-14.69006,NaN,-0.9567795,-1.482764,0.1764724,14.11423,NaN,NaN,-0.5011906,0.8168302,-3.626999E-07,1.069063,2.032307E-10,1.334628
915.3988,-0.4212905,0.0006086761,NaN,-0.5948594,0.000650377,NaN,-0.04702166,-14.69006,NaN,-0.9567795,-1.482764,0.1764724,14.11423,NaN,NaN,-0.5011906,0.8168302,-3.626999E-07,1.069063,2.032307E-10,1.334628
915.4129,-0.4298296,0.0006085088,NaN,-0.5951596,0.0006499946,NaN,-0.03993855,-14.68918,NaN,-0.9580201,-1.471008,0.1683929,14.10162,NaN,NaN,-0.5016283,0.8174287,-3.996548E-07,1.051865,1.99137E-09,1.325873
915.4286,-0.4385169,0.0006091439,NaN,-0.5954636,0.0006496343,NaN,-0.03293149,-14.68873,NaN,-0.9593309,-1.481491,0.1604402,14.11271,NaN,NaN,-0.5020574,0.8182467,-4.330334E-07,1.067151,3.481486E-09,1.32707
915.4434,-0.4472558,0.0006097866,NaN,-0.5957677,0.0006488364,NaN,-0.02605457,-14.68967,NaN,-0.9606999,-1.484766,0.152619,14.11631,NaN,NaN,-0.5024779,0.8173907,-4.687961E-07,1.07197,8.547881E-09,1.330697
915.4584,-0.4472558,0.0006097866,NaN,-0.5957677,0.0006488364,NaN,-0.02605457,-14.68967,NaN,-0.9606999,-1.484766,0.152619,14.11631,NaN,NaN,-0.5024779,0.8173907,-4.687961E-07,1.07197,8.547881E-09,1.330697
915.4728,-0.4563297,0.0006104303,NaN,-0.5960836,0.0006481819,NaN,-0.01867369,-14.69064,NaN,-0.9620544,-1.483186,0.1441151,14.11472,NaN,NaN,-0.502936,0.8163818,-5.063471E-07,1.069688,1.0038E-08,1.331933
915.4888,-0.4655677,0.0006105643,NaN,-0.5964034,0.0006479734,NaN,-0.01137701,-14.68906,NaN,-0.9634885,-1.473594,0.1357454,14.10434,NaN,NaN,-0.503385,0.8177322,-5.409178E-07,1.05563,9.143927E-09,1.32109
915.5035,-0.4748645,0.0006116526,NaN,-0.5967231,0.0006481093,NaN,-0.004219657,-14.6891,NaN,-0.9649873,-1.482128,0.1275147,14.11344,NaN,NaN,-0.5038251,0.8179767,-5.737003E-07,1.068104,9.739974E-09,1.322704
915.5183,-0.4748645,0.0006116526,NaN,-0.5967231,0.0006481093,NaN,-0.004219657,-14.6891,NaN,-0.9649873,-1.482128,0.1275147,14.11344,NaN,NaN,-0.5038251,0.8179767,-5.737003E-07,1.068104,9.739974E-09,1.322704
915.5328,-0.4841553,0.0006120589,NaN,-0.5970409,0.0006490666,NaN,0.002780572,-14.68924,NaN,-0.9665324,-1.471091,0.1194245,14.10167,NaN,NaN,-0.5042565,0.8175743,-6.07675E-07,1.05197,5.716661E-09,1.321493
915.5487,-0.4937433,0.0006120761,NaN,-0.5973695,0.0006494801,NaN,0.0102748,-14.6897,NaN,-0.9680519,-1.469894,0.1106486,14.10045,NaN,NaN,-0.5047252,0.8170756,-6.553587E-07,1.050243,8.696893E-09,1.322095
915.5636,-0.5034701,0.0006128862,NaN,-0.5977014,0.0006496295,NaN,0.01767859,-14.68945,NaN,-0.9696416,-1.48106,0.102015,14.1123,NaN,NaN,-0.5051847,0.8177397,-6.929096E-07,1.066533,1.152811E-08,1.324274
915.5794,-0.5034701,0.0006128862,NaN,-0.5977014,0.0006496295,NaN,0.01767859,-14.68945,NaN,-0.9696416,-1.48106,0.102015,14.1123,NaN,NaN,-0.5051847,0.8177397,-6.929096E-07,1.066533,1.152811E-08,1.324274
915.5939,-0.5132377,0.0006130792,NaN,-0.598033,0.0006502019,NaN,0.02494013,-14.69025,NaN,-0.9712893,-1.4709,0.09352687,14.10155,NaN,NaN,-0.505635,0.8166959,-7.280764E-07,1.051708,1.242218E-08,1.324844
915.6083,-0.5229862,0.0006134752,NaN,-0.5983623,0.0006504626,NaN,0.03204279,-14.69103,NaN,-0.9729788,-1.477527,0.085185,14.1087,NaN,NaN,-0.5060765,0.8161476,-7.596668E-07,1.06142,1.063404E-08,1.331833
915.6232,-0.5330221,0.0006141035,NaN,-0.5987024,0.0006501969,NaN,0.03963877,-14.68979,NaN,-0.9746403,-1.483151,0.07615236,14.11452,NaN,NaN,-0.506555,0.8175504,-8.049664E-07,1.069573,1.301823E-08,1.327769
915.6392,-0.5330221,0.0006141035,NaN,-0.5987024,0.0006501969,NaN,0.03963877,-14.68979,NaN,-0.9746403,-1.483151,0.07615236,14.11452,NaN,NaN,-0.506555,0.8175504,-8.049664E-07,1.069573,1.301823E-08,1.327769
915.6523,-0.5431885,0.000614711,NaN,-0.5990456,0.0006509073,NaN,0.04714084,-14.68945,NaN,-0.9763694,-1.476261,0.06726881,14.10713,NaN,NaN,-0.507024,0.8177244,-8.443054E-07,1.059488,5.120615E-09,1.325791
915.6678,-0.5533888,0.0006143865,NaN,-0.5993884,0.0006509655,NaN,0.0544979,-14.68915,NaN,-0.978155,-1.469798,0.05853672,14.10019,NaN,NaN,-0.5074838,0.8178298,-8.866247E-07,1.050026,8.696894E-09,1.318812
915.683,-0.5635636,0.0006148391,NaN,-0.5997288,0.0006509849,NaN,0.06169369,-14.69044,NaN,-0.9799813,-1.479959,0.04995621,14.1112,NaN,NaN,-0.5079346,0.8169281,-9.277519E-07,1.064942,1.368878E-08,1.329422
915.6981,-0.5635636,0.0006148391,NaN,-0.5997288,0.0006509849,NaN,0.06169369,-14.69044,NaN,-0.9799813,-1.479959,0.04995621,14.1112,NaN,NaN,-0.5079346,0.8169281,-9.277519E-07,1.064942,1.368878E-08,1.329422
915.7123,-0.5740201,0.0006148056,NaN,-0.6000798,0.0006514166,NaN,0.06938131,-14.68988,NaN,-0.9817798,-1.470986,0.04067944,14.10158,NaN,NaN,-0.5084222,0.8172522,-9.813961E-07,1.051814,1.570044E-08,1.323099
915.7281,-0.5846018,0.0006151941,NaN,-0.6004339,0.0006510788,NaN,0.07697108,-14.68948,NaN,-0.9836453,-1.482504,0.03155842,14.11378,NaN,NaN,-0.5089002,0.8180634,-1.0261E-06,1.068614,1.879243E-08,1.325504
915.7429,-0.595212,0.0006150907,NaN,-0.6007873,0.0006513795,NaN,0.08441282,-14.68978,NaN,-0.9855665,-1.471131,0.02259468,14.10167,NaN,NaN,-0.5093688,0.8175001,-1.069015E-06,1.051991,2.142953E-08,1.322752
915.7579,-0.595212,0.0006150907,NaN,-0.6007873,0.0006513795,NaN,0.08441282,-14.68978,NaN,-0.9855665,-1.471131,0.02259468,14.10167,NaN,NaN,-0.5093688,0.8175001,-1.069015E-06,1.051991,2.142953E-08,1.322752
915.7722,-0.6061352,0.000615421,NaN,-0.601152,0.0006510412,NaN,0.09234621,-14.68855,NaN,-0.9874741,-1.480341,0.01293294,14.11131,NaN,NaN,-0.509874,0.8190499,-1.125043E-06,1.065379,2.604889E-08,1.319979
915.7888,-0.6172006,0.0006155312,NaN,-0.6015198,0.0006499562,NaN,0.1001745,-14.68883,NaN,-0.9894586,-1.483231,0.003434885,14.11443,NaN,NaN,-0.5103691,0.8188403,-1.173919E-06,1.069617,2.459602E-08,1.321627
915.8028,-0.6283028,0.0006147138,NaN,-0.6018867,0.0006483195,NaN,0.1078468,-14.68862,NaN,-0.9915059,-1.473869,-0.005898427,14.10439,NaN,NaN,-0.5108545,0.8188256,-1.21743E-06,1.055903,3.159957E-08,1.316857
915.8176,-0.6283028,0.0006147138,NaN,-0.6018867,0.0006483195,NaN,0.1078468,-14.68862,NaN,-0.9915059,-1.473869,-0.005898427,14.10439,NaN,NaN,-0.5108545,0.8188256,-1.21743E-06,1.055903,3.159957E-08,1.316857
915.832,-0.6393773,0.000614287,NaN,-0.602251,0.0006474197,NaN,0.1153478,-14.68873,NaN,-0.9935982,-1.47533,-0.01506789,14.10596,NaN,NaN,-0.5113304,0.8187656,-1.263326E-06,1.058044,2.921538E-08,1.320597
915.8476,-0.6507283,0.0006151579,NaN,-0.6026257,0.0006471441,NaN,0.123333,-14.68969,NaN,-0.9956681,-1.482787,-0.02494098,14.11405,NaN,NaN,-0.5118427,0.8180377,-1.31697E-06,1.068999,3.040748E-08,1.327202
915.8624,-0.6621972,0.0006150575,NaN,-0.603003,0.0006468032,NaN,0.1312091,-14.6891,NaN,-0.9978063,-1.470025,-0.0346437,14.10036,NaN,NaN,-0.5123449,0.8183284,-1.37121E-06,1.050316,2.906637E-08,1.322118
915.8776,-0.6621972,0.0006150575,NaN,-0.603003,0.0006468032,NaN,0.1312091,-14.6891,NaN,-0.9978063,-1.470025,-0.0346437,14.10036,NaN,NaN,-0.5123449,0.8183284,-1.37121E-06,1.050316,2.906637E-08,1.322118
915.8918,-0.673686,0.0006149338,NaN,-0.6033792,0.0006460071,NaN,0.1389282,-14.69038,NaN,-1.000001,-1.478717,-0.04417612,14.10981,NaN,NaN,-0.5128372,0.8173709,-1.420086E-06,1.063095,2.757626E-08,1.331217
915.9074,-0.6851351,0.0006145124,NaN,-0.6037527,0.0006457292,NaN,0.146476,-14.68903,NaN,-1.002237,-1.470373,-0.05353981,14.10075,NaN,NaN,-0.5133198,0.818478,-1.470154E-06,1.050847,3.159957E-08,1.322137
915.9225,-0.6968518,0.000614522,NaN,-0.6041365,0.0006459319,NaN,0.1545085,-14.69019,NaN,-1.004449,-1.474146,-0.06361365,14.10493,NaN,NaN,-0.5138387,0.8174555,-1.532739E-06,1.056425,2.951341E-08,1.329999
915.9377,-0.6968518,0.000614522,NaN,-0.6041365,0.0006459319,NaN,0.1545085,-14.69019,NaN,-1.004449,-1.474146,-0.06361365,14.10493,NaN,NaN,-0.5138387,0.8174555,-1.532739E-06,1.056425,2.951341E-08,1.329999
915.952,-0.7086791,0.0006147405,NaN,-0.6045229,0.0006453584,NaN,0.1624301,-14.68896,NaN,-1.006728,-1.482207,-0.07351086,14.11336,NaN,NaN,-0.5143474,0.8189403,-1.587575E-06,1.068143,3.308968E-08,1.325308
915.9675,-0.7205204,0.0006151237,NaN,-0.6049082,0.0006444526,NaN,0.1701934,-14.68999,NaN,-1.009062,-1.484421,-0.08323237,14.11584,NaN,NaN,-0.5148461,0.8179585,-1.641219E-06,1.071419,3.130155E-08,1.330015
915.9838,-0.7323165,0.0006148847,NaN,-0.6052907,0.000643681,NaN,0.1777845,-14.68875,NaN,-1.011436,-1.474933,-0.09278037,14.10557,NaN,NaN,-0.515335,0.8189743,-1.694863E-06,1.057502,3.219562E-08,1.321336
915.9977,-0.7323165,0.0006148847,NaN,-0.6052907,0.000643681,NaN,0.1777845,-14.68875,NaN,-1.011436,-1.474933,-0.09278037,14.10557,NaN,NaN,-0.515335,0.8189743,-1.694863E-06,1.057502,3.219562E-08,1.321336
916.012,-0.7443756,0.0006150486,NaN,-0.6056834,0.0006438473,NaN,0.1858599,-14.68882,NaN,-1.013789,-1.472685,-0.1030452,14.10317,NaN,NaN,-0.5158601,0.8188384,-1.758044E-06,1.054214,2.891736E-08,1.321289
916.0275,-0.7565408,0.0006158834,NaN,-0.6060786,0.0006438774,NaN,0.193822,-14.68893,NaN,-1.016208,-1.48212,-0.1131272,14.11326,NaN,NaN,-0.5163748,0.8190516,-1.818841E-06,1.068024,3.428178E-08,1.323792
916.0424,-0.7687157,0.0006161868,NaN,-0.6064726,0.00064494,NaN,0.2016243,-14.68967,NaN,-1.018681,-1.470143,-0.123028,14.10053,NaN,NaN,-0.5168795,0.8180265,-1.874273E-06,1.050514,3.636794E-08,1.325108
916.0573,-0.7687157,0.0006161868,NaN,-0.6064726,0.00064494,NaN,0.2016243,-14.68967,NaN,-1.018681,-1.470143,-0.123028,14.10053,NaN,NaN,-0.5168795,0.8180265,-1.874273E-06,1.050514,3.636794E-08,1.325108
916.0717,-0.7811856,0.0006158362,NaN,-0.6068774,0.0006454022,NaN,0.2099107,-14.68896,NaN,-1.021148,-1.468151,-0.1336468,14.0983,NaN,NaN,-0.5174201,0.818651,-1.943415E-06,1.047563,3.905015E-08,1.31885
916.0874,-0.7937792,0.000615027,NaN,-0.6072847,0.0006457982,NaN,0.2180775,-14.68925,NaN,-1.023691,-1.466889,-0.1440741,14.09699,NaN,NaN,-0.5179499,0.8183208,-2.008384E-06,1.045731,3.785806E-08,1.320116
916.1024,-0.8063913,0.0006158235,NaN,-0.6076905,0.0006464478,NaN,0.2260775,-14.69035,NaN,-1.026295,-1.479542,-0.1543125,14.11065,NaN,NaN,-0.5184695,0.8177338,-2.070373E-06,1.064293,4.054027E-08,1.330227
916.1206,-0.8189575,0.0006164395,NaN,-0.6080933,0.0006462148,NaN,0.2338977,-14.68949,NaN,-1.028945,-1.483438,-0.1643654,14.1147,NaN,NaN,-0.5189788,0.818688,-2.125805E-06,1.069954,3.517585E-08,1.326452
916.1337,-0.8189575,0.0006164395,NaN,-0.6080933,0.0006462148,NaN,0.2338977,-14.68949,NaN,-1.028945,-1.483438,-0.1643654,14.1147,NaN,NaN,-0.5189788,0.818688,-2.125805E-06,1.069954,3.517585E-08,1.326452
916.1467,-0.8317831,0.0006166178,NaN,-0.608506,0.0006463498,NaN,0.2421964,-14.6887,NaN,-1.03158,-1.475339,-0.1751438,14.10595,NaN,NaN,-0.519524,0.819286,-2.196735E-06,1.058074,3.517585E-08,1.320347
916.1624,-0.844709,0.000617015,NaN,-0.6089209,0.0006461967,NaN,0.2503732,-14.69048,NaN,-1.034284,-1.480149,-0.1857249,14.11132,NaN,NaN,-0.5200585,0.8176627,-2.258723E-06,1.065196,3.517585E-08,1.329072
916.1785,-0.844709,0.000617015,NaN,-0.6089209,0.0006461967,NaN,0.2503732,-14.69048,NaN,-1.034284,-1.480149,-0.1857249,14.11132,NaN,NaN,-0.5200585,0.8176627,-2.258723E-06,1.065196,3.517585E-08,1.329072
916.192,-0.8576375,0.0006168318,NaN,-0.6093343,0.0006463532,NaN,0.2583838,-14.69,NaN,-1.037044,-1.471256,-0.1961124,14.10177,NaN,NaN,-0.5205824,0.8179191,-2.320712E-06,1.052176,3.457981E-08,1.322099
916.2072,-0.8705088,0.0006161006,NaN,-0.6097445,0.0006462826,NaN,0.2662156,-14.68945,NaN,-1.039845,-1.466641,-0.2063101,14.09677,NaN,NaN,-0.5210962,0.8183042,-2.377337E-06,1.045399,3.338771E-08,1.318298
916.2222,-0.8836316,0.0006149028,NaN,-0.6101648,0.0006461961,NaN,0.2745271,-14.68952,NaN,-1.042632,-1.466488,-0.2172406,14.09661,NaN,NaN,-0.5216458,0.8182236,-2.455419E-06,1.045176,3.636795E-08,1.31876
916.2371,-0.8836316,0.0006149028,NaN,-0.6101648,0.0006461961,NaN,0.2745271,-14.68952,NaN,-1.042632,-1.466488,-0.2172406,14.09661,NaN,NaN,-0.5216458,0.8182236,-2.455419E-06,1.045176,3.636795E-08,1.31876
916.2514,-0.8968482,0.0006145197,NaN,-0.6105871,0.0006456517,NaN,0.2827161,-14.68995,NaN,-1.045486,-1.480472,-0.2279679,14.11159,NaN,NaN,-0.5221846,0.8183621,-2.522176E-06,1.065641,3.696399E-08,1.326523
916.267,-0.9100621,0.0006138447,NaN,-0.6110079,0.0006462444,NaN,0.2907387,-14.6895,NaN,-1.048395,-1.467367,-0.2384964,14.09753,NaN,NaN,-0.5227128,0.8184698,-2.587145E-06,1.046453,3.756004E-08,1.321415
916.2822,-0.9232144,0.000613027,NaN,-0.6114255,0.0006462063,NaN,0.2985827,-14.68971,NaN,-1.051343,-1.468594,-0.2488306,14.09887,NaN,NaN,-0.5232306,0.8183117,-2.648538E-06,1.048256,3.815608E-08,1.319296
916.2972,-0.9232144,0.000613027,NaN,-0.6114255,0.0006462063,NaN,0.2985827,-14.68971,NaN,-1.051343,-1.468594,-0.2488306,14.09887,NaN,NaN,-0.5232306,0.8183117,-2.648538E-06,1.048256,3.815608E-08,1.319296
916.3114,-0.9366141,0.000612442,NaN,-0.6118531,0.000647017,NaN,0.3069064,-14.68956,NaN,-1.054281,-1.467083,-0.259905,14.09723,NaN,NaN,-0.5237843,0.8184044,-2.72364E-06,1.046036,3.57719E-08,1.321909
916.3269,-0.9501041,0.0006111839,NaN,-0.6122828,0.0006470013,NaN,0.3151065,-14.68921,NaN,-1.057285,-1.466611,-0.27077,14.09667,NaN,NaN,-0.524327,0.8187366,-2.792185E-06,1.045323,3.040748E-08,1.316301
916.3421,-0.9635878,0.0006104342,NaN,-0.6127108,0.0006464276,NaN,0.3231397,-14.69071,NaN,-1.060343,-1.478565,-0.281431,14.10965,NaN,NaN,-0.5248592,0.8177331,-2.858942E-06,1.062895,2.504306E-08,1.329762
916.3568,-0.9635878,0.0006104342,NaN,-0.6127108,0.0006464276,NaN,0.3231397,-14.69071,NaN,-1.060343,-1.478565,-0.281431,14.10965,NaN,NaN,-0.5248592,0.8177331,-2.858942E-06,1.062895,2.504306E-08,1.329762
916.3733,-0.9773515,0.0006101574,NaN,-0.6131493,0.0006465258,NaN,0.331652,-14.69093,NaN,-1.063406,-1.475145,-0.2928322,14.10603,NaN,NaN,-0.5254269,0.8174123,-2.935236E-06,1.057903,2.742725E-08,1.329831
916.3869,-0.9912238,0.0006098035,NaN,-0.6135898,0.000647478,NaN,0.3400351,-14.68973,NaN,-1.066546,-1.467083,-0.3040144,14.09728,NaN,NaN,-0.5259833,0.8183577,-3.009742E-06,1.046069,3.219562E-08,1.321122
916.4018,-1.005099,0.0006097936,NaN,-0.6140285,0.000647983,NaN,0.3482451,-14.69109,NaN,-1.069745,-1.47475,-0.3149843,14.10565,NaN,NaN,-0.526529,0.8173048,-3.083056E-06,1.057355,3.756004E-08,1.33037
916.4166,-1.005099,0.0006097936,NaN,-0.6140285,0.000647983,NaN,0.3482451,-14.69109,NaN,-1.069745,-1.47475,-0.3149843,14.10565,NaN,NaN,-0.526529,0.8173048,-3.083056E-06,1.057355,3.756004E-08,1.33037
916.4309,-1.018913,0.0006101738,NaN,-0.6144636,0.0006485006,NaN,0.3562706,-14.69132,NaN,-1.072989,-1.476795,-0.3257479,14.10786,NaN,NaN,-0.5270639,0.8171373,-3.150409E-06,1.060352,3.338771E-08,1.332466
916.4467,-1.032973,0.0006102676,NaN,-0.6149086,0.0006494761,NaN,0.3647705,-14.6905,NaN,-1.076232,-1.469085,-0.3372606,14.09953,NaN,NaN,-0.5276344,0.8177214,-3.232663E-06,1.049053,2.981143E-08,1.325531
916.4617,-1.047118,0.0006099904,NaN,-0.6153554,0.0006501017,NaN,0.3731403,-14.68983,NaN,-1.079544,-1.466813,-0.3485493,14.09701,NaN,NaN,-0.5281937,0.8183011,-3.306573E-06,1.045694,2.742725E-08,1.320884
916.4766,-1.047118,0.0006099904,NaN,-0.6153554,0.0006501017,NaN,0.3731403,-14.68983,NaN,-1.079544,-1.466813,-0.3485493,14.09701,NaN,NaN,-0.5281937,0.8183011,-3.306573E-06,1.045694,2.742725E-08,1.320884
916.491,-1.061251,0.0006089606,NaN,-0.6158001,0.0006495794,NaN,0.3813384,-14.68988,NaN,-1.08291,-1.466479,-0.3596214,14.09666,NaN,NaN,-0.528742,0.8182333,-3.376907E-06,1.045206,2.623515E-08,1.322189
916.5067,-1.075312,0.0006073524,NaN,-0.6162415,0.0006486715,NaN,0.3893538,-14.68997,NaN,-1.086315,-1.466485,-0.3704832,14.09667,NaN,NaN,-0.5292796,0.8181356,-3.44724E-06,1.04522,2.504306E-08,1.324071
916.5219,-1.089611,0.0006062144,NaN,-0.6166927,0.0006471385,NaN,0.3978443,-14.69052,NaN,-1.089722,-1.480314,-0.3821017,14.1115,NaN,NaN,-0.5298529,0.8181505,-3.529197E-06,1.065465,1.90826E-08,1.329059
916.5368,-1.089611,0.0006062144,NaN,-0.6166927,0.0006471385,NaN,0.3978443,-14.69052,NaN,-1.089722,-1.480314,-0.3821017,14.1115,NaN,NaN,-0.5298529,0.8181505,-3.529197E-06,1.065465,1.90826E-08,1.329059
916.5511,-1.10399,0.0006052183,NaN,-0.6171457,0.0006465436,NaN,0.4062054,-14.68968,NaN,-1.093196,-1.470312,-0.3934903,14.10072,NaN,NaN,-0.5304148,0.8187079,-3.606683E-06,1.050804,1.431422E-08,1.323088
916.5687,-1.118352,0.0006041832,NaN,-0.6175966,0.0006461844,NaN,0.4143953,-14.68996,NaN,-1.096721,-1.468002,-0.4046573,14.09829,NaN,NaN,-0.5309656,0.8183294,-3.67791E-06,1.047437,7.161666E-09,1.323345
916.5817,-1.132639,0.0006032128,NaN,-0.6180442,0.0006459529,NaN,0.4224031,-14.69067,NaN,-1.100284,-1.470021,-0.4156095,14.10054,NaN,NaN,-0.5315058,0.8176907,-3.747052E-06,1.050425,9.545852E-09,1.327511
916.5982,-1.132639,0.0006032128,NaN,-0.6180442,0.0006459529,NaN,0.4224031,-14.69067,NaN,-1.100284,-1.470021,-0.4156095,14.10054,NaN,NaN,-0.5315058,0.8176907,-3.747052E-06,1.050425,9.545852E-09,1.327511
916.6108,-1.135399,0.0006025186,NaN,-0.6180382,0.0006459062,NaN,0.4085893,-14.69109,NaN,-1.104482,-1.47221,-0.3942595,14.10292,NaN,NaN,-0.5305146,0.8173481,-3.297335E-06,1.053643,2.623515E-08,1.33075
916.6265,-1.131101,0.00060249,NaN,-0.6178086,0.0006461826,NaN,0.3929774,-14.69155,NaN,-1.107322,-1.475681,-0.3739609,14.10668,NaN,NaN,-0.5295484,0.8169978,-2.940452E-06,1.058734,2.265887E-08,1.335159
916.6413,-1.122503,0.000603234,NaN,-0.6174503,0.0006463329,NaN,0.3770588,-14.69084,NaN,-1.108871,-1.482258,-0.3545353,14.11359,NaN,NaN,-0.5286039,0.8178943,-2.656138E-06,1.068307,2.265887E-08,1.33224
916.6564,-1.122503,0.000603234,NaN,-0.6174503,0.0006463329,NaN,0.3770588,-14.69084,NaN,-1.108871,-1.482258,-0.3545353,14.11359,NaN,NaN,-0.5286039,0.8178943,-2.656138E-06,1.068307,2.265887E-08,1.33224
916.6708,-1.111663,0.000603195,NaN,-0.6170292,0.0006466724,NaN,0.362031,-14.68941,NaN,-1.109358,-1.471099,-0.3367736,14.10151,NaN,NaN,-0.5277252,0.8190537,-2.433514E-06,1.051938,1.90826E-08,1.321749
916.6863,-1.099503,0.0006024652,NaN,-0.6165708,0.0006462132,NaN,0.3474831,-14.68945,NaN,-1.109115,-1.469285,-0.3195572,14.09957,NaN,NaN,-0.5268642,0.8189476,-2.240693E-06,1.049283,1.669841E-08,1.322758
916.7015,-1.086594,0.0006015644,NaN,-0.6160907,0.0006458947,NaN,0.3333855,-14.68953,NaN,-1.10837,-1.467753,-0.3028151,14.09793,NaN,NaN,-0.5260204,0.8188124,-2.068436E-06,1.047042,2.027469E-08,1.322413
916.7164,-1.086594,0.0006015644,NaN,-0.6160907,0.0006458947,NaN,0.3333855,-14.68953,NaN,-1.10837,-1.467753,-0.3028151,14.09793,NaN,NaN,-0.5260204,0.8188124,-2.068436E-06,1.047042,2.027469E-08,1.322413
916.731,-1.073287,0.0006019181,NaN,-0.615599,0.0006454578,NaN,0.3196918,-14.68947,NaN,-1.107288,-1.480828,-0.2864998,14.11189,NaN,NaN,-0.5251933,0.8193903,-1.910186E-06,1.066163,2.504306E-08,1.325762
916.7466,-1.060145,0.0006021773,NaN,-0.615116,0.0006467095,NaN,0.3069956,-14.69012,NaN,-1.105953,-1.467914,-0.2715188,14.09814,NaN,NaN,-0.5244285,0.8184075,-1.779055E-06,1.047272,2.265888E-08,1.327343
916.7616,-1.047164,0.0006024957,NaN,-0.614641,0.0006467598,NaN,0.2946953,-14.69117,NaN,-1.104517,-1.479836,-0.2568681,14.11101,NaN,NaN,-0.5236787,0.8178264,-1.653588E-06,1.064763,2.146678E-08,1.335466
916.7766,-1.047164,0.0006024957,NaN,-0.614641,0.0006467598,NaN,0.2946953,-14.69117,NaN,-1.104517,-1.479836,-0.2568681,14.11101,NaN,NaN,-0.5236787,0.8178264,-1.653588E-06,1.064763,2.146678E-08,1.335466
916.7908,-1.034341,0.0006023628,NaN,-0.6141733,0.0006475035,NaN,0.2827089,-14.69026,NaN,-1.103029,-1.468299,-0.2425389,14.09859,NaN,NaN,-0.5229436,0.8184184,-1.532292E-06,1.047858,2.146678E-08,1.326247
916.8063,-1.021674,0.0006022772,NaN,-0.6137127,0.000647011,NaN,0.2709957,-14.69126,NaN,-1.101514,-1.477243,-0.2285229,14.10827,NaN,NaN,-0.5222229,0.8177607,-1.416063E-06,1.060989,2.146678E-08,1.333349
916.8214,-1.009506,0.0006024304,NaN,-0.6132727,0.0006481034,NaN,0.2601663,-14.69084,NaN,-1.099948,-1.468631,-0.2157373,14.09902,NaN,NaN,-0.5215625,0.8179273,-1.318311E-06,1.048378,2.504306E-08,1.332276
916.8364,-1.009506,0.0006024304,NaN,-0.6132727,0.0006481034,NaN,0.2601663,-14.69084,NaN,-1.099948,-1.468631,-0.2157373,14.09902,NaN,NaN,-0.5215625,0.8179273,-1.318311E-06,1.048378,2.504306E-08,1.332276
916.8508,-0.9976984,0.0006022211,NaN,-0.612848,0.0006485544,NaN,0.2496465,-14.69077,NaN,-1.098417,-1.468107,-0.2032123,14.09844,NaN,NaN,-0.5209148,0.8179694,-1.222348E-06,1.047604,1.90826E-08,1.326716
916.8663,-0.9861655,0.0006023406,NaN,-0.612435,0.0006487364,NaN,0.2393708,-14.69219,NaN,-1.096923,-1.476072,-0.1909484,14.10713,NaN,NaN,-0.5202798,0.8168615,-1.125788E-06,1.059322,2.623515E-08,1.337524
916.8814,-0.9748533,0.0006019838,NaN,-0.6120315,0.0006488693,NaN,0.2293104,-14.69061,NaN,-1.095458,-1.469267,-0.1789432,14.09968,NaN,NaN,-0.5196573,0.8182203,-1.033997E-06,1.049312,2.742725E-08,1.326958
916.8966,-0.9748533,0.0006019838,NaN,-0.6120315,0.0006488693,NaN,0.2293104,-14.69061,NaN,-1.095458,-1.469267,-0.1789432,14.09968,NaN,NaN,-0.5196573,0.8182203,-1.033997E-06,1.049312,2.742725E-08,1.326958
916.9108,-0.9640734,0.000601123,NaN,-0.6116499,0.0006485598,NaN,0.2200819,-14.69053,NaN,-1.093971,-1.468012,-0.1681045,14.09832,NaN,NaN,-0.519093,0.8182428,-9.588954E-07,1.047469,2.742725E-08,1.326334
916.9268,-0.953668,0.0006005588,NaN,-0.6112838,0.0006471333,NaN,0.2111215,-14.69167,NaN,-1.092542,-1.48016,-0.1574814,14.11145,NaN,NaN,-0.5185397,0.8175768,-8.843896E-07,1.065291,2.265888E-08,1.333497
916.9415,-0.9435394,0.0006011595,NaN,-0.6109294,0.0006464053,NaN,0.2023671,-14.69133,NaN,-1.091163,-1.483116,-0.1470758,14.11455,NaN,NaN,-0.5179971,0.8179831,-8.074996E-07,1.069598,2.504306E-08,1.333761
916.9565,-0.9435394,0.0006011595,NaN,-0.6109294,0.0006464053,NaN,0.2023671,-14.69133,NaN,-1.091163,-1.483116,-0.1470758,14.11455,NaN,NaN,-0.5179971,0.8179831,-8.074996E-07,1.069598,2.504306E-08,1.333761
916.972,-0.9339716,0.0006016909,NaN,-0.6105979,0.000646393,NaN,0.1944205,-14.69003,NaN,-1.089777,-1.47758,-0.1377895,14.10849,NaN,NaN,-0.5175112,0.8191438,-7.490871E-07,1.061455,2.981144E-08,1.323972
916.9866,-0.9247905,0.0006019816,NaN,-0.6102823,0.0006473809,NaN,0.1867157,-14.69029,NaN,-1.08846,-1.469529,-0.128684,14.09991,NaN,NaN,-0.5170346,0.8186495,-6.882904E-07,1.049679,3.338771E-08,1.325263
917.0013,-0.915888,0.0006021784,NaN,-0.6099783,0.0006469243,NaN,0.1791896,-14.69122,NaN,-1.087203,-1.478386,-0.1197621,14.10949,NaN,NaN,-0.5165674,0.8180611,-6.263015E-07,1.062683,3.398376E-08,1.329593
917.0164,-0.915888,0.0006021784,NaN,-0.6099783,0.0006469243,NaN,0.1791896,-14.69122,NaN,-1.087203,-1.478386,-0.1197621,14.10949,NaN,NaN,-0.5165674,0.8180611,-6.263015E-07,1.062683,3.398376E-08,1.329593
917.0308,-0.9071966,0.0006024567,NaN,-0.609683,0.0006480816,NaN,0.1718167,-14.69063,NaN,-1.08599,-1.469045,-0.1110232,14.09944,NaN,NaN,-0.5161093,0.8183868,-5.649088E-07,1.048998,2.921539E-08,1.328113
917.0466,-0.8990192,0.0006024953,NaN,-0.6094084,0.0006490884,NaN,0.1652129,-14.69068,NaN,-1.08476,-1.4679,-0.1033584,14.09822,NaN,NaN,-0.5157062,0.8182902,-5.213974E-07,1.047325,2.921539E-08,1.328697
917.0631,-0.8911937,0.0006030205,NaN,-0.6091481,0.0006494963,NaN,0.1588215,-14.69187,NaN,-1.083593,-1.47879,-0.09584128,14.11001,NaN,NaN,-0.5153108,0.8175209,-4.755018E-07,1.063314,3.040748E-08,1.335578
917.0765,-0.8911937,0.0006030205,NaN,-0.6091481,0.0006494963,NaN,0.1588215,-14.69187,NaN,-1.083593,-1.47879,-0.09584128,14.11001,NaN,NaN,-0.5153108,0.8175209,-4.755018E-07,1.063314,3.040748E-08,1.335578
917.0909,-0.8836193,0.0006027707,NaN,-0.608898,0.0006489116,NaN,0.152582,-14.69123,NaN,-1.082482,-1.474232,-0.08847429,14.10507,NaN,NaN,-0.5149232,0.8180383,-4.296062E-07,1.056627,2.385097E-08,1.331026
917.1067,-0.8762333,0.0006024329,NaN,-0.6086555,0.0006484728,NaN,0.1464699,-14.69026,NaN,-1.081411,-1.473637,-0.08125699,14.10431,NaN,NaN,-0.5145431,0.8189824,-3.825186E-07,1.055714,2.742725E-08,1.325267
917.122,-0.8693413,0.0006021327,NaN,-0.6084326,0.0006471744,NaN,0.1411004,-14.69039,NaN,-1.080319,-1.482845,-0.07507252,14.11417,NaN,NaN,-0.5142164,0.8191435,-3.515242E-07,1.069199,2.504306E-08,1.326725
917.1367,-0.8693413,0.0006021327,NaN,-0.6084326,0.0006471744,NaN,0.1411004,-14.69039,NaN,-1.080319,-1.482845,-0.07507252,14.11417,NaN,NaN,-0.5142164,0.8191435,-3.515242E-07,1.069199,2.504306E-08,1.326725
917.1523,-0.862783,0.0006011468,NaN,-0.608223,0.0006458246,NaN,0.1359191,-14.68984,NaN,-1.07929,-1.470374,-0.06900536,14.10077,NaN,NaN,-0.513896,0.8193887,-3.199337E-07,1.050924,2.563911E-08,1.323112
917.1669,-0.8564591,0.0006004479,NaN,-0.6080227,0.0006452936,NaN,0.1308654,-14.69027,NaN,-1.078316,-1.468579,-0.06305802,14.09891,NaN,NaN,-0.5135818,0.8188893,-2.865551E-07,1.048321,2.68312E-08,1.323236
917.1819,-0.8503076,0.0006009876,NaN,-0.6078291,0.0006448611,NaN,0.1259153,-14.68971,NaN,-1.077384,-1.480215,-0.05723032,14.11126,NaN,NaN,-0.5132738,0.8198897,-2.537725E-07,1.065316,3.040748E-08,1.324226
917.1968,-0.8503076,0.0006009876,NaN,-0.6078291,0.0006448611,NaN,0.1259153,-14.68971,NaN,-1.077384,-1.480215,-0.05723032,14.11126,NaN,NaN,-0.5132738,0.8198897,-2.537725E-07,1.065316,3.040748E-08,1.324226
917.2111,-0.8446346,0.0006009527,NaN,-0.6076544,0.0006448452,NaN,0.1216834,-14.6901,NaN,-1.076429,-1.469015,-0.05239912,14.09931,NaN,NaN,-0.5130177,0.8192022,-2.34103E-07,1.048923,3.398376E-08,1.322507
917.2266,-0.8392804,0.0006016036,NaN,-0.6074921,0.0006446983,NaN,0.1176168,-14.69117,NaN,-1.075539,-1.48114,-0.0476579,14.11242,NaN,NaN,-0.5127665,0.8185896,-2.108572E-07,1.066727,3.338771E-08,1.332013
917.2416,-0.834146,0.0006019534,NaN,-0.6073384,0.0006459875,NaN,0.1136552,-14.69046,NaN,-1.074704,-1.468742,-0.04300926,14.09909,NaN,NaN,-0.5125202,0.8189911,-1.876114E-07,1.048559,3.338771E-08,1.326024
917.2565,-0.834146,0.0006019534,NaN,-0.6073384,0.0006459875,NaN,0.1136552,-14.69046,NaN,-1.074704,-1.468742,-0.04300926,14.09909,NaN,NaN,-0.5125202,0.8189911,-1.876114E-07,1.048559,3.338771E-08,1.326024
917.2709,-0.8295141,0.0006024531,NaN,-0.6072043,0.0006460603,NaN,0.110398,-14.69054,NaN,-1.07386,-1.481032,-0.03932744,14.11223,NaN,NaN,-0.5123246,0.8193699,-1.768826E-07,1.066545,2.444702E-08,1.328812
917.2867,-0.8252113,0.0006034948,NaN,-0.607083,0.0006463041,NaN,0.1072873,-14.68992,NaN,-1.073092,-1.482726,-0.03571227,14.11397,NaN,NaN,-0.5121327,0.8200314,-1.613853E-07,1.069002,2.444702E-08,1.326592
917.3019,-0.8211298,0.0006032733,NaN,-0.60697,0.0006456278,NaN,0.104261,-14.68975,NaN,-1.072387,-1.474725,-0.03216669,14.10537,NaN,NaN,-0.5119446,0.8200001,-1.44696E-07,1.05727,2.861934E-08,1.315055
917.317,-0.8211298,0.0006032733,NaN,-0.60697,0.0006456278,NaN,0.104261,-14.68975,NaN,-1.072387,-1.474725,-0.03216669,14.10537,NaN,NaN,-0.5119446,0.8200001,-1.44696E-07,1.05727,2.861934E-08,1.315055
917.3316,-0.8172025,0.0006026317,NaN,-0.6068627,0.0006442432,NaN,0.1012956,-14.69091,NaN,-1.07173,-1.475499,-0.02869115,14.10635,NaN,NaN,-0.5117602,0.8188786,-1.250265E-07,1.058457,2.265888E-08,1.321638
917.3478,-0.8137321,0.0006020428,NaN,-0.6067732,0.0006441929,NaN,0.09900599,-14.69041,NaN,-1.071055,-1.468778,-0.02615502,14.09909,NaN,NaN,-0.5116252,0.8191654,-1.202582E-07,1.048596,2.68312E-08,1.317918
917.3619,-0.8105577,0.0006013851,NaN,-0.6066949,0.000643632,NaN,0.09684112,-14.69115,NaN,-1.070448,-1.474682,-0.02366344,14.1055,NaN,NaN,-0.5114928,0.8186539,-1.119135E-07,1.057276,2.504306E-08,1.320156
917.377,-0.8105577,0.0006013851,NaN,-0.6066949,0.000643632,NaN,0.09684112,-14.69115,NaN,-1.070448,-1.474682,-0.02366344,14.1055,NaN,NaN,-0.5114928,0.8186539,-1.119135E-07,1.057276,2.504306E-08,1.320156
917.3911,-0.807579,0.0006000791,NaN,-0.6066238,0.0006428162,NaN,0.09474166,-14.69,NaN,-1.0699,-1.468669,-0.02121921,14.09892,NaN,NaN,-0.511363,0.8196076,-1.05953E-07,1.048423,3.219562E-08,1.315647
917.4067,-0.804734,0.0005990154,NaN,-0.6065574,0.0006411934,NaN,0.09268499,-14.69111,NaN,-1.069396,-1.477826,-0.01882288,14.10888,NaN,NaN,-0.5112357,0.8188565,-9.462815E-08,1.061891,3.457981E-08,1.324011
917.4217,-0.8023283,0.0005976692,NaN,-0.6065079,0.0006397812,NaN,0.09128643,-14.69089,NaN,-1.068871,-1.469778,-0.01734134,14.10024,NaN,NaN,-0.5111567,0.8188425,-9.701233E-08,1.050102,3.636795E-08,1.32267
917.4365,-0.8023283,0.0005976692,NaN,-0.6065079,0.0006397812,NaN,0.09128643,-14.69089,NaN,-1.068871,-1.469778,-0.01734134,14.10024,NaN,NaN,-0.5111567,0.8188425,-9.701233E-08,1.050102,3.636795E-08,1.32267
917.451,-0.8002029,0.0005970862,NaN,-0.6064689,0.0006398325,NaN,0.08999492,-14.69058,NaN,-1.068415,-1.469423,-0.01588392,14.09982,NaN,NaN,-0.5110792,0.8191304,-9.40321E-08,1.049567,2.504306E-08,1.3194
917.4668,-0.7982591,0.000597614,NaN,-0.6064363,0.0006398078,NaN,0.0887514,-14.69093,NaN,-1.068016,-1.480874,-0.01445351,14.11211,NaN,NaN,-0.5110032,0.8192046,-9.164792E-08,1.066343,3.398376E-08,1.324703
917.4816,-0.7964355,0.0005976645,NaN,-0.6064079,0.0006401384,NaN,0.08753347,-14.69058,NaN,-1.067662,-1.46897,-0.01305091,14.09933,NaN,NaN,-0.5109287,0.819249,-8.866769E-08,1.048901,3.875213E-08,1.318506
917.4968,-0.7964355,0.0005976645,NaN,-0.6064079,0.0006401384,NaN,0.08753347,-14.69058,NaN,-1.067662,-1.46897,-0.01305091,14.09933,NaN,NaN,-0.5109287,0.819249,-8.866769E-08,1.048901,3.875213E-08,1.318506
917.511,-0.7950382,0.0005976786,NaN,-0.6063958,0.0006397516,NaN,0.08695689,-14.69153,NaN,-1.067286,-1.478816,-0.01254162,14.10999,NaN,NaN,-0.5109015,0.8186703,-9.582025E-08,1.063362,3.756004E-08,1.327499
917.5279,-0.793909,0.0005982445,NaN,-0.6063936,0.0006394468,NaN,0.08647044,-14.69141,NaN,-1.066979,-1.481911,-0.0120378,14.11327,NaN,NaN,-0.5108747,0.8188701,-1.017807E-07,1.067884,3.934818E-08,1.327983
917.5427,-0.7929492,0.0005992071,NaN,-0.6063964,0.0006406467,NaN,0.08601542,-14.68978,NaN,-1.066731,-1.475964,-0.01154246,14.10672,NaN,NaN,-0.5108484,0.8203416,-1.017807E-07,1.059119,3.57719E-08,1.31373
917.5566,-0.7929492,0.0005992071,NaN,-0.6063964,0.0006406467,NaN,0.08601542,-14.68978,NaN,-1.066731,-1.475964,-0.01154246,14.10672,NaN,NaN,-0.5108484,0.8203416,-1.017807E-07,1.059119,3.57719E-08,1.31373
917.571,-0.7924422,0.0005989264,NaN,-0.6064159,0.0006406868,NaN,0.08619288,-14.69047,NaN,-1.066474,-1.469193,-0.01192176,14.09954,NaN,NaN,-0.5108685,0.8194443,-1.137016E-07,1.049224,2.861934E-08,1.319456
917.5862,-0.7922152,0.0005984678,NaN,-0.6064453,0.0006411661,NaN,0.08644535,-14.69055,NaN,-1.066296,-1.46773,-0.01228951,14.09799,NaN,NaN,-0.5108881,0.8193058,-1.232384E-07,1.047086,2.802329E-08,1.319596
917.6013,-0.792161,0.0005985339,NaN,-0.6064803,0.0006409124,NaN,0.0867127,-14.69147,NaN,-1.066185,-1.480713,-0.01264899,14.112,NaN,NaN,-0.5109073,0.8188937,-1.303909E-07,1.06614,2.265888E-08,1.327796
917.6163,-0.792161,0.0005985339,NaN,-0.6064803,0.0006409124,NaN,0.0867127,-14.69147,NaN,-1.066185,-1.480713,-0.01264899,14.112,NaN,NaN,-0.5109073,0.8188937,-1.303909E-07,1.06614,2.265888E-08,1.327796
917.6306,-0.7922119,0.0005988055,NaN,-0.6065185,0.0006424775,NaN,0.08697267,-14.69105,NaN,-1.066124,-1.467873,-0.01300152,14.09822,NaN,NaN,-0.5109261,0.8189843,-1.375435E-07,1.047328,3.159957E-08,1.324969
917.6463,-0.7926716,0.0005985079,NaN,-0.6065722,0.0006425718,NaN,0.08784292,-14.69126,NaN,-1.066045,-1.471119,-0.01421305,14.10171,NaN,NaN,-0.5109903,0.818904,-1.554249E-07,1.052088,2.861934E-08,1.323812
917.6613,-0.7933798,0.0005981068,NaN,-0.6066345,0.0006432207,NaN,0.08877157,-14.69133,NaN,-1.066038,-1.467727,-0.01539734,14.09809,NaN,NaN,-0.5110533,0.8187146,-1.679419E-07,1.047127,2.861934E-08,1.32273
917.6764,-0.7933798,0.0005981068,NaN,-0.6066345,0.0006432207,NaN,0.08877157,-14.69133,NaN,-1.066038,-1.467727,-0.01539734,14.09809,NaN,NaN,-0.5110533,0.8187146,-1.679419E-07,1.047127,2.861934E-08,1.32273
917.6905,-0.7942373,0.000598242,NaN,-0.6067016,0.0006433979,NaN,0.0897013,-14.69274,NaN,-1.066091,-1.478069,-0.01655774,14.10933,NaN,NaN,-0.511115,0.8177109,-1.804588E-07,1.062333,2.68312E-08,1.334536
917.7062,-0.7951822,0.0005982943,NaN,-0.6067711,0.0006445082,NaN,0.09061122,-14.69195,NaN,-1.06619,-1.468189,-0.01769575,14.09869,NaN,NaN,-0.5111754,0.818209,-1.893995E-07,1.047857,2.981143E-08,1.326869
917.7212,-0.7965209,0.0005980949,NaN,-0.6068552,0.0006453873,NaN,0.09211954,-14.69227,NaN,-1.066269,-1.467633,-0.01967894,14.09814,NaN,NaN,-0.5112805,0.8178682,-2.114533E-07,1.047059,3.100352E-08,1.327647
917.7363,-0.7965209,0.0005980949,NaN,-0.6068552,0.0006453873,NaN,0.09211954,-14.69227,NaN,-1.066269,-1.467633,-0.01967894,14.09814,NaN,NaN,-0.5112805,0.8178682,-2.114533E-07,1.047059,3.100352E-08,1.327647
917.7518,-0.7980949,0.0005982521,NaN,-0.6069473,0.0006451843,NaN,0.09367318,-14.69277,NaN,-1.066418,-1.481169,-0.0216202,14.11264,NaN,NaN,-0.5113835,0.817899,-2.281426E-07,1.066867,2.623515E-08,1.334294
917.7663,-0.799806,0.0005983477,NaN,-0.6070434,0.0006455365,NaN,0.09521516,-14.692,NaN,-1.066626,-1.473343,-0.02352312,14.1042,NaN,NaN,-0.5114844,0.8184535,-2.430437E-07,1.055395,2.921539E-08,1.328394
917.7814,-0.8015932,0.0005976424,NaN,-0.6071412,0.0006452862,NaN,0.09672487,-14.69178,NaN,-1.066879,-1.468109,-0.0253895,14.09857,NaN,NaN,-0.5115834,0.8184957,-2.567528E-07,1.047727,2.742725E-08,1.326892
917.7964,-0.8015932,0.0005976424,NaN,-0.6071412,0.0006452862,NaN,0.09672487,-14.69178,NaN,-1.066879,-1.468109,-0.0253895,14.09857,NaN,NaN,-0.5115834,0.8184957,-2.567528E-07,1.047727,2.742725E-08,1.326892
917.8105,-0.8037634,0.0005974107,NaN,-0.6072532,0.0006449379,NaN,0.09882131,-14.69326,NaN,-1.067112,-1.4769,-0.02808931,14.10817,NaN,NaN,-0.5117263,0.8173606,-2.811907E-07,1.060665,2.504306E-08,1.338197
917.8262,-0.8061585,0.0005971724,NaN,-0.6073725,0.0006446268,NaN,0.1009503,-14.6934,NaN,-1.067414,-1.475609,-0.03073357,14.10681,NaN,NaN,-0.5118662,0.8171858,-3.032444E-07,1.058786,2.802329E-08,1.337692
917.8411,-0.8086804,0.0005964449,NaN,-0.6074952,0.0006442064,NaN,0.1030554,-14.69219,NaN,-1.067775,-1.468327,-0.03332613,14.09889,NaN,NaN,-0.5120034,0.8181611,-3.247021E-07,1.048096,3.100353E-08,1.330824
917.8562,-0.8086804,0.0005964449,NaN,-0.6074952,0.0006442064,NaN,0.1030554,-14.69219,NaN,-1.067775,-1.468327,-0.03332613,14.09889,NaN,NaN,-0.5120034,0.8181611,-3.247021E-07,1.048096,3.100353E-08,1.330824
917.8705,-0.8116131,0.0005957584,NaN,-0.6076329,0.0006443,NaN,0.1057414,-14.69262,NaN,-1.068129,-1.468095,-0.03674022,14.0987,NaN,NaN,-0.5121837,0.8177235,-3.545044E-07,1.04778,3.636794E-08,1.331252
917.8864,-0.814784,0.0005949474,NaN,-0.607778,0.0006432533,NaN,0.1084475,-14.69318,NaN,-1.068563,-1.475507,-0.04008518,14.10668,NaN,NaN,-0.5123605,0.8174552,-3.807304E-07,1.058643,4.113631E-08,1.337167
917.9015,-0.8180866,0.0005946823,NaN,-0.6079264,0.000643383,NaN,0.1111161,-14.69381,NaN,-1.069063,-1.472505,-0.04336524,14.10356,NaN,NaN,-0.5125337,0.8167332,-4.027841E-07,1.054284,3.815608E-08,1.340113
917.9164,-0.8180866,0.0005946823,NaN,-0.6079264,0.000643383,NaN,0.1111161,-14.69381,NaN,-1.069063,-1.472505,-0.04336524,14.10356,NaN,NaN,-0.5125337,0.8167332,-4.027841E-07,1.054284,3.815608E-08,1.340113
917.933,-0.8214546,0.000594421,NaN,-0.6080757,0.0006441666,NaN,0.113727,-14.69288,NaN,-1.069613,-1.467775,-0.0465828,14.0984,NaN,NaN,-0.5127035,0.8174864,-4.254339E-07,1.047331,3.696399E-08,1.333274
917.9466,-0.825192,0.0005944913,NaN,-0.6082383,0.0006440423,NaN,0.1169016,-14.69391,NaN,-1.070146,-1.479634,-0.0506143,14.11118,NaN,NaN,-0.5129158,0.8169162,-4.600046E-07,1.064713,3.875213E-08,1.341894
917.9615,-0.8291386,0.0005943874,NaN,-0.6084073,0.0006439448,NaN,0.1200837,-14.69374,NaN,-1.070751,-1.475196,-0.05456492,14.10643,NaN,NaN,-0.5131239,0.8169648,-4.856346E-07,1.058223,3.756004E-08,1.337698
917.9763,-0.8291386,0.0005943874,NaN,-0.6084073,0.0006439448,NaN,0.1200837,-14.69374,NaN,-1.070751,-1.475196,-0.05456492,14.10643,NaN,NaN,-0.5131239,0.8169648,-4.856346E-07,1.058223,3.756004E-08,1.337698
917.9919,-0.8331953,0.0005955318,NaN,-0.6085787,0.0006443357,NaN,0.1232184,-14.69292,NaN,-1.071415,-1.483179,-0.05843912,14.11482,NaN,NaN,-0.5133278,0.8180174,-5.136488E-07,1.069844,3.57719E-08,1.336639
918.0062,-0.8373011,0.0005965799,NaN,-0.6087505,0.0006445801,NaN,0.1262866,-14.69372,NaN,-1.072125,-1.482862,-0.06223958,14.11456,NaN,NaN,-0.5135278,0.817207,-5.386827E-07,1.069403,3.457981E-08,1.339881
918.0214,-0.8417628,0.0005967045,NaN,-0.6089351,0.0006444124,NaN,0.1299105,-14.69292,NaN,-1.072816,-1.476541,-0.06684743,14.10772,NaN,NaN,-0.5137697,0.8178549,-5.756376E-07,1.060133,3.279167E-08,1.33424
918.0363,-0.8417628,0.0005967045,NaN,-0.6089351,0.0006444124,NaN,0.1299105,-14.69292,NaN,-1.072816,-1.476541,-0.06684743,14.10772,NaN,NaN,-0.5137697,0.8178549,-5.756376E-07,1.060133,3.279167E-08,1.33424
918.0508,-0.8464221,0.0005968453,NaN,-0.6091255,0.0006450094,NaN,0.1335324,-14.69262,NaN,-1.073576,-1.469579,-0.07136312,14.10025,NaN,NaN,-0.5140068,0.8179462,-6.072281E-07,1.049938,3.159958E-08,1.330376
918.0664,-0.8511813,0.0005971729,NaN,-0.6093179,0.0006450664,NaN,0.1370977,-14.69391,NaN,-1.074394,-1.477793,-0.07579154,14.10918,NaN,NaN,-0.5142392,0.8169697,-6.352423E-07,1.062008,3.517586E-08,1.338341
918.0815,-0.8559798,0.0005977114,NaN,-0.6095102,0.000646312,NaN,0.1405877,-14.69254,NaN,-1.075257,-1.472088,-0.08013571,14.10292,NaN,NaN,-0.514467,0.8181648,-6.650446E-07,1.053614,3.636795E-08,1.331272
918.0968,-0.8559798,0.0005977114,NaN,-0.6095102,0.000646312,NaN,0.1405877,-14.69254,NaN,-1.075257,-1.472088,-0.08013571,14.10292,NaN,NaN,-0.514467,0.8181648,-6.650446E-07,1.053614,3.636795E-08,1.331272
918.1109,-0.8611253,0.0005980468,NaN,-0.6097152,0.000646534,NaN,0.1446255,-14.69354,NaN,-1.076101,-1.474617,-0.08528212,14.10575,NaN,NaN,-0.5147362,0.8172523,-7.055758E-07,1.057358,3.636795E-08,1.334626
918.1274,-0.8664599,0.0005979383,NaN,-0.6099255,0.0006467886,NaN,0.1486517,-14.69304,NaN,-1.077013,-1.47119,-0.09032571,14.10203,NaN,NaN,-0.5150001,0.8176389,-7.413386E-07,1.052326,3.756004E-08,1.331122
918.1413,-0.8718858,0.0005988268,NaN,-0.6101375,0.0006470482,NaN,0.1526124,-14.69321,NaN,-1.077984,-1.482031,-0.09527181,14.1136,NaN,NaN,-0.5152588,0.8178417,-7.735251E-07,1.068174,4.292446E-08,1.336328
918.1564,-0.8718858,0.0005988268,NaN,-0.6101375,0.0006470482,NaN,0.1526124,-14.69321,NaN,-1.077984,-1.482031,-0.09527181,14.1136,NaN,NaN,-0.5152588,0.8178417,-7.735251E-07,1.068174,4.292446E-08,1.336328
918.1706,-0.8776879,0.000599815,NaN,-0.6103628,0.0006484832,NaN,0.157117,-14.694,NaN,-1.078949,-1.474489,-0.1010124,14.10563,NaN,NaN,-0.5155582,0.8168811,-8.188246E-07,1.057171,4.113632E-08,1.342768
918.1863,-0.8836936,0.0006000713,NaN,-0.6105936,0.0006495005,NaN,0.1615997,-14.69258,NaN,-1.079993,-1.469076,-0.1066384,14.09968,NaN,NaN,-0.5158517,0.8181208,-8.611439E-07,1.049201,4.590469E-08,1.328153
918.2011,-0.8897967,0.0006009964,NaN,-0.610826,0.0006499211,NaN,0.1660055,-14.69253,NaN,-1.081101,-1.481351,-0.1121556,14.11277,NaN,NaN,-0.5161394,0.8186322,-8.945225E-07,1.067142,4.650073E-08,1.332387
918.2161,-0.8897967,0.0006009964,NaN,-0.610826,0.0006499211,NaN,0.1660055,-14.69253,NaN,-1.081101,-1.481351,-0.1121556,14.11277,NaN,NaN,-0.5161394,0.8186322,-8.945225E-07,1.067142,4.650073E-08,1.332387
918.2305,-0.8959316,0.000601725,NaN,-0.6110576,0.000650153,NaN,0.1703165,-14.69416,NaN,-1.082258,-1.48057,-0.117568,14.11211,NaN,NaN,-0.5164215,0.8169888,-9.273051E-07,1.066056,4.113632E-08,1.339841
918.2464,-0.9024029,0.0006025283,NaN,-0.6113014,0.0006512115,NaN,0.1751576,-14.69226,NaN,-1.0834,-1.475469,-0.123773,14.10645,NaN,NaN,-0.5167439,0.8187438,-9.720086E-07,1.058534,4.47126E-08,1.324713
918.2613,-0.9090506,0.0006027494,NaN,-0.6115498,0.0006516778,NaN,0.1799674,-14.69285,NaN,-1.084613,-1.470193,-0.1298542,14.10089,NaN,NaN,-0.5170599,0.817996,-1.014924E-06,1.050842,3.696399E-08,1.329673
918.2765,-0.9090506,0.0006027494,NaN,-0.6115498,0.0006516778,NaN,0.1799674,-14.69285,NaN,-1.084613,-1.470193,-0.1298542,14.10089,NaN,NaN,-0.5170599,0.817996,-1.014924E-06,1.050842,3.696399E-08,1.329673
918.2907,-0.915776,0.0006033667,NaN,-0.6117992,0.0006516517,NaN,0.1846938,-14.69353,NaN,-1.085884,-1.481204,-0.1358178,14.11273,NaN,NaN,-0.5173697,0.8177179,-1.054859E-06,1.066972,3.100353E-08,1.336902
918.3063,-0.9225182,0.0006037878,NaN,-0.6120475,0.0006530167,NaN,0.1893194,-14.6927,NaN,-1.087199,-1.469631,-0.141668,14.10028,NaN,NaN,-0.5176734,0.8182495,-1.091218E-06,1.050025,2.861935E-08,1.328953
918.3224,-0.9295851,0.0006044881,NaN,-0.6123076,0.0006534722,NaN,0.1944701,-14.69382,NaN,-1.088498,-1.479896,-0.1483092,14.11139,NaN,NaN,-0.5180171,0.8175228,-1.139498E-06,1.065093,2.981144E-08,1.337728
918.3365,-0.9295851,0.0006044881,NaN,-0.6123076,0.0006534722,NaN,0.1944701,-14.69382,NaN,-1.088498,-1.479896,-0.1483092,14.11139,NaN,NaN,-0.5180171,0.8175228,-1.139498E-06,1.065093,2.981144E-08,1.337728
918.3506,-0.9368184,0.0006043409,NaN,-0.6125721,0.0006536787,NaN,0.1995829,-14.69257,NaN,-1.089865,-1.470499,-0.1548175,14.10122,NaN,NaN,-0.5183539,0.8185186,-1.184797E-06,1.051313,2.861935E-08,1.329166
918.3663,-0.9441205,0.0006049871,NaN,-0.6128373,0.000653664,NaN,0.2046058,-14.69193,NaN,-1.091289,-1.480338,-0.1611996,14.11164,NaN,NaN,-0.5186841,0.8195105,-1.225924E-06,1.06567,3.100353E-08,1.328755
918.3811,-0.9514314,0.0006051349,NaN,-0.6131012,0.0006543028,NaN,0.2095219,-14.6932,NaN,-1.092756,-1.469967,-0.16746,14.10068,NaN,NaN,-0.5190078,0.8179836,-1.264667E-06,1.050526,2.742725E-08,1.331415
918.3962,-0.9514314,0.0006051349,NaN,-0.6131012,0.0006543028,NaN,0.2095219,-14.6932,NaN,-1.092756,-1.469967,-0.16746,14.10068,NaN,NaN,-0.5190078,0.8179836,-1.264667E-06,1.050526,2.742725E-08,1.331415
918.4105,-0.9590596,0.0006052635,NaN,-0.6133767,0.0006537615,NaN,0.2149578,-14.69414,NaN,-1.094207,-1.481891,-0.1745106,14.11352,NaN,NaN,-0.5193711,0.8174791,-1.318312E-06,1.068004,2.265888E-08,1.337108
918.4261,-0.9668471,0.0006051539,NaN,-0.6136563,0.000653979,NaN,0.2203488,-14.69311,NaN,-1.095726,-1.471327,-0.1814194,14.10213,NaN,NaN,-0.5197272,0.8182436,-1.365399E-06,1.052524,2.385097E-08,1.329061
918.4411,-0.9746965,0.0006052984,NaN,-0.6139364,0.0006550117,NaN,0.2256437,-14.69369,NaN,-1.097302,-1.469217,-0.1881938,14.09995,NaN,NaN,-0.5200762,0.8175911,-1.411295E-06,1.049464,2.02747E-08,1.332632
918.4575,-0.9746965,0.0006052984,NaN,-0.6139364,0.0006550117,NaN,0.2256437,-14.69369,NaN,-1.097302,-1.469217,-0.1881938,14.09995,NaN,NaN,-0.5200762,0.8175911,-1.411295E-06,1.049464,2.02747E-08,1.332632
918.4707,-0.9828933,0.0006051616,NaN,-0.6142287,0.000655492,NaN,0.2314558,-14.69411,NaN,-1.098877,-1.471407,-0.195753,14.10234,NaN,NaN,-0.5204644,0.8172528,-1.469707E-06,1.052683,2.146679E-08,1.331575
918.4865,-0.9912652,0.0006051551,NaN,-0.6145253,0.0006548757,NaN,0.2372142,-14.69431,NaN,-1.100528,-1.482245,-0.2031592,14.11391,NaN,NaN,-0.5208449,0.8174174,-1.523351E-06,1.068523,2.861935E-08,1.334967
918.5012,-0.999706,0.0006049479,NaN,-0.6148221,0.0006549013,NaN,0.242867,-14.69331,NaN,-1.102243,-1.471174,-0.2104209,14.10198,NaN,NaN,-0.5212178,0.8181489,-1.571035E-06,1.052307,2.742725E-08,1.32959
918.5176,-0.999706,0.0006049479,NaN,-0.6148221,0.0006549013,NaN,0.242867,-14.69331,NaN,-1.102243,-1.471174,-0.2104209,14.10198,NaN,NaN,-0.5212178,0.8181489,-1.571035E-06,1.052307,2.742725E-08,1.32959
918.5308,-1.00815,0.0006043595,NaN,-0.6151172,0.0006545931,NaN,0.2483978,-14.69343,NaN,-1.104004,-1.469442,-0.2175434,14.10014,NaN,NaN,-0.5215835,0.8179664,-1.615143E-06,1.049777,3.338772E-08,1.326863
918.5466,-1.016904,0.0006043304,NaN,-0.6154235,0.0006538005,NaN,0.2544349,-14.6941,NaN,-1.105756,-1.481554,-0.2254532,14.11315,NaN,NaN,-0.521988,0.8177359,-1.674747E-06,1.067514,3.934818E-08,1.334322
918.5613,-1.025807,0.0006045003,NaN,-0.6157334,0.0006539104,NaN,0.2604116,-14.69484,NaN,-1.107578,-1.474759,-0.2332026,14.10598,NaN,NaN,-0.5223844,0.8168299,-1.726007E-06,1.057605,3.57719E-08,1.336732
918.5762,-1.025807,0.0006045003,NaN,-0.6157334,0.0006539104,NaN,0.2604116,-14.69484,NaN,-1.107578,-1.474759,-0.2332026,14.10598,NaN,NaN,-0.5223844,0.8168299,-1.726007E-06,1.057605,3.57719E-08,1.336732
