JMolnar6/NonAnthroHands_User_Study/HandsLoggerWithURDF/tempdata/PID 0 (test)/files/Reachy_PID0_JointMotion_gesture_11_56.csv
Time,r_shoulder,r_shoulder_x,r_upper_arm,r_forearm,r_wrist,r_wrist2hand,
793.1513,-0.6474307,1.100671E-10,NaN,-0.6377737,-1.3252E-07,NaN,0.120128,-4.744294E-07,NaN,-0.6478024,2.208222E-05,0.08101544,5.21706E-08,NaN,NaN,0.1334581,-3.67873E-10,-1.820135E-06,-1.103119E-07,6.126708E-09,-2.622604E-08
793.1689,-0.6433634,1.107541E-10,NaN,-0.6342806,-1.325204E-07,NaN,0.1192022,-4.745926E-07,NaN,-0.6462935,2.208263E-05,0.08272501,5.233505E-08,NaN,NaN,0.1335582,-3.585598E-10,-1.812982E-06,-1.103126E-07,1.954383E-09,-2.861022E-08
793.1812,-0.6392102,1.114409E-10,NaN,-0.6307066,-1.325207E-07,NaN,0.118203,-4.747553E-07,NaN,-0.644775,2.208304E-05,0.08464132,5.249904E-08,NaN,NaN,0.1336565,-3.492465E-10,-1.809406E-06,-1.103134E-07,2.550429E-09,-2.622604E-08
793.1959,-0.6392102,1.114409E-10,NaN,-0.6307066,-1.325207E-07,NaN,0.118203,-4.747553E-07,NaN,-0.644775,2.208304E-05,0.08464132,5.249904E-08,NaN,NaN,0.1336565,-3.492465E-10,-1.809406E-06,-1.103134E-07,2.550429E-09,-2.622604E-08
793.2101,-0.6350273,1.121277E-10,NaN,-0.6271008,-1.325211E-07,NaN,0.11728,-4.749147E-07,NaN,-0.6432468,2.208345E-05,0.08657181,5.265974E-08,NaN,NaN,0.1337529,-3.399333E-10,-1.807022E-06,-1.103141E-07,3.146476E-09,-2.861022E-08
793.2255,-0.6308478,1.128145E-10,NaN,-0.6234923,-1.325214E-07,NaN,0.1164605,-4.750737E-07,NaN,-0.6417151,2.208386E-05,0.08845162,5.282006E-08,NaN,NaN,0.1338474,-3.306201E-10,-1.804638E-06,-1.103149E-07,3.742522E-09,-2.622604E-08
793.2404,-0.6269168,1.135013E-10,NaN,-0.620098,-1.325217E-07,NaN,0.1162804,-4.752296E-07,NaN,-0.6404415,2.208428E-05,0.08959304,5.297718E-08,NaN,NaN,0.1342217,-3.259635E-10,-1.799869E-06,-1.103156E-07,3.742522E-09,-2.861022E-08
793.2554,-0.6269168,1.135013E-10,NaN,-0.620098,-1.325217E-07,NaN,0.1162804,-4.752296E-07,NaN,-0.6404415,2.208428E-05,0.08959304,5.297718E-08,NaN,NaN,0.1342217,-3.259635E-10,-1.799869E-06,-1.103156E-07,3.742522E-09,-2.861022E-08
793.2695,-0.6231502,1.141879E-10,NaN,-0.6168452,-1.325221E-07,NaN,0.1162738,-4.753823E-07,NaN,-0.6391983,2.208469E-05,0.09043329,5.313115E-08,NaN,NaN,0.1345884,-3.259635E-10,-1.792717E-06,-1.103163E-07,4.338568E-09,-2.622604E-08
793.2849,-0.6194979,1.148747E-10,NaN,-0.6136906,-1.325224E-07,NaN,0.1162753,-4.755347E-07,NaN,-0.637989,2.208511E-05,0.09117018,5.328486E-08,NaN,NaN,0.1349478,-3.213069E-10,-1.78318E-06,-1.103171E-07,4.338568E-09,-2.861022E-08
793.2996,-0.6194979,1.148747E-10,NaN,-0.6136906,-1.325224E-07,NaN,0.1162753,-4.755347E-07,NaN,-0.637989,2.208511E-05,0.09117018,5.328486E-08,NaN,NaN,0.1349478,-3.213069E-10,-1.78318E-06,-1.103171E-07,4.338568E-09,-2.861022E-08
793.3136,-0.6161559,1.155613E-10,NaN,-0.610808,-1.325228E-07,NaN,0.1167919,-4.75684E-07,NaN,-0.637064,2.208553E-05,0.09120286,5.343549E-08,NaN,NaN,0.1355818,-3.213069E-10,-1.772451E-06,-1.103178E-07,5.530661E-09,-2.622604E-08
793.3289,-0.6130127,1.16248E-10,NaN,-0.6081,-1.325231E-07,NaN,0.1173777,-4.758304E-07,NaN,-0.6361851,2.208594E-05,0.09098775,5.358311E-08,NaN,NaN,0.1362031,-3.166503E-10,-1.755762E-06,-1.103185E-07,4.338569E-09,-2.861022E-08
793.3447,-0.6100018,1.169347E-10,NaN,-0.605508,-1.325235E-07,NaN,0.1178953,-4.759766E-07,NaN,-0.635348,2.208636E-05,0.09071889,5.37306E-08,NaN,NaN,0.1368122,-3.166503E-10,-1.740861E-06,-1.103193E-07,5.530661E-09,-2.622604E-08
793.3594,-0.6100018,1.169347E-10,NaN,-0.605508,-1.325235E-07,NaN,0.1178953,-4.759766E-07,NaN,-0.635348,2.208636E-05,0.09071889,5.37306E-08,NaN,NaN,0.1368122,-3.166503E-10,-1.740861E-06,-1.103193E-07,5.530661E-09,-2.622604E-08
793.3724,-0.6070837,1.176215E-10,NaN,-0.602997,-1.325238E-07,NaN,0.1183276,-4.761198E-07,NaN,-0.6345432,2.208678E-05,0.09045907,5.387512E-08,NaN,NaN,0.1374094,-3.119937E-10,-1.721787E-06,-1.1032E-07,4.934615E-09,-2.861022E-08
793.3879,-0.604459,1.183081E-10,NaN,-0.6007454,-1.325241E-07,NaN,0.1192384,-4.762602E-07,NaN,-0.6340162,2.208719E-05,0.08955069,5.401676E-08,NaN,NaN,0.1382764,-3.119937E-10,-1.704502E-06,-1.103207E-07,4.934615E-09,-2.622604E-08
793.4024,-0.6020213,1.189949E-10,NaN,-0.5986593,-1.325245E-07,NaN,0.1202041,-4.764005E-07,NaN,-0.6335275,2.208761E-05,0.08842482,5.415837E-08,NaN,NaN,0.1391263,-3.073371E-10,-1.682448E-06,-1.103214E-07,4.934615E-09,-2.861022E-08
793.4172,-0.6020213,1.189949E-10,NaN,-0.5986593,-1.325245E-07,NaN,0.1202041,-4.764005E-07,NaN,-0.6335275,2.208761E-05,0.08842482,5.415837E-08,NaN,NaN,0.1391263,-3.073371E-10,-1.682448E-06,-1.103214E-07,4.934615E-09,-2.861022E-08
793.4313,-0.5997066,1.196815E-10,NaN,-0.5966819,-1.325248E-07,NaN,0.1210933,-4.76538E-07,NaN,-0.6330729,2.208803E-05,0.08726574,5.429715E-08,NaN,NaN,0.1399594,-3.073371E-10,-1.662182E-06,-1.103222E-07,2.550429E-09,-2.622604E-08
793.4468,-0.5974764,1.203683E-10,NaN,-0.5947788,-1.325252E-07,NaN,0.121889,-4.766727E-07,NaN,-0.6326432,2.208844E-05,0.08613309,5.443314E-08,NaN,NaN,0.1407762,-3.026805E-10,-1.639533E-06,-1.103229E-07,5.530661E-09,-2.861022E-08
793.4614,-0.5955311,1.210549E-10,NaN,-0.5931289,-1.325255E-07,NaN,0.1231522,-4.768075E-07,NaN,-0.6324848,2.208886E-05,0.08437007,5.456923E-08,NaN,NaN,0.1418586,-3.026805E-10,-1.621055E-06,-1.103236E-07,4.338569E-09,-2.622604E-08
793.4762,-0.5955311,1.210549E-10,NaN,-0.5931289,-1.325255E-07,NaN,0.1231522,-4.768075E-07,NaN,-0.6324848,2.208886E-05,0.08437007,5.456923E-08,NaN,NaN,0.1418586,-3.026805E-10,-1.621055E-06,-1.103236E-07,4.338569E-09,-2.622604E-08
793.4904,-0.5937658,1.217417E-10,NaN,-0.591639,-1.325258E-07,NaN,0.124461,-4.769396E-07,NaN,-0.6323578,2.208927E-05,0.08240523,5.470259E-08,NaN,NaN,0.1429195,-2.980239E-10,-1.597213E-06,-1.103243E-07,4.338569E-09,-2.861022E-08
793.5059,-0.5921171,1.224284E-10,NaN,-0.5902528,-1.325261E-07,NaN,0.1256831,-4.77069E-07,NaN,-0.6322584,2.208969E-05,0.08042271,5.483326E-08,NaN,NaN,0.1439596,-2.980239E-10,-1.572776E-06,-1.10325E-07,6.722754E-09,-2.622604E-08
793.5208,-0.5905463,1.231151E-10,NaN,-0.5889356,-1.325265E-07,NaN,0.126801,-4.771986E-07,NaN,-0.6321778,2.209011E-05,0.07848243,5.496414E-08,NaN,NaN,0.1449794,-2.933672E-10,-1.547742E-06,-1.103257E-07,6.722754E-09,-2.861022E-08
793.5356,-0.5905463,1.231151E-10,NaN,-0.5889356,-1.325265E-07,NaN,0.126801,-4.771986E-07,NaN,-0.6321778,2.209011E-05,0.07848243,5.496414E-08,NaN,NaN,0.1449794,-2.933672E-10,-1.547742E-06,-1.103257E-07,6.722754E-09,-2.861022E-08
793.5496,-0.5892531,1.238018E-10,NaN,-0.5878659,-1.325268E-07,NaN,0.1283716,-4.773256E-07,NaN,-0.6323632,2.209053E-05,0.07593001,5.509238E-08,NaN,NaN,0.1462606,-2.933672E-10,-1.520919E-06,-1.103264E-07,8.510893E-09,-2.622604E-08
793.5649,-0.5881339,1.244885E-10,NaN,-0.5869515,-1.325271E-07,NaN,0.129977,-4.7745E-07,NaN,-0.6325739,2.209094E-05,0.07319056,5.521805E-08,NaN,NaN,0.1475167,-2.887106E-10,-1.494097E-06,-1.103271E-07,1.208717E-08,-2.861022E-08
793.5798,-0.5881339,1.244885E-10,NaN,-0.5869515,-1.325271E-07,NaN,0.129977,-4.7745E-07,NaN,-0.6325739,2.209094E-05,0.07319056,5.521805E-08,NaN,NaN,0.1475167,-2.887106E-10,-1.494097E-06,-1.103271E-07,1.208717E-08,-2.861022E-08
793.5957,-0.5871254,1.251752E-10,NaN,-0.5861357,-1.325274E-07,NaN,0.1314851,-4.775747E-07,NaN,-0.6328062,2.209136E-05,0.07044828,5.534402E-08,NaN,NaN,0.148748,-2.887106E-10,-1.463103E-06,-1.103278E-07,1.208717E-08,-2.622604E-08
793.6095,-0.5864117,1.258619E-10,NaN,-0.5855835,-1.325278E-07,NaN,0.133415,-4.776969E-07,NaN,-0.6333073,2.209177E-05,0.06709833,5.546745E-08,NaN,NaN,0.1502367,-2.84054E-10,-1.435089E-06,-1.103285E-07,1.387531E-08,-2.861022E-08
793.6252,-0.5858809,1.265486E-10,NaN,-0.5851949,-1.325281E-07,NaN,0.1353477,-4.778194E-07,NaN,-0.6338337,2.209219E-05,0.06357846,5.559122E-08,NaN,NaN,0.1516962,-2.84054E-10,-1.401114E-06,-1.103292E-07,1.327926E-08,-2.622604E-08
793.6387,-0.5858809,1.265486E-10,NaN,-0.5851949,-1.325281E-07,NaN,0.1353477,-4.778194E-07,NaN,-0.6338337,2.209219E-05,0.06357846,5.559122E-08,NaN,NaN,0.1516962,-2.84054E-10,-1.401114E-06,-1.103292E-07,1.327926E-08,-2.622604E-08
793.6525,-0.585464,1.272354E-10,NaN,-0.5849082,-1.325284E-07,NaN,0.1371547,-4.779394E-07,NaN,-0.6343802,2.209261E-05,0.06007665,5.571251E-08,NaN,NaN,0.1531269,-2.793974E-10,-1.365351E-06,-1.103299E-07,1.327926E-08,-2.861022E-08
793.6679,-0.5851187,1.279221E-10,NaN,-0.5846854,-1.325288E-07,NaN,0.1388231,-4.780569E-07,NaN,-0.6349377,2.209303E-05,0.0566528,5.583135E-08,NaN,NaN,0.1545297,-2.793974E-10,-1.331377E-06,-1.103306E-07,1.327926E-08,-2.622604E-08
793.683,-0.5850418,1.286088E-10,NaN,-0.5847013,-1.325291E-07,NaN,0.1409042,-4.781749E-07,NaN,-0.6357537,2.209344E-05,0.05265797,5.595063E-08,NaN,NaN,0.1561865,-2.747408E-10,-1.298594E-06,-1.103313E-07,1.029903E-08,-2.861022E-08
793.6975,-0.5850418,1.286088E-10,NaN,-0.5847013,-1.325291E-07,NaN,0.1409042,-4.781749E-07,NaN,-0.6357537,2.209344E-05,0.05265797,5.595063E-08,NaN,NaN,0.1561865,-2.747408E-10,-1.298594E-06,-1.103313E-07,1.029903E-08,-2.861022E-08
793.7115,-0.5851288,1.292955E-10,NaN,-0.5848644,-1.325294E-07,NaN,0.1429949,-4.782905E-07,NaN,-0.6365856,2.209386E-05,0.04850562,5.60675E-08,NaN,NaN,0.1578107,-2.747408E-10,-1.268196E-06,-1.10332E-07,1.208717E-08,-2.622604E-08
793.7271,-0.5853161,1.299823E-10,NaN,-0.5851173,-1.325297E-07,NaN,0.1449647,-4.784038E-07,NaN,-0.6374294,2.209427E-05,0.04437954,5.618202E-08,NaN,NaN,0.159403,-2.700842E-10,-1.236009E-06,-1.103326E-07,1.327926E-08,-2.861022E-08
793.7419,-0.585564,1.30669E-10,NaN,-0.5854244,-1.325301E-07,NaN,0.1467966,-4.785175E-07,NaN,-0.6382774,2.209469E-05,0.04033989,5.629705E-08,NaN,NaN,0.1609641,-2.700842E-10,-1.200842E-06,-1.103333E-07,1.387531E-08,-2.622604E-08
793.7568,-0.585564,1.30669E-10,NaN,-0.5854244,-1.325301E-07,NaN,0.1467966,-4.785175E-07,NaN,-0.6382774,2.209469E-05,0.04033989,5.629705E-08,NaN,NaN,0.1609641,-2.700842E-10,-1.200842E-06,-1.103333E-07,1.387531E-08,-2.622604E-08
793.7709,-0.5860709,1.313557E-10,NaN,-0.5859631,-1.325304E-07,NaN,0.1490327,-4.786289E-07,NaN,-0.639379,2.209511E-05,0.03574141,5.640977E-08,NaN,NaN,0.1627762,-2.654276E-10,-1.170444E-06,-1.10334E-07,1.447136E-08,-2.861022E-08
793.7865,-0.5867341,1.320424E-10,NaN,-0.5866414,-1.325307E-07,NaN,0.151273,-4.787381E-07,NaN,-0.6404908,2.209553E-05,0.03099518,5.652021E-08,NaN,NaN,0.1645526,-2.700842E-10,-1.135277E-06,-1.103347E-07,1.268322E-08,-2.622604E-08
793.8013,-0.5874896,1.327292E-10,NaN,-0.5874021,-1.32531E-07,NaN,0.1533851,-4.788478E-07,NaN,-0.6416097,2.209594E-05,0.02628654,5.663124E-08,NaN,NaN,0.1662943,-2.654276E-10,-1.098322E-06,-1.103353E-07,1.208717E-08,-2.861022E-08
793.8161,-0.5874896,1.327292E-10,NaN,-0.5874021,-1.32531E-07,NaN,0.1533851,-4.788478E-07,NaN,-0.6416097,2.209594E-05,0.02628654,5.663124E-08,NaN,NaN,0.1662943,-2.654276E-10,-1.098322E-06,-1.103353E-07,1.208717E-08,-2.861022E-08
793.83,-0.5885214,1.334159E-10,NaN,-0.5884094,-1.325313E-07,NaN,0.1558706,-4.789554E-07,NaN,-0.6429856,2.209636E-05,0.02102179,5.674004E-08,NaN,NaN,0.1682833,-2.654276E-10,-1.063752E-06,-1.10336E-07,1.447136E-08,-2.622604E-08
793.8465,-0.5897167,1.341027E-10,NaN,-0.5895625,-1.325316E-07,NaN,0.1583292,-4.790607E-07,NaN,-0.6443729,2.209678E-05,0.01562449,5.684664E-08,NaN,NaN,0.1702332,-2.60771E-10,-1.023221E-06,-1.103367E-07,1.685554E-08,-2.861022E-08
793.8602,-0.591006,1.347894E-10,NaN,-0.5907992,-1.325319E-07,NaN,0.1606323,-4.791639E-07,NaN,-0.645767,2.20972E-05,0.01028417,5.695111E-08,NaN,NaN,0.172145,-2.654276E-10,-9.844775E-07,-1.103373E-07,2.162392E-08,-2.622604E-08
793.8751,-0.591006,1.347894E-10,NaN,-0.5907992,-1.325319E-07,NaN,0.1606323,-4.791639E-07,NaN,-0.645767,2.20972E-05,0.01028417,5.695111E-08,NaN,NaN,0.172145,-2.654276E-10,-9.844775E-07,-1.103373E-07,2.162392E-08,-2.622604E-08
793.8888,-0.5923467,1.354762E-10,NaN,-0.5920809,-1.325323E-07,NaN,0.1627682,-4.792678E-07,NaN,-0.6471592,2.209761E-05,0.005060884,5.705629E-08,NaN,NaN,0.1740193,-2.60771E-10,-9.457345E-07,-1.10338E-07,2.758438E-08,-2.861022E-08
793.9042,-0.5939361,1.361628E-10,NaN,-0.5935839,-1.325326E-07,NaN,0.1652693,-4.793695E-07,NaN,-0.6488001,2.209802E-05,-0.0006839628,5.715934E-08,NaN,NaN,0.1761384,-2.654276E-10,-9.105678E-07,-1.103387E-07,2.877647E-08,-2.622604E-08
793.9191,-0.5939361,1.361628E-10,NaN,-0.5935839,-1.325326E-07,NaN,0.1652693,-4.793695E-07,NaN,-0.6488001,2.209802E-05,-0.0006839628,5.715934E-08,NaN,NaN,0.1761384,-2.654276E-10,-9.105678E-07,-1.103387E-07,2.877647E-08,-2.622604E-08
793.9332,-0.5956692,1.368495E-10,NaN,-0.5952143,-1.325329E-07,NaN,0.1677524,-4.79472E-07,NaN,-0.6504443,2.209843E-05,-0.006551018,5.726313E-08,NaN,NaN,0.1782159,-2.60771E-10,-8.670564E-07,-1.103393E-07,3.175671E-08,-2.861022E-08
793.9485,-0.5974813,1.375362E-10,NaN,-0.5969142,-1.325332E-07,NaN,0.1700872,-4.795725E-07,NaN,-0.6520882,2.209885E-05,-0.0123552,5.736483E-08,NaN,NaN,0.1802527,-2.654276E-10,-8.259292E-07,-1.1034E-07,3.592903E-08,-2.622604E-08
793.9631,-0.599333,1.382229E-10,NaN,-0.5986484,-1.325335E-07,NaN,0.1722586,-4.796708E-07,NaN,-0.6537245,2.209926E-05,-0.01803681,5.746448E-08,NaN,NaN,0.1822495,-2.60771E-10,-7.889744E-07,-1.103406E-07,3.652508E-08,-2.861022E-08
793.978,-0.599333,1.382229E-10,NaN,-0.5986484,-1.325335E-07,NaN,0.1722586,-4.796708E-07,NaN,-0.6537245,2.209926E-05,-0.01803681,5.746448E-08,NaN,NaN,0.1822495,-2.60771E-10,-7.889744E-07,-1.103406E-07,3.652508E-08,-2.861022E-08
793.9921,-0.6014247,1.389095E-10,NaN,-0.6005953,-1.325338E-07,NaN,0.1747866,-4.797672E-07,NaN,-0.6556053,2.209968E-05,-0.02422816,5.75621E-08,NaN,NaN,0.1844888,-2.654276E-10,-7.520195E-07,-1.103413E-07,4.010136E-08,-2.622604E-08
794.0075,-0.6036516,1.395962E-10,NaN,-0.6026614,-1.325341E-07,NaN,0.1772946,-4.798644E-07,NaN,-0.6574849,2.210009E-05,-0.03053588,5.766057E-08,NaN,NaN,0.1866842,-2.60771E-10,-7.114883E-07,-1.10342E-07,4.06974E-08,-2.861022E-08
794.0223,-0.6059499,1.402827E-10,NaN,-0.6047897,-1.325344E-07,NaN,0.1796507,-4.799596E-07,NaN,-0.6593602,2.210051E-05,-0.03677327,5.775705E-08,NaN,NaN,0.1888366,-2.654276E-10,-6.703611E-07,-1.103426E-07,4.367763E-08,-2.622604E-08
794.0371,-0.6059499,1.402827E-10,NaN,-0.6047897,-1.325344E-07,NaN,0.1796507,-4.799596E-07,NaN,-0.6593602,2.210051E-05,-0.03677327,5.775705E-08,NaN,NaN,0.1888366,-2.654276E-10,-6.703611E-07,-1.103426E-07,4.367763E-08,-2.622604E-08
794.0513,-0.6085057,1.409693E-10,NaN,-0.6071455,-1.325348E-07,NaN,0.1823328,-4.800528E-07,NaN,-0.6614835,2.210092E-05,-0.04351911,5.785158E-08,NaN,NaN,0.1912282,-2.60771E-10,-6.316181E-07,-1.103432E-07,4.308159E-08,-2.861022E-08
794.0668,-0.6112046,1.416559E-10,NaN,-0.6096269,-1.325351E-07,NaN,0.1849663,-4.801469E-07,NaN,-0.6636073,2.210133E-05,-0.05036887,5.794701E-08,NaN,NaN,0.1935731,-2.654276E-10,-5.887028E-07,-1.103439E-07,4.367763E-08,-2.622604E-08
794.0813,-0.613977,1.423425E-10,NaN,-0.6121721,-1.325354E-07,NaN,0.1874234,-4.802391E-07,NaN,-0.6657266,2.210174E-05,-0.05713132,5.804051E-08,NaN,NaN,0.195872,-2.60771E-10,-5.451914E-07,-1.103445E-07,4.427368E-08,-2.861022E-08
794.097,-0.613977,1.423425E-10,NaN,-0.6121721,-1.325354E-07,NaN,0.1874234,-4.802391E-07,NaN,-0.6657266,2.210174E-05,-0.05713132,5.804051E-08,NaN,NaN,0.195872,-2.60771E-10,-5.451914E-07,-1.103445E-07,4.427368E-08,-2.861022E-08
794.1114,-0.6167812,1.430291E-10,NaN,-0.6147436,-1.325357E-07,NaN,0.1896942,-4.803294E-07,NaN,-0.6678333,2.210216E-05,-0.06374635,5.813211E-08,NaN,NaN,0.1981259,-2.654276E-10,-5.022761E-07,-1.103452E-07,4.486973E-08,-2.622604E-08
794.1257,-0.6198175,1.437157E-10,NaN,-0.6175191,-1.32536E-07,NaN,0.1922849,-4.804207E-07,NaN,-0.6701806,2.210257E-05,-0.07083668,5.822468E-08,NaN,NaN,0.200617,-2.60771E-10,-4.605528E-07,-1.103458E-07,4.427368E-08,-2.861022E-08
794.1401,-0.6229787,1.444023E-10,NaN,-0.6204033,-1.325363E-07,NaN,0.1948398,-4.805102E-07,NaN,-0.6725208,2.210299E-05,-0.07802396,5.831537E-08,NaN,NaN,0.2030594,-2.654276E-10,-4.158493E-07,-1.103464E-07,4.427368E-08,-2.622604E-08
794.1548,-0.6229787,1.444023E-10,NaN,-0.6204033,-1.325363E-07,NaN,0.1948398,-4.805102E-07,NaN,-0.6725208,2.210299E-05,-0.07802396,5.831537E-08,NaN,NaN,0.2030594,-2.654276E-10,-4.158493E-07,-1.103464E-07,4.427368E-08,-2.622604E-08
794.169,-0.6262003,1.450889E-10,NaN,-0.6233389,-1.325366E-07,NaN,0.1972291,-4.805977E-07,NaN,-0.6748503,2.21034E-05,-0.0851211,5.840422E-08,NaN,NaN,0.205454,-2.60771E-10,-3.693577E-07,-1.103471E-07,4.248554E-08,-2.861022E-08
794.1843,-0.6294435,1.457755E-10,NaN,-0.6262916,-1.325369E-07,NaN,0.199439,-4.806864E-07,NaN,-0.677162,2.210381E-05,-0.092068,5.849409E-08,NaN,NaN,0.2078017,-2.561144E-10,-3.240582E-07,-1.103477E-07,4.010136E-08,-2.622604E-08
794.1992,-0.6294435,1.457755E-10,NaN,-0.6262916,-1.325369E-07,NaN,0.199439,-4.806864E-07,NaN,-0.677162,2.210381E-05,-0.092068,5.849409E-08,NaN,NaN,0.2078017,-2.561144E-10,-3.240582E-07,-1.103477E-07,4.010136E-08,-2.622604E-08
794.2135,-0.6329117,1.464621E-10,NaN,-0.6294408,-1.325372E-07,NaN,0.2019614,-4.807731E-07,NaN,-0.6797107,2.210422E-05,-0.09947962,5.858213E-08,NaN,NaN,0.2103848,-2.514578E-10,-2.83527E-07,-1.103483E-07,4.010136E-08,-2.861022E-08
794.2287,-0.6364981,1.471486E-10,NaN,-0.632692,-1.325375E-07,NaN,0.2044491,-4.808581E-07,NaN,-0.6822487,2.210464E-05,-0.1069851,5.866839E-08,NaN,NaN,0.2129173,-2.561144E-10,-2.406117E-07,-1.10349E-07,3.950531E-08,-2.622604E-08
794.2435,-0.6401383,1.478351E-10,NaN,-0.6359884,-1.325377E-07,NaN,0.2067708,-4.809442E-07,NaN,-0.6847724,2.210504E-05,-0.1143956,5.875572E-08,NaN,NaN,0.2154003,-2.514578E-10,-1.976964E-07,-1.103496E-07,3.771717E-08,-2.861022E-08
794.2584,-0.6401383,1.478351E-10,NaN,-0.6359884,-1.325377E-07,NaN,0.2067708,-4.809442E-07,NaN,-0.6847724,2.210504E-05,-0.1143956,5.875572E-08,NaN,NaN,0.2154003,-2.514578E-10,-1.976964E-07,-1.103496E-07,3.771717E-08,-2.861022E-08
794.2725,-0.6440219,1.485215E-10,NaN,-0.6394963,-1.32538E-07,NaN,0.2093745,-4.810285E-07,NaN,-0.6875368,2.210546E-05,-0.1222707,5.884127E-08,NaN,NaN,0.218116,-2.561144E-10,-1.577613E-07,-1.103502E-07,3.712113E-08,-2.622604E-08
794.288,-0.6480317,1.49208E-10,NaN,-0.6431125,-1.325383E-07,NaN,0.2119173,-4.81111E-07,NaN,-0.6902926,2.210587E-05,-0.130229,5.892509E-08,NaN,NaN,0.2207787,-2.514578E-10,-1.112696E-07,-1.103508E-07,3.950531E-08,-2.861022E-08
794.3029,-0.6520978,1.498944E-10,NaN,-0.6467757,-1.325386E-07,NaN,0.214272,-4.811918E-07,NaN,-0.6930346,2.210628E-05,-0.1380772,5.900719E-08,NaN,NaN,0.2233891,-2.468012E-10,-6.239384E-08,-1.103515E-07,3.771718E-08,-2.622604E-08
794.3176,-0.6520978,1.498944E-10,NaN,-0.6467757,-1.325386E-07,NaN,0.214272,-4.811918E-07,NaN,-0.6930346,2.210628E-05,-0.1380772,5.900719E-08,NaN,NaN,0.2233891,-2.468012E-10,-6.239384E-08,-1.103515E-07,3.771718E-08,-2.622604E-08
794.3336,-0.6561791,1.505809E-10,NaN,-0.6504496,-1.325389E-07,NaN,0.2164304,-4.812738E-07,NaN,-0.695755,2.210669E-05,-0.1457542,5.909045E-08,NaN,NaN,0.2259485,-2.421446E-10,-1.769035E-08,-1.103521E-07,3.771718E-08,-2.861022E-08
794.3478,-0.6604801,1.512672E-10,NaN,-0.6543128,-1.325392E-07,NaN,0.2188672,-4.81354E-07,NaN,-0.6987092,2.210711E-05,-0.1538637,5.917202E-08,NaN,NaN,0.228739,-2.468012E-10,2.045662E-08,-1.103527E-07,3.771718E-08,-2.622604E-08
794.3613,-0.6648906,1.519536E-10,NaN,-0.6582689,-1.325395E-07,NaN,0.2212593,-4.814327E-07,NaN,-0.7016484,2.210752E-05,-0.1620518,5.925192E-08,NaN,NaN,0.2314751,-2.421446E-10,7.112057E-08,-1.103533E-07,3.771718E-08,-2.861022E-08
794.3763,-0.6648906,1.519536E-10,NaN,-0.6582689,-1.325395E-07,NaN,0.2212593,-4.814327E-07,NaN,-0.7016484,2.210752E-05,-0.1620518,5.925192E-08,NaN,NaN,0.2314751,-2.421446E-10,7.112057E-08,-1.103533E-07,3.771718E-08,-2.861022E-08
794.3901,-0.6693455,1.526399E-10,NaN,-0.6622609,-1.325398E-07,NaN,0.2234774,-4.815125E-07,NaN,-0.7045681,2.210793E-05,-0.1701292,5.933302E-08,NaN,NaN,0.2341575,-2.374879E-10,1.170161E-07,-1.103539E-07,3.533299E-08,-2.622604E-08
794.4056,-0.6738064,1.533262E-10,NaN,-0.6662554,-1.325401E-07,NaN,0.2255092,-4.815907E-07,NaN,-0.7074618,2.210834E-05,-0.1780349,5.941252E-08,NaN,NaN,0.2367874,-2.328313E-10,1.611236E-07,-1.103545E-07,3.771718E-08,-2.861022E-08
794.4202,-0.6784816,1.540125E-10,NaN,-0.6704329,-1.325404E-07,NaN,0.2278131,-4.816673E-07,NaN,-0.7105861,2.210876E-05,-0.1863636,5.949041E-08,NaN,NaN,0.2396471,-2.374879E-10,2.016547E-07,-1.103551E-07,3.682311E-08,-2.622604E-08
794.4351,-0.6784816,1.540125E-10,NaN,-0.6704329,-1.325404E-07,NaN,0.2278131,-4.816673E-07,NaN,-0.7105861,2.210876E-05,-0.1863636,5.949041E-08,NaN,NaN,0.2396471,-2.374879E-10,2.016547E-07,-1.103551E-07,3.682311E-08,-2.622604E-08
794.4491,-0.6832604,1.546987E-10,NaN,-0.6746975,-1.325407E-07,NaN,0.2300763,-4.817451E-07,NaN,-0.7136924,2.210917E-05,-0.1947698,5.956953E-08,NaN,NaN,0.2424509,-2.328313E-10,2.475503E-07,-1.103557E-07,3.592904E-08,-2.861022E-08
794.4644,-0.688078,1.553849E-10,NaN,-0.6789926,-1.32541E-07,NaN,0.2321677,-4.818214E-07,NaN,-0.7167765,2.210958E-05,-0.2030624,5.964704E-08,NaN,NaN,0.2451998,-2.374879E-10,2.940419E-07,-1.103563E-07,3.682311E-08,-2.622604E-08
794.4791,-0.688078,1.553849E-10,NaN,-0.6789926,-1.32541E-07,NaN,0.2321677,-4.818214E-07,NaN,-0.7167765,2.210958E-05,-0.2030624,5.964704E-08,NaN,NaN,0.2451998,-2.374879E-10,2.940419E-07,-1.103563E-07,3.682311E-08,-2.622604E-08
794.4932,-0.6931283,1.560711E-10,NaN,-0.6834856,-1.325413E-07,NaN,0.234502,-4.81896E-07,NaN,-0.7200952,2.210999E-05,-0.2117792,5.972296E-08,NaN,NaN,0.2481761,-2.328313E-10,3.351691E-07,-1.103569E-07,3.265078E-08,-2.861022E-08
794.5088,-0.6982904,1.567573E-10,NaN,-0.688072,-1.325415E-07,NaN,0.2367711,-4.819691E-07,NaN,-0.7233984,2.21104E-05,-0.2205643,5.979733E-08,NaN,NaN,0.2510943,-2.281747E-10,3.798726E-07,-1.103575E-07,3.175671E-08,-2.622604E-08
794.5233,-0.7034938,1.574434E-10,NaN,-0.6926907,-1.325418E-07,NaN,0.238849,-4.820435E-07,NaN,-0.7266806,2.211081E-05,-0.229222,5.987301E-08,NaN,NaN,0.2539554,-2.235181E-10,4.263642E-07,-1.103581E-07,3.056462E-08,-2.861022E-08
794.5383,-0.7034938,1.574434E-10,NaN,-0.6926907,-1.325418E-07,NaN,0.238849,-4.820435E-07,NaN,-0.7266806,2.211081E-05,-0.229222,5.987301E-08,NaN,NaN,0.2539554,-2.235181E-10,4.263642E-07,-1.103581E-07,3.056462E-08,-2.861022E-08
794.5523,-0.7086977,1.581295E-10,NaN,-0.6973067,-1.325421E-07,NaN,0.2407287,-4.821164E-07,NaN,-0.7299341,2.211123E-05,-0.2376905,5.994714E-08,NaN,NaN,0.2567604,-2.281747E-10,4.680875E-07,-1.103587E-07,2.996858E-08,-2.622604E-08
794.5678,-0.7141122,1.588157E-10,NaN,-0.7020996,-1.325424E-07,NaN,0.2428502,-4.821877E-07,NaN,-0.7334156,2.211164E-05,-0.246552,6.001976E-08,NaN,NaN,0.2597917,-2.235181E-10,5.071285E-07,-1.103593E-07,2.788241E-08,-2.861022E-08
794.5823,-0.7196228,1.595017E-10,NaN,-0.7069715,-1.325427E-07,NaN,0.2449256,-4.822604E-07,NaN,-0.7368763,2.211206E-05,-0.2554785,6.009371E-08,NaN,NaN,0.2627638,-2.281747E-10,5.51534E-07,-1.103599E-07,2.251799E-08,-2.622604E-08
794.5992,-0.7196228,1.595017E-10,NaN,-0.7069715,-1.325427E-07,NaN,0.2449256,-4.822604E-07,NaN,-0.7368763,2.211206E-05,-0.2554785,6.009371E-08,NaN,NaN,0.2627638,-2.281747E-10,5.51534E-07,-1.103599E-07,2.251799E-08,-2.622604E-08
794.6121,-0.7251636,1.601878E-10,NaN,-0.7118658,-1.32543E-07,NaN,0.2468264,-4.823316E-07,NaN,-0.7403111,2.211247E-05,-0.264279,6.016615E-08,NaN,NaN,0.2656777,-2.235181E-10,5.974296E-07,-1.103605E-07,2.072986E-08,-2.861022E-08
794.6266,-0.7306967,1.608738E-10,NaN,-0.71675,-1.325432E-07,NaN,0.2485412,-4.824013E-07,NaN,-0.7437136,2.211288E-05,-0.2728915,6.023712E-08,NaN,NaN,0.2685344,-2.328313E-10,6.403449E-07,-1.103611E-07,2.430613E-08,-2.622604E-08
794.6412,-0.7364361,1.615599E-10,NaN,-0.7218058,-1.325435E-07,NaN,0.2504931,-4.824695E-07,NaN,-0.747341,2.211329E-05,-0.2818889,6.030663E-08,NaN,NaN,0.2716164,-2.328313E-10,6.811741E-07,-1.103617E-07,2.102788E-08,-2.861022E-08
794.6563,-0.7364361,1.615599E-10,NaN,-0.7218058,-1.325435E-07,NaN,0.2504931,-4.824695E-07,NaN,-0.747341,2.211329E-05,-0.2818889,6.030663E-08,NaN,NaN,0.2716164,-2.328313E-10,6.811741E-07,-1.103617E-07,2.102788E-08,-2.861022E-08
794.6698,-0.7422665,1.622458E-10,NaN,-0.7269354,-1.325438E-07,NaN,0.2524047,-4.825391E-07,NaN,-0.7509458,2.211371E-05,-0.2909514,6.037755E-08,NaN,NaN,0.2746382,-2.468012E-10,7.258776E-07,-1.103623E-07,2.162392E-08,-2.622604E-08
794.6854,-0.7481222,1.629317E-10,NaN,-0.7320828,-1.325441E-07,NaN,0.2541462,-4.826073E-07,NaN,-0.7545226,2.211411E-05,-0.2998865,6.044702E-08,NaN,NaN,0.2776009,-2.468012E-10,7.69687E-07,-1.103628E-07,2.102788E-08,-2.861022E-08
794.7001,-0.7539654,1.636175E-10,NaN,-0.7372162,-1.325444E-07,NaN,0.2557055,-4.826741E-07,NaN,-0.7580652,2.211451E-05,-0.3086312,6.051506E-08,NaN,NaN,0.2805054,-2.561144E-10,8.108142E-07,-1.103634E-07,1.834567E-08,-2.622604E-08
794.7148,-0.7539654,1.636175E-10,NaN,-0.7372162,-1.325444E-07,NaN,0.2557055,-4.826741E-07,NaN,-0.7580652,2.211451E-05,-0.3086312,6.051506E-08,NaN,NaN,0.2805054,-2.561144E-10,8.108142E-07,-1.103634E-07,1.834567E-08,-2.622604E-08
794.7289,-0.7600129,1.643033E-10,NaN,-0.7425177,-1.325447E-07,NaN,0.257492,-4.827423E-07,NaN,-0.7618313,2.211492E-05,-0.3177499,6.058453E-08,NaN,NaN,0.2836343,-2.60771E-10,8.486631E-07,-1.10364E-07,1.931425E-08,-2.861022E-08
794.7444,-0.7661477,1.649889E-10,NaN,-0.7478891,-1.325449E-07,NaN,0.259241,-4.828091E-07,NaN,-0.765574,2.211533E-05,-0.3269319,6.065258E-08,NaN,NaN,0.2867021,-2.700842E-10,8.924725E-07,-1.103646E-07,1.536544E-08,-2.622604E-08
794.7592,-0.7661477,1.649889E-10,NaN,-0.7478891,-1.325449E-07,NaN,0.259241,-4.828091E-07,NaN,-0.765574,2.211533E-05,-0.3269319,6.065258E-08,NaN,NaN,0.2867021,-2.700842E-10,8.924725E-07,-1.103646E-07,1.536544E-08,-2.622604E-08
794.7731,-0.7723035,1.656746E-10,NaN,-0.7532746,-1.325452E-07,NaN,0.2608229,-4.828745E-07,NaN,-0.7692874,2.211574E-05,-0.3359838,6.071923E-08,NaN,NaN,0.2897098,-2.747408E-10,9.3658E-07,-1.103651E-07,1.35773E-08,-2.861022E-08
794.7888,-0.7786823,1.663602E-10,NaN,-0.7588426,-1.325455E-07,NaN,0.2626037,-4.829413E-07,NaN,-0.7732285,2.211614E-05,-0.3454127,6.078734E-08,NaN,NaN,0.2929397,-2.84054E-10,9.726408E-07,-1.103657E-07,1.432236E-08,-2.622604E-08
794.8033,-0.7851563,1.670458E-10,NaN,-0.7644868,-1.325458E-07,NaN,0.2643244,-4.830068E-07,NaN,-0.7771497,2.211654E-05,-0.3548963,6.085405E-08,NaN,NaN,0.2961066,-2.793974E-10,1.015854E-06,-1.103663E-07,1.607324E-08,-2.861022E-08
794.8185,-0.7851563,1.670458E-10,NaN,-0.7644868,-1.325458E-07,NaN,0.2643244,-4.830068E-07,NaN,-0.7771497,2.211654E-05,-0.3548963,6.085405E-08,NaN,NaN,0.2961066,-2.793974E-10,1.015854E-06,-1.103663E-07,1.607324E-08,-2.861022E-08
794.8321,-0.7916533,1.677312E-10,NaN,-0.7701467,-1.32546E-07,NaN,0.2658612,-4.830708E-07,NaN,-0.7810435,2.211696E-05,-0.3642372,6.091939E-08,NaN,NaN,0.2992114,-2.933672E-10,1.059962E-06,-1.103668E-07,1.864369E-08,-2.622604E-08
794.8488,-0.7981332,1.684167E-10,NaN,-0.7757885,-1.325463E-07,NaN,0.2672084,-4.831335E-07,NaN,-0.7849024,2.211735E-05,-0.3733728,6.098339E-08,NaN,NaN,0.3022554,-2.887106E-10,1.104069E-06,-1.103674E-07,1.517918E-08,-2.861022E-08
794.8623,-0.8048156,1.69102E-10,NaN,-0.7815936,-1.325466E-07,NaN,0.2687565,-4.831978E-07,NaN,-0.7889829,2.211776E-05,-0.3828552,6.10489E-08,NaN,NaN,0.3055207,-2.980239E-10,1.141024E-06,-1.10368E-07,1.480665E-08,-2.622604E-08
794.877,-0.8048156,1.69102E-10,NaN,-0.7815936,-1.325466E-07,NaN,0.2687565,-4.831978E-07,NaN,-0.7889829,2.211776E-05,-0.3828552,6.10489E-08,NaN,NaN,0.3055207,-2.980239E-10,1.141024E-06,-1.10368E-07,1.480665E-08,-2.622604E-08
794.8909,-0.8115788,1.697874E-10,NaN,-0.7874619,-1.325468E-07,NaN,0.2702658,-4.832606E-07,NaN,-0.7930395,2.211817E-05,-0.3923901,6.111306E-08,NaN,NaN,0.3087224,-3.026805E-10,1.183641E-06,-1.103685E-07,1.354005E-08,-2.861022E-08
794.9062,-0.8183549,1.704725E-10,NaN,-0.7933372,-1.325471E-07,NaN,0.2716097,-4.833222E-07,NaN,-0.7970648,2.211858E-05,-0.4017852,6.11759E-08,NaN,NaN,0.3118613,-3.119937E-10,1.223278E-06,-1.103691E-07,1.443412E-08,-2.622604E-08
794.9208,-0.8251066,1.711577E-10,NaN,-0.7991883,-1.325474E-07,NaN,0.2727779,-4.833825E-07,NaN,-0.801052,2.211898E-05,-0.4109777,6.123745E-08,NaN,NaN,0.3149386,-3.119937E-10,1.2653E-06,-1.103697E-07,1.711633E-08,-2.861022E-08
794.9356,-0.8251066,1.711577E-10,NaN,-0.7991883,-1.325474E-07,NaN,0.2727779,-4.833825E-07,NaN,-0.801052,2.211898E-05,-0.4109777,6.123745E-08,NaN,NaN,0.3149386,-3.119937E-10,1.2653E-06,-1.103697E-07,1.711633E-08,-2.861022E-08
794.9498,-0.8320578,1.718428E-10,NaN,-0.8051983,-1.325476E-07,NaN,0.2741442,-4.834443E-07,NaN,-0.8052582,2.211938E-05,-0.420511,6.130055E-08,NaN,NaN,0.3182366,-3.166503E-10,1.301062E-06,-1.103702E-07,1.622226E-08,-2.622604E-08
794.965,-0.8390853,1.725278E-10,NaN,-0.8112671,-1.325479E-07,NaN,0.2754784,-4.835048E-07,NaN,-0.8094397,2.211978E-05,-0.4300976,6.136236E-08,NaN,NaN,0.3214704,-3.166503E-10,1.34517E-06,-1.103708E-07,1.786139E-08,-2.861022E-08
794.9799,-0.8390853,1.725278E-10,NaN,-0.8112671,-1.325479E-07,NaN,0.2754784,-4.835048E-07,NaN,-0.8094397,2.211978E-05,-0.4300976,6.136236E-08,NaN,NaN,0.3214704,-3.166503E-10,1.34517E-06,-1.103708E-07,1.786139E-08,-2.861022E-08
794.9937,-0.8461213,1.732127E-10,NaN,-0.8173392,-1.325482E-07,NaN,0.2766532,-4.835641E-07,NaN,-0.8135887,2.212019E-05,-0.4395443,6.14229E-08,NaN,NaN,0.3246407,-3.213069E-10,1.387787E-06,-1.103713E-07,1.666929E-08,-2.622604E-08
795.0105,-0.8533753,1.738975E-10,NaN,-0.8235841,-1.325485E-07,NaN,0.2779992,-4.836249E-07,NaN,-0.817961,2.212059E-05,-0.4493364,6.1485E-08,NaN,NaN,0.32803,-3.213069E-10,1.421613E-06,-1.103719E-07,1.666929E-08,-2.861022E-08
795.0243,-0.8607126,1.745823E-10,NaN,-0.8298935,-1.325487E-07,NaN,0.279292,-4.836845E-07,NaN,-0.8223129,2.212099E-05,-0.4591741,6.154583E-08,NaN,NaN,0.3313531,-3.259635E-10,1.463783E-06,-1.103724E-07,1.815941E-08,-2.622604E-08
795.0389,-0.8607126,1.745823E-10,NaN,-0.8298935,-1.325487E-07,NaN,0.279292,-4.836845E-07,NaN,-0.8223129,2.212099E-05,-0.4591741,6.154583E-08,NaN,NaN,0.3313531,-3.259635E-10,1.463783E-06,-1.103724E-07,1.815941E-08,-2.622604E-08
795.0531,-0.8680599,1.75267E-10,NaN,-0.8362074,-1.32549E-07,NaN,0.2804102,-4.837428E-07,NaN,-0.8266346,2.212139E-05,-0.46886,6.160541E-08,NaN,NaN,0.3346112,-3.259635E-10,1.504761E-06,-1.10373E-07,2.024557E-08,-2.861022E-08
795.0686,-0.8753774,1.759516E-10,NaN,-0.8424934,-1.325493E-07,NaN,0.2813491,-4.837999E-07,NaN,-0.830918,2.21218E-05,-0.4783312,6.166376E-08,NaN,NaN,0.3378053,-3.306201E-10,1.546037E-06,-1.103735E-07,2.143766E-08,-2.622604E-08
795.0847,-0.8828936,1.766362E-10,NaN,-0.8489342,-1.325495E-07,NaN,0.2824635,-4.838586E-07,NaN,-0.8354186,2.21222E-05,-0.4881195,6.172373E-08,NaN,NaN,0.3412178,-3.306201E-10,1.579118E-06,-1.10374E-07,2.113964E-08,-2.861022E-08
795.0999,-0.8828936,1.766362E-10,NaN,-0.8489342,-1.325495E-07,NaN,0.2824635,-4.838586E-07,NaN,-0.8354186,2.21222E-05,-0.4881195,6.172373E-08,NaN,NaN,0.3412178,-3.306201E-10,1.579118E-06,-1.10374E-07,2.113964E-08,-2.861022E-08
795.1127,-0.8904796,1.773206E-10,NaN,-0.8554274,-1.325498E-07,NaN,0.2835464,-4.839161E-07,NaN,-0.8398955,2.212261E-05,-0.4979514,6.178247E-08,NaN,NaN,0.3445637,-3.399333E-10,1.62099E-06,-1.103746E-07,2.143766E-08,-2.622604E-08
795.1273,-0.898066,1.78005E-10,NaN,-0.8619175,-1.3255E-07,NaN,0.2844737,-4.839723E-07,NaN,-0.8443388,2.212301E-05,-0.5076352,6.183998E-08,NaN,NaN,0.3478441,-3.399333E-10,1.6648E-06,-1.103751E-07,1.964952E-08,-2.861022E-08
795.1419,-0.905616,1.786894E-10,NaN,-0.8683742,-1.325503E-07,NaN,0.2852364,-4.840274E-07,NaN,-0.8487411,2.212341E-05,-0.5171081,6.189632E-08,NaN,NaN,0.3510601,-3.445899E-10,1.703543E-06,-1.103757E-07,2.084162E-08,-2.622604E-08
795.1566,-0.905616,1.786894E-10,NaN,-0.8683742,-1.325503E-07,NaN,0.2852364,-4.840274E-07,NaN,-0.8487411,2.212341E-05,-0.5171081,6.189632E-08,NaN,NaN,0.3510601,-3.445899E-10,1.703543E-06,-1.103757E-07,2.084162E-08,-2.622604E-08
795.1704,-0.9133626,1.793737E-10,NaN,-0.8749822,-1.325506E-07,NaN,0.2861725,-4.840841E-07,NaN,-0.853358,2.212382E-05,-0.5268936,6.19543E-08,NaN,NaN,0.354494,-3.445899E-10,1.73409E-06,-1.103762E-07,2.382185E-08,-2.861022E-08
795.1859,-0.9211749,1.800579E-10,NaN,-0.8816388,-1.325508E-07,NaN,0.2870839,-4.841426E-07,NaN,-0.8579513,2.212422E-05,-0.5367236,6.2014E-08,NaN,NaN,0.357861,-3.492465E-10,1.770598E-06,-1.103767E-07,2.203371E-08,-2.622604E-08
795.2006,-0.9289834,1.807421E-10,NaN,-0.8882889,-1.325511E-07,NaN,0.2878462,-4.841997E-07,NaN,-0.8625103,2.212462E-05,-0.5464059,6.207247E-08,NaN,NaN,0.3611619,-3.492465E-10,1.810235E-06,-1.103773E-07,1.905348E-08,-2.861022E-08
795.2153,-0.9289834,1.807421E-10,NaN,-0.8882889,-1.325511E-07,NaN,0.2878462,-4.841997E-07,NaN,-0.8625103,2.212462E-05,-0.5464059,6.207247E-08,NaN,NaN,0.3611619,-3.492465E-10,1.810235E-06,-1.103773E-07,1.905348E-08,-2.861022E-08
795.2293,-0.9370063,1.814262E-10,NaN,-0.8951036,-1.325513E-07,NaN,0.2887561,-4.842586E-07,NaN,-0.8672885,2.212503E-05,-0.5564067,6.213255E-08,NaN,NaN,0.3646792,-3.539032E-10,1.842124E-06,-1.103778E-07,2.203371E-08,-2.622604E-08
795.2446,-0.9451011,1.821103E-10,NaN,-0.9019721,-1.325516E-07,NaN,0.289621,-4.843162E-07,NaN,-0.8720481,2.212543E-05,-0.5664444,6.219139E-08,NaN,NaN,0.3681278,-3.539032E-10,1.881016E-06,-1.103783E-07,2.203371E-08,-2.861022E-08
795.2592,-0.9451011,1.821103E-10,NaN,-0.9019721,-1.325516E-07,NaN,0.289621,-4.843162E-07,NaN,-0.8720481,2.212543E-05,-0.5664444,6.219139E-08,NaN,NaN,0.3681278,-3.539032E-10,1.881016E-06,-1.103783E-07,2.203371E-08,-2.861022E-08
795.2736,-0.9531928,1.827943E-10,NaN,-0.9088352,-1.325518E-07,NaN,0.2903229,-4.843725E-07,NaN,-0.876776,2.212583E-05,-0.5763232,6.224902E-08,NaN,NaN,0.3715088,-3.585598E-10,1.919461E-06,-1.103788E-07,2.024557E-08,-2.622604E-08
795.289,-0.9612427,1.834782E-10,NaN,-0.9156618,-1.325521E-07,NaN,0.2908585,-4.844276E-07,NaN,-0.8814631,2.212623E-05,-0.5859807,6.230546E-08,NaN,NaN,0.3748235,-3.585598E-10,1.957831E-06,-1.103794E-07,1.845743E-08,-2.861022E-08
795.3038,-0.969489,1.841621E-10,NaN,-0.9226362,-1.325523E-07,NaN,0.2915476,-4.844845E-07,NaN,-0.8863633,2.212664E-05,-0.59593,6.236355E-08,NaN,NaN,0.3783542,-3.632164E-10,1.988751E-06,-1.103799E-07,1.786139E-08,-2.622604E-08
795.3185,-0.969489,1.841621E-10,NaN,-0.9226362,-1.325523E-07,NaN,0.2915476,-4.844845E-07,NaN,-0.8863633,2.212664E-05,-0.59593,6.236355E-08,NaN,NaN,0.3783542,-3.632164E-10,1.988751E-06,-1.103799E-07,1.786139E-08,-2.622604E-08
795.3325,-0.9777944,1.848459E-10,NaN,-0.9296536,-1.325526E-07,NaN,0.2922133,-4.845401E-07,NaN,-0.891242,2.212704E-05,-0.6059147,6.242045E-08,NaN,NaN,0.3818159,-3.632164E-10,2.024961E-06,-1.103804E-07,1.786139E-08,-2.861022E-08
795.3478,-0.9860879,1.855296E-10,NaN,-0.9366587,-1.325529E-07,NaN,0.292735,-4.845946E-07,NaN,-0.8960858,2.212744E-05,-0.6157446,6.247616E-08,NaN,NaN,0.3852099,-3.67873E-10,2.061841E-06,-1.103809E-07,1.845743E-08,-2.622604E-08
795.3634,-0.9943334,1.862132E-10,NaN,-0.9436229,-1.325531E-07,NaN,0.2931048,-4.846479E-07,NaN,-0.9008861,2.212784E-05,-0.6253577,6.253073E-08,NaN,NaN,0.3885372,-3.67873E-10,2.097194E-06,-1.103815E-07,1.786139E-08,-2.861022E-08
795.3784,-0.9943334,1.862132E-10,NaN,-0.9436229,-1.325531E-07,NaN,0.2931048,-4.846479E-07,NaN,-0.9008861,2.212784E-05,-0.6253577,6.253073E-08,NaN,NaN,0.3885372,-3.67873E-10,2.097194E-06,-1.103815E-07,1.786139E-08,-2.861022E-08
795.3912,-1.002774,1.868967E-10,NaN,-0.9507319,-1.325534E-07,NaN,0.2936266,-4.847029E-07,NaN,-0.9058971,2.212825E-05,-0.6352599,6.258699E-08,NaN,NaN,0.3920803,-3.725296E-10,2.125916E-06,-1.10382E-07,2.024557E-08,-2.622604E-08
795.4066,-1.01127,1.875803E-10,NaN,-0.9578807,-1.325536E-07,NaN,0.2941313,-4.847567E-07,NaN,-0.9108873,2.212865E-05,-0.645198,6.264209E-08,NaN,NaN,0.3955542,-3.725296E-10,2.160561E-06,-1.103825E-07,1.964953E-08,-2.861022E-08
795.4211,-1.01975,1.882637E-10,NaN,-0.9650144,-1.325539E-07,NaN,0.2944984,-4.848094E-07,NaN,-0.9158422,2.212906E-05,-0.6549822,6.269604E-08,NaN,NaN,0.39896,-3.771862E-10,2.197702E-06,-1.10383E-07,1.964953E-08,-2.622604E-08
795.4358,-1.01975,1.882637E-10,NaN,-0.9650144,-1.325539E-07,NaN,0.2944984,-4.848094E-07,NaN,-0.9158422,2.212906E-05,-0.6549822,6.269604E-08,NaN,NaN,0.39896,-3.771862E-10,2.197702E-06,-1.10383E-07,1.964953E-08,-2.622604E-08
795.4499,-1.028443,1.88947E-10,NaN,-0.9723057,-1.325541E-07,NaN,0.2949924,-4.848609E-07,NaN,-0.921013,2.212946E-05,-0.6650621,6.274887E-08,NaN,NaN,0.4025801,-3.771862E-10,2.225717E-06,-1.103835E-07,2.203371E-08,-2.861022E-08
795.4651,-1.037196,1.896303E-10,NaN,-0.9796412,-1.325544E-07,NaN,0.2954495,-4.849143E-07,NaN,-0.9261684,2.212986E-05,-0.6751703,6.280344E-08,NaN,NaN,0.4061294,-3.818428E-10,2.26242E-06,-1.10384E-07,2.322581E-08,-2.622604E-08
795.4799,-1.037196,1.896303E-10,NaN,-0.9796412,-1.325544E-07,NaN,0.2954495,-4.849143E-07,NaN,-0.9261684,2.212986E-05,-0.6751703,6.280344E-08,NaN,NaN,0.4061294,-3.818428E-10,2.26242E-06,-1.10384E-07,2.322581E-08,-2.622604E-08
795.4939,-1.045932,1.903135E-10,NaN,-0.9869627,-1.325546E-07,NaN,0.2957562,-4.849664E-07,NaN,-0.9312912,2.213026E-05,-0.6851139,6.285687E-08,NaN,NaN,0.4096093,-3.818428E-10,2.298686E-06,-1.103845E-07,2.44179E-08,-2.861022E-08
795.5095,-1.054615,1.909966E-10,NaN,-0.9942406,-1.325549E-07,NaN,0.295911,-4.850175E-07,NaN,-0.9363707,2.213067E-05,-0.694832,6.290919E-08,NaN,NaN,0.4130208,-3.864994E-10,2.331934E-06,-1.10385E-07,2.322581E-08,-2.622604E-08
795.5242,-1.063494,1.916797E-10,NaN,-1.001661,-1.325551E-07,NaN,0.2962002,-4.850675E-07,NaN,-0.9416593,2.213107E-05,-0.7048216,6.296043E-08,NaN,NaN,0.4166465,-3.864994E-10,2.354174E-06,-1.103855E-07,2.322581E-08,-2.861022E-08
795.5389,-1.063494,1.916797E-10,NaN,-1.001661,-1.325551E-07,NaN,0.2962002,-4.850675E-07,NaN,-0.9416593,2.213107E-05,-0.7048216,6.296043E-08,NaN,NaN,0.4166465,-3.864994E-10,2.354174E-06,-1.103855E-07,2.322581E-08,-2.861022E-08
795.5529,-1.072421,1.923627E-10,NaN,-1.009115,-1.325554E-07,NaN,0.2964731,-4.851192E-07,NaN,-0.9469301,2.213148E-05,-0.7148381,6.301342E-08,NaN,NaN,0.4202013,-3.958126E-10,2.389266E-06,-1.10386E-07,2.203371E-08,-2.622604E-08
795.5685,-1.081325,1.930456E-10,NaN,-1.01655,-1.325556E-07,NaN,0.2966141,-4.851698E-07,NaN,-0.9521651,2.213188E-05,-0.7246948,6.306531E-08,NaN,NaN,0.4236865,-3.958126E-10,2.424358E-06,-1.103866E-07,1.964953E-08,-2.861022E-08
795.5847,-1.090169,1.937285E-10,NaN,-1.023938,-1.325558E-07,NaN,0.2966173,-4.852194E-07,NaN,-0.9573541,2.213228E-05,-0.7343311,6.311613E-08,NaN,NaN,0.4271034,-4.004692E-10,2.457215E-06,-1.10387E-07,1.845743E-08,-2.622604E-08
795.5981,-1.090169,1.937285E-10,NaN,-1.023938,-1.325558E-07,NaN,0.2966173,-4.852194E-07,NaN,-0.9573541,2.213228E-05,-0.7343311,6.311613E-08,NaN,NaN,0.4271034,-4.004692E-10,2.457215E-06,-1.10387E-07,1.845743E-08,-2.622604E-08
795.6118,-1.099208,1.944113E-10,NaN,-1.031465,-1.325561E-07,NaN,0.2967534,-4.852679E-07,NaN,-0.9627499,2.213268E-05,-0.7442375,6.316589E-08,NaN,NaN,0.4307342,-4.004692E-10,2.481876E-06,-1.103875E-07,1.845743E-08,-2.861022E-08
795.6282,-1.108292,1.950941E-10,NaN,-1.039025,-1.325563E-07,NaN,0.2968787,-4.853182E-07,NaN,-0.968129,2.213309E-05,-0.7541712,6.321744E-08,NaN,NaN,0.4342941,-4.051258E-10,2.512275E-06,-1.10388E-07,1.726534E-08,-2.622604E-08
795.642,-1.117349,1.957767E-10,NaN,-1.046562,-1.325566E-07,NaN,0.2968783,-4.853674E-07,NaN,-0.9734719,2.213349E-05,-0.7639461,6.326791E-08,NaN,NaN,0.4377843,-4.051258E-10,2.544983E-06,-1.103885E-07,1.488116E-08,-2.861022E-08
795.6565,-1.117349,1.957767E-10,NaN,-1.046562,-1.325566E-07,NaN,0.2968783,-4.853674E-07,NaN,-0.9734719,2.213349E-05,-0.7639461,6.326791E-08,NaN,NaN,0.4377843,-4.051258E-10,2.544983E-06,-1.103885E-07,1.488116E-08,-2.861022E-08
795.6707,-1.126617,1.964592E-10,NaN,-1.054251,-1.325568E-07,NaN,0.2969863,-4.854156E-07,NaN,-0.9790273,2.213389E-05,-0.7739981,6.331733E-08,NaN,NaN,0.441487,-4.097825E-10,2.568005E-06,-1.10389E-07,1.249697E-08,-2.622604E-08
795.686,-1.135933,1.971417E-10,NaN,-1.061976,-1.32557E-07,NaN,0.2970645,-4.854627E-07,NaN,-0.9845716,2.213429E-05,-0.7840696,6.336572E-08,NaN,NaN,0.4451174,-4.097825E-10,2.599968E-06,-1.103895E-07,6.536506E-09,-2.861022E-08
795.7007,-1.145221,1.97824E-10,NaN,-1.06968,-1.325573E-07,NaN,0.2970056,-4.855116E-07,NaN,-0.9900822,2.21347E-05,-0.7939726,6.341592E-08,NaN,NaN,0.4486767,-4.144391E-10,2.633272E-06,-1.1039E-07,5.344414E-09,-2.622604E-08
795.7152,-1.145221,1.97824E-10,NaN,-1.06968,-1.325573E-07,NaN,0.2970056,-4.855116E-07,NaN,-0.9900822,2.21347E-05,-0.7939726,6.341592E-08,NaN,NaN,0.4486767,-4.144391E-10,2.633272E-06,-1.1039E-07,5.344414E-09,-2.622604E-08
795.7292,-1.154443,1.985064E-10,NaN,-1.077334,-1.325577E-07,NaN,0.2968098,-4.85441E-07,NaN,-0.9955465,2.21351E-05,-0.8036486,6.334658E-08,NaN,NaN,0.4521662,-4.144391E-10,2.662926E-06,-1.1039E-07,4.152321E-09,-2.861022E-08
795.7446,-1.163862,1.991886E-10,NaN,-1.085127,-1.325582E-07,NaN,0.2967309,-4.853886E-07,NaN,-1.001216,2.213551E-05,-0.8135803,6.329547E-08,NaN,NaN,0.4558682,-4.190957E-10,2.682893E-06,-1.1039E-07,4.152321E-09,-2.622604E-08
795.7593,-1.163862,1.991886E-10,NaN,-1.085127,-1.325582E-07,NaN,0.2967309,-4.853886E-07,NaN,-1.001216,2.213551E-05,-0.8135803,6.329547E-08,NaN,NaN,0.4558682,-4.190957E-10,2.682893E-06,-1.1039E-07,4.152321E-09,-2.622604E-08
795.7731,-1.17332,1.998708E-10,NaN,-1.092947,-1.325586E-07,NaN,0.2966418,-4.853457E-07,NaN,-1.006872,2.213591E-05,-0.8235304,6.325376E-08,NaN,NaN,0.459498,-4.237523E-10,2.710311E-06,-1.1039E-07,7.7286E-09,-2.861022E-08
795.7888,-1.182741,2.00553E-10,NaN,-1.100741,-1.325589E-07,NaN,0.2964329,-4.852752E-07,NaN,-1.012491,2.213632E-05,-0.8333171,6.318459E-08,NaN,NaN,0.4630567,-4.284089E-10,2.742647E-06,-1.1039E-07,8.920693E-09,-2.622604E-08
795.8035,-1.192092,2.012351E-10,NaN,-1.108482,-1.325591E-07,NaN,0.2961007,-4.853528E-07,NaN,-1.01806,2.213672E-05,-0.8428828,6.326344E-08,NaN,NaN,0.4665455,-4.284089E-10,2.772747E-06,-1.103904E-07,8.920693E-09,-2.861022E-08
795.8185,-1.192092,2.012351E-10,NaN,-1.108482,-1.325591E-07,NaN,0.2961007,-4.853528E-07,NaN,-1.01806,2.213672E-05,-0.8428828,6.326344E-08,NaN,NaN,0.4665455,-4.284089E-10,2.772747E-06,-1.103904E-07,8.920693E-09,-2.861022E-08
795.832,-1.201641,2.019171E-10,NaN,-1.116361,-1.325593E-07,NaN,0.2958837,-4.854175E-07,NaN,-1.023833,2.213712E-05,-0.8527036,6.33294E-08,NaN,NaN,0.470247,-4.330655E-10,2.792715E-06,-1.103909E-07,8.920693E-09,-2.622604E-08
795.8475,-1.211224,2.02599E-10,NaN,-1.124265,-1.325595E-07,NaN,0.2956609,-4.854752E-07,NaN,-1.029594,2.213752E-05,-0.8625431,6.338836E-08,NaN,NaN,0.4738762,-4.330655E-10,2.821474E-06,-1.103914E-07,1.011279E-08,-2.861022E-08
795.8621,-1.220767,2.032809E-10,NaN,-1.132141,-1.325597E-07,NaN,0.2953246,-4.855289E-07,NaN,-1.035316,2.213793E-05,-0.8722209,6.344328E-08,NaN,NaN,0.4774342,-4.377221E-10,2.850829E-06,-1.103919E-07,7.7286E-09,-2.622604E-08
795.8767,-1.220767,2.032809E-10,NaN,-1.132141,-1.325597E-07,NaN,0.2953246,-4.855289E-07,NaN,-1.035316,2.213793E-05,-0.8722209,6.344328E-08,NaN,NaN,0.4774342,-4.377221E-10,2.850829E-06,-1.103919E-07,7.7286E-09,-2.622604E-08
795.8929,-1.230522,2.039627E-10,NaN,-1.140165,-1.3256E-07,NaN,0.2950795,-4.855814E-07,NaN,-1.041249,2.213833E-05,-0.8821609,6.349707E-08,NaN,NaN,0.4812036,-4.377221E-10,2.870052E-06,-1.103923E-07,5.344414E-09,-2.861022E-08
795.9072,-1.240314,2.046445E-10,NaN,-1.148217,-1.325602E-07,NaN,0.2948105,-4.856328E-07,NaN,-1.047174,2.213873E-05,-0.892112,6.354974E-08,NaN,NaN,0.4848993,-4.423787E-10,2.900748E-06,-1.103928E-07,8.920693E-09,-2.622604E-08
795.9205,-1.250065,2.053263E-10,NaN,-1.156243,-1.325604E-07,NaN,0.2944179,-4.856831E-07,NaN,-1.053064,2.213913E-05,-0.9018928,6.360132E-08,NaN,NaN,0.4885227,-4.423787E-10,2.929805E-06,-1.103933E-07,1.368906E-08,-2.861022E-08
795.9352,-1.250065,2.053263E-10,NaN,-1.156243,-1.325604E-07,NaN,0.2944179,-4.856831E-07,NaN,-1.053064,2.213913E-05,-0.9018928,6.360132E-08,NaN,NaN,0.4885227,-4.423787E-10,2.929805E-06,-1.103933E-07,1.368906E-08,-2.861022E-08
795.9493,-1.25974,2.06008E-10,NaN,-1.164215,-1.325606E-07,NaN,0.2939041,-4.857323E-07,NaN,-1.058903,2.213954E-05,-0.9114485,6.365183E-08,NaN,NaN,0.492075,-4.470353E-10,2.958266E-06,-1.103938E-07,1.607325E-08,-2.622604E-08
795.9644,-1.259177,2.066897E-10,NaN,-1.164681,-1.325609E-07,NaN,0.2864326,-4.857805E-07,NaN,-1.054888,2.213994E-05,-0.9032891,6.370128E-08,NaN,NaN,0.4851576,-4.470353E-10,3.32856E-06,-1.103942E-07,5.344414E-09,-2.861022E-08
795.9789,-1.259177,2.066897E-10,NaN,-1.164681,-1.325609E-07,NaN,0.2864326,-4.857805E-07,NaN,-1.054888,2.213994E-05,-0.9032891,6.370128E-08,NaN,NaN,0.4851576,-4.470353E-10,3.32856E-06,-1.103942E-07,5.344414E-09,-2.861022E-08
795.9928,-1.253087,2.073713E-10,NaN,-1.161083,-1.325611E-07,NaN,0.2750418,-4.858277E-07,NaN,-1.048994,2.214035E-05,-0.8854481,6.37497E-08,NaN,NaN,0.4783675,-4.516919E-10,3.317533E-06,-1.103947E-07,-1.808143E-09,-2.622604E-08
796.0081,-1.244105,2.080529E-10,NaN,-1.155149,-1.325613E-07,NaN,0.264307,-4.858738E-07,NaN,-1.042161,2.214074E-05,-0.8647446,6.379712E-08,NaN,NaN,0.4717071,-4.423787E-10,3.188191E-06,-1.103952E-07,5.760423E-10,-2.861022E-08
796.0228,-1.233851,2.087343E-10,NaN,-1.148017,-1.325616E-07,NaN,0.2553454,-4.85919E-07,NaN,-1.03474,2.214114E-05,-0.8439683,6.384354E-08,NaN,NaN,0.4651761,-4.470353E-10,3.049462E-06,-1.103957E-07,5.760423E-10,-2.622604E-08
796.0375,-1.233851,2.087343E-10,NaN,-1.148017,-1.325616E-07,NaN,0.2553454,-4.85919E-07,NaN,-1.03474,2.214114E-05,-0.8439683,6.384354E-08,NaN,NaN,0.4651761,-4.470353E-10,3.049462E-06,-1.103957E-07,5.760423E-10,-2.622604E-08
796.0515,-1.223428,2.094156E-10,NaN,-1.140484,-1.325618E-07,NaN,0.2485184,-4.85966E-07,NaN,-1.026996,2.214154E-05,-0.8243873,6.389182E-08,NaN,NaN,0.4585927,-4.470353E-10,2.92608E-06,-1.103961E-07,5.760423E-10,-2.861022E-08
796.0681,-1.213024,2.100969E-10,NaN,-1.13277,-1.32562E-07,NaN,0.2428487,-4.86012E-07,NaN,-1.01916,2.214195E-05,-0.8057891,6.393909E-08,NaN,NaN,0.4521387,-4.516919E-10,2.831458E-06,-1.103966E-07,-4.192329E-09,-2.622604E-08
796.0814,-1.202708,2.107782E-10,NaN,-1.124988,-1.325622E-07,NaN,0.2377976,-4.86057E-07,NaN,-1.011317,2.214235E-05,-0.7879155,6.398538E-08,NaN,NaN,0.4458113,-4.516919E-10,2.752928E-06,-1.103971E-07,5.760423E-10,-2.861022E-08
796.0959,-1.202708,2.107782E-10,NaN,-1.124988,-1.325622E-07,NaN,0.2377976,-4.86057E-07,NaN,-1.011317,2.214235E-05,-0.7879155,6.398538E-08,NaN,NaN,0.4458113,-4.516919E-10,2.752928E-06,-1.103971E-07,5.760423E-10,-2.861022E-08
796.11,-1.192799,2.114593E-10,NaN,-1.117368,-1.325625E-07,NaN,0.2336535,-4.861039E-07,NaN,-1.003558,2.214275E-05,-0.7710178,6.403351E-08,NaN,NaN,0.439428,-4.563485E-10,2.676718E-06,-1.103975E-07,-1.808143E-09,-2.622604E-08
796.1254,-1.183137,2.121404E-10,NaN,-1.109848,-1.325627E-07,NaN,0.2297981,-4.861498E-07,NaN,-0.9959919,2.214315E-05,-0.7546858,6.408065E-08,NaN,NaN,0.4331701,-4.563485E-10,2.615139E-06,-1.10398E-07,-4.192329E-09,-2.861022E-08
796.1399,-1.183137,2.121404E-10,NaN,-1.109848,-1.325627E-07,NaN,0.2297981,-4.861498E-07,NaN,-0.9959919,2.214315E-05,-0.7546858,6.408065E-08,NaN,NaN,0.4331701,-4.563485E-10,2.615139E-06,-1.10398E-07,-4.192329E-09,-2.861022E-08
796.154,-1.173646,2.128215E-10,NaN,-1.1024,-1.325629E-07,NaN,0.2260411,-4.861947E-07,NaN,-0.9885944,2.214356E-05,-0.7387319,6.41268E-08,NaN,NaN,0.427035,-4.610052E-10,2.557509E-06,-1.103984E-07,-4.192329E-09,-2.622604E-08
796.1691,-1.16429,2.135025E-10,NaN,-1.095015,-1.325631E-07,NaN,0.2223229,-4.862386E-07,NaN,-0.9813519,2.214395E-05,-0.723071,6.417199E-08,NaN,NaN,0.4210201,-4.516919E-10,2.496861E-06,-1.103989E-07,-6.576515E-09,-2.861022E-08
796.186,-1.155345,2.141833E-10,NaN,-1.08786,-1.325634E-07,NaN,0.2192201,-4.862816E-07,NaN,-0.9742696,2.214436E-05,-0.7081286,6.421622E-08,NaN,NaN,0.414943,-4.563485E-10,2.4307E-06,-1.103994E-07,-8.960701E-09,-2.622604E-08
796.1992,-1.155345,2.141833E-10,NaN,-1.08786,-1.325634E-07,NaN,0.2192201,-4.862816E-07,NaN,-0.9742696,2.214436E-05,-0.7081286,6.421622E-08,NaN,NaN,0.414943,-4.563485E-10,2.4307E-06,-1.103994E-07,-8.960701E-09,-2.622604E-08
796.2131,-1.146642,2.148641E-10,NaN,-1.080845,-1.325636E-07,NaN,0.2162724,-4.863264E-07,NaN,-0.9674233,2.214475E-05,-0.6935992,6.426236E-08,NaN,NaN,0.4089852,-4.470353E-10,2.369903E-06,-1.103998E-07,-8.960701E-09,-2.861022E-08
796.2274,-1.138103,2.155448E-10,NaN,-1.073926,-1.325638E-07,NaN,0.2133616,-4.863703E-07,NaN,-0.9607612,2.214515E-05,-0.6793583,6.430753E-08,NaN,NaN,0.4031442,-4.516919E-10,2.310299E-06,-1.104003E-07,-8.960701E-09,-2.622604E-08
796.2421,-1.12969,2.162255E-10,NaN,-1.067082,-1.32564E-07,NaN,0.2104611,-4.864133E-07,NaN,-0.9542548,2.214555E-05,-0.6653556,6.435175E-08,NaN,NaN,0.3974178,-4.516919E-10,2.255463E-06,-1.104007E-07,-1.372907E-08,-2.861022E-08
796.2565,-1.12969,2.162255E-10,NaN,-1.067082,-1.32564E-07,NaN,0.2104611,-4.864133E-07,NaN,-0.9542548,2.214555E-05,-0.6653556,6.435175E-08,NaN,NaN,0.3974178,-4.516919E-10,2.255463E-06,-1.104007E-07,-1.372907E-08,-2.861022E-08
796.2704,-1.121675,2.16906E-10,NaN,-1.060476,-1.325643E-07,NaN,0.2081628,-4.864553E-07,NaN,-0.9478899,2.214596E-05,-0.6520433,6.439505E-08,NaN,NaN,0.3916234,-4.563485E-10,2.194964E-06,-1.104012E-07,-1.372907E-08,-2.622604E-08
796.2858,-1.113895,2.175865E-10,NaN,-1.054016,-1.325645E-07,NaN,0.2060163,-4.864964E-07,NaN,-0.9417498,2.214636E-05,-0.6391195,6.443744E-08,NaN,NaN,0.3859428,-4.563485E-10,2.140426E-06,-1.104016E-07,-1.611326E-08,-2.861022E-08
796.3004,-1.106273,2.18267E-10,NaN,-1.047657,-1.325647E-07,NaN,0.203901,-4.865394E-07,NaN,-0.935782,2.214677E-05,-0.6264604,6.448176E-08,NaN,NaN,0.3803737,-4.610052E-10,2.086185E-06,-1.104021E-07,-1.611326E-08,-2.622604E-08
796.3149,-1.106273,2.18267E-10,NaN,-1.047657,-1.325647E-07,NaN,0.203901,-4.865394E-07,NaN,-0.935782,2.214677E-05,-0.6264604,6.448176E-08,NaN,NaN,0.3803737,-4.610052E-10,2.086185E-06,-1.104021E-07,-1.611326E-08,-2.622604E-08
796.3292,-1.099059,2.189474E-10,NaN,-1.041548,-1.325649E-07,NaN,0.2023784,-4.865815E-07,NaN,-0.9299533,2.214716E-05,-0.6144921,6.452515E-08,NaN,NaN,0.3747335,-4.516919E-10,2.02673E-06,-1.104025E-07,-1.372907E-08,-2.861022E-08
796.3442,-1.092084,2.196276E-10,NaN,-1.035593,-1.325651E-07,NaN,0.2009942,-4.866228E-07,NaN,-0.9243477,2.214756E-05,-0.6028966,6.456764E-08,NaN,NaN,0.3692043,-4.563485E-10,1.975171E-06,-1.10403E-07,-1.372907E-08,-2.622604E-08
796.3589,-1.092084,2.196276E-10,NaN,-1.035593,-1.325651E-07,NaN,0.2009942,-4.866228E-07,NaN,-0.9243477,2.214756E-05,-0.6028966,6.456764E-08,NaN,NaN,0.3692043,-4.563485E-10,1.975171E-06,-1.10403E-07,-1.372907E-08,-2.622604E-08
796.3729,-1.085266,2.203079E-10,NaN,-1.029743,-1.325653E-07,NaN,0.1996259,-4.866631E-07,NaN,-0.9189101,2.214795E-05,-0.5915444,6.460922E-08,NaN,NaN,0.3637834,-4.470353E-10,1.923315E-06,-1.104034E-07,-1.134489E-08,-2.861022E-08
796.3883,-1.078565,2.20988E-10,NaN,-1.023973,-1.325655E-07,NaN,0.1982467,-4.867053E-07,NaN,-0.9136094,2.214836E-05,-0.5803854,6.465276E-08,NaN,NaN,0.3584688,-4.516919E-10,1.869075E-06,-1.104039E-07,-8.960702E-09,-2.622604E-08
796.4027,-1.072245,2.21668E-10,NaN,-1.018441,-1.325657E-07,NaN,0.1974511,-4.867467E-07,NaN,-0.9084145,2.214876E-05,-0.5698869,6.469539E-08,NaN,NaN,0.3530783,-4.516919E-10,1.813047E-06,-1.104043E-07,-1.134489E-08,-2.861022E-08
796.4177,-1.072245,2.21668E-10,NaN,-1.018441,-1.325657E-07,NaN,0.1974511,-4.867467E-07,NaN,-0.9084145,2.214876E-05,-0.5698869,6.469539E-08,NaN,NaN,0.3530783,-4.516919E-10,1.813047E-06,-1.104043E-07,-1.134489E-08,-2.861022E-08
796.4315,-1.06615,2.22348E-10,NaN,-1.01306,-1.32566E-07,NaN,0.1967967,-4.867872E-07,NaN,-0.9034232,2.214916E-05,-0.5597401,6.473711E-08,NaN,NaN,0.3477937,-4.563485E-10,1.759105E-06,-1.104048E-07,-8.960702E-09,-2.622604E-08
796.4468,-1.060205,2.230279E-10,NaN,-1.007781,-1.325662E-07,NaN,0.1961577,-4.868268E-07,NaN,-0.8985847,2.214956E-05,-0.5498172,6.477796E-08,NaN,NaN,0.3426127,-4.470353E-10,1.709633E-06,-1.104052E-07,-6.576517E-09,-2.861022E-08
796.4612,-1.054368,2.237077E-10,NaN,-1.00258,-1.325664E-07,NaN,0.1955037,-4.868655E-07,NaN,-0.8938702,2.214996E-05,-0.540068,6.481795E-08,NaN,NaN,0.3375334,-4.516919E-10,1.661055E-06,-1.104056E-07,-8.960702E-09,-2.622604E-08
796.4781,-1.054368,2.237077E-10,NaN,-1.00258,-1.325664E-07,NaN,0.1955037,-4.868655E-07,NaN,-0.8938702,2.214996E-05,-0.540068,6.481795E-08,NaN,NaN,0.3375334,-4.516919E-10,1.661055E-06,-1.104056E-07,-8.960702E-09,-2.622604E-08
796.492,-1.0489,2.243875E-10,NaN,-0.9976165,-1.325666E-07,NaN,0.195428,-4.869062E-07,NaN,-0.8892432,2.215036E-05,-0.5309667,6.485992E-08,NaN,NaN,0.3323734,-4.516919E-10,1.610391E-06,-1.104061E-07,-6.576517E-09,-2.861022E-08
796.5052,-1.043654,2.250671E-10,NaN,-0.9928025,-1.325668E-07,NaN,0.1954899,-4.86946E-07,NaN,-0.884809,2.215077E-05,-0.5221995,6.4901E-08,NaN,NaN,0.3273149,-4.563485E-10,1.561515E-06,-1.104065E-07,-7.76861E-09,-2.622604E-08
796.52,-1.043654,2.250671E-10,NaN,-0.9928025,-1.325668E-07,NaN,0.1954899,-4.86946E-07,NaN,-0.884809,2.215077E-05,-0.5221995,6.4901E-08,NaN,NaN,0.3273149,-4.563485E-10,1.561515E-06,-1.104065E-07,-7.76861E-09,-2.622604E-08
796.5339,-1.03855,2.257468E-10,NaN,-0.9880908,-1.32567E-07,NaN,0.1955599,-4.869849E-07,NaN,-0.8805178,2.215117E-05,-0.5136359,6.494123E-08,NaN,NaN,0.3223557,-4.563485E-10,1.518302E-06,-1.104069E-07,-1.01528E-08,-2.861022E-08
796.5492,-1.033829,2.264264E-10,NaN,-0.9836289,-1.325672E-07,NaN,0.1961982,-4.87023E-07,NaN,-0.8763186,2.215157E-05,-0.5057202,6.498061E-08,NaN,NaN,0.3173136,-4.610052E-10,1.469426E-06,-1.104074E-07,-1.372907E-08,-2.622604E-08
796.5648,-1.029333,2.271059E-10,NaN,-0.9793236,-1.325675E-07,NaN,0.196958,-4.870631E-07,NaN,-0.8723142,2.215197E-05,-0.4981223,6.502199E-08,NaN,NaN,0.3123707,-4.610052E-10,1.425319E-06,-1.104078E-07,-1.01528E-08,-2.861022E-08
796.5782,-1.029333,2.271059E-10,NaN,-0.9793236,-1.325675E-07,NaN,0.196958,-4.870631E-07,NaN,-0.8723142,2.215197E-05,-0.4981223,6.502199E-08,NaN,NaN,0.3123707,-4.610052E-10,1.425319E-06,-1.104078E-07,-1.01528E-08,-2.861022E-08
796.5922,-1.024982,2.277854E-10,NaN,-0.9751241,-1.325677E-07,NaN,0.1977083,-4.871023E-07,NaN,-0.8684519,2.215238E-05,-0.4907064,6.506249E-08,NaN,NaN,0.3075247,-4.656618E-10,1.383893E-06,-1.104082E-07,-1.253698E-08,-2.622604E-08
796.6076,-1.02073,2.284648E-10,NaN,-0.9710023,-1.325679E-07,NaN,0.1984188,-4.871407E-07,NaN,-0.8647012,2.215278E-05,-0.4834211,6.510213E-08,NaN,NaN,0.3027738,-4.656618E-10,1.34217E-06,-1.104087E-07,-8.960702E-09,-2.861022E-08
796.6223,-1.016832,2.291441E-10,NaN,-0.9671153,-1.325681E-07,NaN,0.1996865,-4.871782E-07,NaN,-0.8610166,2.215318E-05,-0.4767528,6.514094E-08,NaN,NaN,0.2979359,-4.703184E-10,1.296573E-06,-1.104091E-07,-7.76861E-09,-2.622604E-08
796.6369,-1.016832,2.291441E-10,NaN,-0.9671153,-1.325681E-07,NaN,0.1996865,-4.871782E-07,NaN,-0.8610166,2.215318E-05,-0.4767528,6.514094E-08,NaN,NaN,0.2979359,-4.703184E-10,1.296573E-06,-1.104091E-07,-7.76861E-09,-2.622604E-08
796.6512,-1.013145,2.298235E-10,NaN,-0.9633769,-1.325683E-07,NaN,0.2010761,-4.872149E-07,NaN,-0.8575106,2.215358E-05,-0.470382,6.517892E-08,NaN,NaN,0.2931931,-4.703184E-10,1.256041E-06,-1.104095E-07,-6.576517E-09,-2.861022E-08
796.6663,-1.00959,2.305027E-10,NaN,-0.9597393,-1.325685E-07,NaN,0.2024549,-4.872537E-07,NaN,-0.8541341,2.215399E-05,-0.4641752,6.521893E-08,NaN,NaN,0.2885435,-4.74975E-10,1.219385E-06,-1.104099E-07,-8.960702E-09,-2.622604E-08
796.6815,-1.006126,2.311818E-10,NaN,-0.9561751,-1.325687E-07,NaN,0.2037897,-4.872916E-07,NaN,-0.850859,2.215439E-05,-0.4580815,6.525809E-08,NaN,NaN,0.283985,-4.656618E-10,1.182728E-06,-1.104104E-07,-5.384424E-09,-2.861022E-08
796.6957,-1.006126,2.311818E-10,NaN,-0.9561751,-1.325687E-07,NaN,0.2037897,-4.872916E-07,NaN,-0.850859,2.215439E-05,-0.4580815,6.525809E-08,NaN,NaN,0.283985,-4.656618E-10,1.182728E-06,-1.104104E-07,-5.384424E-09,-2.861022E-08
796.7099,-1.003006,2.318609E-10,NaN,-0.9528416,-1.325689E-07,NaN,0.2056769,-4.873286E-07,NaN,-0.8476383,2.215478E-05,-0.4525933,6.529643E-08,NaN,NaN,0.2793358,-4.563486E-10,1.139812E-06,-1.104108E-07,-1.808145E-09,-2.622604E-08
796.7253,-1.00009,2.325398E-10,NaN,-0.9496546,-1.325691E-07,NaN,0.2076811,-4.873649E-07,NaN,-0.8445881,2.215518E-05,-0.4473862,6.533395E-08,NaN,NaN,0.2747781,-4.51692E-10,1.102857E-06,-1.104112E-07,-6.160521E-10,-2.861022E-08
796.74,-0.9973001,2.332186E-10,NaN,-0.9465659,-1.325693E-07,NaN,0.2096667,-4.874004E-07,NaN,-0.8416602,2.215558E-05,-0.4423245,6.537068E-08,NaN,NaN,0.2703098,-4.470354E-10,1.069777E-06,-1.104116E-07,-1.808145E-09,-2.622604E-08
796.7568,-0.9973001,2.332186E-10,NaN,-0.9465659,-1.325693E-07,NaN,0.2096667,-4.874004E-07,NaN,-0.8416602,2.215558E-05,-0.4423245,6.537068E-08,NaN,NaN,0.2703098,-4.470354E-10,1.069777E-06,-1.104116E-07,-1.808145E-09,-2.622604E-08
796.7697,-0.9948692,2.338974E-10,NaN,-0.9437208,-1.325695E-07,NaN,0.2121962,-4.874379E-07,NaN,-0.8387958,2.215598E-05,-0.4378693,6.540945E-08,NaN,NaN,0.2657491,-4.423787E-10,1.035504E-06,-1.10412E-07,-1.808145E-09,-2.861022E-08
796.7843,-0.9926488,2.345761E-10,NaN,-0.9410291,-1.325697E-07,NaN,0.2148255,-4.874746E-07,NaN,-0.8361062,2.215638E-05,-0.4336791,6.544741E-08,NaN,NaN,0.2612782,-4.330655E-10,1.003318E-06,-1.104125E-07,-1.808145E-09,-2.622604E-08
796.7986,-0.9926488,2.345761E-10,NaN,-0.9410291,-1.325697E-07,NaN,0.2148255,-4.874746E-07,NaN,-0.8361062,2.215638E-05,-0.4336791,6.544741E-08,NaN,NaN,0.2612782,-4.330655E-10,1.003318E-06,-1.104125E-07,-1.808145E-09,-2.622604E-08
796.8125,-0.990557,2.352549E-10,NaN,-0.9384391,-1.325699E-07,NaN,0.2174177,-4.875104E-07,NaN,-0.8335399,2.215678E-05,-0.4296134,6.548456E-08,NaN,NaN,0.256895,-4.284089E-10,9.750055E-07,-1.104129E-07,5.760408E-10,-2.861022E-08
796.8278,-0.9885478,2.359337E-10,NaN,-0.9359202,-1.325701E-07,NaN,0.2199402,-4.875455E-07,NaN,-0.8310669,2.215718E-05,-0.4256204,6.552091E-08,NaN,NaN,0.2525978,-4.237523E-10,9.457992E-07,-1.104133E-07,1.768134E-09,-2.622604E-08
796.8423,-0.9868681,2.366123E-10,NaN,-0.9336272,-1.325703E-07,NaN,0.2229957,-4.875798E-07,NaN,-0.8286369,2.215758E-05,-0.4222051,6.55565E-08,NaN,NaN,0.2482048,-4.190957E-10,9.085463E-07,-1.104137E-07,-1.808145E-09,-2.861022E-08
796.857,-0.9868681,2.366123E-10,NaN,-0.9336272,-1.325703E-07,NaN,0.2229957,-4.875798E-07,NaN,-0.8286369,2.215758E-05,-0.4222051,6.55565E-08,NaN,NaN,0.2482048,-4.190957E-10,9.085463E-07,-1.104137E-07,-1.808145E-09,-2.861022E-08
796.871,-0.9853815,2.37291E-10,NaN,-0.9314772,-1.325705E-07,NaN,0.2261499,-4.876162E-07,NaN,-0.8263679,2.215798E-05,-0.4190361,6.559415E-08,NaN,NaN,0.2438982,-4.144391E-10,8.811282E-07,-1.104141E-07,5.760408E-10,-2.622604E-08
796.8866,-0.9840114,2.379695E-10,NaN,-0.9294214,-1.325707E-07,NaN,0.2292656,-4.876518E-07,NaN,-0.8242112,2.215838E-05,-0.4159758,6.563101E-08,NaN,NaN,0.2396762,-4.097825E-10,8.557962E-07,-1.104145E-07,-6.160521E-10,-2.861022E-08
796.9011,-0.9827142,2.38648E-10,NaN,-0.9274308,-1.325709E-07,NaN,0.2323077,-4.876866E-07,NaN,-0.8221394,2.215878E-05,-0.412973,6.566707E-08,NaN,NaN,0.235537,-4.051259E-10,8.307622E-07,-1.104149E-07,1.768134E-09,-2.622604E-08
796.9163,-0.9827142,2.38648E-10,NaN,-0.9274308,-1.325709E-07,NaN,0.2323077,-4.876866E-07,NaN,-0.8221394,2.215878E-05,-0.412973,6.566707E-08,NaN,NaN,0.235537,-4.051259E-10,8.307622E-07,-1.104149E-07,1.768134E-09,-2.622604E-08
796.9299,-0.9817366,2.393264E-10,NaN,-0.9256608,-1.325711E-07,NaN,0.2358799,-4.877206E-07,NaN,-0.8201032,2.215918E-05,-0.4105389,6.570237E-08,NaN,NaN,0.2312989,-4.004693E-10,8.0245E-07,-1.104153E-07,5.760408E-10,-2.861022E-08
796.9454,-0.9809453,2.400047E-10,NaN,-0.9240299,-1.325713E-07,NaN,0.2395453,-4.877567E-07,NaN,-0.8182218,2.215958E-05,-0.4083365,6.573975E-08,NaN,NaN,0.2271442,-3.958127E-10,7.774161E-07,-1.104157E-07,-4.192331E-09,-2.622604E-08
796.9601,-0.9802642,2.406829E-10,NaN,-0.9224896,-1.325715E-07,NaN,0.2431643,-4.87792E-07,NaN,-0.8164472,2.215998E-05,-0.4062261,6.577633E-08,NaN,NaN,0.2230711,-3.911561E-10,7.553624E-07,-1.104161E-07,-6.160523E-10,-2.861022E-08
796.9749,-0.9802642,2.406829E-10,NaN,-0.9224896,-1.325715E-07,NaN,0.2431643,-4.87792E-07,NaN,-0.8164472,2.215998E-05,-0.4062261,6.577633E-08,NaN,NaN,0.2230711,-3.911561E-10,7.553624E-07,-1.104161E-07,-6.160523E-10,-2.861022E-08
796.9891,-0.9799205,2.413612E-10,NaN,-0.9211835,-1.325717E-07,NaN,0.2473064,-4.878266E-07,NaN,-0.8147203,2.216038E-05,-0.4046864,6.581214E-08,NaN,NaN,0.2188979,-3.864994E-10,7.291363E-07,-1.104166E-07,-2.000589E-11,-2.622604E-08
797.0044,-0.9797719,2.420393E-10,NaN,-0.9200241,-1.325719E-07,NaN,0.251524,-4.878603E-07,NaN,-0.8131539,2.216078E-05,-0.4033632,6.584718E-08,NaN,NaN,0.2148069,-3.818428E-10,7.112549E-07,-1.104169E-07,1.172087E-09,-2.861022E-08
797.0202,-0.9797362,2.427174E-10,NaN,-0.9189586,-1.325721E-07,NaN,0.2556764,-4.878934E-07,NaN,-0.8116962,2.216118E-05,-0.402112,6.588147E-08,NaN,NaN,0.2107961,-3.771862E-10,6.915854E-07,-1.104173E-07,1.172087E-09,-2.622604E-08
797.035,-0.9797362,2.427174E-10,NaN,-0.9189586,-1.325721E-07,NaN,0.2556764,-4.878934E-07,NaN,-0.8116962,2.216118E-05,-0.402112,6.588147E-08,NaN,NaN,0.2107961,-3.771862E-10,6.915854E-07,-1.104173E-07,1.172087E-09,-2.622604E-08
797.049,-0.9797644,2.433954E-10,NaN,-0.917955,-1.325723E-07,NaN,0.2597289,-4.879257E-07,NaN,-0.8103184,2.216158E-05,-0.4008813,6.591503E-08,NaN,NaN,0.2068641,-3.725296E-10,6.707238E-07,-1.104177E-07,5.760405E-10,-2.861022E-08
797.0646,-0.9801003,2.44073E-10,NaN,-0.9171665,-1.325721E-07,NaN,0.2642948,-4.879008E-07,NaN,-0.8089716,2.216198E-05,-0.4001956,6.589148E-08,NaN,NaN,0.2028291,-3.725296E-10,6.468819E-07,-1.104156E-07,1.768133E-09,-2.622604E-08
797.0778,-0.9801003,2.44073E-10,NaN,-0.9171665,-1.325721E-07,NaN,0.2642948,-4.879008E-07,NaN,-0.8089716,2.216198E-05,-0.4001956,6.589148E-08,NaN,NaN,0.2028291,-3.725296E-10,6.468819E-07,-1.104156E-07,1.768133E-09,-2.622604E-08
797.0917,-0.9806127,2.447503E-10,NaN,-0.9165151,-1.325711E-07,NaN,0.2689356,-4.881867E-07,NaN,-0.8077732,2.216238E-05,-0.3997114,6.617868E-08,NaN,NaN,0.1988735,-3.725296E-10,6.295966E-07,-1.104128E-07,1.768133E-09,-2.622604E-08
797.1072,-0.9812251,2.454276E-10,NaN,-0.915951,-1.325696E-07,NaN,0.27351,-4.886475E-07,NaN,-0.8066742,2.216277E-05,-0.3992863,6.664077E-08,NaN,NaN,0.1949957,-3.67873E-10,6.158875E-07,-1.104096E-07,1.172087E-09,-2.622604E-08
797.1219,-0.9818928,2.461046E-10,NaN,-0.9154434,-1.325678E-07,NaN,0.277982,-4.891951E-07,NaN,-0.805647,2.216317E-05,-0.3988692,6.718966E-08,NaN,NaN,0.1911939,-3.67873E-10,6.015824E-07,-1.104062E-07,1.172087E-09,-2.622604E-08
797.1367,-0.9818928,2.461046E-10,NaN,-0.9154434,-1.325678E-07,NaN,0.277982,-4.891951E-07,NaN,-0.805647,2.216317E-05,-0.3988692,6.718966E-08,NaN,NaN,0.1911939,-3.67873E-10,6.015824E-07,-1.104062E-07,1.172087E-09,-2.622604E-08
797.1507,-0.9828593,2.467816E-10,NaN,-0.9151453,-1.325659E-07,NaN,0.2829663,-4.897855E-07,NaN,-0.8046465,2.216356E-05,-0.3989905,6.778133E-08,NaN,NaN,0.1872866,-3.67873E-10,5.807208E-07,-1.104028E-07,1.172087E-09,-2.622604E-08
797.1663,-0.9839957,2.474585E-10,NaN,-0.9149771,-1.325638E-07,NaN,0.2880183,-4.903952E-07,NaN,-0.8037891,2.216396E-05,-0.3992977,6.839237E-08,NaN,NaN,0.1834563,-3.67873E-10,5.658196E-07,-1.103992E-07,5.760405E-10,-2.622604E-08
797.1809,-0.9852263,2.481353E-10,NaN,-0.914889,-1.325617E-07,NaN,0.2929958,-4.91007E-07,NaN,-0.803026,2.216436E-05,-0.3996477,6.900548E-08,NaN,NaN,0.1797013,-3.67873E-10,5.544948E-07,-1.103957E-07,5.760405E-10,-2.622604E-08
797.1956,-0.9852263,2.481353E-10,NaN,-0.914889,-1.325617E-07,NaN,0.2929958,-4.91007E-07,NaN,-0.803026,2.216436E-05,-0.3996477,6.900548E-08,NaN,NaN,0.1797013,-3.67873E-10,5.544948E-07,-1.103957E-07,5.760405E-10,-2.622604E-08
797.2098,-0.9867759,2.488121E-10,NaN,-0.9150205,-1.325596E-07,NaN,0.2984792,-4.916151E-07,NaN,-0.802303,2.216474E-05,-0.400537,6.961496E-08,NaN,NaN,0.1758398,-3.585598E-10,5.330371E-07,-1.103921E-07,1.172087E-09,-2.622604E-08
797.2252,-0.9885039,2.494888E-10,NaN,-0.9152861,-1.325574E-07,NaN,0.304011,-4.922141E-07,NaN,-0.80173,2.216514E-05,-0.4015964,7.021526E-08,NaN,NaN,0.1720544,-3.585598E-10,5.199241E-07,-1.103885E-07,-1.212099E-09,-2.622604E-08
797.2398,-0.9885039,2.494888E-10,NaN,-0.9152861,-1.325574E-07,NaN,0.304011,-4.922141E-07,NaN,-0.80173,2.216514E-05,-0.4015964,7.021526E-08,NaN,NaN,0.1720544,-3.585598E-10,5.199241E-07,-1.103885E-07,-1.212099E-09,-2.622604E-08
797.254,-0.990326,2.501654E-10,NaN,-0.9156315,-1.325552E-07,NaN,0.3094471,-4.927984E-07,NaN,-0.8012548,2.216554E-05,-0.4026775,7.080089E-08,NaN,NaN,0.1683434,-3.585598E-10,5.091952E-07,-1.103849E-07,1.768133E-09,-2.622604E-08
797.2693,-0.9921926,2.508419E-10,NaN,-0.9160235,-1.325531E-07,NaN,0.3147545,-4.933683E-07,NaN,-0.8008477,2.216593E-05,-0.4037312,7.137216E-08,NaN,NaN,0.1647052,-3.585598E-10,4.954862E-07,-1.103814E-07,2.36418E-09,-2.622604E-08
797.2852,-0.994345,2.515183E-10,NaN,-0.9166144,-1.325509E-07,NaN,0.3205597,-4.939241E-07,NaN,-0.800468,2.216633E-05,-0.4053034,7.192934E-08,NaN,NaN,0.1609582,-3.585598E-10,4.823731E-07,-1.103778E-07,2.36418E-09,-2.622604E-08
797.2986,-0.994345,2.515183E-10,NaN,-0.9166144,-1.325509E-07,NaN,0.3205597,-4.939241E-07,NaN,-0.800468,2.216633E-05,-0.4053034,7.192934E-08,NaN,NaN,0.1609582,-3.585598E-10,4.823731E-07,-1.103778E-07,2.36418E-09,-2.622604E-08
797.3126,-0.9966505,2.521947E-10,NaN,-0.917322,-1.325488E-07,NaN,0.3264075,-4.944661E-07,NaN,-0.8002282,2.216673E-05,-0.4070272,7.247272E-08,NaN,NaN,0.1572851,-3.585598E-10,4.752206E-07,-1.103743E-07,2.36418E-09,-2.622604E-08
797.3281,-0.9990315,2.528704E-10,NaN,-0.9180961,-1.325466E-07,NaN,0.3321565,-4.948254E-07,NaN,-0.8000778,2.216712E-05,-0.4087596,7.283334E-08,NaN,NaN,0.1536842,-3.585598E-10,4.662799E-07,-1.103708E-07,1.172087E-09,-2.622604E-08
797.3425,-1.001443,2.535459E-10,NaN,-0.9189064,-1.325445E-07,NaN,0.3377743,-4.951747E-07,NaN,-0.7999885,2.21675E-05,-0.4104535,7.318401E-08,NaN,NaN,0.1501539,-3.585598E-10,4.609155E-07,-1.103672E-07,1.172087E-09,-2.622604E-08
797.3573,-1.001443,2.535459E-10,NaN,-0.9189064,-1.325445E-07,NaN,0.3377743,-4.951747E-07,NaN,-0.7999885,2.21675E-05,-0.4104535,7.318401E-08,NaN,NaN,0.1501539,-3.585598E-10,4.609155E-07,-1.103672E-07,1.172087E-09,-2.622604E-08
797.3712,-1.00413,2.542211E-10,NaN,-0.9199074,-1.325423E-07,NaN,0.3438919,-4.955114E-07,NaN,-0.7999246,2.216789E-05,-0.4126625,7.352212E-08,NaN,NaN,0.1465127,-3.632164E-10,4.460143E-07,-1.103637E-07,5.760404E-10,-2.622604E-08
797.3868,-1.00696,2.548962E-10,NaN,-0.921017,-1.325402E-07,NaN,0.3500447,-4.958358E-07,NaN,-0.7999964,2.216827E-05,-0.4150104,7.384789E-08,NaN,NaN,0.1429434,-3.67873E-10,4.358815E-07,-1.103602E-07,1.768133E-09,-2.622604E-08
797.4013,-1.009856,2.555711E-10,NaN,-0.9221859,-1.325381E-07,NaN,0.3560909,-4.96151E-07,NaN,-0.8001533,2.216866E-05,-0.4173528,7.41644E-08,NaN,NaN,0.1394441,-3.67873E-10,4.305171E-07,-1.103567E-07,1.172087E-09,-2.622604E-08
797.4162,-1.009856,2.555711E-10,NaN,-0.9221859,-1.325381E-07,NaN,0.3560909,-4.96151E-07,NaN,-0.8001533,2.216866E-05,-0.4173528,7.41644E-08,NaN,NaN,0.1394441,-3.67873E-10,4.305171E-07,-1.103567E-07,1.172087E-09,-2.622604E-08
797.4299,-1.013046,2.562459E-10,NaN,-0.9235573,-1.325359E-07,NaN,0.3626302,-4.964542E-07,NaN,-0.800351,2.216904E-05,-0.4202122,7.4469E-08,NaN,NaN,0.1358335,-3.725296E-10,4.150199E-07,-1.103533E-07,2.36418E-09,-2.622604E-08
797.4453,-1.016385,2.569205E-10,NaN,-0.9250414,-1.325338E-07,NaN,0.3691837,-4.967458E-07,NaN,-0.8006915,2.216942E-05,-0.4231932,7.476193E-08,NaN,NaN,0.132294,-3.725296E-10,4.066752E-07,-1.103498E-07,2.36418E-09,-2.622604E-08
797.4603,-1.01979,2.575949E-10,NaN,-0.926585,-1.325317E-07,NaN,0.3756107,-4.970259E-07,NaN,-0.8011197,2.21698E-05,-0.4261492,7.504342E-08,NaN,NaN,0.1288241,-3.725296E-10,4.013108E-07,-1.103463E-07,2.36418E-09,-2.622604E-08
797.4749,-1.01979,2.575949E-10,NaN,-0.926585,-1.325317E-07,NaN,0.3756107,-4.970259E-07,NaN,-0.8011197,2.21698E-05,-0.4261492,7.504342E-08,NaN,NaN,0.1288241,-3.725296E-10,4.013108E-07,-1.103463E-07,2.36418E-09,-2.622604E-08
797.4892,-1.023216,2.582692E-10,NaN,-0.9281563,-1.325296E-07,NaN,0.3818836,-4.972977E-07,NaN,-0.8016051,2.217019E-05,-0.4290363,7.531651E-08,NaN,NaN,0.1254222,-3.771862E-10,3.989266E-07,-1.103429E-07,1.768133E-09,-2.622604E-08
797.5048,-1.026906,2.589433E-10,NaN,-0.9299095,-1.325275E-07,NaN,0.3886469,-4.975583E-07,NaN,-0.8021187,2.217057E-05,-0.432424,7.557855E-08,NaN,NaN,0.121907,-3.771862E-10,3.864097E-07,-1.103395E-07,1.172087E-09,-2.622604E-08
797.5193,-1.026906,2.589433E-10,NaN,-0.9299095,-1.325275E-07,NaN,0.3886469,-4.975583E-07,NaN,-0.8021187,2.217057E-05,-0.432424,7.557855E-08,NaN,NaN,0.121907,-3.771862E-10,3.864097E-07,-1.103395E-07,1.172087E-09,-2.622604E-08
797.5331,-1.030726,2.596172E-10,NaN,-0.9317606,-1.325254E-07,NaN,0.3954227,-4.978082E-07,NaN,-0.8027645,2.217095E-05,-0.4359204,7.582976E-08,NaN,NaN,0.1184611,-3.771862E-10,3.78661E-07,-1.10336E-07,1.172087E-09,-2.622604E-08
797.551,-1.034598,2.60291E-10,NaN,-0.93366,-1.325233E-07,NaN,0.4020713,-4.980502E-07,NaN,-0.8034893,2.217133E-05,-0.4393819,7.607316E-08,NaN,NaN,0.1150829,-3.771862E-10,3.738927E-07,-1.103326E-07,2.36418E-09,-2.622604E-08
797.5641,-1.038479,2.609645E-10,NaN,-0.9355789,-1.325213E-07,NaN,0.4085644,-4.982818E-07,NaN,-0.8042644,2.21717E-05,-0.442766,7.63061E-08,NaN,NaN,0.111771,-3.771862E-10,3.679322E-07,-1.103292E-07,1.172087E-09,-2.622604E-08
797.5779,-1.038479,2.609645E-10,NaN,-0.9355789,-1.325213E-07,NaN,0.4085644,-4.982818E-07,NaN,-0.8042644,2.21717E-05,-0.442766,7.63061E-08,NaN,NaN,0.111771,-3.771862E-10,3.679322E-07,-1.103292E-07,1.172087E-09,-2.622604E-08
797.5919,-1.042618,2.616379E-10,NaN,-0.9376732,-1.325192E-07,NaN,0.4155513,-4.985031E-07,NaN,-0.8050675,2.217208E-05,-0.4466498,7.652877E-08,NaN,NaN,0.1083439,-3.771862E-10,3.577994E-07,-1.103259E-07,5.760404E-10,-2.622604E-08
797.6071,-1.046878,2.62311E-10,NaN,-0.9398589,-1.325171E-07,NaN,0.4225435,-4.987172E-07,NaN,-0.8059989,2.217245E-05,-0.4506305,7.67442E-08,NaN,NaN,0.1049845,-3.771862E-10,3.51839E-07,-1.103225E-07,5.760404E-10,-2.622604E-08
797.6216,-1.051183,2.62984E-10,NaN,-0.9420871,-1.325151E-07,NaN,0.4294014,-4.989213E-07,NaN,-0.8070049,2.217283E-05,-0.4545642,7.694971E-08,NaN,NaN,0.101691,-3.771862E-10,3.458785E-07,-1.103191E-07,1.768133E-09,-2.622604E-08
797.6363,-1.051183,2.62984E-10,NaN,-0.9420871,-1.325151E-07,NaN,0.4294014,-4.989213E-07,NaN,-0.8070049,2.217283E-05,-0.4545642,7.694971E-08,NaN,NaN,0.101691,-3.771862E-10,3.458785E-07,-1.103191E-07,1.768133E-09,-2.622604E-08
797.6506,-1.055764,2.636567E-10,NaN,-0.9445025,-1.32513E-07,NaN,0.4367448,-4.991157E-07,NaN,-0.8080556,2.217321E-05,-0.4589976,7.714549E-08,NaN,NaN,0.09828212,-3.771862E-10,3.363418E-07,-1.103158E-07,1.172087E-09,-2.622604E-08
797.666,-1.060473,2.643293E-10,NaN,-0.9470135,-1.32511E-07,NaN,0.4440719,-4.993034E-07,NaN,-0.8092413,2.217358E-05,-0.4635104,7.733455E-08,NaN,NaN,0.09494051,-3.771862E-10,3.345536E-07,-1.103125E-07,1.172087E-09,-2.622604E-08
797.6807,-1.065229,2.650017E-10,NaN,-0.9495674,-1.325089E-07,NaN,0.4512453,-4.994817E-07,NaN,-0.810504,2.217396E-05,-0.4679572,7.751422E-08,NaN,NaN,0.09166453,-3.771862E-10,3.345536E-07,-1.103091E-07,1.768133E-09,-2.622604E-08
797.6953,-1.065229,2.650017E-10,NaN,-0.9495674,-1.325089E-07,NaN,0.4512453,-4.994817E-07,NaN,-0.810504,2.217396E-05,-0.4679572,7.751422E-08,NaN,NaN,0.09166453,-3.771862E-10,3.345536E-07,-1.103091E-07,1.768133E-09,-2.622604E-08
797.7097,-1.069985,2.656738E-10,NaN,-0.9521342,-1.325069E-07,NaN,0.4582424,-4.996508E-07,NaN,-0.8118128,2.217434E-05,-0.4722993,7.768465E-08,NaN,NaN,0.0884528,-3.771862E-10,3.306793E-07,-1.103058E-07,4.748365E-09,-2.622604E-08
797.7249,-1.074991,2.663458E-10,NaN,-0.9548694,-1.325049E-07,NaN,0.4657263,-4.998137E-07,NaN,-0.8131548,2.217471E-05,-0.4771301,7.784888E-08,NaN,NaN,0.08512396,-3.771862E-10,3.205465E-07,-1.103025E-07,5.940458E-09,-2.622604E-08
797.7396,-1.074991,2.663458E-10,NaN,-0.9548694,-1.325049E-07,NaN,0.4657263,-4.998137E-07,NaN,-0.8131548,2.217471E-05,-0.4771301,7.784888E-08,NaN,NaN,0.08512396,-3.771862E-10,3.205465E-07,-1.103025E-07,5.940458E-09,-2.622604E-08
797.7538,-1.080108,2.670176E-10,NaN,-0.9576871,-1.325028E-07,NaN,0.4731936,-4.999677E-07,NaN,-0.8146212,2.217509E-05,-0.4820299,7.800426E-08,NaN,NaN,0.08186085,-3.725296E-10,3.175663E-07,-1.102992E-07,2.960226E-09,-2.622604E-08
797.7693,-1.085258,2.676892E-10,NaN,-0.9605384,-1.325008E-07,NaN,0.4805079,-5.00113E-07,NaN,-0.8161561,2.217546E-05,-0.486856,7.815089E-08,NaN,NaN,0.07866184,-3.67873E-10,3.14586E-07,-1.10296E-07,5.344412E-09,-2.622604E-08
797.7838,-1.090399,2.683605E-10,NaN,-0.9633955,-1.324988E-07,NaN,0.4876456,-5.002526E-07,NaN,-0.8177303,2.217583E-05,-0.4915711,7.829178E-08,NaN,NaN,0.07552558,-3.632164E-10,3.130959E-07,-1.102927E-07,2.36418E-09,-2.622604E-08
797.7985,-1.090399,2.683605E-10,NaN,-0.9633955,-1.324988E-07,NaN,0.4876456,-5.002526E-07,NaN,-0.8177303,2.217583E-05,-0.4915711,7.829178E-08,NaN,NaN,0.07552558,-3.632164E-10,3.130959E-07,-1.102927E-07,2.36418E-09,-2.622604E-08
797.8146,-1.095784,2.690317E-10,NaN,-0.9664158,-1.324968E-07,NaN,0.4952744,-5.003836E-07,NaN,-0.8193389,2.217621E-05,-0.4967754,7.84242E-08,NaN,NaN,0.07227071,-3.585598E-10,3.047513E-07,-1.102894E-07,3.556272E-09,-2.622604E-08
797.8277,-1.101274,2.697026E-10,NaN,-0.9695132,-1.324948E-07,NaN,0.5028799,-5.005093E-07,NaN,-0.821068,2.217658E-05,-0.5020379,7.855115E-08,NaN,NaN,0.06908015,-3.539032E-10,3.041552E-07,-1.102862E-07,6.536505E-09,-2.622604E-08
797.8423,-1.106791,2.703733E-10,NaN,-0.9726395,-1.324928E-07,NaN,0.510326,-5.006267E-07,NaN,-0.8228612,2.217695E-05,-0.5072161,7.866992E-08,NaN,NaN,0.06595227,-3.492466E-10,3.023671E-07,-1.10283E-07,5.940458E-09,-2.622604E-08
797.857,-1.106791,2.703733E-10,NaN,-0.9726395,-1.324928E-07,NaN,0.510326,-5.006267E-07,NaN,-0.8228612,2.217695E-05,-0.5072161,7.866992E-08,NaN,NaN,0.06595227,-3.492466E-10,3.023671E-07,-1.10283E-07,5.940458E-09,-2.622604E-08
797.8709,-1.112571,2.710438E-10,NaN,-0.9759403,-1.324908E-07,NaN,0.5182534,-5.007361E-07,NaN,-0.8247058,2.217732E-05,-0.5128817,7.878066E-08,NaN,NaN,0.06270564,-3.4459E-10,2.949165E-07,-1.102797E-07,4.748365E-09,-2.622604E-08
797.8864,-1.118462,2.717141E-10,NaN,-0.9793224,-1.324888E-07,NaN,0.5261353,-5.008404E-07,NaN,-0.8266772,2.21777E-05,-0.5185874,7.888635E-08,NaN,NaN,0.05952316,-3.399334E-10,2.925323E-07,-1.102765E-07,4.152319E-09,-2.622604E-08
797.9011,-1.124382,2.723842E-10,NaN,-0.9827338,-1.324868E-07,NaN,0.5338393,-5.00937E-07,NaN,-0.8287142,2.217807E-05,-0.5241905,7.898427E-08,NaN,NaN,0.0564032,-3.352768E-10,2.913402E-07,-1.102733E-07,5.344412E-09,-2.622604E-08
797.9156,-1.124382,2.723842E-10,NaN,-0.9827338,-1.324868E-07,NaN,0.5338393,-5.00937E-07,NaN,-0.8287142,2.217807E-05,-0.5241905,7.898427E-08,NaN,NaN,0.0564032,-3.352768E-10,2.913402E-07,-1.102733E-07,5.344412E-09,-2.622604E-08
797.9296,-1.130285,2.730541E-10,NaN,-0.9861456,-1.324849E-07,NaN,0.5413483,-5.010288E-07,NaN,-0.8307856,2.217845E-05,-0.5296586,7.90774E-08,NaN,NaN,0.05334442,-3.399334E-10,2.913402E-07,-1.102701E-07,2.960226E-09,-2.622604E-08
797.9449,-1.136428,2.737239E-10,NaN,-0.9897149,-1.324829E-07,NaN,0.5493435,-5.01113E-07,NaN,-0.8328986,2.217882E-05,-0.5356076,7.916301E-08,NaN,NaN,0.0501655,-3.306201E-10,2.844857E-07,-1.10267E-07,2.960226E-09,-2.622604E-08
797.9594,-1.136428,2.737239E-10,NaN,-0.9897149,-1.324829E-07,NaN,0.5493435,-5.01113E-07,NaN,-0.8328986,2.217882E-05,-0.5356076,7.916301E-08,NaN,NaN,0.0501655,-3.306201E-10,2.844857E-07,-1.10267E-07,2.960226E-09,-2.622604E-08
797.9735,-1.142665,2.743934E-10,NaN,-0.9933537,-1.324809E-07,NaN,0.5572944,-5.011899E-07,NaN,-0.8351275,2.217919E-05,-0.5415888,7.924124E-08,NaN,NaN,0.04704941,-3.259635E-10,2.823995E-07,-1.102638E-07,2.36418E-09,-2.622604E-08
797.9888,-1.148919,2.750627E-10,NaN,-0.9970136,-1.32479E-07,NaN,0.5650693,-5.012624E-07,NaN,-0.8374137,2.217957E-05,-0.5474619,7.931506E-08,NaN,NaN,0.04399455,-3.213069E-10,2.797173E-07,-1.102606E-07,1.768134E-09,-2.622604E-08
798.0035,-1.155149,2.757318E-10,NaN,-1.000668,-1.32477E-07,NaN,0.5726502,-5.013277E-07,NaN,-0.8397275,2.217994E-05,-0.5531951,7.938174E-08,NaN,NaN,0.04099958,-3.166503E-10,2.797173E-07,-1.102575E-07,1.768134E-09,-2.622604E-08
798.0185,-1.155149,2.757318E-10,NaN,-1.000668,-1.32477E-07,NaN,0.5726502,-5.013277E-07,NaN,-0.8397275,2.217994E-05,-0.5531951,7.938174E-08,NaN,NaN,0.04099958,-3.166503E-10,2.797173E-07,-1.102575E-07,1.768134E-09,-2.622604E-08
798.0322,-1.161614,2.764007E-10,NaN,-1.004476,-1.324751E-07,NaN,0.5807221,-5.013889E-07,NaN,-0.8420852,2.218031E-05,-0.5594114,7.944424E-08,NaN,NaN,0.03788323,-3.119937E-10,2.722667E-07,-1.102544E-07,-2.000577E-11,-2.622604E-08
798.0511,-1.168169,2.770694E-10,NaN,-1.008349,-1.324732E-07,NaN,0.5887433,-5.014431E-07,NaN,-0.8445549,2.218069E-05,-0.5656498,7.949981E-08,NaN,NaN,0.03482849,-3.166503E-10,2.698825E-07,-1.102512E-07,2.36418E-09,-2.622604E-08
798.0637,-1.174735,2.77738E-10,NaN,-1.012239,-1.324712E-07,NaN,0.5965833,-5.014933E-07,NaN,-0.8470771,2.218107E-05,-0.5717707,7.955142E-08,NaN,NaN,0.03183376,-3.119937E-10,2.672003E-07,-1.102481E-07,2.36418E-09,-2.622604E-08
798.079,-1.174735,2.77738E-10,NaN,-1.012239,-1.324712E-07,NaN,0.5965833,-5.014933E-07,NaN,-0.8470771,2.218107E-05,-0.5717707,7.955142E-08,NaN,NaN,0.03183376,-3.119937E-10,2.672003E-07,-1.102481E-07,2.36418E-09,-2.622604E-08
798.0929,-1.181554,2.784063E-10,NaN,-1.016293,-1.324693E-07,NaN,0.6049029,-5.015369E-07,NaN,-0.8496602,2.218144E-05,-0.5783709,7.959632E-08,NaN,NaN,0.02871766,-3.073371E-10,2.579616E-07,-1.10245E-07,4.152319E-09,-2.622604E-08
798.1063,-1.18847,2.790745E-10,NaN,-1.020416,-1.324674E-07,NaN,0.6131495,-5.015767E-07,NaN,-0.8523606,2.218182E-05,-0.5849745,7.963747E-08,NaN,NaN,0.02566317,-3.119937E-10,2.558754E-07,-1.102419E-07,5.344412E-09,-2.622604E-08
798.1208,-1.195398,2.797425E-10,NaN,-1.024556,-1.324655E-07,NaN,0.6211978,-5.0161E-07,NaN,-0.8551143,2.218219E-05,-0.5914435,7.967211E-08,NaN,NaN,0.02266867,-3.073371E-10,2.546834E-07,-1.102389E-07,5.344412E-09,-2.622604E-08
798.1356,-1.195398,2.797425E-10,NaN,-1.024556,-1.324655E-07,NaN,0.6211978,-5.0161E-07,NaN,-0.8551143,2.218219E-05,-0.5914435,7.967211E-08,NaN,NaN,0.02266867,-3.073371E-10,2.546834E-07,-1.102389E-07,5.344412E-09,-2.622604E-08
798.1495,-1.202295,2.804103E-10,NaN,-1.028687,-1.324636E-07,NaN,0.6290363,-5.016397E-07,NaN,-0.8578901,2.218258E-05,-0.5977523,7.970319E-08,NaN,NaN,0.01973288,-3.119937E-10,2.528952E-07,-1.102358E-07,6.536505E-09,-2.622604E-08
798.1647,-1.209423,2.81078E-10,NaN,-1.032966,-1.324617E-07,NaN,0.6373622,-5.016631E-07,NaN,-0.8607179,2.218295E-05,-0.6045389,7.972797E-08,NaN,NaN,0.01667455,-3.073371E-10,2.442525E-07,-1.102327E-07,7.728597E-09,-2.622604E-08
798.1793,-1.209423,2.81078E-10,NaN,-1.032966,-1.324617E-07,NaN,0.6373622,-5.016631E-07,NaN,-0.8607179,2.218295E-05,-0.6045389,7.972797E-08,NaN,NaN,0.01667455,-3.073371E-10,2.442525E-07,-1.102327E-07,7.728597E-09,-2.622604E-08
798.1934,-1.216632,2.817455E-10,NaN,-1.037304,-1.324597E-07,NaN,0.6456177,-5.016832E-07,NaN,-0.8636525,2.218332E-05,-0.6113229,7.974938E-08,NaN,NaN,0.01367669,-3.026805E-10,2.430604E-07,-1.102297E-07,6.536505E-09,-2.622604E-08
798.2087,-1.223844,2.824129E-10,NaN,-1.041652,-1.324579E-07,NaN,0.6536778,-5.016971E-07,NaN,-0.866632,2.21837E-05,-0.6179684,7.976468E-08,NaN,NaN,0.01073772,-3.073371E-10,2.442525E-07,-1.102267E-07,7.728597E-09,-2.622604E-08
798.2235,-1.231017,2.830801E-10,NaN,-1.045985,-1.32456E-07,NaN,0.6615304,-5.017051E-07,NaN,-0.8696269,2.218408E-05,-0.6244509,7.977398E-08,NaN,NaN,0.007856376,-3.026805E-10,2.457427E-07,-1.102236E-07,7.728597E-09,-2.622604E-08
798.2385,-1.231017,2.830801E-10,NaN,-1.045985,-1.32456E-07,NaN,0.6615304,-5.017051E-07,NaN,-0.8696269,2.218408E-05,-0.6244509,7.977398E-08,NaN,NaN,0.007856376,-3.026805E-10,2.457427E-07,-1.102236E-07,7.728597E-09,-2.622604E-08
798.2523,-1.238419,2.837472E-10,NaN,-1.050464,-1.324541E-07,NaN,0.6698756,-5.0171E-07,NaN,-0.8726771,2.218445E-05,-0.6314145,7.978022E-08,NaN,NaN,0.004851422,-2.980239E-10,2.362059E-07,-1.102206E-07,7.728597E-09,-2.622604E-08
798.2678,-1.245897,2.84414E-10,NaN,-1.054997,-1.324522E-07,NaN,0.6781443,-5.017118E-07,NaN,-0.8758298,2.218482E-05,-0.6383659,7.978347E-08,NaN,NaN,0.001905901,-2.933673E-10,2.338217E-07,-1.102176E-07,6.536505E-09,-2.622604E-08
798.2826,-1.253373,2.850807E-10,NaN,-1.059537,-1.324503E-07,NaN,0.686214,-5.01708E-07,NaN,-0.8790224,2.21852E-05,-0.6451712,7.978095E-08,NaN,NaN,-0.0009817653,-2.887107E-10,2.305435E-07,-1.102146E-07,8.92069E-09,-2.622604E-08
798.2972,-1.253373,2.850807E-10,NaN,-1.059537,-1.324503E-07,NaN,0.686214,-5.01708E-07,NaN,-0.8790224,2.21852E-05,-0.6451712,7.978095E-08,NaN,NaN,-0.0009817653,-2.887107E-10,2.305435E-07,-1.102146E-07,8.92069E-09,-2.622604E-08
798.3111,-1.261095,2.857472E-10,NaN,-1.064233,-1.324485E-07,NaN,0.6947632,-5.017013E-07,NaN,-0.882287,2.218557E-05,-0.6524522,7.977562E-08,NaN,NaN,-0.003992899,-2.840541E-10,2.219008E-07,-1.102116E-07,1.249697E-08,-2.622604E-08
798.3265,-1.268899,2.864134E-10,NaN,-1.068986,-1.324466E-07,NaN,0.7032142,-5.01689E-07,NaN,-0.8856582,2.218595E-05,-0.6597021,7.976468E-08,NaN,NaN,-0.00694449,-2.887107E-10,2.24285E-07,-1.102086E-07,1.368906E-08,-2.622604E-08
798.3412,-1.2767,2.870796E-10,NaN,-1.073748,-1.324448E-07,NaN,0.7114505,-5.01674E-07,NaN,-0.8890692,2.218632E-05,-0.6667904,7.975109E-08,NaN,NaN,-0.009838113,-2.840541E-10,2.275632E-07,-1.102057E-07,1.368906E-08,-2.622604E-08
798.3577,-1.2767,2.870796E-10,NaN,-1.073748,-1.324448E-07,NaN,0.7114505,-5.01674E-07,NaN,-0.8890692,2.218632E-05,-0.6667904,7.975109E-08,NaN,NaN,-0.009838113,-2.840541E-10,2.275632E-07,-1.102057E-07,1.368906E-08,-2.622604E-08
798.3707,-1.284458,2.877455E-10,NaN,-1.07849,-1.324429E-07,NaN,0.7194663,-5.016536E-07,NaN,-0.8924891,2.21867E-05,-0.6736991,7.973206E-08,NaN,NaN,-0.01267501,-2.793974E-10,2.269672E-07,-1.102027E-07,1.368906E-08,-2.622604E-08
798.3852,-1.292442,2.884113E-10,NaN,-1.083375,-1.324411E-07,NaN,0.727972,-5.016307E-07,NaN,-0.8959733,2.218708E-05,-0.6810867,7.971053E-08,NaN,NaN,-0.01563637,-2.840541E-10,2.171324E-07,-1.101998E-07,1.130488E-08,-2.622604E-08
798.3998,-1.292442,2.884113E-10,NaN,-1.083375,-1.324411E-07,NaN,0.727972,-5.016307E-07,NaN,-0.8959733,2.218708E-05,-0.6810867,7.971053E-08,NaN,NaN,-0.01563637,-2.840541E-10,2.171324E-07,-1.101998E-07,1.130488E-08,-2.622604E-08
798.4138,-1.300493,2.89077E-10,NaN,-1.088307,-1.324392E-07,NaN,0.7363828,-5.016026E-07,NaN,-0.8995538,2.218745E-05,-0.6884385,7.968372E-08,NaN,NaN,-0.01853917,-2.793974E-10,2.123641E-07,-1.101969E-07,1.488115E-08,-2.622604E-08
798.4288,-1.308534,2.897424E-10,NaN,-1.093242,-1.324374E-07,NaN,0.7445831,-5.015721E-07,NaN,-0.9031657,2.218783E-05,-0.6956266,7.965457E-08,NaN,NaN,-0.02138496,-2.840541E-10,2.108739E-07,-1.101939E-07,1.964953E-08,-2.622604E-08
798.4435,-1.316524,2.904077E-10,NaN,-1.098153,-1.324356E-07,NaN,0.7525666,-5.015364E-07,NaN,-0.90678,2.218821E-05,-0.7026339,7.962029E-08,NaN,NaN,-0.02417496,-2.793974E-10,2.102779E-07,-1.10191E-07,1.964953E-08,-2.622604E-08
798.4583,-1.316524,2.904077E-10,NaN,-1.098153,-1.324356E-07,NaN,0.7525666,-5.015364E-07,NaN,-0.90678,2.218821E-05,-0.7026339,7.962029E-08,NaN,NaN,-0.02417496,-2.793974E-10,2.102779E-07,-1.10191E-07,1.964953E-08,-2.622604E-08
798.4723,-1.324738,2.910728E-10,NaN,-1.103203,-1.324338E-07,NaN,0.7610449,-5.014986E-07,NaN,-0.9104623,2.218858E-05,-0.7101249,7.95838E-08,NaN,NaN,-0.02709034,-2.747408E-10,2.013372E-07,-1.101881E-07,1.964953E-08,-2.622604E-08
798.488,-1.333017,2.917377E-10,NaN,-1.108299,-1.324319E-07,NaN,0.7694229,-5.014558E-07,NaN,-0.9142365,2.218896E-05,-0.7175707,7.954233E-08,NaN,NaN,-0.02994805,-2.793974E-10,2.001451E-07,-1.101852E-07,1.607325E-08,-2.622604E-08
798.5022,-1.341279,2.924025E-10,NaN,-1.113394,-1.324301E-07,NaN,0.7775884,-5.014109E-07,NaN,-0.9180368,2.218933E-05,-0.7248469,7.94988E-08,NaN,NaN,-0.03274966,-2.747408E-10,1.998471E-07,-1.101823E-07,1.488115E-08,-2.622604E-08
798.517,-1.341279,2.924025E-10,NaN,-1.113394,-1.324301E-07,NaN,0.7775884,-5.014109E-07,NaN,-0.9180368,2.218933E-05,-0.7248469,7.94988E-08,NaN,NaN,-0.03274966,-2.747408E-10,1.998471E-07,-1.101823E-07,1.488115E-08,-2.622604E-08
798.5311,-1.349783,2.930671E-10,NaN,-1.118636,-1.324283E-07,NaN,0.7862343,-5.01364E-07,NaN,-0.9219213,2.218972E-05,-0.7326004,7.945326E-08,NaN,NaN,-0.03567638,-2.793974E-10,1.926945E-07,-1.101795E-07,1.130488E-08,-2.622604E-08
798.548,-1.358356,2.937316E-10,NaN,-1.123928,-1.324265E-07,NaN,0.794759,-5.013122E-07,NaN,-0.9259004,2.219009E-05,-0.7402898,7.94029E-08,NaN,NaN,-0.03854525,-2.747408E-10,1.923965E-07,-1.101766E-07,1.130488E-08,-2.622604E-08
798.561,-1.366913,2.943959E-10,NaN,-1.129218,-1.324247E-07,NaN,0.8030571,-5.012586E-07,NaN,-0.9299046,2.219047E-05,-0.7477962,7.935066E-08,NaN,NaN,-0.0413578,-2.793974E-10,1.938866E-07,-1.101737E-07,1.011278E-08,-2.622604E-08
798.5758,-1.366913,2.943959E-10,NaN,-1.129218,-1.324247E-07,NaN,0.8030571,-5.012586E-07,NaN,-0.9299046,2.219047E-05,-0.7477962,7.935066E-08,NaN,NaN,-0.0413578,-2.793974E-10,1.938866E-07,-1.101737E-07,1.011278E-08,-2.622604E-08
798.59,-1.375414,2.950601E-10,NaN,-1.134483,-1.324229E-07,NaN,0.8111287,-5.012004E-07,NaN,-0.9339039,2.219084E-05,-0.7551094,7.929374E-08,NaN,NaN,-0.04411522,-2.747408E-10,1.912044E-07,-1.101709E-07,1.130488E-08,-2.622604E-08
798.6053,-1.384138,2.95724E-10,NaN,-1.139883,-1.324211E-07,NaN,0.8196923,-5.011403E-07,NaN,-0.9379805,2.219123E-05,-0.7629074,7.923506E-08,NaN,NaN,-0.04699861,-2.793974E-10,1.8584E-07,-1.101681E-07,1.011278E-08,-2.622604E-08
798.6221,-1.392918,2.963879E-10,NaN,-1.145324,-1.324194E-07,NaN,0.8281387,-5.010786E-07,NaN,-0.9421416,2.219161E-05,-0.7706371,7.917466E-08,NaN,NaN,-0.04982501,-2.840541E-10,1.834558E-07,-1.101652E-07,7.728598E-09,-2.622604E-08
798.6356,-1.392918,2.963879E-10,NaN,-1.145324,-1.324194E-07,NaN,0.8281387,-5.010786E-07,NaN,-0.9421416,2.219161E-05,-0.7706371,7.917466E-08,NaN,NaN,-0.04982501,-2.840541E-10,1.834558E-07,-1.101652E-07,7.728598E-09,-2.622604E-08
798.6496,-1.401674,2.970516E-10,NaN,-1.150759,-1.324176E-07,NaN,0.8363642,-5.010123E-07,NaN,-0.9463198,2.219198E-05,-0.7781832,7.910974E-08,NaN,NaN,-0.05259592,-2.793974E-10,1.828598E-07,-1.101624E-07,1.011278E-08,-2.622604E-08
798.6638,-1.410368,2.977152E-10,NaN,-1.156164,-1.324158E-07,NaN,0.8443675,-5.009445E-07,NaN,-0.9504867,2.219236E-05,-0.7855368,7.904322E-08,NaN,NaN,-0.05531251,-2.840541E-10,1.837538E-07,-1.101596E-07,8.920691E-09,-2.622604E-08
798.6785,-1.410368,2.977152E-10,NaN,-1.156164,-1.324158E-07,NaN,0.8443675,-5.009445E-07,NaN,-0.9504867,2.219236E-05,-0.7855368,7.904322E-08,NaN,NaN,-0.05531251,-2.840541E-10,1.837538E-07,-1.101596E-07,8.920691E-09,-2.622604E-08
798.6922,-1.419284,2.983786E-10,NaN,-1.161703,-1.324141E-07,NaN,0.8528674,-5.008722E-07,NaN,-0.9547353,2.219273E-05,-0.7933812,7.89723E-08,NaN,NaN,-0.05815586,-2.793974E-10,1.745151E-07,-1.101568E-07,8.920691E-09,-2.622604E-08
