JMolnar6/NonAnthroHands_User_Study/HandsLoggerWithURDF/tempdata/PID 0 (test)/files/Reachy_PID0_JointMotion_gesture_1_3.csv
Time,r_shoulder,r_shoulder_x,r_upper_arm,r_forearm,r_wrist,r_wrist2hand,
68.70426,-0.1365526,-0.3267296,0.4653151,-0.485773,-0.3852058,-0.01996833
68.7184,-0.1365526,-0.3267296,0.4653151,-0.485773,-0.3852058,-0.01996833
68.73257,-0.1364684,-0.3267306,0.4653729,-0.4857441,-0.3852433,-0.01996828
68.74819,-0.1363852,-0.3267316,0.4654303,-0.4857154,-0.3852805,-0.01996823
68.76401,-0.136303,-0.3267325,0.4654871,-0.4856871,-0.3853174,-0.01996819
68.77732,-0.136303,-0.3267325,0.4654871,-0.4856871,-0.3853174,-0.01996819
68.7915,-0.1362217,-0.3267335,0.4655434,-0.4856591,-0.385354,-0.01996814
68.80723,-0.1361413,-0.3267345,0.4655992,-0.4856313,-0.3853902,-0.01996809
68.82153,-0.1360619,-0.3267354,0.4656546,-0.4856039,-0.385426,-0.01996804
68.83618,-0.1360619,-0.3267354,0.4656546,-0.4856039,-0.385426,-0.01996804
68.85034,-0.1359834,-0.3267364,0.4657094,-0.4855767,-0.3854615,-0.01996799
68.86589,-0.1359058,-0.3267373,0.4657637,-0.4855498,-0.3854967,-0.01996794
68.88056,-0.135829,-0.3267383,0.4658175,-0.4855232,-0.3855316,-0.0199679
68.89536,-0.135829,-0.3267383,0.4658175,-0.4855232,-0.3855316,-0.0199679
68.9092,-0.1357532,-0.3267392,0.4658709,-0.4854969,-0.3855662,-0.01996785
68.92479,-0.1356782,-0.3267402,0.4659237,-0.4854708,-0.3856004,-0.01996781
68.93939,-0.1356782,-0.3267402,0.4659237,-0.4854708,-0.3856004,-0.01996781
68.95374,-0.1356041,-0.3267411,0.4659761,-0.4854451,-0.3856343,-0.01996776
68.96963,-0.1355309,-0.3267421,0.466028,-0.4854196,-0.3856679,-0.01996771
68.98372,-0.1354585,-0.326743,0.4660795,-0.4853944,-0.3857012,-0.01996767
68.99857,-0.1354585,-0.326743,0.4660795,-0.4853944,-0.3857012,-0.01996767
69.01488,-0.1353869,-0.3267439,0.4661305,-0.4853694,-0.3857342,-0.01996763
69.02904,-0.1353162,-0.3267448,0.466181,-0.4853447,-0.3857669,-0.01996758
69.04271,-0.1352462,-0.3267457,0.466231,-0.4853203,-0.3857993,-0.01996754
69.05726,-0.1352462,-0.3267457,0.466231,-0.4853203,-0.3857993,-0.01996754
69.07119,-0.1351771,-0.3267467,0.4662807,-0.4852961,-0.3858314,-0.0199675
69.08678,-0.1351088,-0.3267476,0.4663298,-0.4852722,-0.3858632,-0.01996746
69.10117,-0.1350412,-0.3267485,0.4663785,-0.4852485,-0.3858946,-0.01996741
69.11604,-0.1350412,-0.3267485,0.4663785,-0.4852485,-0.3858946,-0.01996741
69.13012,-0.1349745,-0.3267494,0.4664268,-0.4852251,-0.3859258,-0.01996737
69.14561,-0.1349085,-0.3267503,0.4664747,-0.4852019,-0.3859567,-0.01996733
69.16042,-0.1348432,-0.3267512,0.466522,-0.485179,-0.3859873,-0.01996729
69.17511,-0.1348432,-0.3267512,0.466522,-0.485179,-0.3859873,-0.01996729
69.18921,-0.1347788,-0.3267521,0.466569,-0.4851563,-0.3860176,-0.01996725
69.20453,-0.134715,-0.326753,0.4666155,-0.4851339,-0.3860477,-0.01996721
69.21938,-0.134715,-0.326753,0.4666155,-0.4851339,-0.3860477,-0.01996721
69.23344,-0.134652,-0.3267539,0.4666616,-0.4851117,-0.3860774,-0.01996717
69.24889,-0.1345897,-0.3267548,0.4667073,-0.4850897,-0.3861069,-0.01996713
69.26468,-0.1345282,-0.3267557,0.4667526,-0.485068,-0.3861361,-0.01996709
69.27951,-0.1345282,-0.3267557,0.4667526,-0.485068,-0.3861361,-0.01996709
69.29333,-0.1344673,-0.3267566,0.4667974,-0.4850465,-0.386165,-0.01996705
69.30862,-0.1344072,-0.3267575,0.4668419,-0.4850252,-0.3861937,-0.01996701
69.32207,-0.1343477,-0.3267584,0.4668859,-0.4850042,-0.386222,-0.01996698
69.33709,-0.1343477,-0.3267584,0.4668859,-0.4850042,-0.386222,-0.01996698
69.35104,-0.1342889,-0.3267592,0.4669296,-0.4849834,-0.3862501,-0.01996694
69.36642,-0.1342308,-0.3267601,0.4669728,-0.4849628,-0.386278,-0.0199669
69.38115,-0.1341734,-0.326761,0.4670157,-0.4849424,-0.3863056,-0.01996686
69.39617,-0.1341734,-0.326761,0.4670157,-0.4849424,-0.3863056,-0.01996686
69.41016,-0.1341166,-0.3267618,0.4670581,-0.4849223,-0.3863329,-0.01996683
69.42567,-0.1340605,-0.3267627,0.4671001,-0.4849023,-0.38636,-0.01996679
69.44047,-0.1340051,-0.3267636,0.4671418,-0.4848826,-0.3863868,-0.01996675
69.45534,-0.1340051,-0.3267636,0.4671418,-0.4848826,-0.3863868,-0.01996675
69.46944,-0.1339502,-0.3267644,0.4671831,-0.4848631,-0.3864133,-0.01996671
69.48498,-0.133896,-0.3267653,0.467224,-0.4848438,-0.3864396,-0.01996668
69.49966,-0.133896,-0.3267653,0.467224,-0.4848438,-0.3864396,-0.01996668
69.51588,-0.1338425,-0.3267662,0.4672645,-0.4848247,-0.3864657,-0.01996664
69.53036,-0.1337895,-0.326767,0.4673046,-0.4848058,-0.3864915,-0.0199666
69.54398,-0.1337371,-0.3267679,0.4673444,-0.4847871,-0.386517,-0.01996657
69.55871,-0.1337371,-0.3267679,0.4673444,-0.4847871,-0.386517,-0.01996657
69.57295,-0.1336854,-0.3267687,0.4673838,-0.4847686,-0.3865424,-0.01996653
69.58803,-0.1336343,-0.3267695,0.4674229,-0.4847503,-0.3865674,-0.01996649
69.60283,-0.1335837,-0.3267704,0.4674616,-0.4847322,-0.3865922,-0.01996646
69.6179,-0.1335837,-0.3267704,0.4674616,-0.4847322,-0.3865922,-0.01996646
69.63178,-0.1335337,-0.3267712,0.4674999,-0.4847142,-0.3866168,-0.01996643
69.64748,-0.1334843,-0.326772,0.4675379,-0.4846965,-0.3866412,-0.0199664
69.66231,-0.1334355,-0.3267729,0.4675755,-0.484679,-0.3866653,-0.01996636
69.67693,-0.1334355,-0.3267729,0.4675755,-0.484679,-0.3866653,-0.01996636
69.69117,-0.1333872,-0.3267737,0.4676127,-0.4846616,-0.3866892,-0.01996633
69.70932,-0.1326113,-0.3267733,0.4671141,-0.4850532,-0.3862755,-0.01996671
69.72166,-0.1313807,-0.3267727,0.4664639,-0.4855633,-0.3857399,-0.01996719
69.73621,-0.1313807,-0.3267727,0.4664639,-0.4855633,-0.3857399,-0.01996719
69.75253,-0.1298692,-0.3267721,0.46581,-0.486077,-0.3852035,-0.01996768
69.76613,-0.1281872,-0.3267716,0.4652004,-0.4865561,-0.3847053,-0.01996812
69.78098,-0.1271333,-0.3267725,0.4651755,-0.4865841,-0.3846856,-0.01996812
69.79563,-0.1271333,-0.3267725,0.4651755,-0.4865841,-0.3846856,-0.01996812
69.80935,-0.1264789,-0.3267736,0.4653488,-0.4864557,-0.3848269,-0.01996797
69.82487,-0.1260787,-0.3267748,0.4655648,-0.4862925,-0.3850019,-0.0199678
69.83958,-0.1260787,-0.3267748,0.4655648,-0.4862925,-0.3850019,-0.0199678
69.85435,-0.1265668,-0.3267784,0.4663004,-0.4857317,-0.3855998,-0.01996723
69.86947,-0.1276116,-0.3267829,0.4671607,-0.4850755,-0.3862967,-0.01996658
69.88434,-0.1290026,-0.3267876,0.4679992,-0.4844382,-0.3869728,-0.01996595
69.89931,-0.1290026,-0.3267876,0.4679992,-0.4844382,-0.3869728,-0.01996595
69.91327,-0.1306054,-0.326792,0.4687733,-0.4838543,-0.3875935,-0.01996537
69.92886,-0.1330632,-0.3267984,0.4700185,-0.4829181,-0.3885976,-0.01996443
69.9436,-0.1360485,-0.3268051,0.4713608,-0.4819124,-0.3896779,-0.01996342
69.95823,-0.1360485,-0.3268051,0.4713608,-0.4819124,-0.3896779,-0.01996342
69.9725,-0.1393534,-0.3268114,0.4726639,-0.4809422,-0.3907233,-0.01996244
69.98904,-0.1428454,-0.3268168,0.4738901,-0.4800375,-0.3917035,-0.01996152
70.00274,-0.1471689,-0.3268239,0.4755842,-0.4787916,-0.3930664,-0.01996023
70.01743,-0.1471689,-0.3268239,0.4755842,-0.4787916,-0.3930664,-0.01996023
70.03139,-0.1519973,-0.3268306,0.4773683,-0.4774854,-0.3945007,-0.01995888
70.0468,-0.1571232,-0.3268362,0.4791053,-0.4762234,-0.3958944,-0.01995756
70.06163,-0.1624148,-0.3268406,0.4807571,-0.4750352,-0.3972169,-0.01995631
70.07648,-0.1624148,-0.3268406,0.4807571,-0.4750352,-0.3972169,-0.01995631
70.09031,-0.1685167,-0.3268462,0.4828788,-0.4735152,-0.3989263,-0.01995468
70.1059,-0.1751029,-0.3268509,0.4850855,-0.4719434,-0.4007043,-0.01995298
70.12044,-0.1819662,-0.326854,0.4872383,-0.4704236,-0.4024369,-0.01995132
70.13551,-0.1819662,-0.326854,0.4872383,-0.4704236,-0.4024369,-0.01995132
70.14978,-0.1897032,-0.3268577,0.4898641,-0.4685807,-0.4045604,-0.01994927
70.16513,-0.1979576,-0.3268598,0.4925603,-0.4667026,-0.4067409,-0.01994717
70.17998,-0.1979576,-0.3268598,0.4925603,-0.4667026,-0.4067409,-0.01994717
70.19388,-0.2065027,-0.3268607,0.4951861,-0.4648948,-0.408863,-0.01994513
70.20937,-0.215195,-0.3268607,0.4977042,-0.4631852,-0.4108972,-0.01994315
70.22639,-0.2246717,-0.3268614,0.5006952,-0.4611688,-0.4133263,-0.01994076
70.23994,-0.2246717,-0.3268614,0.5006952,-0.4611688,-0.4133263,-0.01994076
70.25388,-0.2346022,-0.3268614,0.5037611,-0.4591214,-0.4158184,-0.0199383
70.26848,-0.2447764,-0.3268604,0.5067598,-0.4571447,-0.4182562,-0.0199359
70.28305,-0.2550615,-0.3268588,0.5096526,-0.4552664,-0.4206086,-0.01993356
70.29802,-0.2550615,-0.3268588,0.5096526,-0.4552664,-0.4206086,-0.01993356
70.3117,-0.2661014,-0.326858,0.5130359,-0.4530855,-0.4233745,-0.01993077
70.32743,-0.2775699,-0.3268564,0.516498,-0.4508769,-0.4262082,-0.01992791
70.34201,-0.2892599,-0.3268538,0.5198919,-0.4487428,-0.4289875,-0.01992511
70.35696,-0.2892599,-0.3268538,0.5198919,-0.4487428,-0.4289875,-0.01992511
70.37099,-0.3017686,-0.3268517,0.5237896,-0.4463134,-0.4321937,-0.01992183
70.38676,-0.3147398,-0.3268484,0.5277568,-0.4438719,-0.4354603,-0.0199185
70.40132,-0.3279475,-0.326843,0.5316398,-0.441521,-0.438659,-0.01991522
70.41639,-0.3279475,-0.326843,0.5316398,-0.441521,-0.438659,-0.01991522
70.43044,-0.3412487,-0.3268355,0.5353985,-0.4392877,-0.4417575,-0.01991203
70.44659,-0.3552812,-0.3268287,0.5396721,-0.4367752,-0.4452975,-0.01990832
70.46073,-0.3697148,-0.32682,0.5440221,-0.4342529,-0.4489057,-0.01990454
70.47675,-0.3697148,-0.32682,0.5440221,-0.4342529,-0.4489057,-0.01990454
70.4906,-0.3843402,-0.3268089,0.5482937,-0.4318202,-0.452452,-0.01990082
70.50515,-0.399025,-0.3267956,0.5524448,-0.4295043,-0.4559023,-0.01989717
70.51946,-0.399025,-0.3267956,0.5524448,-0.4295043,-0.4559023,-0.01989717
70.5338,-0.4144138,-0.3267831,0.5571388,-0.4269132,-0.4598228,-0.01989296
70.54934,-0.4301809,-0.3267687,0.5619171,-0.4243149,-0.4638197,-0.01988867
70.56421,-0.4461198,-0.3267518,0.5666177,-0.4218088,-0.4677561,-0.01988444
70.57903,-0.4461198,-0.3267518,0.5666177,-0.4218088,-0.4677561,-0.01988444
70.5931,-0.4628282,-0.3267352,0.5718827,-0.4190354,-0.472183,-0.01987962
70.60848,-0.4799506,-0.326716,0.5772251,-0.4162694,-0.4766809,-0.01987473
70.62334,-0.4972615,-0.3266937,0.5824764,-0.4136116,-0.4811067,-0.01986991
70.63828,-0.4972615,-0.3266937,0.5824764,-0.4136116,-0.4811067,-0.01986991
70.65291,-0.5146183,-0.3266688,0.5875923,-0.411088,-0.4854245,-0.01986517
70.66794,-0.5326595,-0.3266445,0.5932927,-0.4083135,-0.4902568,-0.01985976
70.68275,-0.5510554,-0.326618,0.599082,-0.4055488,-0.4951726,-0.01985427
70.69751,-0.5510554,-0.326618,0.599082,-0.4055488,-0.4951726,-0.01985427
70.71355,-0.5695974,-0.3265887,0.6047875,-0.4028904,-0.5000237,-0.01984884
70.72692,-0.5881535,-0.3265572,0.6103619,-0.4003644,-0.5047714,-0.01984349
70.74169,-0.6073688,-0.3265267,0.616559,-0.3975926,-0.5100721,-0.01983739
70.75635,-0.6073688,-0.3265267,0.616559,-0.3975926,-0.5100721,-0.01983739
70.77032,-0.6269182,-0.3264941,0.6228559,-0.3948326,-0.5154675,-0.01983122
70.78595,-0.6465957,-0.3264588,0.6290702,-0.392181,-0.5207998,-0.01982511
70.80056,-0.6662713,-0.3264214,0.6351514,-0.3896644,-0.5260271,-0.01981907
70.81568,-0.6662713,-0.3264214,0.6351514,-0.3896644,-0.5260271,-0.01981907
70.82962,-0.6865914,-0.3263851,0.6418915,-0.386911,-0.5318445,-0.01981222
70.84521,-0.7072318,-0.3263468,0.6487392,-0.3841747,-0.5377648,-0.01980529
70.86005,-0.7279869,-0.3263058,0.6555027,-0.3815507,-0.5436211,-0.01979844
70.87486,-0.7279869,-0.3263058,0.6555027,-0.3815507,-0.5436211,-0.01979844
70.88931,-0.7489482,-0.3262636,0.66238,-0.3789546,-0.5495898,-0.01979138
70.90438,-0.7699512,-0.3262196,0.6691896,-0.3764641,-0.5555113,-0.01978436
70.91933,-0.7699512,-0.3262196,0.6691896,-0.3764641,-0.5555113,-0.01978436
70.93338,-0.7908926,-0.3261744,0.6758775,-0.3741014,-0.5613394,-0.01977738
70.95026,-0.8117074,-0.3261286,0.6824358,-0.3718659,-0.5670685,-0.01977047
70.96389,-0.8323556,-0.3260829,0.6888708,-0.3697498,-0.5727047,-0.01976361
70.97817,-0.8323556,-0.3260829,0.6888708,-0.3697498,-0.5727047,-0.01976361
70.99229,-0.8528125,-0.3260379,0.6951911,-0.3677437,-0.5782561,-0.01975681
71.00768,-0.8730636,-0.325994,0.7014035,-0.3658392,-0.5837288,-0.01975005
71.02225,-0.8931006,-0.3259514,0.707513,-0.3640296,-0.5891268,-0.01974336
71.03735,-0.8931006,-0.3259514,0.707513,-0.3640296,-0.5891268,-0.01974336
71.05138,-0.9129192,-0.3259104,0.7135224,-0.3623091,-0.5944522,-0.01973674
71.06678,-0.9325175,-0.3258709,0.7194331,-0.3606734,-0.5997059,-0.01973019
71.08173,-0.9518955,-0.3258331,0.7252455,-0.3591188,-0.6048875,-0.01972374
71.09661,-0.9518955,-0.3258331,0.7252455,-0.3591188,-0.6048875,-0.01972374
71.1108,-0.9710538,-0.3257971,0.7309592,-0.3576423,-0.6099962,-0.01971737
71.12643,-0.989994,-0.3257628,0.7365733,-0.3562413,-0.6150306,-0.0197111
71.14123,-1.008718,-0.3257301,0.7420868,-0.3549132,-0.6199892,-0.01970495
71.15581,-1.008718,-0.3257301,0.7420868,-0.3549132,-0.6199892,-0.01970495
71.16987,-1.027227,-0.3256992,0.7474984,-0.3536561,-0.6248703,-0.01969891
71.18649,-1.045525,-0.3256698,0.7528067,-0.3524677,-0.6296721,-0.01969299
71.2002,-1.063612,-0.3256421,0.7580105,-0.3513462,-0.6343929,-0.01968719
71.21517,-1.063612,-0.3256421,0.7580105,-0.3513462,-0.6343929,-0.01968719
71.22933,-1.081492,-0.3256159,0.7631083,-0.3502897,-0.6390309,-0.01968152
71.24432,-1.099167,-0.3255912,0.7680988,-0.3492964,-0.6435845,-0.01967597
71.2592,-1.099167,-0.3255912,0.7680988,-0.3492964,-0.6435845,-0.01967597
71.27301,-1.116638,-0.3255679,0.7729807,-0.3483644,-0.648052,-0.01967057
71.28855,-1.133909,-0.3255461,0.7777531,-0.3474921,-0.6524318,-0.0196653
71.30341,-1.150981,-0.3255257,0.7824146,-0.3466777,-0.6567226,-0.01966019
71.31828,-1.150981,-0.3255257,0.7824146,-0.3466777,-0.6567226,-0.01966019
71.33244,-1.167858,-0.3255066,0.7869644,-0.3459196,-0.6609229,-0.01965521
71.34802,-1.18454,-0.3254888,0.7914013,-0.3452162,-0.6650313,-0.01965039
71.36279,-1.201031,-0.3254723,0.7957247,-0.3445658,-0.6690468,-0.01964571
71.37743,-1.201031,-0.3254723,0.7957247,-0.3445658,-0.6690468,-0.01964571
71.39133,-1.217332,-0.3254569,0.7999337,-0.3439669,-0.6729681,-0.01964118
71.40678,-1.233446,-0.3254428,0.8040278,-0.3434179,-0.6767944,-0.01963682
71.42376,-1.249374,-0.3254298,0.8080063,-0.3429174,-0.6805245,-0.0196326
71.43705,-1.249374,-0.3254298,0.8080063,-0.3429174,-0.6805245,-0.0196326
71.45184,-1.26512,-0.325418,0.8118688,-0.3424638,-0.6841578,-0.01962855
71.46544,-1.280685,-0.3254072,0.8156149,-0.3420557,-0.6876935,-0.01962465
71.48021,-1.295849,-0.3253967,0.8189238,-0.3417881,-0.6908394,-0.01962131
71.49481,-1.295849,-0.3253967,0.8189238,-0.3417881,-0.6908394,-0.01962131
71.5106,-1.310699,-0.3253875,0.8220268,-0.3415914,-0.6938075,-0.01961817
71.52448,-1.325289,-0.3253799,0.825007,-0.3414361,-0.696673,-0.01961515
71.53813,-1.325289,-0.3253799,0.825007,-0.3414361,-0.696673,-0.01961515
71.55293,-1.338926,-0.3253714,0.8268243,-0.3416256,-0.698487,-0.01961361
71.56842,-1.351907,-0.3253652,0.8282552,-0.3419349,-0.6999628,-0.01961235
71.58307,-1.364421,-0.3253618,0.8295752,-0.3422718,-0.7013502,-0.01961109
71.59813,-1.364421,-0.3253618,0.8295752,-0.3422718,-0.7013502,-0.01961109
71.61207,-1.37659,-0.3253607,0.8308636,-0.3426042,-0.702719,-0.01960985
71.62758,-1.387761,-0.3253596,0.8310645,-0.3432392,-0.7031037,-0.01961005
71.64195,-1.39826,-0.3253599,0.8309414,-0.3439597,-0.703205,-0.01961053
71.65691,-1.39826,-0.3253599,0.8309414,-0.3439597,-0.703205,-0.01961053
71.67226,-1.40829,-0.3253614,0.830759,-0.34468,-0.7032625,-0.01961104
71.68849,-1.417985,-0.3253639,0.8305891,-0.3453733,-0.7033395,-0.01961154
71.70212,-1.426699,-0.3253658,0.8293788,-0.3463509,-0.7024732,-0.01961339
71.71559,-1.426699,-0.3253658,0.8293788,-0.3463509,-0.7024732,-0.01961339
71.72963,-1.434761,-0.3253687,0.8278838,-0.3473984,-0.7013569,-0.01961545
71.74483,-1.442379,-0.3253739,0.8263668,-0.3484328,-0.7002293,-0.01961746
71.75938,-1.442379,-0.3253739,0.8263668,-0.3484328,-0.7002293,-0.01961746
71.77324,-1.448957,-0.325379,0.8238511,-0.3497429,-0.6981972,-0.0196207
71.78864,-1.454853,-0.3253863,0.8211053,-0.3511071,-0.6959648,-0.01962407
71.80344,-1.460296,-0.3253961,0.8183898,-0.3524409,-0.6937681,-0.01962732
71.81821,-1.460296,-0.3253961,0.8183898,-0.3524409,-0.6937681,-0.01962732
71.83225,-1.465432,-0.3254083,0.8157691,-0.3537201,-0.6916637,-0.01963044
71.84776,-1.469624,-0.3254199,0.8122167,-0.3552626,-0.6887143,-0.01963472
71.86248,-1.473204,-0.3254327,0.8084615,-0.3568541,-0.6855871,-0.01963911
71.87717,-1.473204,-0.3254327,0.8084615,-0.3568541,-0.6855871,-0.01963911
71.89112,-1.476386,-0.3254468,0.8047546,-0.3584123,-0.6825097,-0.01964336
71.90648,-1.479303,-0.3254623,0.8011606,-0.3599133,-0.6795394,-0.01964744
71.92126,-1.481313,-0.3254765,0.7966835,-0.3616787,-0.6757687,-0.01965258
71.93598,-1.481313,-0.3254765,0.7966835,-0.3616787,-0.6757687,-0.01965258
71.95219,-1.482744,-0.3254907,0.7920354,-0.3634903,-0.671848,-0.01965779
71.96658,-1.483805,-0.3255053,0.7874631,-0.3652641,-0.6680009,-0.01966283
71.98029,-1.484629,-0.3255205,0.7830308,-0.3669756,-0.6642845,-0.01966767
71.99514,-1.484629,-0.3255205,0.7830308,-0.3669756,-0.6642845,-0.01966767
72.00882,-1.484572,-0.3255337,0.7777761,-0.3689513,-0.6598243,-0.01967344
72.02427,-1.483961,-0.3255462,0.7723876,-0.3709691,-0.6552475,-0.01967926
72.03916,-1.483961,-0.3255462,0.7723876,-0.3709691,-0.6552475,-0.01967926
72.05311,-1.483005,-0.3255585,0.7671049,-0.3729438,-0.6507707,-0.01968488
72.06855,-1.481107,-0.3255682,0.7610546,-0.3751834,-0.6456023,-0.01969133
72.08327,-1.478625,-0.3255767,0.7549256,-0.3774539,-0.6403679,-0.01969776
72.09838,-1.478625,-0.3255767,0.7549256,-0.3774539,-0.6403679,-0.01969776
72.11201,-1.475785,-0.3255844,0.7489527,-0.3796679,-0.6352792,-0.01970394
72.12762,-1.472731,-0.3255915,0.7431921,-0.3818011,-0.6303858,-0.01970984
72.14239,-1.468829,-0.3255959,0.7367397,-0.3841944,-0.6248716,-0.01971648
72.15713,-1.468829,-0.3255959,0.7367397,-0.3841944,-0.6248716,-0.01971648
72.1714,-1.464409,-0.3255985,0.7302331,-0.386618,-0.6193131,-0.01972308
72.18662,-1.459681,-0.3256,0.7238932,-0.3889855,-0.6139088,-0.01972943
72.20229,-1.454779,-0.3256011,0.7177747,-0.3912723,-0.6087072,-0.01973549
72.21626,-1.454779,-0.3256011,0.7177747,-0.3912723,-0.6087072,-0.01973549
72.23115,-1.449061,-0.3256005,0.7110166,-0.3938262,-0.6029352,-0.01974219
72.24545,-1.442853,-0.3255987,0.7042292,-0.3964107,-0.5971413,-0.01974885
72.25996,-1.442853,-0.3255987,0.7042292,-0.3964107,-0.5971413,-0.01974885
72.27383,-1.436362,-0.3255961,0.6976247,-0.3989364,-0.5915156,-0.01975524
72.28928,-1.428993,-0.3255904,0.6904307,-0.401731,-0.5853671,-0.01976222
72.30402,-1.421102,-0.3255825,0.6832535,-0.4045457,-0.5792387,-0.01976909
72.31851,-1.421102,-0.3255825,0.6832535,-0.4045457,-0.5792387,-0.01976909
72.3327,-1.412916,-0.325573,0.6762999,-0.4072886,-0.5733147,-0.01977568
72.34808,-1.404579,-0.3255623,0.6696169,-0.4099343,-0.5676365,-0.01978193
72.36312,-1.395452,-0.3255486,0.6624109,-0.4128453,-0.5614985,-0.01978868
72.3778,-1.395452,-0.3255486,0.6624109,-0.4128453,-0.5614985,-0.01978868
72.39175,-1.385869,-0.3255324,0.6552363,-0.4157765,-0.5553935,-0.01979534
72.40723,-1.376037,-0.3255143,0.6482849,-0.4186368,-0.5494915,-0.01980172
72.42161,-1.36609,-0.3254951,0.6416021,-0.4214003,-0.5438322,-0.01980778
72.43674,-1.36609,-0.3254951,0.6416021,-0.4214003,-0.5438322,-0.01980778
72.45036,-1.355385,-0.3254727,0.6344374,-0.4244357,-0.5377528,-0.01981428
72.46699,-1.344247,-0.3254478,0.6273174,-0.4274916,-0.5317181,-0.01982068
72.48163,-1.332883,-0.3254209,0.6204259,-0.430474,-0.5258898,-0.01982681
72.49573,-1.332883,-0.3254209,0.6204259,-0.430474,-0.5258898,-0.01982681
72.50914,-1.320698,-0.3253904,0.6130946,-0.4337301,-0.5196815,-0.01983332
72.52428,-1.308046,-0.3253566,0.6058441,-0.4369958,-0.5135499,-0.0198397
72.53892,-1.308046,-0.3253566,0.6058441,-0.4369958,-0.5135499,-0.0198397
72.55321,-1.295154,-0.3253204,0.598852,-0.4401743,-0.5076503,-0.01984579
72.56835,-1.282164,-0.3252825,0.5921567,-0.4432394,-0.5020162,-0.01985156
72.58437,-1.269168,-0.3252438,0.5857465,-0.4461924,-0.4966366,-0.01985703
72.59725,-1.269168,-0.3252438,0.5857465,-0.4461924,-0.4966366,-0.01985703
72.61173,-1.256221,-0.3252049,0.5795952,-0.4490432,-0.4914877,-0.01986222
72.62729,-1.243361,-0.3251662,0.5736768,-0.4518026,-0.486546,-0.01986717
72.64191,-1.230608,-0.3251283,0.5679691,-0.4544799,-0.4817911,-0.0198719
72.65668,-1.230608,-0.3251283,0.5679691,-0.4544799,-0.4817911,-0.0198719
72.67077,-1.217976,-0.3250912,0.5624546,-0.4570824,-0.4772069,-0.01987643
72.68638,-1.205473,-0.3250554,0.5571197,-0.4596155,-0.4727806,-0.01988079
72.70116,-1.193104,-0.3250208,0.5519535,-0.4620834,-0.4685021,-0.01988498
72.71577,-1.193104,-0.3250208,0.5519535,-0.4620834,-0.4685021,-0.01988498
72.73182,-1.18087,-0.3249876,0.5469475,-0.4644891,-0.4643634,-0.01988902
72.74639,-1.168773,-0.3249557,0.5420947,-0.4668348,-0.4603576,-0.01989291
72.75993,-1.168773,-0.3249557,0.5420947,-0.4668348,-0.4603576,-0.01989291
72.77401,-1.156813,-0.3249253,0.537389,-0.4691223,-0.4564791,-0.01989666
72.78899,-1.144989,-0.3248963,0.532825,-0.4713531,-0.4527228,-0.01990029
72.80349,-1.1333,-0.3248686,0.528398,-0.4735285,-0.449084,-0.0199038
72.81834,-1.1333,-0.3248686,0.528398,-0.4735285,-0.449084,-0.0199038
72.83244,-1.121744,-0.3248424,0.5241034,-0.4756495,-0.4455587,-0.01990718
72.84781,-1.110322,-0.3248175,0.5199372,-0.4777173,-0.4421429,-0.01991046
72.86253,-1.09903,-0.3247939,0.5158953,-0.4797328,-0.4388329,-0.01991362
72.87727,-1.09903,-0.3247939,0.5158953,-0.4797328,-0.4388329,-0.01991362
72.89114,-1.087868,-0.3247716,0.5119741,-0.4816968,-0.4356253,-0.01991668
72.90688,-1.076835,-0.3247506,0.5081699,-0.4836102,-0.4325167,-0.01991965
72.92142,-1.065929,-0.3247307,0.5044794,-0.485474,-0.429504,-0.0199225
72.93621,-1.065929,-0.3247307,0.5044794,-0.485474,-0.429504,-0.0199225
72.9501,-1.055148,-0.3247121,0.5008991,-0.487289,-0.4265841,-0.01992528
72.96588,-1.044491,-0.3246946,0.4974259,-0.4890561,-0.4237541,-0.01992797
72.98033,-1.033957,-0.3246782,0.4940568,-0.4907761,-0.4210112,-0.01993058
72.99613,-1.033957,-0.3246782,0.4940568,-0.4907761,-0.4210112,-0.01993058
73.01022,-1.023544,-0.3246629,0.4907886,-0.4924498,-0.4183526,-0.0199331
73.02427,-1.013251,-0.3246486,0.4876186,-0.494078,-0.4157759,-0.01993555
73.03902,-1.013251,-0.3246486,0.4876186,-0.494078,-0.4157759,-0.01993555
73.05282,-1.003077,-0.3246354,0.484544,-0.4956616,-0.4132784,-0.01993792
73.06829,-0.9930193,-0.3246231,0.4815621,-0.4972014,-0.4108578,-0.01994021
73.08296,-0.9830777,-0.3246118,0.4786702,-0.4986981,-0.4085118,-0.01994243
73.09787,-0.9830777,-0.3246118,0.4786702,-0.4986981,-0.4085118,-0.01994243
73.11164,-0.9732504,-0.3246014,0.4758659,-0.5001526,-0.406238,-0.01994459
73.12716,-0.9635363,-0.324592,0.4731467,-0.5015657,-0.4040343,-0.01994668
73.14175,-0.953934,-0.3245834,0.4705103,-0.502938,-0.4018987,-0.01994871
73.15657,-0.953934,-0.3245834,0.4705103,-0.502938,-0.4018987,-0.01994871
73.17073,-0.9444422,-0.3245756,0.4679544,-0.5042705,-0.3998291,-0.01995067
73.18621,-0.9350597,-0.3245687,0.4654768,-0.5055638,-0.3978235,-0.01995259
73.201,-0.9257851,-0.3245625,0.4630753,-0.5068187,-0.3958802,-0.01995444
73.2161,-0.9257851,-0.3245625,0.4630753,-0.5068187,-0.3958802,-0.01995444
73.22992,-0.9166173,-0.3245572,0.4607478,-0.5080358,-0.3939971,-0.01995624
73.24584,-0.907555,-0.3245525,0.4584924,-0.5092161,-0.3921727,-0.01995799
73.26109,-0.8985969,-0.3245486,0.4563071,-0.5103602,-0.3904052,-0.01995968
73.2745,-0.8985969,-0.3245486,0.4563071,-0.5103602,-0.3904052,-0.01995968
73.28884,-0.889742,-0.3245454,0.45419,-0.5114688,-0.3886929,-0.01996132
73.3041,-0.880989,-0.3245429,0.4521392,-0.5125425,-0.3870343,-0.01996291
73.31858,-0.880989,-0.3245429,0.4521392,-0.5125425,-0.3870343,-0.01996291
73.33272,-0.8723367,-0.324541,0.4501531,-0.5135822,-0.3854278,-0.01996445
73.34846,-0.863784,-0.3245398,0.4482297,-0.5145885,-0.383872,-0.01996595
73.36312,-0.8553298,-0.3245391,0.4463676,-0.515562,-0.3823654,-0.01996741
73.37782,-0.8553298,-0.3245391,0.4463676,-0.515562,-0.3823654,-0.01996741
73.39186,-0.8469728,-0.3245391,0.444565,-0.5165035,-0.3809066,-0.01996882
73.40757,-0.8387119,-0.3245394,0.4428201,-0.5174134,-0.3794939,-0.0199702
73.42226,-0.8305461,-0.3245398,0.4411314,-0.5182925,-0.378126,-0.01997153
73.43737,-0.8305461,-0.3245398,0.4411314,-0.5182925,-0.378126,-0.01997153
73.45142,-0.8224744,-0.3245405,0.4394975,-0.5191414,-0.3768018,-0.01997283
73.46685,-0.8144954,-0.3245413,0.437917,-0.5199607,-0.3755201,-0.01997408
73.48171,-0.8066083,-0.3245423,0.4363885,-0.5207511,-0.3742797,-0.0199753
73.49753,-0.8066083,-0.3245423,0.4363885,-0.5207511,-0.3742797,-0.0199753
73.51155,-0.7988119,-0.3245434,0.4349106,-0.5215132,-0.3730795,-0.01997649
73.52596,-0.7911052,-0.3245446,0.4334821,-0.5222476,-0.3719184,-0.01997764
73.54059,-0.7834872,-0.324546,0.4321016,-0.5229549,-0.3707953,-0.01997875
73.5568,-0.7834872,-0.324546,0.4321016,-0.5229549,-0.3707953,-0.01997875
73.56953,-0.7759569,-0.3245475,0.430768,-0.5236356,-0.3697092,-0.01997983
73.58485,-0.7685131,-0.3245491,0.4294798,-0.5242904,-0.368659,-0.01998088
73.59982,-0.7685131,-0.3245491,0.4294798,-0.5242904,-0.368659,-0.01998088
73.61386,-0.7611551,-0.3245509,0.4282361,-0.5249197,-0.3676439,-0.01998189
73.62953,-0.7538817,-0.3245528,0.4270356,-0.5255243,-0.3666628,-0.01998288
73.64442,-0.746692,-0.3245549,0.4258772,-0.5261045,-0.3657147,-0.01998384
73.65884,-0.746692,-0.3245549,0.4258772,-0.5261045,-0.3657147,-0.01998384
73.6731,-0.739585,-0.324557,0.4247599,-0.526661,-0.3647989,-0.01998476
73.68875,-0.7325597,-0.3245593,0.4236825,-0.5271942,-0.3639144,-0.01998567
73.70374,-0.7256154,-0.3245617,0.422644,-0.5277047,-0.3630604,-0.01998654
73.71825,-0.7256154,-0.3245617,0.422644,-0.5277047,-0.3630604,-0.01998654
73.73476,-0.7187509,-0.3245641,0.4216434,-0.528193,-0.3622361,-0.01998739
73.74786,-0.7119654,-0.3245667,0.4206797,-0.5286596,-0.3614407,-0.01998821
73.76316,-0.705258,-0.3245694,0.419752,-0.5291049,-0.3606734,-0.019989
73.77668,-0.705258,-0.3245694,0.419752,-0.5291049,-0.3606734,-0.019989
73.79142,-0.6986277,-0.3245722,0.4188594,-0.5295296,-0.3599334,-0.01998978
73.80671,-0.6920738,-0.3245751,0.4180009,-0.5299339,-0.3592201,-0.01999053
73.82174,-0.6855952,-0.3245782,0.4171757,-0.5303186,-0.3585327,-0.01999125
73.83669,-0.6855952,-0.3245782,0.4171757,-0.5303186,-0.3585327,-0.01999125
73.85041,-0.6791912,-0.3245815,0.4163831,-0.5306839,-0.3578706,-0.01999195
73.86631,-0.6728609,-0.3245851,0.4156222,-0.5310304,-0.3572334,-0.01999262
73.88104,-0.6666035,-0.3245891,0.4148923,-0.5313585,-0.3566203,-0.01999328
73.896,-0.6666035,-0.3245891,0.4148923,-0.5313585,-0.3566203,-0.01999328
73.90997,-0.6604181,-0.3245934,0.4141924,-0.5316686,-0.3560307,-0.01999391
73.92558,-0.6543038,-0.324598,0.4135219,-0.5319612,-0.3554638,-0.01999452
73.94036,-0.64826,-0.3246029,0.4128799,-0.5322367,-0.3549192,-0.01999511
73.95512,-0.64826,-0.3246029,0.4128799,-0.5322367,-0.3549192,-0.01999511
73.97036,-0.6422857,-0.3246081,0.4122656,-0.5324955,-0.3543962,-0.01999567
73.98465,-0.6363801,-0.3246137,0.4116785,-0.532738,-0.3538941,-0.01999623
73.99927,-0.6363801,-0.3246137,0.4116785,-0.532738,-0.3538941,-0.01999623
74.01388,-0.6305425,-0.3246195,0.4111176,-0.5329645,-0.3534126,-0.01999676
74.02917,-0.6247721,-0.3246256,0.4105825,-0.5331755,-0.3529509,-0.01999727
74.0439,-0.6190681,-0.324632,0.4100723,-0.5333713,-0.3525086,-0.01999777
74.0585,-0.6190681,-0.324632,0.4100723,-0.5333713,-0.3525086,-0.01999777
74.07281,-0.6134297,-0.3246387,0.4095865,-0.5335523,-0.3520852,-0.01999825
74.08826,-0.6078562,-0.3246456,0.4091244,-0.533719,-0.3516801,-0.01999871
74.103,-0.6023469,-0.3246527,0.4086854,-0.5338716,-0.3512928,-0.01999916
74.11817,-0.6023469,-0.3246527,0.4086854,-0.5338716,-0.3512928,-0.01999916
74.13229,-0.5969009,-0.3246601,0.4082688,-0.5340105,-0.350923,-0.01999958
74.14799,-0.5915177,-0.3246678,0.4078742,-0.5341359,-0.35057,-0.01999999
74.16291,-0.5861964,-0.3246756,0.4075009,-0.5342484,-0.3502336,-0.02000039
74.17781,-0.5861964,-0.3246756,0.4075009,-0.5342484,-0.3502336,-0.02000039
74.19371,-0.5809363,-0.3246836,0.4071483,-0.5343482,-0.3499131,-0.02000077
74.20795,-0.5757368,-0.3246919,0.4068159,-0.5344356,-0.3496083,-0.02000114
74.22188,-0.5705971,-0.3247003,0.4065033,-0.5345109,-0.3493187,-0.02000149
74.23664,-0.5705971,-0.3247003,0.4065033,-0.5345109,-0.3493187,-0.02000149
74.25054,-0.5655165,-0.324709,0.4062098,-0.5345745,-0.3490438,-0.02000183
74.26611,-0.5604944,-0.3247178,0.405935,-0.5346267,-0.3487834,-0.02000215
74.28115,-0.5555301,-0.3247268,0.4056784,-0.5346677,-0.348537,-0.02000246
74.29598,-0.5555301,-0.3247268,0.4056784,-0.5346677,-0.348537,-0.02000246
74.30985,-0.550623,-0.3247359,0.4054394,-0.5346979,-0.3483043,-0.02000276
74.32562,-0.5457723,-0.3247452,0.4052177,-0.5347176,-0.3480848,-0.02000304
74.34015,-0.5409775,-0.3247547,0.4050128,-0.534727,-0.3478783,-0.02000332
74.35523,-0.5409775,-0.3247547,0.4050128,-0.534727,-0.3478783,-0.02000332
74.36951,-0.5362378,-0.3247643,0.4048242,-0.5347265,-0.3476843,-0.02000357
74.38551,-0.5315527,-0.324774,0.4046515,-0.5347162,-0.3475026,-0.02000382
