JMolnar6/NonAnthroHands_User_Study/HandsLoggerWithURDF/tempdata/PID 0 (test)/files/Reachy_PID0_JointMotion_gesture_11_5.csv
Time,r_shoulder,r_shoulder_x,r_upper_arm,r_forearm,r_wrist,r_wrist2hand,
1014.573,-0.6886959,-0.3068812,1.205643,-0.528907,0.4358541,-0.005971875
1014.588,-0.6886012,-0.3068525,1.205717,-0.5288628,0.4358087,-0.005971329
1014.602,-0.6885076,-0.306824,1.20579,-0.5288193,0.4357636,-0.005970796
1014.617,-0.6885076,-0.306824,1.20579,-0.5288193,0.4357636,-0.005970796
1014.632,-0.6884151,-0.3067959,1.205862,-0.5287765,0.4357189,-0.005970276
1014.647,-0.6883237,-0.3067681,1.205934,-0.5287344,0.4356744,-0.005969768
1014.662,-0.6882333,-0.3067407,1.206005,-0.528693,0.4356303,-0.005969272
1014.676,-0.6882333,-0.3067407,1.206005,-0.528693,0.4356303,-0.005969272
1014.69,-0.6881439,-0.3067136,1.206075,-0.5286522,0.4355865,-0.005968788
1014.706,-0.6880556,-0.3066868,1.206144,-0.5286121,0.4355431,-0.005968316
1014.72,-0.6879683,-0.3066603,1.206213,-0.5285726,0.4355,-0.005967856
1014.735,-0.6879683,-0.3066603,1.206213,-0.5285726,0.4355,-0.005967856
1014.749,-0.6878819,-0.3066342,1.206281,-0.5285338,0.4354572,-0.005967403
1014.765,-0.6877967,-0.3066083,1.206348,-0.5284956,0.4354147,-0.005966962
1014.782,-0.6877123,-0.3065828,1.206415,-0.5284581,0.4353726,-0.005966531
1014.794,-0.6877123,-0.3065828,1.206415,-0.5284581,0.4353726,-0.005966531
1014.809,-0.6876289,-0.3065576,1.206481,-0.5284211,0.4353307,-0.00596611
1014.824,-0.6875465,-0.3065327,1.206546,-0.5283847,0.4352893,-0.0059657
1014.839,-0.6875465,-0.3065327,1.206546,-0.5283847,0.4352893,-0.0059657
1014.853,-0.687465,-0.3065081,1.20661,-0.528349,0.4352481,-0.0059653
1014.87,-0.6873845,-0.3064837,1.206674,-0.5283138,0.4352073,-0.005964912
1014.883,-0.6873049,-0.3064597,1.206737,-0.5282791,0.4351667,-0.005964532
1014.898,-0.6873049,-0.3064597,1.206737,-0.5282791,0.4351667,-0.005964532
1014.912,-0.6872262,-0.306436,1.2068,-0.528245,0.4351265,-0.005964159
1014.927,-0.6871484,-0.3064125,1.206861,-0.5282115,0.4350867,-0.005963796
1014.942,-0.6870715,-0.3063894,1.206922,-0.5281785,0.4350471,-0.005963441
1014.957,-0.6870715,-0.3063894,1.206922,-0.5281785,0.4350471,-0.005963441
1014.971,-0.6869955,-0.3063665,1.206983,-0.528146,0.4350078,-0.005963095
1014.986,-0.6869204,-0.3063439,1.207043,-0.528114,0.4349689,-0.005962757
1015.001,-0.6868461,-0.3063215,1.207102,-0.5280826,0.4349303,-0.00596243
1015.016,-0.6868461,-0.3063215,1.207102,-0.5280826,0.4349303,-0.00596243
1015.03,-0.6867727,-0.3062994,1.20716,-0.5280517,0.434892,-0.005962109
1015.046,-0.6867002,-0.3062776,1.207218,-0.5280213,0.434854,-0.005961798
1015.061,-0.6866285,-0.3062561,1.207276,-0.5279914,0.4348163,-0.005961493
1015.075,-0.6866285,-0.3062561,1.207276,-0.5279914,0.4348163,-0.005961493
1015.089,-0.6865575,-0.3062348,1.207332,-0.5279619,0.434779,-0.005961193
1015.106,-0.6864874,-0.3062138,1.207389,-0.5279329,0.4347419,-0.005960903
1015.121,-0.6864182,-0.306193,1.207444,-0.5279045,0.4347051,-0.005960621
1015.134,-0.6864182,-0.306193,1.207444,-0.5279045,0.4347051,-0.005960621
1015.148,-0.6863497,-0.3061725,1.207499,-0.5278764,0.4346687,-0.005960347
1015.164,-0.686282,-0.3061522,1.207553,-0.5278488,0.4346325,-0.005960078
1015.179,-0.686282,-0.3061522,1.207553,-0.5278488,0.4346325,-0.005960078
1015.193,-0.686215,-0.3061321,1.207607,-0.5278217,0.4345967,-0.005959816
1015.208,-0.6861489,-0.3061123,1.20766,-0.527795,0.4345612,-0.005959561
1015.223,-0.6860835,-0.3060927,1.207712,-0.5277687,0.4345259,-0.005959312
1015.237,-0.6860835,-0.3060927,1.207712,-0.5277687,0.4345259,-0.005959312
1015.252,-0.6860188,-0.3060734,1.207764,-0.5277429,0.4344909,-0.00595907
1015.267,-0.6859549,-0.3060543,1.207816,-0.5277174,0.4344563,-0.005958834
1015.282,-0.6858917,-0.3060354,1.207867,-0.5276924,0.4344219,-0.005958602
1015.297,-0.6858917,-0.3060354,1.207867,-0.5276924,0.4344219,-0.005958602
1015.311,-0.6858293,-0.3060167,1.207917,-0.5276678,0.4343879,-0.005958379
1015.327,-0.6857675,-0.3059983,1.207967,-0.5276436,0.4343541,-0.005958161
1015.341,-0.6857065,-0.3059801,1.208016,-0.5276197,0.4343206,-0.005957945
1015.357,-0.6857065,-0.3059801,1.208016,-0.5276197,0.4343206,-0.005957945
1015.37,-0.6856462,-0.3059621,1.208064,-0.5275963,0.4342874,-0.005957739
1015.386,-0.6855866,-0.3059444,1.208112,-0.5275732,0.4342545,-0.005957538
1015.4,-0.6855276,-0.3059268,1.20816,-0.5275505,0.4342219,-0.00595734
1015.415,-0.6855276,-0.3059268,1.20816,-0.5275505,0.4342219,-0.00595734
1015.429,-0.6854694,-0.3059095,1.208207,-0.5275282,0.4341895,-0.005957148
1015.445,-0.6854118,-0.3058923,1.208254,-0.5275062,0.4341575,-0.005956959
1015.459,-0.6854118,-0.3058923,1.208254,-0.5275062,0.4341575,-0.005956959
1015.474,-0.6853549,-0.3058754,1.2083,-0.5274847,0.4341257,-0.005956776
1015.489,-0.6852986,-0.3058587,1.208345,-0.5274634,0.4340942,-0.005956598
1015.504,-0.685243,-0.3058422,1.20839,-0.5274425,0.434063,-0.005956426
1015.519,-0.685243,-0.3058422,1.20839,-0.5274425,0.434063,-0.005956426
1015.533,-0.6851881,-0.3058259,1.208435,-0.5274219,0.4340321,-0.005956255
1015.548,-0.6851337,-0.3058097,1.208479,-0.5274016,0.4340014,-0.00595609
1015.563,-0.68508,-0.3057938,1.208522,-0.5273817,0.433971,-0.005955932
1015.579,-0.68508,-0.3057938,1.208522,-0.5273817,0.433971,-0.005955932
1015.593,-0.684817,-0.3057013,1.208181,-0.5268677,0.4344025,-0.00587096
1015.608,-0.6844232,-0.305562,1.207699,-0.5260298,0.4350514,-0.005787774
1015.623,-0.6839489,-0.3053947,1.207213,-0.5250463,0.4357638,-0.005706381
1015.637,-0.6839489,-0.3053947,1.207213,-0.5250463,0.4357638,-0.005706381
1015.651,-0.6836357,-0.3052877,1.20715,-0.5244974,0.4360175,-0.005711577
1015.666,-0.6834252,-0.3052182,1.207276,-0.524254,0.4360345,-0.005716663
1015.681,-0.6832803,-0.3051722,1.207447,-0.524157,0.4359636,-0.00572157
1015.696,-0.6832803,-0.3051722,1.207447,-0.524157,0.4359636,-0.00572157
1015.71,-0.6831773,-0.3051407,1.207611,-0.5241296,0.4358668,-0.005726297
1015.726,-0.6833096,-0.3051938,1.208138,-0.5246284,0.4353091,-0.005815713
1015.74,-0.6835897,-0.3052987,1.208784,-0.525466,0.4345406,-0.005903179
1015.755,-0.6835897,-0.3052987,1.208784,-0.525466,0.4345406,-0.005903179
1015.769,-0.6839616,-0.3054351,1.209415,-0.526456,0.4337164,-0.005988718
1015.785,-0.6843898,-0.30559,1.209992,-0.5275086,0.4328964,-0.006072402
1015.8,-0.6843898,-0.30559,1.209992,-0.5275086,0.4328964,-0.006072402
1015.814,-0.6850616,-0.3058325,1.210895,-0.5290754,0.431639,-0.006239109
1015.83,-0.6858838,-0.3061276,1.211887,-0.5309663,0.4301945,-0.006402291
1015.844,-0.6867971,-0.3064535,1.212838,-0.5329935,0.4287151,-0.00656201
1015.859,-0.6867971,-0.3064535,1.212838,-0.5329935,0.4287151,-0.00656201
1015.873,-0.687974,-0.3068735,1.214096,-0.5355616,0.4267951,-0.006803104
1015.888,-0.6893116,-0.3073492,1.215414,-0.5384575,0.4247018,-0.007039144
1015.903,-0.6907445,-0.3078565,1.216662,-0.541483,0.4225915,-0.007270227
1015.917,-0.6907445,-0.3078565,1.216662,-0.541483,0.4225915,-0.007270227
1015.931,-0.6922315,-0.3083809,1.21781,-0.5445431,0.4205216,-0.007496496
1015.947,-0.6939562,-0.30899,1.219244,-0.5480877,0.418043,-0.007802691
1015.962,-0.695823,-0.3096479,1.220722,-0.5519256,0.415411,-0.008102572
1015.977,-0.695823,-0.3096479,1.220722,-0.5519256,0.415411,-0.008102572
1015.991,-0.6977713,-0.3103324,1.222122,-0.5558692,0.4127757,-0.008396247
1016.006,-0.6997626,-0.31103,1.223415,-0.5598289,0.4101919,-0.008683869
1016.021,-0.7019827,-0.311809,1.224983,-0.5642568,0.4072057,-0.009050031
1016.036,-0.7019827,-0.311809,1.224983,-0.5642568,0.4072057,-0.009050031
1016.05,-0.7043372,-0.3126339,1.22658,-0.5689632,0.4040783,-0.009408719
1016.066,-0.7067662,-0.3134828,1.228085,-0.5737611,0.4009602,-0.009760032
1016.081,-0.7092317,-0.3143422,1.229471,-0.5785612,0.3979054,-0.01010414
1016.095,-0.7092317,-0.3143422,1.229471,-0.5785612,0.3979054,-0.01010414
1016.109,-0.7119203,-0.3152809,1.231119,-0.5838161,0.3944545,-0.01052549
1016.124,-0.7147375,-0.3162633,1.232778,-0.589336,0.3908757,-0.0109383
1016.139,-0.7147375,-0.3162633,1.232778,-0.589336,0.3908757,-0.0109383
1016.153,-0.7176234,-0.3172674,1.234329,-0.5949343,0.3873196,-0.01134266
1016.169,-0.720751,-0.3183568,1.236122,-0.6010161,0.3833597,-0.01182289
1016.183,-0.7240168,-0.3194925,1.237894,-0.6073691,0.379285,-0.01229339
1016.198,-0.7240168,-0.3194925,1.237894,-0.6073691,0.379285,-0.01229339
1016.212,-0.7273555,-0.3206509,1.239532,-0.6137959,0.3752502,-0.01275429
1016.228,-0.730726,-0.3218176,1.241016,-0.6202028,0.3713076,-0.01320579
1016.243,-0.7343132,-0.3230608,1.242728,-0.6270398,0.3669826,-0.01373207
1016.258,-0.7343132,-0.3230608,1.242728,-0.6270398,0.3669826,-0.01373207
1016.272,-0.738021,-0.324344,1.244411,-0.6341168,0.3625597,-0.01424777
1016.288,-0.7417887,-0.3256454,1.245955,-0.6412472,0.358189,-0.01475301
1016.302,-0.7455783,-0.3269517,1.247345,-0.6483421,0.3539198,-0.015248
1016.318,-0.7455783,-0.3269517,1.247345,-0.6483421,0.3539198,-0.015248
1016.332,-0.749577,-0.3283317,1.248957,-0.6558539,0.3492672,-0.01581676
1016.346,-0.7536895,-0.3297496,1.250528,-0.6635937,0.3445288,-0.01637415
1016.361,-0.7578561,-0.3311834,1.251952,-0.6713756,0.3398554,-0.01692028
1016.376,-0.7578561,-0.3311834,1.251952,-0.6713756,0.3398554,-0.01692028
1016.39,-0.7622504,-0.3326971,1.253577,-0.6796041,0.3347906,-0.01753905
1016.405,-0.7667685,-0.3342513,1.25513,-0.6880682,0.3296556,-0.01814545
1016.42,-0.7667685,-0.3342513,1.25513,-0.6880682,0.3296556,-0.01814545
1016.434,-0.771345,-0.3358225,1.256511,-0.6965712,0.3246045,-0.01873961
1016.45,-0.7759392,-0.3373965,1.25772,-0.7050204,0.3196822,-0.01932179
1016.464,-0.7807368,-0.3390419,1.25913,-0.7138651,0.314379,-0.01997579
1016.479,-0.7807368,-0.3390419,1.25913,-0.7138651,0.314379,-0.01997579
1016.493,-0.7856413,-0.3407221,1.260467,-0.7229164,0.3090211,-0.02061679
1016.509,-0.7905921,-0.3424151,1.261638,-0.7319885,0.3037586,-0.02124491
1016.523,-0.7955512,-0.344108,1.262643,-0.7409938,0.2986329,-0.02186041
1016.538,-0.7955512,-0.344108,1.262643,-0.7409938,0.2986329,-0.02186041
1016.554,-0.800707,-0.34587,1.263852,-0.7503831,0.2931179,-0.022547
1016.569,-0.8059638,-0.3476647,1.264979,-0.7599693,0.2875623,-0.02321998
1016.583,-0.8112615,-0.3494705,1.265939,-0.7695672,0.282116,-0.02387949
1016.597,-0.8112615,-0.3494705,1.265939,-0.7695672,0.282116,-0.02387949
1016.612,-0.8167751,-0.3513514,1.267081,-0.77958,0.2762735,-0.02460914
1016.627,-0.8223999,-0.3532678,1.268112,-0.7897983,0.2704118,-0.02532433
1016.642,-0.8280705,-0.3551964,1.26896,-0.8000268,0.2646796,-0.02602521
1016.656,-0.8280705,-0.3551964,1.26896,-0.8000268,0.2646796,-0.02602521
1016.67,-0.8337463,-0.3571233,1.269642,-0.8101739,0.2591081,-0.02671207
1016.686,-0.8396143,-0.3591172,1.27052,-0.8206872,0.2531352,-0.02746852
1016.701,-0.8455773,-0.3611413,1.271293,-0.8313796,0.2471589,-0.02821001
1016.715,-0.8455773,-0.3611413,1.271293,-0.8313796,0.2471589,-0.02821001
1016.73,-0.8515747,-0.3631737,1.271897,-0.8420662,0.2413222,-0.02893672
1016.747,-0.8575685,-0.3652017,1.272349,-0.8526607,0.2356507,-0.02964894
1016.76,-0.8637485,-0.3672948,1.273003,-0.8636122,0.229561,-0.03043021
1016.775,-0.8637485,-0.3672948,1.273003,-0.8636122,0.229561,-0.03043021
1016.791,-0.8700181,-0.3694163,1.273547,-0.8747346,0.2234876,-0.03119606
1016.805,-0.8763174,-0.3715446,1.273928,-0.8858445,0.2175664,-0.03194667
1016.819,-0.8763174,-0.3715446,1.273928,-0.8858445,0.2175664,-0.03194667
1016.833,-0.8828225,-0.373744,1.274487,-0.8973431,0.211222,-0.03276556
1016.848,-0.8894278,-0.3759748,1.274913,-0.9090226,0.2049216,-0.03356826
1016.863,-0.8960679,-0.3782134,1.27517,-0.9206896,0.1987911,-0.03435502
1016.878,-0.8960679,-0.3782134,1.27517,-0.9206896,0.1987911,-0.03435502
1016.892,-0.902702,-0.3804464,1.275291,-0.932254,0.1928403,-0.03512615
1016.907,-0.909519,-0.3827427,1.27561,-0.9441611,0.1864448,-0.03596516
1016.922,-0.9164207,-0.3850653,1.275804,-0.9562247,0.1801135,-0.03678762
1016.937,-0.9164207,-0.3850653,1.275804,-0.9562247,0.1801135,-0.03678762
1016.951,-0.9233462,-0.3873923,1.275849,-0.9682618,0.1739576,-0.03759377
1016.967,-0.9302577,-0.3897113,1.275776,-0.9801878,0.1679799,-0.03838395
1016.981,-0.9373464,-0.3920918,1.275902,-0.992449,0.1615366,-0.03924163
1016.996,-0.9373464,-0.3920918,1.275902,-0.992449,0.1615366,-0.03924163
1017.011,-0.944515,-0.394497,1.2759,-1.00486,0.1551837,-0.0400824
1017.026,-0.9517032,-0.3969054,1.275765,-1.01724,0.1490117,-0.04090653
1017.042,-0.9588737,-0.3993044,1.275527,-1.029505,0.1430162,-0.04171437
1017.055,-0.9588737,-0.3993044,1.275527,-1.029505,0.1430162,-0.04171437
1017.069,-0.9662187,-0.4017641,1.275482,-1.042099,0.1365369,-0.04258937
1017.085,-0.9736406,-0.4042474,1.275311,-1.054838,0.1301748,-0.04344711
1017.099,-0.9736406,-0.4042474,1.275311,-1.054838,0.1301748,-0.04344711
1017.114,-0.981079,-0.4067328,1.275021,-1.067542,0.1239951,-0.04428791
1017.129,-0.9887123,-0.4092849,1.274899,-1.080608,0.1173303,-0.04519521
1017.144,-0.9964337,-0.4118637,1.274642,-1.093832,0.1108091,-0.04608462
1017.159,-0.9964337,-0.4118637,1.274642,-1.093832,0.1108091,-0.04608462
1017.173,-1.004177,-0.4144456,1.274271,-1.107022,0.1044751,-0.04695648
1017.188,-1.011902,-0.4170175,1.273819,-1.12009,0.09831627,-0.04781116
1017.203,-1.0198,-0.4196488,1.273537,-1.133478,0.09165598,-0.04873206
1017.218,-1.0198,-0.4196488,1.273537,-1.133478,0.09165598,-0.04873206
1017.232,-1.027771,-0.4223018,1.273136,-1.147,0.08515522,-0.04963482
1017.248,-1.035754,-0.4249551,1.272642,-1.160478,0.07883457,-0.05051981
1017.262,-1.04371,-0.4275961,1.272081,-1.173826,0.07268277,-0.05138737
1017.278,-1.04371,-0.4275961,1.272081,-1.173826,0.07268277,-0.05138737
1017.293,-1.051835,-0.430295,1.271676,-1.187489,0.06602455,-0.05232091
1017.307,-1.060029,-0.4330145,1.271166,-1.201281,0.05953604,-0.05323607
1017.321,-1.06823,-0.435733,1.270577,-1.215025,0.0532207,-0.05413324
1017.336,-1.06823,-0.435733,1.270577,-1.215025,0.0532207,-0.05413324
1017.351,-1.076403,-0.4384384,1.269933,-1.228637,0.04706869,-0.05501276
1017.366,-1.084524,-0.4411237,1.269246,-1.242081,0.04107221,-0.055875
1017.381,-1.092579,-0.4437853,1.268526,-1.255341,0.0352249,-0.05672029
1017.395,-1.092579,-0.4437853,1.268526,-1.255341,0.0352249,-0.05672029
1017.41,-1.10056,-0.4464211,1.267779,-1.268409,0.02952139,-0.05754898
1017.425,-1.108245,-0.448953,1.266846,-1.280808,0.02460954,-0.05827839
1017.44,-1.115716,-0.451414,1.265944,-1.292706,0.01981062,-0.05899347
1017.455,-1.115716,-0.451414,1.265944,-1.292706,0.01981062,-0.05899347
1017.469,-1.123025,-0.4538234,1.265058,-1.304274,0.01512206,-0.05969452
1017.485,-1.130205,-0.4561923,1.26418,-1.315597,0.01054253,-0.06038179
1017.501,-1.137055,-0.4584502,1.263163,-1.32624,0.006713593,-0.06097258
1017.515,-1.137055,-0.4584502,1.263163,-1.32624,0.006713593,-0.06097258
1017.529,-1.143676,-0.460634,1.262184,-1.33639,0.002970547,-0.06155177
1017.544,-1.150127,-0.4627654,1.261231,-1.346228,-0.0006876434,-0.06211959
1017.559,-1.150127,-0.4627654,1.261231,-1.346228,-0.0006876434,-0.06211959
1017.573,-1.156229,-0.4647799,1.260165,-1.355366,-0.003624249,-0.06259327
1017.588,-1.16209,-0.4667176,1.259143,-1.364013,-0.006495412,-0.06305766
1017.603,-1.167778,-0.4686022,1.258152,-1.372361,-0.009301845,-0.06351293
1017.618,-1.167778,-0.4686022,1.258152,-1.372361,-0.009301845,-0.06351293
1017.632,-1.173337,-0.4704475,1.257185,-1.380503,-0.01204409,-0.06395926
1017.648,-1.178573,-0.4721844,1.256116,-1.388009,-0.01409127,-0.06431384
1017.662,-1.183588,-0.4738504,1.255084,-1.395065,-0.01609172,-0.06466147
1017.677,-1.183588,-0.4738504,1.255084,-1.395065,-0.01609172,-0.06466147
1017.692,-1.188446,-0.4754675,1.254084,-1.401854,-0.01804641,-0.06500226
1017.707,-1.193187,-0.4770487,1.253107,-1.408465,-0.01995593,-0.06533637
1017.722,-1.197615,-0.4785245,1.25204,-1.414464,-0.02119358,-0.06558094
1017.737,-1.197615,-0.4785245,1.25204,-1.414464,-0.02119358,-0.06558094
1017.752,-1.201832,-0.4799318,1.251008,-1.420038,-0.02240187,-0.06582071
1017.766,-1.205902,-0.4812925,1.250007,-1.425366,-0.0235817,-0.06605577
1017.781,-1.209863,-0.4826195,1.249031,-1.430536,-0.02473352,-0.06628623
1017.795,-1.209863,-0.4826195,1.249031,-1.430536,-0.02473352,-0.06628623
1017.81,-1.21352,-0.4838435,1.247973,-1.435118,-0.02523373,-0.06642918
1017.825,-1.216973,-0.4850011,1.246948,-1.439295,-0.02572043,-0.06656931
1017.84,-1.216973,-0.4850011,1.246948,-1.439295,-0.02572043,-0.06656931
1017.854,-1.220287,-0.486114,1.245953,-1.443246,-0.02619434,-0.0667067
1017.869,-1.22328,-0.4871182,1.244887,-1.446586,-0.02603356,-0.06675841
1017.884,-1.226062,-0.4880532,1.243855,-1.44952,-0.02587354,-0.0668091
1017.899,-1.226062,-0.4880532,1.243855,-1.44952,-0.02587354,-0.0668091
1017.913,-1.228701,-0.4889426,1.242857,-1.452236,-0.02571472,-0.0668588
1017.928,-1.231242,-0.4898008,1.241886,-1.45483,-0.02555711,-0.06690752
1017.943,-1.23349,-0.4905592,1.240844,-1.456871,-0.02478018,-0.06687229
1017.958,-1.23349,-0.4905592,1.240844,-1.456871,-0.02478018,-0.06687229
1017.972,-1.235546,-0.4912543,1.239833,-1.458542,-0.02401694,-0.06683776
1017.988,-1.237477,-0.4919083,1.238852,-1.460024,-0.02326767,-0.0668039
1018.002,-1.23932,-0.4925345,1.237898,-1.461405,-0.02253221,-0.06677071
1018.017,-1.23932,-0.4925345,1.237898,-1.461405,-0.02253221,-0.06677071
1018.031,-1.240881,-0.4930639,1.236875,-1.462255,-0.02119093,-0.06665518
1018.046,-1.24226,-0.4935324,1.23588,-1.462752,-0.01987513,-0.06654193
1018.061,-1.243521,-0.493962,1.234915,-1.463078,-0.01858492,-0.06643089
1018.076,-1.243521,-0.493962,1.234915,-1.463078,-0.01858492,-0.06643089
1018.09,-1.244482,-0.4942889,1.233886,-1.462848,-0.01670096,-0.06623904
1018.105,-1.245253,-0.4945518,1.232887,-1.462262,-0.01485373,-0.06605096
1018.12,-1.245253,-0.4945518,1.232887,-1.462262,-0.01485373,-0.06605096
1018.134,-1.245903,-0.4947745,1.231919,-1.46151,-0.01304318,-0.06586657
1018.15,-1.246475,-0.4949718,1.23098,-1.460685,-0.01126879,-0.0656858
1018.164,-1.246775,-0.4950753,1.229974,-1.45936,-0.008910995,-0.06542558
1018.179,-1.246775,-0.4950753,1.229974,-1.45936,-0.008910995,-0.06542558
1018.193,-1.246905,-0.4951211,1.228996,-1.457714,-0.006599545,-0.06517047
1018.209,-1.246929,-0.4951313,1.228047,-1.455927,-0.004334275,-0.06492037
1018.225,-1.246888,-0.4951202,1.227126,-1.454086,-0.002114533,-0.06467517
1018.238,-1.246888,-0.4951202,1.227126,-1.454086,-0.002114533,-0.06467517
1018.253,-1.246585,-0.4950188,1.226135,-1.451762,0.0006796937,-0.0643518
1018.268,-1.246121,-0.4948626,1.225172,-1.449133,0.003418891,-0.06403476
1018.282,-1.24556,-0.4946734,1.224238,-1.446378,0.006103264,-0.06372394
1018.297,-1.24556,-0.4946734,1.224238,-1.446378,0.006103264,-0.06372394
1018.311,-1.244719,-0.4943876,1.223236,-1.443112,0.009353259,-0.06333622
1018.327,-1.243708,-0.4940441,1.222264,-1.439534,0.01253922,-0.06295612
1018.342,-1.242598,-0.493667,1.221325,-1.435834,0.01566142,-0.06258346
1018.356,-1.242598,-0.493667,1.221325,-1.435834,0.01566142,-0.06258346
1018.37,-1.24143,-0.493271,1.220415,-1.432105,0.01872077,-0.06221812
1018.386,-1.240011,-0.4927882,1.219429,-1.427918,0.0223393,-0.06177694
1018.4,-1.238443,-0.4922547,1.218474,-1.423452,0.02588672,-0.06134442
1018.415,-1.238443,-0.4922547,1.218474,-1.423452,0.02588672,-0.06134442
1018.43,-1.236789,-0.4916928,1.21755,-1.418887,0.02936331,-0.06092038
1018.445,-1.235091,-0.4911163,1.216654,-1.414308,0.03277009,-0.06050465
1018.46,-1.23315,-0.4904563,1.215678,-1.409288,0.03673094,-0.06001408
1018.476,-1.23315,-0.4904563,1.215678,-1.409288,0.03673094,-0.06001408
1018.49,-1.23107,-0.4897487,1.214732,-1.404001,0.04061423,-0.05953313
1018.504,-1.228912,-0.4890155,1.213819,-1.398627,0.0444202,-0.0590616
1018.519,-1.228912,-0.4890155,1.213819,-1.398627,0.0444202,-0.0590616
1018.533,-1.226495,-0.4881929,1.212823,-1.392781,0.04877423,-0.05851632
1018.548,-1.223928,-0.4873201,1.211863,-1.386661,0.0530432,-0.05798173
1018.563,-1.221282,-0.486421,1.210937,-1.380456,0.05722739,-0.05745762
1018.578,-1.221282,-0.486421,1.210937,-1.380456,0.05722739,-0.05745762
1018.591,-1.218598,-0.4855101,1.210042,-1.374258,0.06132805,-0.05694379
1018.607,-1.215682,-0.4845191,1.209054,-1.367639,0.065974,-0.05635701
1018.622,-1.212636,-0.4834844,1.208103,-1.360776,0.07052952,-0.05578175
1018.637,-1.212636,-0.4834844,1.208103,-1.360776,0.07052952,-0.05578175
1018.651,-1.209524,-0.4824281,1.207186,-1.353848,0.07499492,-0.05521776
1018.666,-1.206384,-0.4813636,1.2063,-1.346942,0.07937156,-0.05466483
1018.681,-1.203022,-0.4802219,1.20531,-1.339627,0.08429214,-0.05403971
1018.696,-1.203022,-0.4802219,1.20531,-1.339627,0.08429214,-0.05403971
1018.712,-1.199538,-0.4790391,1.204359,-1.33208,0.08911719,-0.05342684
1018.726,-1.195994,-0.477837,1.203445,-1.324478,0.0938471,-0.05282599
1018.74,-1.192429,-0.4766288,1.202561,-1.316907,0.09848335,-0.05223691
1018.755,-1.192429,-0.4766288,1.202561,-1.316907,0.09848335,-0.05223691
1018.769,-1.188647,-0.4753453,1.201562,-1.308939,0.1036633,-0.05157634
1018.784,-1.184748,-0.4740226,1.200608,-1.300746,0.108743,-0.05092872
1018.799,-1.184748,-0.4740226,1.200608,-1.300746,0.108743,-0.05092872
1018.813,-1.180796,-0.4726824,1.199691,-1.292508,0.1137227,-0.0502938
1018.83,-1.176608,-0.4712608,1.198655,-1.28384,0.1192434,-0.04958826
1018.843,-1.172294,-0.469797,1.197669,-1.274938,0.1246576,-0.04889656
1018.858,-1.172294,-0.469797,1.197669,-1.274938,0.1246576,-0.04889656
1018.872,-1.167921,-0.4683149,1.196724,-1.265991,0.1299654,-0.04821841
1018.888,-1.163533,-0.4668284,1.195813,-1.257092,0.1351687,-0.04755355
1018.902,-1.158935,-0.465269,1.194764,-1.24781,0.1409145,-0.04681864
1018.917,-1.158935,-0.465269,1.194764,-1.24781,0.1409145,-0.04681864
1018.931,-1.154229,-0.4636734,1.193768,-1.238321,0.1465511,-0.04609814
1018.947,-1.149477,-0.4620634,1.192814,-1.228806,0.152077,-0.04539176
1018.963,-1.144719,-0.4604522,1.191893,-1.219351,0.1574946,-0.04469922
1018.977,-1.144719,-0.4604522,1.191893,-1.219351,0.1574946,-0.04469922
1018.991,-1.139758,-0.4587705,1.190818,-1.209523,0.1634554,-0.04393714
1019.006,-1.134696,-0.4570545,1.1898,-1.199498,0.1693065,-0.04318999
1019.02,-1.129594,-0.4553261,1.188825,-1.189454,0.1750426,-0.04245749
1019.035,-1.129594,-0.4553261,1.188825,-1.189454,0.1750426,-0.04245749
1019.051,-1.12449,-0.4535981,1.187886,-1.179478,0.1806661,-0.04173935
1019.065,-1.119408,-0.4518781,1.186974,-1.169611,0.1861801,-0.04103526
1019.08,-1.119408,-0.4518781,1.186974,-1.169611,0.1861801,-0.04103526
1019.094,-1.114362,-0.4501708,1.186087,-1.159869,0.1915869,-0.04034497
1019.109,-1.109359,-0.4484786,1.185221,-1.150263,0.1968891,-0.0396682
1019.124,-1.104406,-0.4468032,1.184376,-1.140794,0.202089,-0.03900468
1019.141,-1.099505,-0.4451451,1.183549,-1.131463,0.2071887,-0.03835414
1019.154,-1.099505,-0.4451451,1.183549,-1.131463,0.2071887,-0.03835414
1019.169,-1.094658,-0.4435049,1.182741,-1.122268,0.2121902,-0.03771634
1019.184,-1.089866,-0.4418828,1.181949,-1.11321,0.2170954,-0.03709104
1019.199,-1.089866,-0.4418828,1.181949,-1.11321,0.2170954,-0.03709104
1019.214,-1.085128,-0.4402786,1.181176,-1.104285,0.2219061,-0.03647797
1019.228,-1.080444,-0.4386925,1.180419,-1.095492,0.2266242,-0.0358769
1019.243,-1.075814,-0.4371241,1.179678,-1.08683,0.2312514,-0.03528761
1019.258,-1.075814,-0.4371241,1.179678,-1.08683,0.2312514,-0.03528761
1019.271,-1.071239,-0.4355735,1.178954,-1.078296,0.2357894,-0.03470985
1019.287,-1.066716,-0.4340405,1.178246,-1.069889,0.2402399,-0.0341434
1019.302,-1.062246,-0.4325249,1.177555,-1.061607,0.2446045,-0.03358804
1019.317,-1.062246,-0.4325249,1.177555,-1.061607,0.2446045,-0.03358804
1019.331,-1.057828,-0.4310264,1.176879,-1.053448,0.2488848,-0.03304356
1019.346,-1.053462,-0.429545,1.176219,-1.04541,0.2530823,-0.03250974
1019.361,-1.049146,-0.4280804,1.175574,-1.037491,0.2571987,-0.03198636
1019.377,-1.049146,-0.4280804,1.175574,-1.037491,0.2571987,-0.03198636
1019.39,-1.044881,-0.4266325,1.174945,-1.029691,0.2612354,-0.03147324
1019.406,-1.040665,-0.4252011,1.174331,-1.022007,0.265194,-0.03097015
1019.421,-1.036499,-0.4237861,1.173732,-1.014437,0.2690758,-0.03047692
1019.436,-1.036499,-0.4237861,1.173732,-1.014437,0.2690758,-0.03047692
1019.45,-1.032381,-0.4223872,1.173147,-1.00698,0.2728823,-0.02999334
1019.465,-1.028311,-0.4210042,1.172578,-0.9996343,0.2766149,-0.02951924
1019.48,-1.028311,-0.4210042,1.172578,-0.9996343,0.2766149,-0.02951924
1019.494,-1.024288,-0.4196371,1.172023,-0.9923983,0.280275,-0.02905441
1019.509,-1.020312,-0.4182856,1.171483,-0.9852704,0.2838639,-0.02859868
1019.524,-1.016383,-0.4169496,1.170956,-0.978249,0.2873829,-0.02815188
1019.539,-1.016383,-0.4169496,1.170956,-0.978249,0.2873829,-0.02815188
1019.553,-1.012499,-0.4156289,1.170444,-0.9713325,0.2908334,-0.02771383
1019.569,-1.00866,-0.4143233,1.169946,-0.9645194,0.2942165,-0.02728435
1019.583,-1.004867,-0.4130327,1.169461,-0.9578084,0.2975337,-0.02686328
1019.598,-1.004867,-0.4130327,1.169461,-0.9578084,0.2975337,-0.02686328
1019.613,-1.001117,-0.4117569,1.16899,-0.9511978,0.300786,-0.02645046
1019.628,-0.9974107,-0.4104958,1.168533,-0.9446862,0.3039747,-0.02604572
1019.643,-0.9937477,-0.4092491,1.168089,-0.9382723,0.307101,-0.0256489
1019.659,-0.9937477,-0.4092491,1.168089,-0.9382723,0.307101,-0.0256489
1019.673,-0.9901273,-0.4080168,1.167658,-0.9319546,0.310166,-0.02525986
1019.687,-0.9865489,-0.4067987,1.167239,-0.9257316,0.3131708,-0.02487844
1019.702,-0.9830121,-0.4055946,1.166834,-0.919602,0.3161166,-0.02450448
1019.717,-0.9830121,-0.4055946,1.166834,-0.919602,0.3161166,-0.02450448
1019.731,-0.9795165,-0.4044043,1.166441,-0.9135646,0.3190045,-0.02413785
1019.746,-0.9760615,-0.4032278,1.166061,-0.9076178,0.3218355,-0.0237784
1019.761,-0.9726467,-0.4020648,1.165693,-0.9017605,0.3246107,-0.02342599
1019.776,-0.9726467,-0.4020648,1.165693,-0.9017605,0.3246107,-0.02342599
1019.79,-0.9692715,-0.4009153,1.165338,-0.8959912,0.3273311,-0.02308049
1019.806,-0.9659355,-0.399779,1.164994,-0.8903088,0.3299977,-0.02274175
1019.82,-0.9626383,-0.3986559,1.164662,-0.884712,0.3326116,-0.02240965
1019.836,-0.9626383,-0.3986559,1.164662,-0.884712,0.3326116,-0.02240965
1019.85,-0.9593794,-0.3975457,1.164342,-0.8791994,0.3351736,-0.02208405
1019.865,-0.9561583,-0.3964484,1.164033,-0.87377,0.3376848,-0.02176483
1019.88,-0.9529746,-0.3953637,1.163736,-0.8684224,0.3401461,-0.02145187
1019.895,-0.9529746,-0.3953637,1.163736,-0.8684224,0.3401461,-0.02145187
1019.909,-0.9498278,-0.3942917,1.16345,-0.8631555,0.3425584,-0.02114504
1019.925,-0.9467176,-0.393232,1.163176,-0.8579682,0.3449225,-0.02084422
1019.939,-0.9467176,-0.393232,1.163176,-0.8579682,0.3449225,-0.02084422
1019.954,-0.9436435,-0.3921846,1.162912,-0.8528591,0.3472395,-0.0205493
1019.969,-0.940605,-0.3911493,1.162659,-0.8478272,0.3495101,-0.02026015
1019.984,-0.9376019,-0.3901261,1.162416,-0.8428714,0.3517352,-0.01997667
1019.999,-0.9376019,-0.3901261,1.162416,-0.8428714,0.3517352,-0.01997667
1020.013,-0.9346335,-0.3891147,1.162185,-0.8379905,0.3539156,-0.01969875
1020.029,-0.9316996,-0.3881151,1.161963,-0.8331834,0.3560522,-0.01942627
1020.044,-0.9287997,-0.3871271,1.161752,-0.8284491,0.3581457,-0.01915914
1020.059,-0.9287997,-0.3871271,1.161752,-0.8284491,0.3581457,-0.01915914
1020.073,-0.9259334,-0.3861505,1.161551,-0.8237865,0.360197,-0.01889724
1020.088,-0.9231004,-0.3851853,1.16136,-0.8191945,0.3622068,-0.01864048
1020.104,-0.9203002,-0.3842313,1.161179,-0.8146721,0.3641759,-0.01838876
1020.118,-0.9203002,-0.3842313,1.161179,-0.8146721,0.3641759,-0.01838876
1020.132,-0.9175326,-0.3832884,1.161007,-0.8102183,0.366105,-0.01814197
1020.148,-0.9147969,-0.3823565,1.160845,-0.805832,0.3679949,-0.01790002
1020.162,-0.912093,-0.3814355,1.160692,-0.8015122,0.3698463,-0.01766281
1020.178,-0.912093,-0.3814355,1.160692,-0.8015122,0.3698463,-0.01766281
1020.191,-0.9094204,-0.3805251,1.160549,-0.7972581,0.3716598,-0.01743026
1020.207,-0.9067788,-0.3796254,1.160415,-0.7930685,0.3734362,-0.01720227
1020.222,-0.9041678,-0.3787361,1.160289,-0.7889426,0.3751762,-0.01697875
1020.237,-0.9041678,-0.3787361,1.160289,-0.7889426,0.3751762,-0.01697875
1020.251,-0.9015871,-0.3778573,1.160173,-0.7848794,0.3768803,-0.01675962
1020.266,-0.8990362,-0.3769886,1.160065,-0.780878,0.3785494,-0.01654479
1020.281,-0.8965149,-0.3761302,1.159966,-0.7769374,0.380184,-0.01633417
1020.297,-0.8965149,-0.3761302,1.159966,-0.7769374,0.380184,-0.01633417
1020.311,-0.8940228,-0.3752817,1.159876,-0.7730568,0.3817846,-0.01612769
1020.327,-0.8915595,-0.3744431,1.159793,-0.7692353,0.3833521,-0.01592526
1020.341,-0.8891248,-0.3736144,1.159719,-0.7654719,0.3848869,-0.01572681
1020.356,-0.8891248,-0.3736144,1.159719,-0.7654719,0.3848869,-0.01572681
1020.37,-0.8867182,-0.3727953,1.159653,-0.761766,0.3863897,-0.01553226
1020.385,-0.8843395,-0.3719858,1.159595,-0.7581164,0.3878611,-0.01534152
1020.4,-0.8843395,-0.3719858,1.159595,-0.7581164,0.3878611,-0.01534152
1020.414,-0.8819883,-0.3711857,1.159545,-0.7545225,0.3893016,-0.01515453
1020.43,-0.8796644,-0.3703951,1.159502,-0.7509834,0.3907118,-0.01497121
1020.445,-0.8773674,-0.3696136,1.159467,-0.7474983,0.3920922,-0.0147915
1020.46,-0.8773674,-0.3696136,1.159467,-0.7474983,0.3920922,-0.0147915
1020.474,-0.8750969,-0.3688414,1.15944,-0.7440664,0.3934434,-0.01461531
1020.489,-0.8728527,-0.3680781,1.15942,-0.7406869,0.3947659,-0.01444259
1020.504,-0.8706346,-0.3673238,1.159407,-0.737359,0.3960603,-0.01427326
1020.519,-0.8706346,-0.3673238,1.159407,-0.737359,0.3960603,-0.01427326
1020.533,-0.868442,-0.3665784,1.159401,-0.7340819,0.397327,-0.01410727
1020.55,-0.8662748,-0.3658417,1.159402,-0.7308549,0.3985667,-0.01394453
1020.564,-0.8641327,-0.3651136,1.15941,-0.7276773,0.3997796,-0.013785
1020.579,-0.8641327,-0.3651136,1.15941,-0.7276773,0.3997796,-0.013785
1020.593,-0.8620154,-0.3643941,1.159424,-0.7245482,0.4009665,-0.0136286
1020.608,-0.8599225,-0.363683,1.159445,-0.721467,0.4021277,-0.01347528
1020.623,-0.8578539,-0.3629802,1.159473,-0.718433,0.4032637,-0.01332497
1020.638,-0.8578539,-0.3629802,1.159473,-0.718433,0.4032637,-0.01332497
1020.652,-0.8558092,-0.3622857,1.159507,-0.7154454,0.4043749,-0.01317763
1020.667,-0.8537881,-0.3615993,1.159547,-0.7125036,0.4054619,-0.01303318
1020.682,-0.8517904,-0.360921,1.159594,-0.7096068,0.4065251,-0.01289158
1020.697,-0.8517904,-0.360921,1.159594,-0.7096068,0.4065251,-0.01289158
1020.711,-0.8498157,-0.3602507,1.159646,-0.7067544,0.4075648,-0.01275276
1020.727,-0.8478639,-0.3595882,1.159705,-0.7039457,0.4085816,-0.01261668
1020.742,-0.8459347,-0.3589336,1.159769,-0.7011801,0.4095759,-0.01248327
1020.757,-0.8459347,-0.3589336,1.159769,-0.7011801,0.4095759,-0.01248327
1020.773,-0.8440278,-0.3582866,1.159839,-0.6984569,0.4105481,-0.0123525
1020.787,-0.8421429,-0.3576472,1.159914,-0.6957754,0.4114985,-0.0122243
