JMolnar6/NonAnthroHands_User_Study/HandsLoggerWithURDF/tempdata/PID 0 (test)/files/Reachy_PID0_JointMotion_gesture_4_21.csv
Time,r_shoulder,r_shoulder_x,r_upper_arm,r_forearm,r_wrist,r_wrist2hand,
249.0017,0.04500389,-2.314292E-08,NaN,-0.3270011,-1.366127E-07,NaN,0.4529462,-1.230147E-08,NaN,-2.145136,8.012593E-06,-0.5219284,-2.088995E-08,NaN,NaN,-0.02003054,1.629808E-10,-4.868581E-07,-1.145911E-07,3.415489E-09,-2.861022E-08
249.0164,0.04500389,-2.314292E-08,NaN,-0.3270011,-1.366127E-07,NaN,0.4529462,-1.230147E-08,NaN,-2.145136,8.012593E-06,-0.5219284,-2.088995E-08,NaN,NaN,-0.02003054,1.629808E-10,-4.868581E-07,-1.145911E-07,3.415489E-09,-2.861022E-08
249.0312,0.04500389,-2.314185E-08,NaN,-0.3270011,-1.366132E-07,NaN,0.4521725,-1.247192E-08,NaN,-2.145209,8.01324E-06,-0.5242993,-2.071732E-08,NaN,NaN,-0.02002968,1.722941E-10,-4.767253E-07,-1.145937E-07,3.415489E-09,-2.622604E-08
249.0459,0.04500388,-2.314077E-08,NaN,-0.3270011,-1.366137E-07,NaN,0.4515308,-1.263469E-08,NaN,-2.145299,8.013897E-06,-0.5270242,-2.055238E-08,NaN,NaN,-0.02003017,1.722941E-10,-4.814937E-07,-1.145962E-07,6.991768E-09,-2.861022E-08
249.0604,0.04500388,-2.31397E-08,NaN,-0.3270011,-1.366143E-07,NaN,0.4510931,-1.279133E-08,NaN,-2.145389,8.014545E-06,-0.5296847,-2.039358E-08,NaN,NaN,-0.02003061,1.816073E-10,-4.865601E-07,-1.145988E-07,6.991768E-09,-2.622604E-08
249.075,0.04500388,-2.31397E-08,NaN,-0.3270011,-1.366143E-07,NaN,0.4510931,-1.279133E-08,NaN,-2.145389,8.014545E-06,-0.5296847,-2.039358E-08,NaN,NaN,-0.02003061,1.816073E-10,-4.865601E-07,-1.145988E-07,6.991768E-09,-2.622604E-08
249.089,0.04500387,-2.313863E-08,NaN,-0.3270011,-1.366149E-07,NaN,0.450779,-1.294477E-08,NaN,-2.145473,8.015201E-06,-0.53225,-2.023797E-08,NaN,NaN,-0.02003089,1.816073E-10,-4.880501E-07,-1.146014E-07,6.991768E-09,-2.861022E-08
249.1045,0.04500388,-2.313756E-08,NaN,-0.3270011,-1.366155E-07,NaN,0.4514343,-1.309507E-08,NaN,-2.145526,8.015858E-06,-0.5324773,-2.00855E-08,NaN,NaN,-0.02003186,1.816073E-10,-5.005671E-07,-1.14604E-07,5.799675E-09,-2.622604E-08
249.1191,0.04500388,-2.313756E-08,NaN,-0.3270011,-1.366155E-07,NaN,0.4514343,-1.309507E-08,NaN,-2.145526,8.015858E-06,-0.5324773,-2.00855E-08,NaN,NaN,-0.02003186,1.816073E-10,-5.005671E-07,-1.14604E-07,5.799675E-09,-2.622604E-08
249.1329,0.04500388,-2.313648E-08,NaN,-0.3270011,-1.366161E-07,NaN,0.451993,-1.32423E-08,NaN,-2.145557,8.016515E-06,-0.5322837,-1.99361E-08,NaN,NaN,-0.02003143,1.816073E-10,-4.946066E-07,-1.146066E-07,4.607582E-09,-2.861022E-08
249.1504,0.04500388,-2.313541E-08,NaN,-0.3270011,-1.366166E-07,NaN,0.4523675,-1.338792E-08,NaN,-2.145582,8.017171E-06,-0.532097,-1.978831E-08,NaN,NaN,-0.02003103,1.816073E-10,-4.895402E-07,-1.146092E-07,5.799675E-09,-2.622604E-08
249.1639,0.04500388,-2.313434E-08,NaN,-0.3270011,-1.366172E-07,NaN,0.4526313,-1.353197E-08,NaN,-2.14561,8.017828E-06,-0.531953,-1.964209E-08,NaN,NaN,-0.02003079,1.816073E-10,-4.883481E-07,-1.146118E-07,1.176014E-08,-2.861022E-08
249.1776,0.04500388,-2.313434E-08,NaN,-0.3270011,-1.366172E-07,NaN,0.4526313,-1.353197E-08,NaN,-2.14561,8.017828E-06,-0.531953,-1.964209E-08,NaN,NaN,-0.02003079,1.816073E-10,-4.883481E-07,-1.146118E-07,1.176014E-08,-2.861022E-08
249.1913,0.04500388,-2.313326E-08,NaN,-0.3270011,-1.366178E-07,NaN,0.4537435,-1.367307E-08,NaN,-2.145616,8.018485E-06,-0.5295759,-1.949882E-08,NaN,NaN,-0.02003143,1.816073E-10,-4.949046E-07,-1.146143E-07,9.375952E-09,-2.622604E-08
249.207,0.04500388,-2.313219E-08,NaN,-0.3270011,-1.366184E-07,NaN,0.4546962,-1.381268E-08,NaN,-2.145605,8.019141E-06,-0.5268547,-1.935705E-08,NaN,NaN,-0.02003075,1.816073E-10,-4.859639E-07,-1.146169E-07,9.375952E-09,-2.861022E-08
249.2213,0.04500389,-2.313112E-08,NaN,-0.3270011,-1.36619E-07,NaN,0.4554296,-1.395083E-08,NaN,-2.145593,8.019789E-06,-0.5242022,-1.921672E-08,NaN,NaN,-0.02003015,1.909205E-10,-4.803015E-07,-1.146194E-07,9.375952E-09,-2.622604E-08
249.2361,0.04500389,-2.313112E-08,NaN,-0.3270011,-1.36619E-07,NaN,0.4554296,-1.395083E-08,NaN,-2.145593,8.019789E-06,-0.5242022,-1.921672E-08,NaN,NaN,-0.02003015,1.909205E-10,-4.803015E-07,-1.146194E-07,9.375952E-09,-2.622604E-08
249.2499,0.04500389,-2.313005E-08,NaN,-0.3270011,-1.366196E-07,NaN,0.4569339,-1.408755E-08,NaN,-2.145561,8.02045E-06,-0.5193847,-1.907783E-08,NaN,NaN,-0.02003051,1.862639E-10,-4.826857E-07,-1.14622E-07,4.607581E-09,-2.861022E-08
249.2653,0.0450039,-2.312897E-08,NaN,-0.3270011,-1.366202E-07,NaN,0.4582327,-1.422287E-08,NaN,-2.145513,8.021107E-06,-0.5142868,-1.894034E-08,NaN,NaN,-0.02002961,1.862639E-10,-4.725529E-07,-1.146245E-07,5.799674E-09,-2.622604E-08
249.2801,0.04500391,-2.31279E-08,NaN,-0.3270011,-1.366208E-07,NaN,0.4592841,-1.435541E-08,NaN,-2.145467,8.021763E-06,-0.5093129,-1.880563E-08,NaN,NaN,-0.02002881,1.862639E-10,-4.624201E-07,-1.14627E-07,6.991766E-09,-2.861022E-08
249.2946,0.04500391,-2.31279E-08,NaN,-0.3270011,-1.366208E-07,NaN,0.4592841,-1.435541E-08,NaN,-2.145467,8.021763E-06,-0.5093129,-1.880563E-08,NaN,NaN,-0.02002881,1.862639E-10,-4.624201E-07,-1.14627E-07,6.991766E-09,-2.861022E-08
249.3088,0.04500391,-2.312683E-08,NaN,-0.3270011,-1.366214E-07,NaN,0.4601837,-1.448663E-08,NaN,-2.145429,8.02242E-06,-0.5044854,-1.867224E-08,NaN,NaN,-0.0200282,1.862639E-10,-4.552675E-07,-1.146295E-07,8.183859E-09,-2.622604E-08
249.3243,0.04500392,-2.312575E-08,NaN,-0.327001,-1.36622E-07,NaN,0.4619008,-1.461656E-08,NaN,-2.145373,8.023077E-06,-0.4975167,-1.854015E-08,NaN,NaN,-0.02002846,1.862639E-10,-4.576517E-07,-1.14632E-07,1.056804E-08,-2.861022E-08
249.3411,0.04500393,-2.312468E-08,NaN,-0.327001,-1.366226E-07,NaN,0.4634287,-1.474522E-08,NaN,-2.145301,8.023733E-06,-0.4902994,-1.840932E-08,NaN,NaN,-0.02002743,1.862639E-10,-4.452837E-07,-1.146345E-07,1.176014E-08,-2.622604E-08
249.3534,0.04500393,-2.312468E-08,NaN,-0.327001,-1.366226E-07,NaN,0.4634287,-1.474522E-08,NaN,-2.145301,8.023733E-06,-0.4902994,-1.840932E-08,NaN,NaN,-0.02002743,1.862639E-10,-4.452837E-07,-1.146345E-07,1.176014E-08,-2.622604E-08
249.3676,0.04500394,-2.312361E-08,NaN,-0.327001,-1.366232E-07,NaN,0.4647122,-1.487264E-08,NaN,-2.14523,8.024394E-06,-0.4832421,-1.827973E-08,NaN,NaN,-0.02002649,1.816073E-10,-4.35151E-07,-1.14637E-07,9.375951E-09,-2.861022E-08
249.3828,0.04500394,-2.312253E-08,NaN,-0.327001,-1.366237E-07,NaN,0.4658398,-1.499884E-08,NaN,-2.145167,8.025042E-06,-0.4763694,-1.815136E-08,NaN,NaN,-0.02002572,1.909205E-10,-4.272533E-07,-1.146395E-07,6.991765E-09,-2.622604E-08
249.3978,0.04500394,-2.312253E-08,NaN,-0.327001,-1.366237E-07,NaN,0.4658398,-1.499884E-08,NaN,-2.145167,8.025042E-06,-0.4763694,-1.815136E-08,NaN,NaN,-0.02002572,1.909205E-10,-4.272533E-07,-1.146395E-07,6.991765E-09,-2.622604E-08
249.4115,0.04500395,-2.312146E-08,NaN,-0.327001,-1.366243E-07,NaN,0.4677781,-1.512243E-08,NaN,-2.145087,8.025703E-06,-0.4673893,-1.80256E-08,NaN,NaN,-0.0200258,1.862639E-10,-4.274023E-07,-1.14642E-07,8.183858E-09,-2.861022E-08
249.429,0.04500396,-2.312039E-08,NaN,-0.3270009,-1.366249E-07,NaN,0.4695157,-1.524489E-08,NaN,-2.14499,8.02636E-06,-0.4582032,-1.790098E-08,NaN,NaN,-0.02002461,1.862639E-10,-4.127992E-07,-1.146444E-07,5.799672E-09,-2.622604E-08
249.4424,0.04500397,-2.311932E-08,NaN,-0.3270009,-1.366255E-07,NaN,0.470999,-1.536622E-08,NaN,-2.144896,8.027021E-06,-0.4492172,-1.777748E-08,NaN,NaN,-0.02002352,1.816073E-10,-4.001332E-07,-1.146469E-07,6.991765E-09,-2.861022E-08
249.4559,0.04500397,-2.311932E-08,NaN,-0.3270009,-1.366255E-07,NaN,0.470999,-1.536622E-08,NaN,-2.144896,8.027021E-06,-0.4492172,-1.777748E-08,NaN,NaN,-0.02002352,1.816073E-10,-4.001332E-07,-1.146469E-07,6.991765E-09,-2.861022E-08
249.4701,0.04500398,-2.311824E-08,NaN,-0.3270009,-1.366261E-07,NaN,0.4732225,-1.548645E-08,NaN,-2.144786,8.027669E-06,-0.438179,-1.765508E-08,NaN,NaN,-0.02002333,1.909206E-10,-3.96706E-07,-1.146493E-07,5.799673E-09,-2.622604E-08
249.4854,0.045004,-2.311717E-08,NaN,-0.3270009,-1.366267E-07,NaN,0.4752016,-1.560561E-08,NaN,-2.144663,8.02833E-06,-0.4269924,-1.753375E-08,NaN,NaN,-0.02002197,1.862639E-10,-3.797186E-07,-1.146518E-07,3.415487E-09,-2.861022E-08
249.5001,0.04500401,-2.31161E-08,NaN,-0.3270008,-1.366272E-07,NaN,0.4769019,-1.572371E-08,NaN,-2.144545,8.028986E-06,-0.4160541,-1.741348E-08,NaN,NaN,-0.02002073,1.862639E-10,-3.628803E-07,-1.146542E-07,3.415487E-09,-2.622604E-08
249.5146,0.04500401,-2.31161E-08,NaN,-0.3270008,-1.366272E-07,NaN,0.4769019,-1.572371E-08,NaN,-2.144545,8.028986E-06,-0.4160541,-1.741348E-08,NaN,NaN,-0.02002073,1.862639E-10,-3.628803E-07,-1.146542E-07,3.415487E-09,-2.622604E-08
249.5287,0.04500402,-2.311502E-08,NaN,-0.3270008,-1.366278E-07,NaN,0.4784222,-1.583937E-08,NaN,-2.144438,8.029648E-06,-0.405381,-1.729566E-08,NaN,NaN,-0.02001967,1.816073E-10,-3.505124E-07,-1.146566E-07,2.223394E-09,-2.861022E-08
249.544,0.04500403,-2.311395E-08,NaN,-0.3270008,-1.366284E-07,NaN,0.4807335,-1.595403E-08,NaN,-2.144318,8.030295E-06,-0.3926653,-1.717883E-08,NaN,NaN,-0.02001939,1.909206E-10,-3.475321E-07,-1.14659E-07,2.223394E-09,-2.622604E-08
249.5585,0.04500403,-2.311395E-08,NaN,-0.3270008,-1.366284E-07,NaN,0.4807335,-1.595403E-08,NaN,-2.144318,8.030295E-06,-0.3926653,-1.717883E-08,NaN,NaN,-0.02001939,1.909206E-10,-3.475321E-07,-1.14659E-07,2.223394E-09,-2.622604E-08
249.5727,0.04500405,-2.311288E-08,NaN,-0.3270007,-1.366289E-07,NaN,0.4828182,-1.606774E-08,NaN,-2.144186,8.030952E-06,-0.3798265,-1.706296E-08,NaN,NaN,-0.02001798,1.909206E-10,-3.269685E-07,-1.146614E-07,4.60758E-09,-2.861022E-08
249.5881,0.04500406,-2.311181E-08,NaN,-0.3270007,-1.366295E-07,NaN,0.4846299,-1.618049E-08,NaN,-2.144059,8.031609E-06,-0.3672642,-1.694804E-08,NaN,NaN,-0.02001668,1.909206E-10,-3.075225E-07,-1.146638E-07,4.60758E-09,-2.622604E-08
249.6027,0.04500407,-2.311073E-08,NaN,-0.3270007,-1.366301E-07,NaN,0.4862615,-1.629231E-08,NaN,-2.143944,8.03227E-06,-0.3549965,-1.683405E-08,NaN,NaN,-0.02001554,1.86264E-10,-2.910568E-07,-1.146662E-07,4.60758E-09,-2.861022E-08
249.6174,0.04500407,-2.311073E-08,NaN,-0.3270007,-1.366301E-07,NaN,0.4862615,-1.629231E-08,NaN,-2.143944,8.03227E-06,-0.3549965,-1.683405E-08,NaN,NaN,-0.02001554,1.86264E-10,-2.910568E-07,-1.146662E-07,4.60758E-09,-2.861022E-08
249.6313,0.04500409,-2.310966E-08,NaN,-0.3270006,-1.366306E-07,NaN,0.4886808,-1.640181E-08,NaN,-2.143818,8.032917E-06,-0.3407086,-1.672239E-08,NaN,NaN,-0.02001513,1.955772E-10,-2.87257E-07,-1.146686E-07,5.799673E-09,-2.622604E-08
249.6467,0.0450041,-2.310858E-08,NaN,-0.3270006,-1.366312E-07,NaN,0.490864,-1.651044E-08,NaN,-2.143682,8.033579E-06,-0.3263338,-1.661159E-08,NaN,NaN,-0.02001368,1.909206E-10,-2.650542E-07,-1.146709E-07,3.415487E-09,-2.861022E-08
249.6614,0.04500412,-2.310751E-08,NaN,-0.3270006,-1.366318E-07,NaN,0.492768,-1.661822E-08,NaN,-2.143552,8.034235E-06,-0.3122682,-1.650164E-08,NaN,NaN,-0.02001236,1.909206E-10,-2.418084E-07,-1.146733E-07,1.031301E-09,-2.622604E-08
249.6764,0.04500412,-2.310751E-08,NaN,-0.3270006,-1.366318E-07,NaN,0.492768,-1.661822E-08,NaN,-2.143552,8.034235E-06,-0.3122682,-1.650164E-08,NaN,NaN,-0.02001236,1.909206E-10,-2.418084E-07,-1.146733E-07,1.031301E-09,-2.622604E-08
249.6901,0.04500414,-2.310643E-08,NaN,-0.3270006,-1.366323E-07,NaN,0.4953919,-1.672517E-08,NaN,-2.143415,8.034892E-06,-0.296231,-1.639252E-08,NaN,NaN,-0.02001176,1.909206E-10,-2.32132E-07,-1.146757E-07,1.031301E-09,-2.861022E-08
249.7074,0.04500416,-2.310536E-08,NaN,-0.3270005,-1.366329E-07,NaN,0.4977388,-1.683131E-08,NaN,-2.14327,8.035539E-06,-0.2801599,-1.628422E-08,NaN,NaN,-0.02001028,2.002338E-10,-2.059618E-07,-1.14678E-07,2.223394E-09,-2.622604E-08
249.7208,0.04500417,-2.310428E-08,NaN,-0.3270005,-1.366334E-07,NaN,0.4997855,-1.693524E-08,NaN,-2.143136,8.036192E-06,-0.2644404,-1.617812E-08,NaN,NaN,-0.02000895,2.048904E-10,-1.821572E-07,-1.146803E-07,2.223394E-09,-2.861022E-08
249.7346,0.04500417,-2.310428E-08,NaN,-0.3270005,-1.366334E-07,NaN,0.4997855,-1.693524E-08,NaN,-2.143136,8.036192E-06,-0.2644404,-1.617812E-08,NaN,NaN,-0.02000895,2.048904E-10,-1.821572E-07,-1.146803E-07,2.223394E-09,-2.861022E-08
249.7487,0.04500419,-2.310321E-08,NaN,-0.3270005,-1.36634E-07,NaN,0.5016353,-1.703841E-08,NaN,-2.143016,8.036844E-06,-0.2490822,-1.607278E-08,NaN,NaN,-0.02000781,2.09547E-10,-1.618917E-07,-1.146827E-07,3.415487E-09,-2.622604E-08
249.7642,0.04500421,-2.310213E-08,NaN,-0.3270004,-1.366345E-07,NaN,0.5042598,-1.714084E-08,NaN,-2.142894,8.0375E-06,-0.2317526,-1.596819E-08,NaN,NaN,-0.02000724,2.09547E-10,-1.511628E-07,-1.14685E-07,2.223394E-09,-2.861022E-08
249.7785,0.04500421,-2.310213E-08,NaN,-0.3270004,-1.366345E-07,NaN,0.5042598,-1.714084E-08,NaN,-2.142894,8.0375E-06,-0.2317526,-1.596819E-08,NaN,NaN,-0.02000724,2.09547E-10,-1.511628E-07,-1.14685E-07,2.223394E-09,-2.861022E-08
249.7926,0.04500423,-2.310106E-08,NaN,-0.3270004,-1.366351E-07,NaN,0.506628,-1.724254E-08,NaN,-2.142767,8.038148E-06,-0.2144076,-1.586432E-08,NaN,NaN,-0.02000594,2.188603E-10,-1.207645E-07,-1.146873E-07,1.031301E-09,-2.622604E-08
249.8093,0.04500424,-2.309998E-08,NaN,-0.3270004,-1.366356E-07,NaN,0.5087051,-1.734353E-08,NaN,-2.142651,8.038804E-06,-0.1974355,-1.576116E-08,NaN,NaN,-0.02000479,2.188603E-10,-9.453841E-08,-1.146896E-07,2.223394E-09,-2.861022E-08
249.8224,0.04500426,-2.309891E-08,NaN,-0.3270003,-1.366362E-07,NaN,0.5105886,-1.74424E-08,NaN,-2.142551,8.039461E-06,-0.1808471,-1.566012E-08,NaN,NaN,-0.0200038,2.188603E-10,-6.905742E-08,-1.146919E-07,2.223394E-09,-2.622604E-08
249.8373,0.04500426,-2.309891E-08,NaN,-0.3270003,-1.366362E-07,NaN,0.5105886,-1.74424E-08,NaN,-2.142551,8.039461E-06,-0.1808471,-1.566012E-08,NaN,NaN,-0.0200038,2.188603E-10,-6.905742E-08,-1.146919E-07,2.223394E-09,-2.622604E-08
249.8512,0.04500428,-2.309783E-08,NaN,-0.3270003,-1.366368E-07,NaN,0.5132469,-1.754062E-08,NaN,-2.142451,8.040122E-06,-0.1623036,-1.555974E-08,NaN,NaN,-0.02000328,2.142037E-10,-5.832858E-08,-1.146942E-07,-1.352884E-09,-2.861022E-08
249.8666,0.0450043,-2.309676E-08,NaN,-0.3270003,-1.366373E-07,NaN,0.5156436,-1.763961E-08,NaN,-2.142349,8.040774E-06,-0.1437738,-1.545858E-08,NaN,NaN,-0.02000223,2.188603E-10,-2.867527E-08,-1.146965E-07,-1.607916E-10,-2.622604E-08
249.8812,0.04500432,-2.309569E-08,NaN,-0.3270003,-1.366379E-07,NaN,0.517747,-1.773794E-08,NaN,-2.14226,8.041436E-06,-0.1256424,-1.535809E-08,NaN,NaN,-0.02000134,2.142037E-10,-6.504486E-11,-1.146987E-07,-4.929163E-09,-2.861022E-08
249.8959,0.04500432,-2.309569E-08,NaN,-0.3270003,-1.366379E-07,NaN,0.517747,-1.773794E-08,NaN,-2.14226,8.041436E-06,-0.1256424,-1.535809E-08,NaN,NaN,-0.02000134,2.142037E-10,-6.504486E-11,-1.146987E-07,-4.929163E-09,-2.861022E-08
249.9101,0.04500434,-2.309461E-08,NaN,-0.3270002,-1.366384E-07,NaN,0.5205601,-1.78342E-08,NaN,-2.142174,8.042088E-06,-0.1056028,-1.525966E-08,NaN,NaN,-0.02000086,2.188603E-10,1.617722E-08,-1.14701E-07,-9.697534E-09,-2.622604E-08
249.9253,0.04500436,-2.309354E-08,NaN,-0.3270002,-1.366389E-07,NaN,0.5230758,-1.792986E-08,NaN,-2.142092,8.042749E-06,-0.08562368,-1.516183E-08,NaN,NaN,-0.02000007,2.142037E-10,4.836373E-08,-1.147033E-07,-6.121256E-09,-2.861022E-08
249.9398,0.04500436,-2.309354E-08,NaN,-0.3270002,-1.366389E-07,NaN,0.5230758,-1.792986E-08,NaN,-2.142092,8.042749E-06,-0.08562368,-1.516183E-08,NaN,NaN,-0.02000007,2.142037E-10,4.836373E-08,-1.147033E-07,-6.121256E-09,-2.861022E-08
249.9538,0.04500438,-2.309246E-08,NaN,-0.3270002,-1.366395E-07,NaN,0.525281,-1.802493E-08,NaN,-2.142024,8.043401E-06,-0.06607981,-1.50646E-08,NaN,NaN,-0.01999945,2.188603E-10,7.906011E-08,-1.147055E-07,-7.313348E-09,-2.622604E-08
249.9691,0.0450044,-2.309139E-08,NaN,-0.3270001,-1.3664E-07,NaN,0.5272824,-1.811942E-08,NaN,-2.141975,8.044062E-06,-0.04697466,-1.496795E-08,NaN,NaN,-0.019999,2.142037E-10,1.064783E-07,-1.147078E-07,-4.929162E-09,-2.861022E-08
249.9858,0.04500443,-2.309031E-08,NaN,-0.3270001,-1.366406E-07,NaN,0.5300512,-1.821192E-08,NaN,-2.141935,8.044714E-06,-0.02595827,-1.487328E-08,NaN,NaN,-0.01999878,2.188603E-10,1.249557E-07,-1.1471E-07,-7.313348E-09,-2.622604E-08
249.9994,0.04500443,-2.309031E-08,NaN,-0.3270001,-1.366406E-07,NaN,0.5300512,-1.821192E-08,NaN,-2.141935,8.044714E-06,-0.02595827,-1.487328E-08,NaN,NaN,-0.01999878,2.188603E-10,1.249557E-07,-1.1471E-07,-7.313348E-09,-2.622604E-08
250.0136,0.04500445,-2.308924E-08,NaN,-0.3270001,-1.366411E-07,NaN,0.5325487,-1.830388E-08,NaN,-2.141901,8.04538E-06,-0.005011875,-1.477915E-08,NaN,NaN,-0.01999851,2.09547E-10,1.619106E-07,-1.147122E-07,-6.121256E-09,-2.861022E-08
250.0277,0.04500447,-2.308816E-08,NaN,-0.3270001,-1.366416E-07,NaN,0.5347481,-1.839533E-08,NaN,-2.141882,8.046032E-06,0.01548508,-1.468554E-08,NaN,NaN,-0.01999839,2.142036E-10,1.93203E-07,-1.147144E-07,-8.505442E-09,-2.622604E-08
250.0424,0.04500449,-2.308709E-08,NaN,-0.327,-1.366422E-07,NaN,0.5367496,-1.848626E-08,NaN,-2.141882,8.046693E-06,0.03552679,-1.459244E-08,NaN,NaN,-0.01999841,2.09547E-10,2.209192E-07,-1.147166E-07,-7.313349E-09,-2.861022E-08
250.0569,0.04500449,-2.308709E-08,NaN,-0.327,-1.366422E-07,NaN,0.5367496,-1.848626E-08,NaN,-2.141882,8.046693E-06,0.03552679,-1.459244E-08,NaN,NaN,-0.01999841,2.09547E-10,2.209192E-07,-1.147166E-07,-7.313349E-09,-2.861022E-08
250.0708,0.04500452,-2.308601E-08,NaN,-0.327,-1.366427E-07,NaN,0.5395208,-1.857669E-08,NaN,-2.141895,8.047346E-06,0.05746297,-1.449984E-08,NaN,NaN,-0.01999852,2.142036E-10,2.376085E-07,-1.147188E-07,-6.121256E-09,-2.622604E-08
250.0864,0.04500454,-2.308494E-08,NaN,-0.327,-1.366433E-07,NaN,0.5420218,-1.866522E-08,NaN,-2.141916,8.048007E-06,0.07931006,-1.440915E-08,NaN,NaN,-0.01999886,2.09547E-10,2.763515E-07,-1.14721E-07,-7.313349E-09,-2.861022E-08
250.1011,0.04500456,-2.308386E-08,NaN,-0.3269999,-1.366438E-07,NaN,0.5442259,-1.875329E-08,NaN,-2.141954,8.048659E-06,0.1006895,-1.431891E-08,NaN,NaN,-0.01999933,2.142036E-10,3.115182E-07,-1.147232E-07,-7.313349E-09,-2.622604E-08
250.1158,0.04500456,-2.308386E-08,NaN,-0.3269999,-1.366438E-07,NaN,0.5442259,-1.875329E-08,NaN,-2.141954,8.048659E-06,0.1006895,-1.431891E-08,NaN,NaN,-0.01999933,2.142036E-10,3.115182E-07,-1.147232E-07,-7.313349E-09,-2.622604E-08
250.1298,0.04500459,-2.308279E-08,NaN,-0.3269999,-1.366443E-07,NaN,0.5471366,-1.884092E-08,NaN,-2.142008,8.04932E-06,0.1239145,-1.422912E-08,NaN,NaN,-0.01999976,2.09547E-10,3.34168E-07,-1.147254E-07,-7.313349E-09,-2.861022E-08
250.1455,0.04500462,-2.308171E-08,NaN,-0.3269999,-1.366448E-07,NaN,0.5497471,-1.89267E-08,NaN,-2.142073,8.049972E-06,0.1470116,-1.414118E-08,NaN,NaN,-0.02000063,2.142036E-10,3.735071E-07,-1.147276E-07,-8.505442E-09,-2.622604E-08
250.1599,0.04500462,-2.308171E-08,NaN,-0.3269999,-1.366448E-07,NaN,0.5497471,-1.89267E-08,NaN,-2.142073,8.049972E-06,0.1470116,-1.414118E-08,NaN,NaN,-0.02000063,2.142036E-10,3.735071E-07,-1.147276E-07,-8.505442E-09,-2.622604E-08
250.1739,0.04500464,-2.308064E-08,NaN,-0.3269998,-1.366454E-07,NaN,0.5520465,-1.901208E-08,NaN,-2.142157,8.050633E-06,0.1696099,-1.405364E-08,NaN,NaN,-0.02000162,2.09547E-10,4.10462E-07,-1.147297E-07,-9.697534E-09,-2.861022E-08
250.1893,0.04500466,-2.307956E-08,NaN,-0.3269998,-1.366459E-07,NaN,0.5541415,-1.909706E-08,NaN,-2.142259,8.051285E-06,0.191708,-1.396649E-08,NaN,NaN,-0.02000269,2.142036E-10,4.450326E-07,-1.147319E-07,-1.327381E-08,-2.622604E-08
250.2043,0.04500469,-2.307849E-08,NaN,-0.3269998,-1.366464E-07,NaN,0.5570019,-1.918166E-08,NaN,-2.142381,8.051947E-06,0.2156514,-1.387972E-08,NaN,NaN,-0.02000355,2.09547E-10,4.62318E-07,-1.147341E-07,-1.446591E-08,-2.861022E-08
250.2189,0.04500469,-2.307849E-08,NaN,-0.3269998,-1.366464E-07,NaN,0.5570019,-1.918166E-08,NaN,-2.142381,8.051947E-06,0.2156514,-1.387972E-08,NaN,NaN,-0.02000355,2.09547E-10,4.62318E-07,-1.147341E-07,-1.446591E-08,-2.861022E-08
250.2326,0.04500472,-2.307742E-08,NaN,-0.3269998,-1.366469E-07,NaN,0.559595,-1.926448E-08,NaN,-2.142517,8.052599E-06,0.2394689,-1.379475E-08,NaN,NaN,-0.02000511,2.142036E-10,5.01657E-07,-1.147362E-07,-1.327381E-08,-2.622604E-08
250.2501,0.04500474,-2.307634E-08,NaN,-0.3269997,-1.366475E-07,NaN,0.5618916,-1.934695E-08,NaN,-2.14267,8.05326E-06,0.2627809,-1.371011E-08,NaN,NaN,-0.02000676,2.09547E-10,5.368238E-07,-1.147383E-07,-8.505442E-09,-2.861022E-08
250.264,0.04500477,-2.307527E-08,NaN,-0.3269997,-1.36648E-07,NaN,0.5639901,-1.942908E-08,NaN,-2.142841,8.053912E-06,0.2855815,-1.362582E-08,NaN,NaN,-0.02000843,2.142036E-10,5.690103E-07,-1.147405E-07,-9.697534E-09,-2.622604E-08
250.2791,0.04500477,-2.307527E-08,NaN,-0.3269997,-1.36648E-07,NaN,0.5639901,-1.942908E-08,NaN,-2.142841,8.053912E-06,0.2855815,-1.362582E-08,NaN,NaN,-0.02000843,2.142036E-10,5.690103E-07,-1.147405E-07,-9.697534E-09,-2.622604E-08
250.2914,0.0450048,-2.307419E-08,NaN,-0.3269997,-1.366485E-07,NaN,0.5668566,-1.951089E-08,NaN,-2.143033,8.054573E-06,0.3102055,-1.354185E-08,NaN,NaN,-0.0200097,2.09547E-10,5.886798E-07,-1.147426E-07,-9.697534E-09,-2.861022E-08
250.3068,0.04500482,-2.307312E-08,NaN,-0.3269996,-1.366499E-07,NaN,0.5694636,-1.944161E-08,NaN,-2.14324,8.055239E-06,0.3346965,-1.360897E-08,NaN,NaN,-0.02001191,2.048904E-10,6.29211E-07,-1.147412E-07,-1.088963E-08,-2.622604E-08
250.3212,0.04500485,-2.307204E-08,NaN,-0.3269996,-1.366509E-07,NaN,0.5717769,-1.945374E-08,NaN,-2.143464,8.055909E-06,0.3586714,-1.359469E-08,NaN,NaN,-0.02001416,2.002338E-10,6.631856E-07,-1.147393E-07,-1.685009E-08,-2.861022E-08
250.3361,0.04500485,-2.307204E-08,NaN,-0.3269996,-1.366509E-07,NaN,0.5717769,-1.945374E-08,NaN,-2.143464,8.055909E-06,0.3586714,-1.359469E-08,NaN,NaN,-0.02001416,2.002338E-10,6.631856E-07,-1.147393E-07,-1.685009E-08,-2.861022E-08
250.3501,0.04500487,-2.307097E-08,NaN,-0.3269996,-1.366515E-07,NaN,0.5738927,-1.95077E-08,NaN,-2.143702,8.056575E-06,0.3821223,-1.353856E-08,NaN,NaN,-0.02001638,2.002338E-10,6.947761E-07,-1.147372E-07,-1.208172E-08,-2.622604E-08
250.3653,0.04500489,-2.306989E-08,NaN,-0.3269995,-1.366519E-07,NaN,0.5758737,-1.958298E-08,NaN,-2.143953,8.057245E-06,0.4050793,-1.346112E-08,NaN,NaN,-0.02001859,1.955772E-10,7.239823E-07,-1.14735E-07,-1.446591E-08,-2.861022E-08
250.3801,0.04500492,-2.306882E-08,NaN,-0.3269995,-1.366522E-07,NaN,0.5777521,-1.966931E-08,NaN,-2.144217,8.057916E-06,0.427566,-1.337263E-08,NaN,NaN,-0.02002082,1.909206E-10,7.543807E-07,-1.147327E-07,-1.5658E-08,-2.622604E-08
250.3948,0.04500492,-2.306882E-08,NaN,-0.3269995,-1.366522E-07,NaN,0.5777521,-1.966931E-08,NaN,-2.144217,8.057916E-06,0.427566,-1.337263E-08,NaN,NaN,-0.02002082,1.909206E-10,7.543807E-07,-1.147327E-07,-1.5658E-08,-2.622604E-08
250.4091,0.04500494,-2.306774E-08,NaN,-0.3269995,-1.366524E-07,NaN,0.5795433,-1.976085E-08,NaN,-2.144493,8.058586E-06,0.4495985,-1.327892E-08,NaN,NaN,-0.02002308,1.86264E-10,7.823949E-07,-1.147304E-07,-1.5658E-08,-2.861022E-08
250.4243,0.04500495,-2.306667E-08,NaN,-0.3269995,-1.366526E-07,NaN,0.5803536,-1.985468E-08,NaN,-2.144767,8.059266E-06,0.4689082,-1.318291E-08,NaN,NaN,-0.02002601,1.722942E-10,8.169656E-07,-1.147281E-07,-1.208172E-08,-2.622604E-08
250.4389,0.04500495,-2.306667E-08,NaN,-0.3269995,-1.366526E-07,NaN,0.5803536,-1.985468E-08,NaN,-2.144767,8.059266E-06,0.4689082,-1.318291E-08,NaN,NaN,-0.02002601,1.722942E-10,8.169656E-07,-1.147281E-07,-1.208172E-08,-2.622604E-08
250.4529,0.04500496,-2.306559E-08,NaN,-0.3269995,-1.366527E-07,NaN,0.5812312,-1.994796E-08,NaN,-2.145042,8.059937E-06,0.4874446,-1.308746E-08,NaN,NaN,-0.02002777,1.676375E-10,8.34251E-07,-1.147257E-07,-1.208172E-08,-2.861022E-08
250.4683,0.04500498,-2.306452E-08,NaN,-0.3269994,-1.366529E-07,NaN,0.5822411,-2.004069E-08,NaN,-2.145324,8.060607E-06,0.505626,-1.299256E-08,NaN,NaN,-0.02002959,1.629809E-10,8.521324E-07,-1.147233E-07,-1.208172E-08,-2.622604E-08
250.4829,0.04500499,-2.306344E-08,NaN,-0.3269994,-1.36653E-07,NaN,0.5833023,-2.013147E-08,NaN,-2.145612,8.061277E-06,0.523487,-1.28996E-08,NaN,NaN,-0.02003155,1.583243E-10,8.706098E-07,-1.14721E-07,-1.327381E-08,-2.861022E-08
250.4976,0.04500499,-2.306344E-08,NaN,-0.3269994,-1.36653E-07,NaN,0.5833023,-2.013147E-08,NaN,-2.145612,8.061277E-06,0.523487,-1.28996E-08,NaN,NaN,-0.02003155,1.583243E-10,8.706098E-07,-1.14721E-07,-1.327381E-08,-2.861022E-08
250.5117,0.045005,-2.306237E-08,NaN,-0.3269994,-1.366531E-07,NaN,0.5834574,-2.021893E-08,NaN,-2.145895,8.061947E-06,0.5387498,-1.280995E-08,NaN,NaN,-0.02003429,1.536677E-10,8.956438E-07,-1.147187E-07,-1.208172E-08,-2.622604E-08
250.529,0.04500501,-2.306129E-08,NaN,-0.3269994,-1.366532E-07,NaN,0.5837146,-2.030456E-08,NaN,-2.14617,8.062618E-06,0.5533242,-1.272215E-08,NaN,NaN,-0.02003579,1.490111E-10,9.087568E-07,-1.147163E-07,-1.804218E-08,-2.861022E-08
250.5428,0.04500502,-2.306022E-08,NaN,-0.3269994,-1.366534E-07,NaN,0.5841303,-2.038697E-08,NaN,-2.146447,8.063288E-06,0.5676248,-1.263756E-08,NaN,NaN,-0.02003735,1.443545E-10,9.206777E-07,-1.14714E-07,-2.042637E-08,-2.622604E-08
250.5564,0.04500502,-2.306022E-08,NaN,-0.3269994,-1.366534E-07,NaN,0.5841303,-2.038697E-08,NaN,-2.146447,8.063288E-06,0.5676248,-1.263756E-08,NaN,NaN,-0.02003735,1.443545E-10,9.206777E-07,-1.14714E-07,-2.042637E-08,-2.622604E-08
250.5703,0.04500502,-2.305914E-08,NaN,-0.3269994,-1.366535E-07,NaN,0.5837178,-2.046764E-08,NaN,-2.146713,8.063958E-06,0.5794258,-1.255471E-08,NaN,NaN,-0.02003979,1.396979E-10,9.457117E-07,-1.147117E-07,-1.804218E-08,-2.861022E-08
250.5853,0.04500503,-2.305806E-08,NaN,-0.3269994,-1.366536E-07,NaN,0.5834486,-2.05452E-08,NaN,-2.146968,8.064629E-06,0.5906153,-1.247497E-08,NaN,NaN,-0.02004098,1.350413E-10,9.534603E-07,-1.147094E-07,-1.327381E-08,-2.622604E-08
250.6001,0.04500503,-2.305699E-08,NaN,-0.3269994,-1.366537E-07,NaN,0.5833662,-2.06197E-08,NaN,-2.147223,8.065299E-06,0.6016034,-1.239829E-08,NaN,NaN,-0.02004226,1.303847E-10,9.606129E-07,-1.147071E-07,-9.697534E-09,-2.861022E-08
250.6148,0.04500503,-2.305699E-08,NaN,-0.3269994,-1.366537E-07,NaN,0.5833662,-2.06197E-08,NaN,-2.147223,8.065299E-06,0.6016034,-1.239829E-08,NaN,NaN,-0.02004226,1.303847E-10,9.606129E-07,-1.147071E-07,-9.697534E-09,-2.861022E-08
250.629,0.04500504,-2.305591E-08,NaN,-0.3269994,-1.366538E-07,NaN,0.5833782,-2.06912E-08,NaN,-2.14748,8.065969E-06,0.6124198,-1.23246E-08,NaN,NaN,-0.02004367,1.257281E-10,9.689575E-07,-1.147048E-07,-7.313349E-09,-2.622604E-08
250.6444,0.04500504,-2.305483E-08,NaN,-0.3269994,-1.366539E-07,NaN,0.5825204,-2.076118E-08,NaN,-2.147725,8.06664E-06,0.6207997,-1.225244E-08,NaN,NaN,-0.02004592,1.210715E-10,9.892231E-07,-1.147025E-07,-7.313349E-09,-2.861022E-08
250.6589,0.04500504,-2.305483E-08,NaN,-0.3269994,-1.366539E-07,NaN,0.5825204,-2.076118E-08,NaN,-2.147725,8.06664E-06,0.6207997,-1.225244E-08,NaN,NaN,-0.02004592,1.210715E-10,9.892231E-07,-1.147025E-07,-7.313349E-09,-2.861022E-08
250.673,0.04500504,-2.305376E-08,NaN,-0.3269994,-1.36654E-07,NaN,0.5817858,-2.082826E-08,NaN,-2.147953,8.067305E-06,0.6286164,-1.218319E-08,NaN,NaN,-0.02004687,1.210715E-10,9.951835E-07,-1.147002E-07,-7.313349E-09,-2.622604E-08
250.6883,0.04500505,-2.305268E-08,NaN,-0.3269994,-1.366542E-07,NaN,0.5812379,-2.089248E-08,NaN,-2.148178,8.067976E-06,0.6362889,-1.211678E-08,NaN,NaN,-0.02004786,1.164148E-10,9.975678E-07,-1.146979E-07,-4.929163E-09,-2.861022E-08
250.7031,0.04500505,-2.305161E-08,NaN,-0.3269994,-1.366543E-07,NaN,0.5807932,-2.095674E-08,NaN,-2.148404,8.068646E-06,0.6438516,-1.205034E-08,NaN,NaN,-0.02004898,1.117582E-10,1.003528E-06,-1.146957E-07,-1.352884E-09,-2.622604E-08
250.7178,0.04500505,-2.305161E-08,NaN,-0.3269994,-1.366543E-07,NaN,0.5807932,-2.095674E-08,NaN,-2.148404,8.068646E-06,0.6438516,-1.205034E-08,NaN,NaN,-0.02004898,1.117582E-10,1.003528E-06,-1.146957E-07,-1.352884E-09,-2.622604E-08
250.7321,0.04500505,-2.305053E-08,NaN,-0.3269994,-1.366544E-07,NaN,0.5794904,-2.10182E-08,NaN,-2.148615,8.069316E-06,0.6490483,-1.19867E-08,NaN,NaN,-0.02005094,1.071016E-10,1.023794E-06,-1.146934E-07,-6.121256E-09,-2.861022E-08
250.7487,0.04500504,-2.304945E-08,NaN,-0.3269994,-1.366545E-07,NaN,0.5783198,-2.107693E-08,NaN,-2.148807,8.069987E-06,0.6537388,-1.19258E-08,NaN,NaN,-0.02005161,1.02445E-10,1.026178E-06,-1.146912E-07,-7.313348E-09,-2.622604E-08
250.7622,0.04500504,-2.304838E-08,NaN,-0.3269994,-1.366546E-07,NaN,0.5773486,-2.113296E-08,NaN,-2.148993,8.070671E-06,0.6583446,-1.186758E-08,NaN,NaN,-0.02005231,9.313177E-11,1.02737E-06,-1.146889E-07,-7.313348E-09,-2.861022E-08
250.7767,0.04500504,-2.304838E-08,NaN,-0.3269994,-1.366546E-07,NaN,0.5773486,-2.113296E-08,NaN,-2.148993,8.070671E-06,0.6583446,-1.186758E-08,NaN,NaN,-0.02005231,9.313177E-11,1.02737E-06,-1.146889E-07,-7.313348E-09,-2.861022E-08
250.7928,0.04500503,-2.30473E-08,NaN,-0.3269994,-1.366547E-07,NaN,0.5755928,-2.118778E-08,NaN,-2.149163,8.071352E-06,0.6606624,-1.181058E-08,NaN,NaN,-0.02005393,9.313177E-11,1.036907E-06,-1.146867E-07,-6.121256E-09,-2.622604E-08
250.807,0.04500503,-2.304622E-08,NaN,-0.3269994,-1.366548E-07,NaN,0.574012,-2.123998E-08,NaN,-2.149312,8.072037E-06,0.6625419,-1.17562E-08,NaN,NaN,-0.02005431,8.847516E-11,1.030946E-06,-1.146845E-07,-1.352884E-09,-2.861022E-08
250.8205,0.04500502,-2.304514E-08,NaN,-0.3269994,-1.366549E-07,NaN,0.5726585,-2.128962E-08,NaN,-2.149457,8.072717E-06,0.6643984,-1.170438E-08,NaN,NaN,-0.02005476,8.847516E-11,1.028562E-06,-1.146823E-07,-1.352884E-09,-2.622604E-08
250.8354,0.04500502,-2.304514E-08,NaN,-0.3269994,-1.366549E-07,NaN,0.5726585,-2.128962E-08,NaN,-2.149457,8.072717E-06,0.6643984,-1.170438E-08,NaN,NaN,-0.02005476,8.847516E-11,1.028562E-06,-1.146823E-07,-1.352884E-09,-2.622604E-08
250.8493,0.04500502,-2.304407E-08,NaN,-0.3269994,-1.36655E-07,NaN,0.5714419,-2.133817E-08,NaN,-2.149604,8.073402E-06,0.6662629,-1.165365E-08,NaN,NaN,-0.02005534,8.381854E-11,1.02737E-06,-1.146801E-07,-1.607912E-10,-2.861022E-08
250.8648,0.04500501,-2.304299E-08,NaN,-0.3269994,-1.366551E-07,NaN,0.5693963,-2.138423E-08,NaN,-2.149738,8.074082E-06,0.6658821,-1.160541E-08,NaN,NaN,-0.0200568,8.381854E-11,1.040483E-06,-1.146779E-07,-2.544977E-09,-2.622604E-08
250.8795,0.04500501,-2.304299E-08,NaN,-0.3269994,-1.366551E-07,NaN,0.5693963,-2.138423E-08,NaN,-2.149738,8.074082E-06,0.6658821,-1.160541E-08,NaN,NaN,-0.0200568,8.381854E-11,1.040483E-06,-1.146779E-07,-2.544977E-09,-2.622604E-08
250.8936,0.045005,-2.304191E-08,NaN,-0.3269994,-1.366552E-07,NaN,0.5675066,-2.142785E-08,NaN,-2.149848,8.074762E-06,0.6651009,-1.155961E-08,NaN,NaN,-0.02005696,8.381854E-11,1.03333E-06,-1.146757E-07,-2.544977E-09,-2.861022E-08
250.9094,0.04500499,-2.304083E-08,NaN,-0.3269994,-1.366553E-07,NaN,0.5658422,-2.146908E-08,NaN,-2.149952,8.075443E-06,0.6643412,-1.15162E-08,NaN,NaN,-0.02005717,8.381854E-11,1.02737E-06,-1.146735E-07,2.223395E-09,-2.622604E-08
250.9237,0.04500498,-2.303975E-08,NaN,-0.3269994,-1.366554E-07,NaN,0.5643205,-2.150937E-08,NaN,-2.150058,8.076123E-06,0.6636375,-1.147372E-08,NaN,NaN,-0.02005752,8.381854E-11,1.023794E-06,-1.146713E-07,2.223395E-09,-2.861022E-08
250.9384,0.04500498,-2.303975E-08,NaN,-0.3269994,-1.366554E-07,NaN,0.5643205,-2.150937E-08,NaN,-2.150058,8.076123E-06,0.6636375,-1.147372E-08,NaN,NaN,-0.02005752,8.381854E-11,1.023794E-06,-1.146713E-07,2.223395E-09,-2.861022E-08
250.9526,0.04500497,-2.303867E-08,NaN,-0.3269995,-1.366555E-07,NaN,0.5619782,-2.158754E-08,NaN,-2.150149,8.076812E-06,0.6607379,-1.139338E-08,NaN,NaN,-0.02005873,6.98487E-11,1.032138E-06,-1.146692E-07,4.60758E-09,-2.622604E-08
250.968,0.04500496,-2.30376E-08,NaN,-0.3269995,-1.366556E-07,NaN,0.5598022,-2.166406E-08,NaN,-2.150217,8.077483E-06,0.6574863,-1.131468E-08,NaN,NaN,-0.02005866,6.98487E-11,1.022602E-06,-1.14667E-07,6.991766E-09,-2.622604E-08
250.9825,0.04500495,-2.303652E-08,NaN,-0.3269995,-1.366557E-07,NaN,0.5578628,-2.173754E-08,NaN,-2.150278,8.078157E-06,0.6543043,-1.123902E-08,NaN,NaN,-0.02005863,6.519209E-11,1.015449E-06,-1.146648E-07,1.176014E-08,-2.622604E-08
250.9974,0.04500495,-2.303652E-08,NaN,-0.3269995,-1.366557E-07,NaN,0.5578628,-2.173754E-08,NaN,-2.150278,8.078157E-06,0.6543043,-1.123902E-08,NaN,NaN,-0.02005863,6.519209E-11,1.015449E-06,-1.146648E-07,1.176014E-08,-2.622604E-08
251.0116,0.04500493,-2.303544E-08,NaN,-0.3269995,-1.366558E-07,NaN,0.5551742,-2.180805E-08,NaN,-2.150325,8.078828E-06,0.6489897,-1.116632E-08,NaN,NaN,-0.02005954,6.519209E-11,1.022602E-06,-1.146627E-07,5.799674E-09,-2.622604E-08
251.0269,0.04500491,-2.303436E-08,NaN,-0.3269995,-1.366559E-07,NaN,0.5526965,-2.187707E-08,NaN,-2.150348,8.079503E-06,0.6433848,-1.109513E-08,NaN,NaN,-0.02005921,6.053547E-11,1.015449E-06,-1.146606E-07,5.799674E-09,-2.622604E-08
251.0415,0.0450049,-2.303328E-08,NaN,-0.3269996,-1.36656E-07,NaN,0.5504822,-2.19432E-08,NaN,-2.150366,8.080173E-06,0.6379037,-1.102683E-08,NaN,NaN,-0.02005895,6.053547E-11,1.007104E-06,-1.146584E-07,5.799674E-09,-2.622604E-08
251.0573,0.0450049,-2.303328E-08,NaN,-0.3269996,-1.36656E-07,NaN,0.5504822,-2.19432E-08,NaN,-2.150366,8.080173E-06,0.6379037,-1.102683E-08,NaN,NaN,-0.02005895,6.053547E-11,1.007104E-06,-1.146584E-07,5.799674E-09,-2.622604E-08
251.0709,0.04500489,-2.303221E-08,NaN,-0.3269996,-1.366561E-07,NaN,0.5484398,-2.20065E-08,NaN,-2.150389,8.080848E-06,0.632575,-1.096135E-08,NaN,NaN,-0.02005884,5.587886E-11,9.999518E-07,-1.146563E-07,6.991766E-09,-2.622604E-08
251.0856,0.04500487,-2.303113E-08,NaN,-0.3269996,-1.366562E-07,NaN,0.5456005,-2.206702E-08,NaN,-2.1504,8.081518E-06,0.6251387,-1.089865E-08,NaN,NaN,-0.02005961,5.587886E-11,1.002336E-06,-1.146542E-07,6.991766E-09,-2.622604E-08
251.1,0.04500485,-2.303005E-08,NaN,-0.3269996,-1.366563E-07,NaN,0.5429536,-2.212625E-08,NaN,-2.150387,8.082193E-06,0.6174428,-1.083724E-08,NaN,NaN,-0.02005909,5.122225E-11,9.910111E-07,-1.146521E-07,5.799674E-09,-2.622604E-08
251.1146,0.04500485,-2.303005E-08,NaN,-0.3269996,-1.366563E-07,NaN,0.5429536,-2.212625E-08,NaN,-2.150387,8.082193E-06,0.6174428,-1.083724E-08,NaN,NaN,-0.02005909,5.122225E-11,9.910111E-07,-1.146521E-07,5.799674E-09,-2.622604E-08
251.1288,0.04500484,-2.302897E-08,NaN,-0.3269997,-1.366564E-07,NaN,0.5405659,-2.218279E-08,NaN,-2.150368,8.082863E-06,0.6099058,-1.077853E-08,NaN,NaN,-0.02005863,5.122225E-11,9.778981E-07,-1.1465E-07,4.607581E-09,-2.622604E-08
251.1442,0.04500482,-2.302789E-08,NaN,-0.3269997,-1.366565E-07,NaN,0.5383528,-2.223668E-08,NaN,-2.150354,8.083538E-06,0.6025586,-1.072246E-08,NaN,NaN,-0.0200583,4.656564E-11,9.671693E-07,-1.146479E-07,6.991767E-09,-2.622604E-08
251.159,0.04500482,-2.302789E-08,NaN,-0.3269997,-1.366565E-07,NaN,0.5383528,-2.223668E-08,NaN,-2.150354,8.083538E-06,0.6025586,-1.072246E-08,NaN,NaN,-0.0200583,4.656564E-11,9.671693E-07,-1.146479E-07,6.991767E-09,-2.622604E-08
251.1731,0.0450048,-2.302681E-08,NaN,-0.3269997,-1.366566E-07,NaN,0.5353478,-2.22894E-08,NaN,-2.150329,8.084213E-06,0.5931367,-1.066757E-08,NaN,NaN,-0.02005884,4.190902E-11,9.665732E-07,-1.146458E-07,6.991767E-09,-2.622604E-08
251.1882,0.04500478,-2.302574E-08,NaN,-0.3269998,-1.366567E-07,NaN,0.532546,-2.233956E-08,NaN,-2.15028,8.084888E-06,0.5834969,-1.061524E-08,NaN,NaN,-0.0200581,3.725241E-11,9.51076E-07,-1.146438E-07,5.799674E-09,-2.622604E-08
251.2031,0.04500476,-2.302466E-08,NaN,-0.3269998,-1.366568E-07,NaN,0.5300125,-2.23872E-08,NaN,-2.150225,8.085553E-06,0.5740556,-1.056542E-08,NaN,NaN,-0.02005741,4.190902E-11,9.37367E-07,-1.146417E-07,3.415488E-09,-2.622604E-08
251.2191,0.04500476,-2.302466E-08,NaN,-0.3269998,-1.366568E-07,NaN,0.5300125,-2.23872E-08,NaN,-2.150225,8.085553E-06,0.5740556,-1.056542E-08,NaN,NaN,-0.02005741,4.190902E-11,9.37367E-07,-1.146417E-07,3.415488E-09,-2.622604E-08
251.2319,0.04500474,-2.302358E-08,NaN,-0.3269998,-1.366568E-07,NaN,0.5267566,-2.243378E-08,NaN,-2.150161,8.086219E-06,0.5625924,-1.051666E-08,NaN,NaN,-0.02005764,4.656564E-11,9.37367E-07,-1.146396E-07,1.031302E-09,-2.622604E-08
251.2474,0.04500472,-2.30225E-08,NaN,-0.3269998,-1.366569E-07,NaN,0.5237482,-2.247792E-08,NaN,-2.150073,8.086894E-06,0.5509685,-1.047035E-08,NaN,NaN,-0.02005666,4.190902E-11,9.182935E-07,-1.146376E-07,1.031302E-09,-2.622604E-08
251.2622,0.0450047,-2.302142E-08,NaN,-0.3269999,-1.36657E-07,NaN,0.5210332,-2.251967E-08,NaN,-2.149982,8.087569E-06,0.5395912,-1.042643E-08,NaN,NaN,-0.02005575,3.725241E-11,9.004121E-07,-1.146355E-07,4.607581E-09,-2.622604E-08
251.2767,0.0450047,-2.302142E-08,NaN,-0.3269999,-1.36657E-07,NaN,0.5210332,-2.251967E-08,NaN,-2.149982,8.087569E-06,0.5395912,-1.042643E-08,NaN,NaN,-0.02005575,3.725241E-11,9.004121E-07,-1.146355E-07,4.607581E-09,-2.622604E-08
251.2907,0.04500468,-2.302034E-08,NaN,-0.3269999,-1.366571E-07,NaN,0.5185161,-2.256047E-08,NaN,-2.149899,8.088244E-06,0.5284835,-1.038345E-08,NaN,NaN,-0.020055,3.25958E-11,8.86107E-07,-1.146335E-07,8.18386E-09,-2.622604E-08
251.3062,0.04500465,-2.301926E-08,NaN,-0.3269999,-1.366572E-07,NaN,0.5152247,-2.259895E-08,NaN,-2.149811,8.088919E-06,0.5153641,-1.03428E-08,NaN,NaN,-0.02005508,2.793919E-11,8.849149E-07,-1.146315E-07,4.607581E-09,-2.622604E-08
251.3216,0.04500463,-2.301818E-08,NaN,-0.327,-1.366573E-07,NaN,0.5121622,-2.263655E-08,NaN,-2.149699,8.089584E-06,0.5021091,-1.030302E-08,NaN,NaN,-0.02005392,3.25958E-11,8.634572E-07,-1.146294E-07,6.991767E-09,-2.622604E-08
251.3354,0.04500463,-2.301818E-08,NaN,-0.327,-1.366573E-07,NaN,0.5121622,-2.263655E-08,NaN,-2.149699,8.089584E-06,0.5021091,-1.030302E-08,NaN,NaN,-0.02005392,3.25958E-11,8.634572E-07,-1.146294E-07,6.991767E-09,-2.622604E-08
251.3495,0.04500461,-2.30171E-08,NaN,-0.327,-1.366573E-07,NaN,0.5093864,-2.267188E-08,NaN,-2.149585,8.09025E-06,0.4891284,-1.026552E-08,NaN,NaN,-0.02005283,3.725241E-11,8.431916E-07,-1.146274E-07,5.799674E-09,-2.622604E-08
251.3646,0.0450046,-2.301602E-08,NaN,-0.327,-1.366574E-07,NaN,0.5068078,-2.270498E-08,NaN,-2.149478,8.090925E-06,0.4764463,-1.023024E-08,NaN,NaN,-0.02005189,3.25958E-11,8.247142E-07,-1.146254E-07,5.799674E-09,-2.622604E-08
251.3795,0.0450046,-2.301602E-08,NaN,-0.327,-1.366574E-07,NaN,0.5068078,-2.270498E-08,NaN,-2.149478,8.090925E-06,0.4764463,-1.023024E-08,NaN,NaN,-0.02005189,3.25958E-11,8.247142E-07,-1.146254E-07,5.799674E-09,-2.622604E-08
251.3935,0.04500457,-2.301494E-08,NaN,-0.3270001,-1.366575E-07,NaN,0.5034567,-2.273732E-08,NaN,-2.149368,8.0916E-06,0.4617733,-1.019572E-08,NaN,NaN,-0.02005174,2.793919E-11,8.175616E-07,-1.146234E-07,9.375952E-09,-2.622604E-08
251.4091,0.04500455,-2.301386E-08,NaN,-0.3270001,-1.366576E-07,NaN,0.5003444,-2.276749E-08,NaN,-2.149236,8.092275E-06,0.4470011,-1.016337E-08,NaN,NaN,-0.0200504,2.328258E-11,7.96104E-07,-1.146214E-07,5.799674E-09,-2.622604E-08
