JMolnar6/NonAnthroHands_User_Study/HandsLoggerWithURDF/tempdata/PID 0 (test)/files/Reachy_PID0_JointMotion_gesture_9_5.csv
Time,r_shoulder,r_shoulder_x,r_upper_arm,r_forearm,r_wrist,r_wrist2hand,
858.8296,-0.01411219,-0.9005379,-1.559832,-2.093702,0.3733418,-0.09255025
858.8441,-0.01411113,-0.9005989,-1.559856,-2.093884,0.3733803,-0.09254634
858.8585,-0.01411113,-0.9005989,-1.559856,-2.093884,0.3733803,-0.09254634
858.8723,-0.01411008,-0.9006593,-1.55988,-2.094064,0.373418,-0.09254251
858.8877,-0.01410903,-0.9007189,-1.559904,-2.094241,0.3734549,-0.09253875
858.9021,-0.01410798,-0.9007778,-1.559927,-2.094415,0.373491,-0.09253506
858.9167,-0.01410798,-0.9007778,-1.559927,-2.094415,0.373491,-0.09253506
858.9307,-0.01410694,-0.9008359,-1.55995,-2.094587,0.3735263,-0.09253145
858.9461,-0.0141059,-0.9008934,-1.559973,-2.094757,0.3735608,-0.0925279
858.9608,-0.01410487,-0.9009502,-1.559996,-2.094924,0.3735947,-0.09252443
858.9763,-0.01410487,-0.9009502,-1.559996,-2.094924,0.3735947,-0.09252443
858.9895,-0.01410383,-0.9010063,-1.560018,-2.095089,0.3736278,-0.09252103
859.0048,-0.0141028,-0.9010618,-1.56004,-2.095252,0.3736602,-0.09251769
859.0195,-0.0141028,-0.9010618,-1.56004,-2.095252,0.3736602,-0.09251769
859.0335,-0.01410178,-0.9011165,-1.560062,-2.095413,0.3736919,-0.09251441
859.0487,-0.01410075,-0.9011707,-1.560084,-2.095571,0.3737229,-0.0925112
859.0643,-0.01409973,-0.9012241,-1.560106,-2.095727,0.3737532,-0.09250805
859.0793,-0.01409973,-0.9012241,-1.560106,-2.095727,0.3737532,-0.09250805
859.093,-0.01409872,-0.901277,-1.560127,-2.095881,0.3737829,-0.09250496
859.1074,-0.0140977,-0.9013292,-1.560148,-2.096033,0.373812,-0.09250192
859.1218,-0.01409669,-0.9013808,-1.560169,-2.096183,0.3738404,-0.09249895
859.1366,-0.01409669,-0.9013808,-1.560169,-2.096183,0.3738404,-0.09249895
859.1503,-0.01409568,-0.9014318,-1.56019,-2.09633,0.3738682,-0.09249604
859.1655,-0.01409468,-0.9014822,-1.560211,-2.096476,0.3738954,-0.09249318
859.1803,-0.01409368,-0.9015319,-1.560231,-2.09662,0.373922,-0.09249038
859.1948,-0.01409368,-0.9015319,-1.560231,-2.09662,0.373922,-0.09249038
859.2092,-0.01409268,-0.9015811,-1.560251,-2.096761,0.3739481,-0.09248763
859.2243,-0.01409168,-0.9016297,-1.560271,-2.096901,0.3739736,-0.09248494
859.2391,-0.01409168,-0.9016297,-1.560271,-2.096901,0.3739736,-0.09248494
859.2531,-0.01409069,-0.9016777,-1.560291,-2.097039,0.3739985,-0.0924823
859.2683,-0.0140897,-0.9017251,-1.56031,-2.097174,0.3740229,-0.09247971
859.2831,-0.01408872,-0.901772,-1.56033,-2.097308,0.3740467,-0.09247717
859.2979,-0.01408872,-0.901772,-1.56033,-2.097308,0.3740467,-0.09247717
859.3118,-0.01408773,-0.9018183,-1.560349,-2.09744,0.37407,-0.09247468
859.3273,-0.01408675,-0.9018641,-1.560368,-2.09757,0.3740929,-0.09247223
859.3442,-0.01408578,-0.9019093,-1.560386,-2.097699,0.3741152,-0.09246984
859.3577,-0.01408578,-0.9019093,-1.560386,-2.097699,0.3741152,-0.09246984
859.3706,-0.0140848,-0.901954,-1.560405,-2.097826,0.374137,-0.09246749
859.3858,-0.01408383,-0.9019982,-1.560423,-2.09795,0.3741584,-0.09246519
859.4003,-0.01408286,-0.9020418,-1.560441,-2.098073,0.3741793,-0.09246293
859.4149,-0.01408286,-0.9020418,-1.560441,-2.098073,0.3741793,-0.09246293
859.429,-0.0140819,-0.9020849,-1.560459,-2.098195,0.3741997,-0.09246072
859.4443,-0.01408094,-0.9021274,-1.560477,-2.098315,0.3742197,-0.09245855
859.4589,-0.01408094,-0.9021274,-1.560477,-2.098315,0.3742197,-0.09245855
859.4728,-0.01407998,-0.9021695,-1.560495,-2.098433,0.3742393,-0.09245642
859.4882,-0.01407902,-0.9022111,-1.560512,-2.098549,0.3742584,-0.09245434
859.5031,-0.01407807,-0.9022521,-1.560529,-2.098664,0.3742771,-0.09245229
859.5175,-0.01407807,-0.9022521,-1.560529,-2.098664,0.3742771,-0.09245229
859.5317,-0.01407712,-0.9022927,-1.560546,-2.098777,0.3742954,-0.09245028
859.5469,-0.01407618,-0.9023328,-1.560563,-2.098889,0.3743133,-0.09244832
859.5615,-0.01407523,-0.9023725,-1.56058,-2.098999,0.3743308,-0.09244639
859.5764,-0.01407523,-0.9023725,-1.56058,-2.098999,0.3743308,-0.09244639
859.5901,-0.01407429,-0.9024116,-1.560596,-2.099108,0.3743479,-0.09244449
859.6055,-0.01407336,-0.9024503,-1.560612,-2.099215,0.3743646,-0.09244264
859.6209,-0.01407242,-0.9024885,-1.560629,-2.099321,0.374381,-0.09244082
859.6358,-0.01407242,-0.9024885,-1.560629,-2.099321,0.374381,-0.09244082
859.6495,-0.01407149,-0.9025263,-1.560645,-2.099425,0.374397,-0.09243903
859.6639,-0.01407056,-0.9025636,-1.56066,-2.099528,0.3744127,-0.09243728
859.6785,-0.01407056,-0.9025636,-1.56066,-2.099528,0.3744127,-0.09243728
859.6924,-0.01406964,-0.9026004,-1.560676,-2.099629,0.3744279,-0.09243557
859.7079,-0.01406872,-0.9026368,-1.560691,-2.099729,0.3744429,-0.09243388
859.7221,-0.0140678,-0.9026728,-1.560706,-2.099827,0.3744575,-0.09243223
859.7368,-0.0140678,-0.9026728,-1.560706,-2.099827,0.3744575,-0.09243223
859.7508,-0.01406688,-0.9027084,-1.560722,-2.099925,0.3744718,-0.09243061
859.7662,-0.01406597,-0.9027435,-1.560737,-2.10002,0.3744858,-0.09242903
859.7807,-0.01406506,-0.9027782,-1.560751,-2.100115,0.3744995,-0.09242747
859.7953,-0.01406506,-0.9027782,-1.560751,-2.100115,0.3744995,-0.09242747
859.8096,-0.01406415,-0.9028125,-1.560766,-2.100208,0.3745128,-0.09242594
859.825,-0.01406325,-0.9028464,-1.56078,-2.1003,0.3745259,-0.09242444
859.8395,-0.01406325,-0.9028464,-1.56078,-2.1003,0.3745259,-0.09242444
859.8544,-0.01406223,-0.9029492,-1.560279,-2.100984,0.3758974,-0.09229372
859.8688,-0.01406111,-0.903094,-1.559867,-2.101951,0.3774919,-0.092166
859.8835,-0.01405994,-0.9032642,-1.559574,-2.103047,0.3790528,-0.09204069
859.898,-0.01405994,-0.9032642,-1.559574,-2.103047,0.3790528,-0.09204069
859.914,-0.01405872,-0.9034492,-1.55935,-2.104197,0.3805591,-0.09191774
859.9283,-0.0140576,-0.9035732,-1.559681,-2.104771,0.3806671,-0.0919264
859.942,-0.01405656,-0.9036591,-1.559944,-2.10506,0.380512,-0.09193442
859.9564,-0.01405656,-0.9036591,-1.559944,-2.10506,0.380512,-0.09193442
859.9703,-0.01405558,-0.903721,-1.560098,-2.105209,0.380358,-0.09194236
859.9854,-0.01405464,-0.9037679,-1.56019,-2.105291,0.3802295,-0.09195022
860.0001,-0.01405385,-0.9037378,-1.560769,-2.104747,0.3787655,-0.09208724
860.0147,-0.01405385,-0.9037378,-1.560769,-2.104747,0.3787655,-0.09208724
860.0284,-0.01405317,-0.9036605,-1.561246,-2.103899,0.3770832,-0.09222116
860.0438,-0.01405257,-0.9035543,-1.561594,-2.102913,0.3754385,-0.09235257
860.0607,-0.01405202,-0.9034307,-1.561867,-2.101869,0.3738514,-0.0924815
860.0729,-0.01405202,-0.9034307,-1.561867,-2.101869,0.3738514,-0.0924815
860.087,-0.01405162,-0.9032277,-1.562615,-2.100211,0.3709543,-0.09273722
860.1021,-0.01405134,-0.9029766,-1.563249,-2.098266,0.3678713,-0.09298754
860.1167,-0.01405134,-0.9029766,-1.563249,-2.098266,0.3678713,-0.09298754
860.1305,-0.01405114,-0.9026968,-1.563745,-2.096197,0.364855,-0.09323307
860.1461,-0.01405111,-0.9023315,-1.56467,-2.093493,0.3605599,-0.09360316
860.1606,-0.01405121,-0.9019148,-1.56545,-2.090499,0.35612,-0.09396566
860.1755,-0.01405121,-0.9019148,-1.56545,-2.090499,0.35612,-0.09396566
860.1894,-0.0140514,-0.9014685,-1.566077,-2.087388,0.3517795,-0.09432119
860.2045,-0.01405165,-0.9010057,-1.56661,-2.084245,0.3475512,-0.09466987
860.2203,-0.01405205,-0.9004656,-1.56759,-2.08052,0.3420432,-0.09514105
860.235,-0.01405205,-0.9004656,-1.56759,-2.08052,0.3420432,-0.09514105
860.2491,-0.01405258,-0.8998802,-1.568429,-2.076538,0.3364177,-0.09560268
860.2631,-0.0140532,-0.8992695,-1.569116,-2.072462,0.3309144,-0.0960554
860.2776,-0.0140532,-0.8992695,-1.569116,-2.072462,0.3309144,-0.0960554
860.2916,-0.01405399,-0.8985766,-1.570202,-2.067784,0.3241524,-0.09662862
860.3068,-0.01405491,-0.897836,-1.571117,-2.062846,0.3173164,-0.09719036
860.3212,-0.01405593,-0.8970693,-1.571628,-2.057803,0.3103841,-0.09774073
860.3357,-0.01405593,-0.8970693,-1.571628,-2.057803,0.3103841,-0.09774073
860.3499,-0.01405701,-0.8962901,-1.571716,-2.052746,0.3035219,-0.09828027
860.3651,-0.01405825,-0.8954371,-1.571997,-2.047139,0.2954431,-0.09893869
860.3796,-0.01405825,-0.8954371,-1.571997,-2.047139,0.2954431,-0.09893869
860.3935,-0.01405962,-0.8945426,-1.571932,-2.041306,0.2873054,-0.09958396
860.4092,-0.01406113,-0.8936264,-1.571627,-2.035413,0.2794107,-0.1002169
860.4237,-0.01406284,-0.8927009,-1.571285,-2.029546,0.271804,-0.1008377
860.4385,-0.01406284,-0.8927009,-1.571285,-2.029546,0.271804,-0.1008377
860.4523,-0.01406489,-0.8917046,-1.571494,-2.023155,0.2630074,-0.1015758
860.4678,-0.01406731,-0.8906689,-1.571577,-2.016549,0.2541237,-0.1022992
860.4825,-0.01407004,-0.8896137,-1.571489,-2.00989,0.2454079,-0.1030084
860.4971,-0.01407004,-0.8896137,-1.571489,-2.00989,0.2454079,-0.1030084
860.5133,-0.0140732,-0.8884818,-1.571756,-2.002673,0.2354594,-0.1038332
860.5265,-0.01407679,-0.8873076,-1.571764,-1.995235,0.2254888,-0.1046417
860.5411,-0.01408073,-0.8861127,-1.571564,-1.987749,0.2157602,-0.1054345
860.5556,-0.01408073,-0.8861127,-1.571564,-1.987749,0.2157602,-0.1054345
860.5698,-0.01408494,-0.8849102,-1.571308,-1.980301,0.2063158,-0.1062119
860.5849,-0.01408955,-0.8836392,-1.571515,-1.972349,0.195646,-0.1071035
860.5993,-0.01408955,-0.8836392,-1.571515,-1.972349,0.195646,-0.1071035
860.6135,-0.01409455,-0.8823316,-1.571545,-1.964206,0.1849852,-0.1079775
860.6287,-0.01409986,-0.8810073,-1.57141,-1.956033,0.1745583,-0.1088345
860.6434,-0.01410541,-0.8796785,-1.571221,-1.94791,0.164401,-0.1096749
860.6584,-0.01410541,-0.8796785,-1.571221,-1.94791,0.164401,-0.1096749
860.672,-0.01411135,-0.8782837,-1.571435,-1.939294,0.152987,-0.1106281
860.6874,-0.01411765,-0.8768544,-1.571446,-1.930499,0.1416331,-0.1115626
860.7021,-0.01412425,-0.8754102,-1.571297,-1.921684,0.1305399,-0.1124789
860.7168,-0.01412425,-0.8754102,-1.571297,-1.921684,0.1305399,-0.1124789
860.7308,-0.01413128,-0.873894,-1.571453,-1.912349,0.1182021,-0.1135066
860.7463,-0.01413871,-0.8723401,-1.571389,-1.902829,0.1059978,-0.1145142
860.7609,-0.01414648,-0.8707699,-1.571196,-1.893291,0.09409413,-0.1155021
860.7756,-0.01414648,-0.8707699,-1.571196,-1.893291,0.09409413,-0.1155021
860.7914,-0.0141545,-0.8691967,-1.570996,-1.883817,0.08249523,-0.1164708
860.8057,-0.0141535,-0.8675593,-1.571164,-1.873868,0.06962022,-0.1175498
860.819,-0.0141535,-0.8675593,-1.571164,-1.873868,0.06962022,-0.1175498
860.8332,-0.01414843,-0.8658897,-1.571155,-1.86376,0.05689948,-0.1186077
860.8484,-0.0141411,-0.8642078,-1.571024,-1.853649,0.04446811,-0.1196449
860.8628,-0.01413257,-0.8625258,-1.570866,-1.843612,0.03233473,-0.1206618
860.8777,-0.01413257,-0.8625258,-1.570866,-1.843612,0.03233473,-0.1206618
860.8914,-0.01412368,-0.860782,-1.571002,-1.83311,0.01891886,-0.1217881
860.9069,-0.01411482,-0.859008,-1.570965,-1.822459,0.005711365,-0.1228923
860.9213,-0.01410616,-0.8572231,-1.570831,-1.811813,-0.007192561,-0.123975
860.9359,-0.01410616,-0.8572231,-1.570831,-1.811813,-0.007192561,-0.123975
860.9498,-0.01409797,-0.8553703,-1.570911,-1.800672,-0.02135991,-0.1251657
860.9652,-0.01409031,-0.8534839,-1.57083,-1.789373,-0.03526567,-0.1263331
860.9798,-0.01409031,-0.8534839,-1.57083,-1.789373,-0.03526567,-0.1263331
860.9937,-0.01408314,-0.8515851,-1.57068,-1.778076,-0.04884749,-0.1274776
861.0093,-0.01407639,-0.8496873,-1.570543,-1.766862,-0.06211601,-0.1285997
861.0239,-0.01407021,-0.8477293,-1.57062,-1.755196,-0.07665637,-0.129829
861.0387,-0.01407021,-0.8477293,-1.57062,-1.755196,-0.07665637,-0.129829
861.0526,-0.01406459,-0.8457428,-1.570577,-1.743395,-0.09091901,-0.1310342
861.0677,-0.01405947,-0.8437476,-1.570472,-1.731611,-0.1048665,-0.1322158
861.0833,-0.01405475,-0.8417561,-1.570366,-1.719918,-0.1185047,-0.1333741
861.0981,-0.01405475,-0.8417561,-1.570366,-1.719918,-0.1185047,-0.1333741
861.112,-0.01405059,-0.8397064,-1.570406,-1.707782,-0.1334004,-0.134639
861.1262,-0.01404697,-0.83763,-1.570352,-1.695517,-0.1479944,-0.135879
861.1411,-0.01404381,-0.8355464,-1.570258,-1.683274,-0.1622714,-0.1370947
861.1553,-0.01404381,-0.8355464,-1.570258,-1.683274,-0.1622714,-0.1370947
861.1693,-0.01404127,-0.8333984,-1.570251,-1.670556,-0.1777793,-0.1384156
861.1843,-0.01403931,-0.8312203,-1.570176,-1.657696,-0.1929636,-0.1397106
861.1981,-0.01403931,-0.8312203,-1.570176,-1.657696,-0.1929636,-0.1397106
861.2113,-0.01403783,-0.8290333,-1.570069,-1.644856,-0.2078261,-0.1409802
861.226,-0.01403669,-0.8268507,-1.569924,-1.632117,-0.2223819,-0.1422248
861.24,-0.01403669,-0.8268507,-1.569924,-1.632117,-0.2223819,-0.1422248
861.2535,-0.01403587,-0.8246111,-1.569776,-1.618943,-0.238159,-0.143574
861.2682,-0.01403525,-0.8223466,-1.569564,-1.605651,-0.2536108,-0.1448968
861.2828,-0.01403476,-0.8200766,-1.569307,-1.592394,-0.2687457,-0.1461935
861.297,-0.01403476,-0.8200766,-1.569307,-1.592394,-0.2687457,-0.1461935
861.3108,-0.01403452,-0.8177443,-1.569008,-1.578671,-0.285077,-0.1475938
861.3257,-0.01403444,-0.8153839,-1.568661,-1.564817,-0.3010793,-0.1489666
861.3403,-0.01403449,-0.8130168,-1.568276,-1.550996,-0.3167582,-0.1503123
861.3548,-0.01403449,-0.8130168,-1.568276,-1.550996,-0.3167582,-0.1503123
861.3688,-0.01403462,-0.810656,-1.567862,-1.537288,-0.3321204,-0.1516316
861.3837,-0.01403498,-0.8082405,-1.567366,-1.523153,-0.3486607,-0.1530539
861.3981,-0.01403498,-0.8082405,-1.567366,-1.523153,-0.3486607,-0.1530539
861.412,-0.0140355,-0.805802,-1.566847,-1.508909,-0.3648783,-0.1544482
861.4276,-0.01403613,-0.8033602,-1.566304,-1.494711,-0.3807752,-0.1558152
861.442,-0.01403685,-0.8009274,-1.56574,-1.480635,-0.396356,-0.1571552
861.4599,-0.01403685,-0.8009274,-1.56574,-1.480635,-0.396356,-0.1571552
861.4736,-0.01403778,-0.7984416,-1.565048,-1.466136,-0.4131007,-0.1585976
861.4879,-0.01403888,-0.7959344,-1.564356,-1.451532,-0.4295284,-0.1600118
861.5015,-0.01404009,-0.793425,-1.563651,-1.436981,-0.4456378,-0.1613981
861.5151,-0.01404009,-0.793425,-1.563651,-1.436981,-0.4456378,-0.1613981
861.5292,-0.01404154,-0.7908564,-1.562784,-1.421971,-0.462898,-0.1628859
861.5444,-0.01404333,-0.7882625,-1.56193,-1.406843,-0.4798388,-0.1643445
861.5593,-0.01404333,-0.7882625,-1.56193,-1.406843,-0.4798388,-0.1643445
861.5732,-0.01404549,-0.7856649,-1.56107,-1.391765,-0.496457,-0.1657745
861.5884,-0.014048,-0.7830764,-1.560198,-1.376817,-0.5127547,-0.1671764
861.6031,-0.01405107,-0.7804359,-1.559108,-1.361448,-0.5301948,-0.1686792
861.6178,-0.01405107,-0.7804359,-1.559108,-1.361448,-0.5301948,-0.1686792
861.6318,-0.01405465,-0.7777752,-1.558051,-1.345982,-0.5473198,-0.1701526
861.6473,-0.01405868,-0.7751138,-1.556997,-1.330579,-0.564125,-0.1715971
861.6619,-0.01406307,-0.7724639,-1.555935,-1.315318,-0.5806118,-0.1730132
861.6767,-0.01406307,-0.7724639,-1.555935,-1.315318,-0.5806118,-0.1730132
861.6907,-0.01406804,-0.7697637,-1.554817,-1.300211,-0.5967909,-0.1745308
861.7072,-0.01407352,-0.7670445,-1.5537,-1.285333,-0.6126559,-0.1760185
861.7216,-0.01407943,-0.7643259,-1.552576,-1.270668,-0.6282161,-0.1774769
861.7382,-0.01407943,-0.7643259,-1.552576,-1.270668,-0.6282161,-0.1774769
861.7524,-0.01408529,-0.7616196,-1.551442,-1.256209,-0.6434791,-0.1789067
861.7657,-0.01409119,-0.7589332,-1.550296,-1.241953,-0.6584516,-0.1803083
861.7803,-0.01409718,-0.7562709,-1.54914,-1.227898,-0.6731398,-0.1816824
861.7947,-0.01409718,-0.7562709,-1.54914,-1.227898,-0.6731398,-0.1816824
861.8088,-0.01410328,-0.7536356,-1.547974,-1.214042,-0.6875494,-0.1830294
861.8242,-0.01410925,-0.7510979,-1.54685,-1.200403,-0.7016734,-0.1842207
861.8388,-0.01410925,-0.7510979,-1.54685,-1.200403,-0.7016734,-0.1842207
861.8527,-0.0141151,-0.7486318,-1.545699,-1.186928,-0.715538,-0.1853886
861.868,-0.01412088,-0.746221,-1.544533,-1.173636,-0.7291428,-0.1865335
861.8828,-0.01412661,-0.7438551,-1.543356,-1.160535,-0.7424901,-0.187656
861.8973,-0.01412661,-0.7438551,-1.543356,-1.160535,-0.7424901,-0.187656
861.9114,-0.01413209,-0.7415967,-1.542609,-1.148235,-0.7541386,-0.1886286
861.9267,-0.01413735,-0.7394148,-1.541746,-1.136422,-0.7655144,-0.1895818
861.9415,-0.01414245,-0.7372898,-1.540821,-1.124927,-0.7766597,-0.1905159
861.956,-0.01414245,-0.7372898,-1.540821,-1.124927,-0.7766597,-0.1905159
861.9701,-0.0141472,-0.7352788,-1.540341,-1.11428,-0.7861577,-0.191304
861.9853,-0.01415164,-0.7333472,-1.53973,-1.104133,-0.7954001,-0.1920761
862,-0.01415586,-0.7314731,-1.539044,-1.094296,-0.8044516,-0.1928328
862.0168,-0.01415586,-0.7314731,-1.539044,-1.094296,-0.8044516,-0.1928328
862.0309,-0.01415992,-0.729643,-1.538321,-1.08468,-0.8133243,-0.1935745
862.0443,-0.01416364,-0.7279174,-1.538099,-1.075857,-0.8206281,-0.194174
862.0588,-0.01416364,-0.7279174,-1.538099,-1.075857,-0.8206281,-0.194174
862.0728,-0.01416708,-0.7262642,-1.537757,-1.067495,-0.8276864,-0.1947613
862.0883,-0.01417028,-0.7246629,-1.537336,-1.059411,-0.834596,-0.1953367
862.1043,-0.01417334,-0.7231009,-1.536873,-1.051519,-0.8413703,-0.1959008
862.1176,-0.01417334,-0.7231009,-1.536873,-1.051519,-0.8413703,-0.1959008
862.1317,-0.01417605,-0.7216395,-1.536938,-1.044396,-0.8466531,-0.1963262
862.1471,-0.01417847,-0.7202466,-1.53689,-1.03771,-0.8516964,-0.1967429
862.1618,-0.01418065,-0.7189022,-1.536753,-1.031277,-0.8566289,-0.197151
862.1768,-0.01418065,-0.7189022,-1.536753,-1.031277,-0.8566289,-0.197151
862.1907,-0.01418243,-0.7176632,-1.537128,-1.025628,-0.8601298,-0.1974235
862.2059,-0.01418387,-0.7164946,-1.537379,-1.020413,-0.8634043,-0.1976902
862.2204,-0.01418503,-0.7153748,-1.537525,-1.015437,-0.866601,-0.1979513
862.2352,-0.01418503,-0.7153748,-1.537525,-1.015437,-0.866601,-0.1979513
862.2492,-0.01418602,-0.7142901,-1.537611,-1.010611,-0.8697381,-0.1982072
862.2646,-0.01418662,-0.7133012,-1.538239,-1.006509,-0.8715091,-0.1983305
862.2813,-0.01418703,-0.7123759,-1.538759,-1.002803,-0.8730652,-0.1984509
862.2948,-0.01418703,-0.7123759,-1.538759,-1.002803,-0.8730652,-0.1984509
862.3091,-0.01418734,-0.711494,-1.539171,-0.9993058,-0.8745738,-0.1985687
862.3233,-0.0141876,-0.7106428,-1.539517,-0.9959317,-0.8760561,-0.1986839
862.3381,-0.0141876,-0.7106428,-1.539517,-0.9959317,-0.8760561,-0.1986839
862.3521,-0.01418768,-0.7098836,-1.540408,-0.9932578,-0.8762239,-0.1986694
862.3675,-0.01418766,-0.7091847,-1.541191,-0.9909572,-0.8761923,-0.1986547
862.382,-0.01418758,-0.7085261,-1.541856,-0.9888439,-0.8761412,-0.19864
862.3968,-0.01418758,-0.7085261,-1.541856,-0.9888439,-0.8761412,-0.19864
862.4112,-0.0141873,-0.7079645,-1.543031,-0.9874483,-0.8748109,-0.198498
862.4263,-0.01418691,-0.7074655,-1.544074,-0.9864235,-0.8733039,-0.1983582
862.441,-0.01418645,-0.7070072,-1.544979,-0.9855735,-0.8718055,-0.1982208
862.4555,-0.01418645,-0.7070072,-1.544979,-0.9855735,-0.8718055,-0.1982208
862.4695,-0.01418592,-0.7065761,-1.545793,-0.9848081,-0.8703395,-0.1980859
862.4848,-0.01418506,-0.7062331,-1.54714,-0.9847028,-0.867626,-0.197826
862.4995,-0.01418506,-0.7062331,-1.54714,-0.9847028,-0.867626,-0.197826
862.5137,-0.01418388,-0.7059459,-1.54836,-0.9849316,-0.8647592,-0.1975709
862.5291,-0.01418247,-0.7056945,-1.549441,-0.9853081,-0.8619255,-0.1973203
862.5458,-0.01418087,-0.7054663,-1.550426,-0.9857461,-0.8591485,-0.1970745
862.5593,-0.01418087,-0.7054663,-1.550426,-0.9857461,-0.8591485,-0.1970745
862.5734,-0.01417889,-0.7053227,-1.551938,-0.9868227,-0.8551415,-0.1967059
862.5876,-0.01417658,-0.705232,-1.553311,-0.9882136,-0.8510088,-0.1963441
862.6024,-0.01417401,-0.7051743,-1.554535,-0.989733,-0.8469338,-0.195989
862.6169,-0.01417401,-0.7051743,-1.554535,-0.989733,-0.8469338,-0.195989
862.6309,-0.01417099,-0.705206,-1.556244,-0.991911,-0.8416401,-0.1955131
862.6462,-0.0141676,-0.7052926,-1.557781,-0.9944023,-0.8362526,-0.1950461
862.6609,-0.01416392,-0.7054127,-1.559147,-0.9970117,-0.8309491,-0.1945877
862.6758,-0.01416392,-0.7054127,-1.559147,-0.9970117,-0.8309491,-0.1945877
862.6898,-0.01416004,-0.705553,-1.560395,-0.9996495,-0.8257489,-0.1941382
862.7053,-0.01416482,-0.7057744,-1.562132,-1.002891,-0.8193231,-0.1935697
862.7195,-0.01416482,-0.7057744,-1.562132,-1.002891,-0.8193231,-0.1935697
862.734,-0.01417469,-0.706045,-1.563684,-1.006412,-0.8128414,-0.1930119
862.749,-0.01418753,-0.7063445,-1.565062,-1.010026,-0.8064685,-0.1924646
862.7637,-0.01420205,-0.7066607,-1.566318,-1.013648,-0.8002191,-0.1919278
862.7786,-0.01420205,-0.7066607,-1.566318,-1.013648,-0.8002191,-0.1919278
862.7922,-0.01421725,-0.707055,-1.568063,-1.017853,-0.7927449,-0.1912738
862.8079,-0.01423266,-0.7074957,-1.569617,-1.022319,-0.7852523,-0.1906321
862.8243,-0.01424804,-0.7079631,-1.570996,-1.026863,-0.7778894,-0.1900026
862.8377,-0.01424804,-0.7079631,-1.570996,-1.026863,-0.7778894,-0.1900026
862.8519,-0.01426304,-0.7085142,-1.572642,-1.032035,-0.7691258,-0.1892583
862.866,-0.01427761,-0.7091144,-1.573532,-1.037526,-0.760058,-0.1885293
862.8808,-0.01429176,-0.7097422,-1.573617,-1.043118,-0.7510665,-0.1878145
862.8954,-0.01429176,-0.7097422,-1.573617,-1.043118,-0.7510665,-0.1878145
862.9095,-0.01430551,-0.7103842,-1.57317,-1.048686,-0.7423494,-0.1871129
862.9249,-0.01431869,-0.7111015,-1.573092,-1.054774,-0.7325718,-0.1862967
862.9396,-0.01431869,-0.7111015,-1.573092,-1.054774,-0.7325718,-0.1862967
862.9536,-0.01433133,-0.711862,-1.572811,-1.06107,-0.7229053,-0.1854957
862.9691,-0.01434348,-0.7126456,-1.572448,-1.067394,-0.713483,-0.1847098
862.9837,-0.01435522,-0.7134402,-1.572129,-1.073664,-0.7043085,-0.1839388
862.9984,-0.01435522,-0.7134402,-1.572129,-1.073664,-0.7043085,-0.1839388
863.0123,-0.01436639,-0.7143071,-1.572444,-1.080456,-0.6939196,-0.1830548
863.0276,-0.01437701,-0.7152148,-1.572563,-1.087471,-0.6835552,-0.182188
863.0424,-0.01438717,-0.7161437,-1.572473,-1.094528,-0.673367,-0.1813378
863.0569,-0.01438717,-0.7161437,-1.572473,-1.094528,-0.673367,-0.1813378
863.0706,-0.01439671,-0.7171507,-1.57277,-1.102141,-0.6619512,-0.1803761
863.086,-0.01440567,-0.7182015,-1.572736,-1.109978,-0.6506421,-0.1794329
863.1027,-0.01441414,-0.7192745,-1.572477,-1.117841,-0.6395777,-0.1785075
863.1163,-0.01441414,-0.7192745,-1.572477,-1.117841,-0.6395777,-0.1785075
863.1304,-0.01442221,-0.7203563,-1.572153,-1.125636,-0.6287888,-0.1775998
863.1448,-0.01442972,-0.7215082,-1.572352,-1.133925,-0.6167858,-0.1765815
863.1603,-0.0144367,-0.722698,-1.572334,-1.142403,-0.6049278,-0.1755828
863.1741,-0.0144367,-0.722698,-1.572334,-1.142403,-0.6049278,-0.1755828
863.188,-0.01444324,-0.723906,-1.572158,-1.150892,-0.5933072,-0.1746031
863.2034,-0.01444941,-0.7251197,-1.571928,-1.159306,-0.5819471,-0.1736423
863.2182,-0.01444941,-0.7251197,-1.571928,-1.159306,-0.5819471,-0.1736423
863.2322,-0.01445505,-0.7264009,-1.572155,-1.168205,-0.569351,-0.1725719
863.2475,-0.0144602,-0.7277178,-1.572134,-1.177282,-0.5569359,-0.171522
863.2623,-0.01446492,-0.729051,-1.57195,-1.186361,-0.5447738,-0.1704923
863.277,-0.01446492,-0.729051,-1.57195,-1.186361,-0.5447738,-0.1704923
863.2916,-0.01446907,-0.7304575,-1.572117,-1.195952,-0.5313854,-0.1693542
863.3069,-0.01447269,-0.731903,-1.572021,-1.205723,-0.5182209,-0.1682379
863.3209,-0.01447587,-0.733366,-1.571788,-1.215489,-0.5053334,-0.1671429
863.3354,-0.01447587,-0.733366,-1.571788,-1.215489,-0.5053334,-0.1671429
863.3496,-0.01447869,-0.7348332,-1.571542,-1.225161,-0.4927293,-0.1660689
863.3651,-0.01448099,-0.7363659,-1.571703,-1.235297,-0.4788975,-0.1648873
863.3806,-0.01448282,-0.7379319,-1.571661,-1.245588,-0.4653001,-0.1637285
863.3951,-0.01448282,-0.7379319,-1.571661,-1.245588,-0.4653001,-0.1637285
863.4084,-0.01448424,-0.7395116,-1.571499,-1.255861,-0.4519732,-0.1625919
863.4235,-0.01448534,-0.7410926,-1.571311,-1.266035,-0.438923,-0.1614771
863.4383,-0.01448534,-0.7410926,-1.571311,-1.266035,-0.438923,-0.1614771
863.4522,-0.01448598,-0.7427366,-1.571458,-1.276663,-0.4246449,-0.1602555
863.4675,-0.01448639,-0.7444122,-1.571405,-1.287436,-0.4106179,-0.1590574
863.4822,-0.01448667,-0.7460997,-1.571245,-1.298184,-0.3968664,-0.1578824
863.4969,-0.01448667,-0.7460997,-1.571245,-1.298184,-0.3968664,-0.1578824
863.511,-0.01448674,-0.7478562,-1.571337,-1.309414,-0.3818964,-0.1566014
863.5262,-0.01448666,-0.7496475,-1.571238,-1.320794,-0.3671973,-0.1553451
863.541,-0.01448649,-0.7514522,-1.571057,-1.332148,-0.3527847,-0.1541131
863.5558,-0.01448649,-0.7514522,-1.571057,-1.332148,-0.3527847,-0.1541131
863.5697,-0.01448625,-0.7532571,-1.570885,-1.343395,-0.338656,-0.1529047
863.585,-0.01448582,-0.7551233,-1.570979,-1.35508,-0.3233063,-0.1515911
863.5998,-0.01448582,-0.7551233,-1.570979,-1.35508,-0.3233063,-0.1515911
863.6135,-0.01448527,-0.757019,-1.570924,-1.366891,-0.3082332,-0.1503029
863.629,-0.01448462,-0.7589243,-1.570795,-1.378667,-0.2934453,-0.1490396
863.6436,-0.01448391,-0.7608271,-1.57066,-1.390329,-0.2789401,-0.1478008
863.6593,-0.01448391,-0.7608271,-1.57066,-1.390329,-0.2789401,-0.1478008
863.6733,-0.014483,-0.7627198,-1.570554,-1.401843,-0.26471,-0.1465859
863.6878,-0.01448202,-0.7645979,-1.570481,-1.413195,-0.2507503,-0.1453947
863.7027,-0.014481,-0.7664585,-1.570433,-1.424379,-0.2370552,-0.1442267
863.7169,-0.014481,-0.7664585,-1.570433,-1.424379,-0.2370552,-0.1442267
863.731,-0.01448011,-0.7682307,-1.570251,-1.434817,-0.2251223,-0.1432104
863.7463,-0.01447928,-0.7699404,-1.570209,-1.444808,-0.2134252,-0.142214
863.7612,-0.0144785,-0.7716039,-1.570232,-1.454507,-0.2019551,-0.1412372
863.7762,-0.0144785,-0.7716039,-1.570232,-1.454507,-0.2019551,-0.1412372
863.7899,-0.01447774,-0.7732313,-1.570256,-1.463988,-0.190706,-0.1402794
863.8055,-0.01447713,-0.77476,-1.570154,-1.472713,-0.1811803,-0.1394695
863.8199,-0.01447713,-0.77476,-1.570154,-1.472713,-0.1811803,-0.1394695
863.8339,-0.01447661,-0.7762209,-1.570118,-1.481003,-0.1718445,-0.1386755
863.8494,-0.01447615,-0.7776333,-1.570095,-1.489017,-0.1626914,-0.1378971
863.864,-0.01447571,-0.7790095,-1.57007,-1.496833,-0.1537152,-0.1371339
863.8787,-0.01447571,-0.7790095,-1.57007,-1.496833,-0.1537152,-0.1371339
863.8927,-0.01447544,-0.7802879,-1.569957,-1.503917,-0.1464241,-0.1365148
863.9083,-0.01447526,-0.7815002,-1.569879,-1.510592,-0.1392811,-0.1359079
863.9237,-0.01447514,-0.7826663,-1.569811,-1.517014,-0.1322788,-0.1353129
863.9373,-0.01447514,-0.7826663,-1.569811,-1.517014,-0.1322788,-0.1353129
863.9514,-0.01447519,-0.7837294,-1.569684,-1.522688,-0.1269287,-0.1348587
863.9667,-0.01447535,-0.7847241,-1.569587,-1.527955,-0.121689,-0.1344135
863.9813,-0.01447558,-0.7856721,-1.569503,-1.532981,-0.1165538,-0.133977
863.996,-0.01447558,-0.7856721,-1.569503,-1.532981,-0.1165538,-0.133977
864.0103,-0.01447585,-0.7865871,-1.569422,-1.53785,-0.111519,-0.133549
864.0258,-0.01447628,-0.7874084,-1.569298,-1.542031,-0.108102,-0.1332587
864.0403,-0.01447681,-0.788168,-1.569197,-1.545845,-0.1047567,-0.1329742
864.0549,-0.01447681,-0.788168,-1.569197,-1.545845,-0.1047567,-0.1329742
864.0688,-0.0144774,-0.7888862,-1.569105,-1.549448,-0.1014788,-0.1326952
864.0844,-0.01447803,-0.7895758,-1.569017,-1.552921,-0.09826548,-0.1324216
864.0993,-0.01447803,-0.7895758,-1.569017,-1.552921,-0.09826548,-0.1324216
864.1133,-0.01447881,-0.7901751,-1.568902,-1.555729,-0.09663792,-0.1322827
864.1284,-0.01447971,-0.7907161,-1.568802,-1.558192,-0.09504639,-0.1321466
864.1431,-0.01448067,-0.7912187,-1.568711,-1.560466,-0.09348785,-0.1320131
864.1595,-0.01448067,-0.7912187,-1.568711,-1.560466,-0.09348785,-0.1320131
864.1721,-0.01448194,-0.791626,-1.568601,-1.562055,-0.09348492,-0.1320115
864.1882,-0.01448355,-0.7919728,-1.568504,-1.563299,-0.09348594,-0.13201
864.2018,-0.01448543,-0.7922805,-1.568414,-1.564361,-0.09348878,-0.1320085
864.2169,-0.01448543,-0.7922805,-1.568414,-1.564361,-0.09348878,-0.1320085
864.2306,-0.0144875,-0.7925628,-1.568328,-1.565326,-0.09349245,-0.132007
864.246,-0.01448994,-0.7927589,-1.568226,-1.56566,-0.09502138,-0.1321349
864.2606,-0.01449271,-0.7929009,-1.568132,-1.565684,-0.09652353,-0.1322602
864.2756,-0.01449271,-0.7929009,-1.568132,-1.565684,-0.09652353,-0.1322602
864.2897,-0.01449574,-0.7930089,-1.568044,-1.565555,-0.09799778,-0.1323832
864.305,-0.01449896,-0.7930953,-1.567958,-1.56535,-0.09944393,-0.1325037
864.3198,-0.01449896,-0.7930953,-1.567958,-1.56535,-0.09944393,-0.1325037
864.3337,-0.01450253,-0.7930987,-1.567855,-1.564534,-0.1023863,-0.1327511
864.349,-0.01450644,-0.7930524,-1.56776,-1.563426,-0.105274,-0.1329937
864.3638,-0.0145106,-0.7929756,-1.567668,-1.562182,-0.1081064,-0.1332315
864.3785,-0.0145106,-0.7929756,-1.567668,-1.562182,-0.1081064,-0.1332315
864.3924,-0.01451518,-0.792811,-1.567556,-1.560304,-0.1124067,-0.1335939
864.4083,-0.01452012,-0.7925929,-1.567451,-1.558131,-0.1166258,-0.1339493
864.4225,-0.01452535,-0.7923428,-1.567348,-1.555828,-0.1207635,-0.1342977
864.4373,-0.01452535,-0.7923428,-1.567348,-1.555828,-0.1207635,-0.1342977
864.4532,-0.01453078,-0.7920741,-1.567247,-1.553476,-0.1248205,-0.1346393
864.4666,-0.01453658,-0.7917258,-1.567116,-1.550542,-0.1303179,-0.1351034
864.4811,-0.0145427,-0.7913299,-1.566993,-1.547346,-0.1357108,-0.1355585
864.496,-0.0145427,-0.7913299,-1.566993,-1.547346,-0.1357108,-0.1355585
864.5099,-0.01454908,-0.7909064,-1.566872,-1.544043,-0.1409994,-0.1360046
864.5252,-0.01455563,-0.7904678,-1.566753,-1.540711,-0.1461847,-0.136442
864.5401,-0.01456253,-0.7899525,-1.566592,-1.536814,-0.152784,-0.137
864.5546,-0.01456253,-0.7899525,-1.566592,-1.536814,-0.152784,-0.137
864.5688,-0.01456974,-0.7893922,-1.566442,-1.53267,-0.1592581,-0.1375472
864.584,-0.0145772,-0.7888067,-1.566295,-1.528433,-0.165607,-0.1380836
864.5988,-0.0145772,-0.7888067,-1.566295,-1.528433,-0.165607,-0.1380836
864.613,-0.0145759,-0.7881387,-1.566117,-1.523606,-0.1733419,-0.1387386
864.6284,-0.01457001,-0.787423,-1.565961,-1.518526,-0.1809316,-0.1393809
864.6431,-0.01456144,-0.786681,-1.565813,-1.513358,-0.188375,-0.1400106
864.6575,-0.01456144,-0.786681,-1.565813,-1.513358,-0.188375,-0.1400106
864.6714,-0.01455137,-0.7859261,-1.565667,-1.508182,-0.1956732,-0.1406279
864.6867,-0.01454077,-0.7850974,-1.565449,-1.502464,-0.2043352,-0.1413622
864.7012,-0.01453006,-0.7842268,-1.565248,-1.496524,-0.2128341,-0.1420822
864.717,-0.01453006,-0.7842268,-1.565248,-1.496524,-0.2128341,-0.1420822
864.7312,-0.01451943,-0.7833343,-1.565054,-1.490517,-0.2211691,-0.1427881
864.7458,-0.01450896,-0.7824322,-1.564862,-1.484519,-0.2293417,-0.1434802
864.7603,-0.01449895,-0.781459,-1.564576,-1.477993,-0.2388555,-0.1442877
864.7751,-0.01449895,-0.781459,-1.564576,-1.477993,-0.2388555,-0.1442877
864.7887,-0.01448942,-0.7804462,-1.564315,-1.471256,-0.2481914,-0.1450795
864.804,-0.01448031,-0.7794135,-1.564064,-1.464464,-0.2573481,-0.1458558
864.8189,-0.01448031,-0.7794135,-1.564064,-1.464464,-0.2573481,-0.1458558
864.8329,-0.01447182,-0.7783039,-1.563703,-1.457116,-0.2678238,-0.1467458
864.8483,-0.01446391,-0.7771518,-1.563374,-1.44955,-0.2781049,-0.1476185
864.863,-0.01445649,-0.7759786,-1.563056,-1.441931,-0.2881894,-0.1484741
864.8777,-0.01445649,-0.7759786,-1.563056,-1.441931,-0.2881894,-0.1484741
864.8918,-0.01444948,-0.7747977,-1.562743,-1.434341,-0.2980784,-0.1493129
864.9072,-0.01444304,-0.7735479,-1.562291,-1.426239,-0.3092663,-0.1502641
864.9218,-0.01443715,-0.7722613,-1.56188,-1.417946,-0.3202473,-0.1511968
864.9363,-0.01443715,-0.7722613,-1.56188,-1.417946,-0.3202473,-0.1511968
864.9504,-0.0144317,-0.7709577,-1.561484,-1.40962,-0.3310193,-0.1521112
864.9657,-0.01442662,-0.7696494,-1.561094,-1.401338,-0.3415834,-0.1530077
864.9815,-0.01442209,-0.7682748,-1.560537,-1.392553,-0.3534292,-0.1540154
864.9959,-0.01442209,-0.7682748,-1.560537,-1.392553,-0.3534292,-0.1540154
865.0103,-0.01441807,-0.7668655,-1.56003,-1.383589,-0.3650578,-0.1550034
865.0246,-0.01441448,-0.765441,-1.559544,-1.374601,-0.3764665,-0.1559721
865.0393,-0.01441448,-0.765441,-1.559544,-1.374601,-0.3764665,-0.1559721
865.0532,-0.01441148,-0.7639442,-1.558871,-1.365082,-0.3891402,-0.1570505
865.0685,-0.01440904,-0.7624095,-1.558258,-1.355373,-0.4015835,-0.158108
865.0833,-0.01440704,-0.7608583,-1.55767,-1.345643,-0.4137931,-0.1591447
865.0978,-0.01440704,-0.7608583,-1.55767,-1.345643,-0.4137931,-0.1591447
865.1121,-0.01440539,-0.7593039,-1.557093,-1.335971,-0.4257697,-0.1601611
865.1277,-0.01440428,-0.7576851,-1.556285,-1.325811,-0.4389973,-0.1612861
865.1423,-0.01440361,-0.7560338,-1.555548,-1.315486,-0.4519858,-0.1623892
865.1571,-0.01440361,-0.7560338,-1.555548,-1.315486,-0.4519858,-0.1623892
865.171,-0.01440314,-0.7543699,-1.554841,-1.305156,-0.4647318,-0.1634707
865.1862,-0.01440277,-0.7527056,-1.554147,-1.2949,-0.4772363,-0.1645311
865.2007,-0.01440264,-0.7509792,-1.553181,-1.284163,-0.4909825,-0.165699
865.2156,-0.01440264,-0.7509792,-1.553181,-1.284163,-0.4909825,-0.165699
865.2299,-0.01440265,-0.7492223,-1.552298,-1.273268,-0.5044824,-0.1668442
865.2461,-0.01440277,-0.7474544,-1.551451,-1.262379,-0.5177326,-0.167967
865.2607,-0.01440296,-0.7456876,-1.550619,-1.251572,-0.5307337,-0.1690679
865.2748,-0.01440296,-0.7456876,-1.550619,-1.251572,-0.5307337,-0.1690679
865.2886,-0.01440337,-0.7438601,-1.549469,-1.240288,-0.5449699,-0.1702753
865.3038,-0.01440393,-0.7420033,-1.548415,-1.228854,-0.5589538,-0.1714594
865.3184,-0.01440393,-0.7420033,-1.548415,-1.228854,-0.5589538,-0.1714594
865.3325,-0.01440458,-0.7401368,-1.547404,-1.217434,-0.5726808,-0.1726203
865.3482,-0.01440548,-0.7382033,-1.546045,-1.205506,-0.5876333,-0.1738866
865.3629,-0.01440657,-0.7362371,-1.544796,-1.193417,-0.6023247,-0.1751283
865.3782,-0.01440657,-0.7362371,-1.544796,-1.193417,-0.6023247,-0.1751283
865.3918,-0.01440797,-0.7342596,-1.543595,-1.181342,-0.6167474,-0.1763458
865.4073,-0.01440963,-0.7322839,-1.542416,-1.169364,-0.6309012,-0.1775395
865.4219,-0.0144118,-0.7302489,-1.54082,-1.156919,-0.6462653,-0.1788377
865.4366,-0.0144118,-0.7302489,-1.54082,-1.156919,-0.6462653,-0.1788377
865.4505,-0.01441444,-0.7281864,-1.539341,-1.144336,-0.661369,-0.1801108
865.466,-0.01441747,-0.7261162,-1.537916,-1.131784,-0.6761939,-0.1813591
865.4807,-0.01442082,-0.7240504,-1.536516,-1.119341,-0.6907397,-0.1825829
865.4977,-0.01442082,-0.7240504,-1.536516,-1.119341,-0.6907397,-0.1825829
865.5107,-0.01442472,-0.7219273,-1.535072,-1.107026,-0.7050257,-0.1839121
865.5251,-0.01442908,-0.7197785,-1.53365,-1.094906,-0.7190269,-0.1852151
865.5398,-0.01442908,-0.7197785,-1.53365,-1.094906,-0.7190269,-0.1852151
865.5535,-0.01443383,-0.7176232,-1.532238,-1.082966,-0.7327537,-0.1864926
865.5693,-0.01443849,-0.7154738,-1.530829,-1.071199,-0.7462128,-0.187745
865.5837,-0.01444314,-0.7133375,-1.529423,-1.059603,-0.75941,-0.1889728
865.5986,-0.01444314,-0.7133375,-1.529423,-1.059603,-0.75941,-0.1889728
865.6127,-0.01444784,-0.7112188,-1.528018,-1.048176,-0.7723497,-0.1901765
865.6282,-0.01445261,-0.7091206,-1.526616,-1.036917,-0.7850366,-0.1913566
865.643,-0.01445718,-0.7071137,-1.52528,-1.025838,-0.7974509,-0.1923843
865.6575,-0.01445718,-0.7071137,-1.52528,-1.025838,-0.7974509,-0.1923843
865.6716,-0.01446159,-0.7051721,-1.523926,-1.014894,-0.8096357,-0.1933919
865.6872,-0.01446586,-0.7032794,-1.522568,-1.004103,-0.8215866,-0.1943797
865.7017,-0.01447005,-0.7014255,-1.521212,-0.9934734,-0.8333041,-0.1953481
865.7164,-0.01447005,-0.7014255,-1.521212,-0.9934734,-0.8333041,-0.1953481
865.7305,-0.01447393,-0.6996731,-1.520447,-0.9836197,-0.8434827,-0.19617
865.7457,-0.01447755,-0.6979911,-1.519613,-0.9742295,-0.8532665,-0.1969755
865.7614,-0.01448096,-0.6963601,-1.518693,-0.9651279,-0.8628346,-0.1977648
865.7754,-0.01448096,-0.6963601,-1.518693,-0.9651279,-0.8628346,-0.1977648
865.7894,-0.01448396,-0.6948373,-1.518324,-0.9568489,-0.8709526,-0.1984111
865.8046,-0.01448663,-0.6933879,-1.517875,-0.9490427,-0.8786842,-0.1990443
865.8193,-0.01448663,-0.6933879,-1.517875,-0.9490427,-0.8786842,-0.1990443
865.8334,-0.01448904,-0.6919904,-1.517322,-0.9415164,-0.8862349,-0.1996647
865.8492,-0.01449126,-0.6906312,-1.516706,-0.9341795,-0.8936391,-0.2002728
865.8638,-0.0144931,-0.689371,-1.516671,-0.9276074,-0.8996962,-0.2007415
865.8787,-0.0144931,-0.689371,-1.516671,-0.9276074,-0.8996962,-0.2007415
865.8928,-0.01449462,-0.6881775,-1.516586,-0.9214697,-0.9053738,-0.2012006
865.9088,-0.01449589,-0.6870306,-1.516402,-0.9155807,-0.9109004,-0.2016505
865.923,-0.014497,-0.6859176,-1.516153,-0.9098533,-0.9163195,-0.2020913
865.9377,-0.014497,-0.6859176,-1.516153,-0.9098533,-0.9163195,-0.2020913
865.9521,-0.01449772,-0.6848997,-1.516484,-0.9048657,-0.9204752,-0.202396
865.9674,-0.01449817,-0.6839451,-1.51678,-0.9002891,-0.9242648,-0.2026944
865.9818,-0.0144985,-0.6830339,-1.516973,-0.8959373,-0.9279307,-0.2029866
865.9987,-0.0144985,-0.6830339,-1.516973,-0.8959373,-0.9279307,-0.2029866
866.0118,-0.01449861,-0.6822228,-1.51771,-0.8923423,-0.9303833,-0.2031456
866.0263,-0.0144986,-0.6814771,-1.518393,-0.8891547,-0.9324914,-0.2033011
866.041,-0.01449853,-0.6807751,-1.518954,-0.8861781,-0.9345044,-0.2034531
866.0556,-0.01449853,-0.6807751,-1.518954,-0.8861781,-0.9345044,-0.2034531
866.0696,-0.01449842,-0.6801032,-1.519425,-0.8833212,-0.9364776,-0.2036019
866.0851,-0.01449812,-0.6795223,-1.520459,-0.8811616,-0.9373009,-0.2036204
866.0998,-0.01449812,-0.6795223,-1.520459,-0.8811616,-0.9373009,-0.2036204
866.114,-0.01449772,-0.679,-1.521458,-0.879371,-0.9378012,-0.2036382
866.1295,-0.01449725,-0.6785163,-1.522339,-0.8777624,-0.9382305,-0.2036552
866.1444,-0.01449669,-0.6780586,-1.523126,-0.8762485,-0.9386473,-0.2036717
866.1591,-0.01449669,-0.6780586,-1.523126,-0.8762485,-0.9386473,-0.2036717
866.1731,-0.01449578,-0.6776883,-1.524471,-0.8754089,-0.9379529,-0.2035605
866.1885,-0.01449456,-0.6773735,-1.525777,-0.8749173,-0.9369588,-0.2034511
866.2031,-0.0144931,-0.6770945,-1.526955,-0.8745868,-0.9359183,-0.2033434
866.2179,-0.0144931,-0.6770945,-1.526955,-0.8745868,-0.9359183,-0.2033434
866.2333,-0.01449119,-0.6769081,-1.528652,-0.8749498,-0.9337822,-0.2031104
866.2496,-0.01448891,-0.6767796,-1.530273,-0.8756589,-0.931372,-0.2028814
866.2631,-0.01448634,-0.6766875,-1.531741,-0.8765174,-0.9289429,-0.2026565
866.277,-0.01448634,-0.6766875,-1.531741,-0.8765174,-0.9289429,-0.2026565
866.2911,-0.01448356,-0.6766183,-1.533084,-0.877434,-0.9265542,-0.2024357
866.3065,-0.01448036,-0.6766321,-1.534962,-0.878987,-0.9230987,-0.2020919
866.3209,-0.01447683,-0.6766971,-1.53677,-0.8808503,-0.9193971,-0.2017543
866.3357,-0.01447683,-0.6766971,-1.53677,-0.8808503,-0.9193971,-0.2017543
866.35,-0.01447304,-0.6767935,-1.538423,-0.8828369,-0.9157004,-0.201423
866.3654,-0.01446906,-0.6769088,-1.539948,-0.88486,-0.9120659,-0.2010979
866.3803,-0.01446469,-0.6771045,-1.542002,-0.8874987,-0.9073686,-0.2006517
866.395,-0.01446469,-0.6771045,-1.542002,-0.8874987,-0.9073686,-0.2006517
866.4095,-0.01446,-0.677349,-1.543968,-0.8904291,-0.9024542,-0.2002138
866.4246,-0.01445507,-0.6776226,-1.545767,-0.893465,-0.8975705,-0.1997841
866.4393,-0.01445507,-0.6776226,-1.545767,-0.893465,-0.8975705,-0.1997841
866.4533,-0.01444969,-0.677982,-1.548051,-0.8971377,-0.8916181,-0.1992351
866.4686,-0.01444395,-0.6783929,-1.550203,-0.9011021,-0.88548,-0.1986964
866.4833,-0.01443794,-0.6788338,-1.552158,-0.9051625,-0.8794012,-0.1981678
866.4996,-0.01443794,-0.6788338,-1.552158,-0.9051625,-0.8794012,-0.1981678
866.5132,-0.01443174,-0.6792911,-1.553956,-0.9092278,-0.8734303,-0.1976493
866.5276,-0.01443414,-0.679826,-1.556249,-0.9138756,-0.8663772,-0.1970132
866.5425,-0.01444164,-0.6804062,-1.558392,-0.9187821,-0.8591768,-0.1963892
866.5571,-0.01444164,-0.6804062,-1.558392,-0.9187821,-0.8591768,-0.1963892
866.5711,-0.01445211,-0.6810117,-1.560334,-0.9237608,-0.8520639,-0.1957769
866.5864,-0.01446429,-0.6816303,-1.562114,-0.9287257,-0.8450795,-0.1951764
866.6013,-0.01447715,-0.6823234,-1.564394,-0.9342534,-0.8370006,-0.1944599
866.6161,-0.01447715,-0.6823234,-1.564394,-0.9342534,-0.8370006,-0.1944599
866.6302,-0.01449024,-0.6830593,-1.566509,-0.9400231,-0.828814,-0.193757
866.6457,-0.01450333,-0.6838184,-1.568417,-0.9458499,-0.8207406,-0.1930674
866.6605,-0.0145163,-0.6845884,-1.570164,-0.9516484,-0.8128138,-0.1923911
866.6755,-0.0145163,-0.6845884,-1.570164,-0.9516484,-0.8128138,-0.1923911
866.6892,-0.01452885,-0.6854309,-1.572399,-0.9579945,-0.8037648,-0.1916002
866.7047,-0.01454097,-0.6863144,-1.574034,-0.9646348,-0.7941384,-0.1908263
866.7195,-0.01454097,-0.6863144,-1.574034,-0.9646348,-0.7941384,-0.1908263
866.7335,-0.01455269,-0.6872193,-1.574718,-0.9713817,-0.7843563,-0.1900681
866.7499,-0.01456381,-0.6882025,-1.57515,-0.9787214,-0.7734357,-0.1891969
866.7637,-0.01457437,-0.6892297,-1.574829,-0.9862871,-0.7625628,-0.188342
866.7785,-0.01457437,-0.6892297,-1.574829,-0.9862871,-0.7625628,-0.188342
866.7925,-0.01458444,-0.6902795,-1.574044,-0.9938575,-0.7520638,-0.1875027
866.808,-0.0145941,-0.6913385,-1.573176,-1.001327,-0.7420027,-0.1866786
866.8227,-0.01460318,-0.6924677,-1.57309,-1.009269,-0.7309641,-0.1857421
866.8376,-0.01460318,-0.6924677,-1.57309,-1.009269,-0.7309641,-0.1857421
866.8515,-0.01461173,-0.6936352,-1.573037,-1.017394,-0.7199407,-0.1848237
866.867,-0.01461983,-0.694821,-1.572931,-1.025535,-0.7090858,-0.1839228
866.8818,-0.01462755,-0.6960129,-1.572778,-1.033609,-0.6984394,-0.1830393
866.8969,-0.01462755,-0.6960129,-1.572778,-1.033609,-0.6984394,-0.1830393
866.9108,-0.01463473,-0.6972724,-1.573174,-1.042186,-0.6866054,-0.1820451
866.926,-0.0146414,-0.6985681,-1.573282,-1.05096,-0.6747804,-0.1810701
866.9409,-0.01464764,-0.6998802,-1.573106,-1.059746,-0.6631697,-0.1801139
866.9556,-0.01464764,-0.6998802,-1.573106,-1.059746,-0.6631697,-0.1801139
866.9698,-0.01465329,-0.7012659,-1.573323,-1.069053,-0.6503977,-0.179048
866.9849,-0.01465839,-0.7026908,-1.573215,-1.078551,-0.6377467,-0.1780025
867.0005,-0.01466305,-0.7041335,-1.572888,-1.088043,-0.6253776,-0.1769768
867.0145,-0.01466305,-0.7041335,-1.572888,-1.088043,-0.6253776,-0.1769768
867.0286,-0.01466733,-0.7055807,-1.572506,-1.097436,-0.6133213,-0.1759706
867.0439,-0.01467109,-0.7070935,-1.572693,-1.107294,-0.6000839,-0.1748556
867.0585,-0.01467109,-0.7070935,-1.572693,-1.107294,-0.6000839,-0.1748556
867.0726,-0.01467435,-0.70864,-1.572666,-1.117314,-0.5869958,-0.1737622
867.088,-0.01467721,-0.7102004,-1.57247,-1.127319,-0.5741687,-0.1726897
867.1028,-0.01467973,-0.7117622,-1.572208,-1.137223,-0.5616308,-0.1716377
867.1177,-0.01467973,-0.7117622,-1.572208,-1.137223,-0.5616308,-0.1716377
867.1315,-0.01468175,-0.7133874,-1.572424,-1.147586,-0.5478786,-0.1704778
867.1473,-0.01468331,-0.7150443,-1.572382,-1.158103,-0.5343242,-0.1693403
867.1618,-0.01468449,-0.7167134,-1.572168,-1.168595,-0.5210505,-0.1682245
867.1769,-0.01468449,-0.7167134,-1.572168,-1.168595,-0.5210505,-0.1682245
867.1906,-0.01468511,-0.7184517,-1.572321,-1.179575,-0.5065694,-0.1670019
867.2065,-0.01468546,-0.7202251,-1.5722,-1.19071,-0.492335,-0.1658027
867.2207,-0.01468565,-0.722012,-1.571938,-1.201817,-0.4784054,-0.1646264
867.2354,-0.01468565,-0.722012,-1.571938,-1.201817,-0.4784054,-0.1646264
867.2515,-0.01468576,-0.7237994,-1.571663,-1.212808,-0.464786,-0.1634727
867.2648,-0.01468568,-0.7256483,-1.571815,-1.22424,-0.4499529,-0.1622128
867.2797,-0.01468568,-0.7256483,-1.571815,-1.22424,-0.4499529,-0.1622128
867.2941,-0.01468546,-0.7275268,-1.571757,-1.235803,-0.435376,-0.1609772
867.3093,-0.01468515,-0.7294153,-1.571577,-1.247329,-0.4210929,-0.1597653
867.3237,-0.01468478,-0.7313014,-1.57137,-1.258735,-0.4071086,-0.1585767
867.3384,-0.01468478,-0.7313014,-1.57137,-1.258735,-0.4071086,-0.1585767
867.3524,-0.01468422,-0.7332468,-1.571508,-1.270575,-0.3919077,-0.1572826
867.3682,-0.01468353,-0.7352201,-1.571442,-1.282538,-0.3769791,-0.1560134
867.3827,-0.01468275,-0.7372019,-1.571268,-1.294458,-0.3623464,-0.1547686
867.3975,-0.01468275,-0.7372019,-1.571268,-1.294458,-0.3623464,-0.1547686
867.4129,-0.01468178,-0.73918,-1.571081,-1.306255,-0.3480082,-0.1535478
867.4274,-0.01468074,-0.741147,-1.570933,-1.317896,-0.3339564,-0.1523505
867.4417,-0.01467959,-0.7430983,-1.570833,-1.329366,-0.3201799,-0.1511765
867.4565,-0.01467959,-0.7430983,-1.570833,-1.329366,-0.3201799,-0.1511765
867.4703,-0.01467834,-0.7450312,-1.570769,-1.340662,-0.3066697,-0.1500253
867.4856,-0.01467701,-0.7469441,-1.570722,-1.351785,-0.2934192,-0.1488965
867.5026,-0.01467561,-0.7488361,-1.570678,-1.362735,-0.2804232,-0.1477896
867.5161,-0.01467561,-0.7488361,-1.570678,-1.362735,-0.2804232,-0.1477896
867.5292,-0.01467414,-0.7507067,-1.570631,-1.373516,-0.2676769,-0.1467043
867.5447,-0.01467261,-0.7525556,-1.570582,-1.384128,-0.2551753,-0.1456402
867.5593,-0.01467261,-0.7525556,-1.570582,-1.384128,-0.2551753,-0.1456402
867.5733,-0.01467104,-0.754383,-1.570533,-1.394575,-0.2429135,-0.1445967
867.5887,-0.01466942,-0.7561888,-1.570486,-1.40486,-0.2308865,-0.1435736
867.6035,-0.01466775,-0.7579732,-1.570442,-1.414986,-0.2190894,-0.1425705
867.6181,-0.01466775,-0.7579732,-1.570442,-1.414986,-0.2190894,-0.1425705
867.6323,-0.01466605,-0.7597364,-1.570402,-1.424956,-0.2075174,-0.1415868
867.6478,-0.0146643,-0.7614787,-1.570365,-1.434773,-0.1961661,-0.1406224
867.6624,-0.01466252,-0.7632001,-1.570331,-1.444439,-0.185031,-0.1396768
867.6774,-0.01466252,-0.7632001,-1.570331,-1.444439,-0.185031,-0.1396768
867.6914,-0.0146607,-0.764901,-1.570298,-1.453959,-0.1741079,-0.1387496
867.7069,-0.01465884,-0.7665817,-1.570267,-1.463333,-0.1633925,-0.1378406
867.7217,-0.01465695,-0.7682422,-1.570238,-1.472566,-0.1528808,-0.1369493
867.7361,-0.01465695,-0.7682422,-1.570238,-1.472566,-0.1528808,-0.1369493
867.7523,-0.01465503,-0.769883,-1.570211,-1.48166,-0.1425689,-0.1360754
867.7665,-0.01465307,-0.7715041,-1.570184,-1.490617,-0.1324528,-0.1352186
867.7803,-0.01465108,-0.7731059,-1.570152,-1.499439,-0.1225288,-0.1343785
867.795,-0.01465108,-0.7731059,-1.570152,-1.499439,-0.1225288,-0.1343785
867.8091,-0.01464907,-0.7746886,-1.570103,-1.50813,-0.1127938,-0.1335548
867.8245,-0.01464702,-0.7762524,-1.570038,-1.516692,-0.1032441,-0.1327473
867.839,-0.01464702,-0.7762524,-1.570038,-1.516692,-0.1032441,-0.1327473
867.8533,-0.01464494,-0.7777975,-1.569959,-1.525126,-0.09387623,-0.1319555
867.8686,-0.01464283,-0.7793241,-1.569865,-1.533434,-0.08468671,-0.1311793
867.8832,-0.01464069,-0.7808325,-1.569759,-1.54162,-0.07567224,-0.1304182
867.8982,-0.01464069,-0.7808325,-1.569759,-1.54162,-0.07567224,-0.1304182
867.9124,-0.01463853,-0.7823229,-1.56964,-1.549685,-0.06682952,-0.129672
867.928,-0.01463634,-0.7837955,-1.56951,-1.557631,-0.05815535,-0.1289404
867.9423,-0.01463413,-0.7852505,-1.56937,-1.56546,-0.04964656,-0.1282232
867.9571,-0.01463413,-0.7852505,-1.56937,-1.56546,-0.04964656,-0.1282232
867.971,-0.01463189,-0.7866881,-1.569221,-1.573174,-0.04130004,-0.12752
867.9866,-0.01462962,-0.7881086,-1.569063,-1.580775,-0.03311278,-0.1268305
868.0009,-0.01462733,-0.7895121,-1.568896,-1.588265,-0.02508178,-0.1261546
868.0168,-0.01462733,-0.7895121,-1.568896,-1.588265,-0.02508178,-0.1261546
868.0308,-0.01462502,-0.7908989,-1.568723,-1.595646,-0.01720406,-0.1254919
868.0453,-0.01462268,-0.7922691,-1.568543,-1.602919,-0.009476767,-0.1248421
868.0599,-0.01462268,-0.7922691,-1.568543,-1.602919,-0.009476767,-0.1248421
868.0742,-0.01462033,-0.7936229,-1.568357,-1.610086,-0.001897086,-0.1242051
868.0947,-0.01461795,-0.7949605,-1.568165,-1.617149,0.005537727,-0.1235806
868.1042,-0.01461555,-0.7962822,-1.567968,-1.62411,0.01283037,-0.1229684
868.119,-0.01461555,-0.7962822,-1.567968,-1.62411,0.01283037,-0.1229684
868.1332,-0.01461313,-0.7975881,-1.567767,-1.63097,0.01998348,-0.1223681
868.1487,-0.01461069,-0.7988784,-1.567561,-1.63773,0.02699966,-0.1217796
868.1634,-0.01460824,-0.8001533,-1.567353,-1.644393,0.03388144,-0.1212026
868.1782,-0.01460824,-0.8001533,-1.567353,-1.644393,0.03388144,-0.1212026
868.1923,-0.01460576,-0.8014129,-1.567141,-1.65096,0.04063132,-0.1206369
868.2079,-0.01460327,-0.8026575,-1.566926,-1.657433,0.04725174,-0.1200824
868.2224,-0.01460076,-0.8038873,-1.566709,-1.663812,0.05374509,-0.1195387
868.2371,-0.01460076,-0.8038873,-1.566709,-1.663812,0.05374509,-0.1195387
868.251,-0.01459823,-0.8051023,-1.56649,-1.670099,0.06011372,-0.1190056
868.2674,-0.01459569,-0.8063029,-1.566269,-1.676296,0.06635994,-0.1184831
868.2811,-0.01459314,-0.8074891,-1.566047,-1.682404,0.07248601,-0.1179707
868.296,-0.01459314,-0.8074891,-1.566047,-1.682404,0.07248601,-0.1179707
868.3101,-0.01459056,-0.8086612,-1.565824,-1.688424,0.07849413,-0.1174684
868.3254,-0.01458798,-0.8098192,-1.5656,-1.694358,0.08438649,-0.116976
868.3403,-0.01458538,-0.8109635,-1.565376,-1.700207,0.09016521,-0.1164932
868.355,-0.01458538,-0.8109635,-1.565376,-1.700207,0.09016521,-0.1164932
868.3691,-0.01458277,-0.812094,-1.565152,-1.705972,0.09583238,-0.1160199
868.3846,-0.01458015,-0.8132111,-1.564927,-1.711655,0.10139,-0.1155559
868.3995,-0.01458015,-0.8132111,-1.564927,-1.711655,0.10139,-0.1155559
868.4135,-0.01457751,-0.8143148,-1.564703,-1.717257,0.1068402,-0.115101
868.429,-0.01457486,-0.8154053,-1.56448,-1.722778,0.1121849,-0.114655
868.4437,-0.01457221,-0.8164828,-1.564257,-1.728221,0.117426,-0.1142178
868.4585,-0.01457221,-0.8164828,-1.564257,-1.728221,0.117426,-0.1142178
868.4722,-0.01456954,-0.8175475,-1.564035,-1.733586,0.1225655,-0.1137892
868.4878,-0.01456686,-0.8185995,-1.563814,-1.738874,0.1276051,-0.1133689
868.5025,-0.01456418,-0.8196388,-1.563595,-1.744088,0.1325468,-0.1129569
868.5181,-0.01456418,-0.8196388,-1.563595,-1.744088,0.1325468,-0.1129569
868.5322,-0.01456148,-0.8206658,-1.563377,-1.749226,0.1373924,-0.112553
868.5466,-0.01455878,-0.8216805,-1.563161,-1.754292,0.1421435,-0.112157
868.5613,-0.01455607,-0.8226832,-1.562946,-1.759286,0.1468021,-0.1117688
868.5762,-0.01455607,-0.8226832,-1.562946,-1.759286,0.1468021,-0.1117688
868.5903,-0.01455335,-0.8236738,-1.562733,-1.764208,0.1513697,-0.1113882
868.6055,-0.01455062,-0.8246526,-1.562522,-1.76906,0.1558481,-0.1110151
868.62,-0.01454789,-0.8256196,-1.562314,-1.773844,0.1602389,-0.1106493
868.635,-0.01454789,-0.8256196,-1.562314,-1.773844,0.1602389,-0.1106493
868.649,-0.01454516,-0.8265752,-1.562108,-1.778559,0.1645437,-0.1102907
868.6646,-0.01454241,-0.8275193,-1.561904,-1.783207,0.1687642,-0.1099391
868.6792,-0.01454241,-0.8275193,-1.561904,-1.783207,0.1687642,-0.1099391
868.6932,-0.01453967,-0.8284522,-1.561702,-1.787789,0.1729019,-0.1095945
868.7089,-0.01453692,-0.8293739,-1.561504,-1.792306,0.1769583,-0.1092565
868.7237,-0.01453416,-0.8302846,-1.561308,-1.796759,0.180935,-0.1089253
868.7383,-0.01453416,-0.8302846,-1.561308,-1.796759,0.180935,-0.1089253
868.752,-0.0145314,-0.8311844,-1.561114,-1.801149,0.1848335,-0.1086005
868.7686,-0.01452864,-0.8320736,-1.560924,-1.805476,0.1886552,-0.1082821
