JMolnar6/NonAnthroHands_User_Study/HandsLoggerWithURDF/tempdata/PID 0 (test)/files/Reachy_JointMotion_gesture_11_52.csv
Time,r_shoulder,r_shoulder_x,r_upper_arm,r_forearm,r_wrist,r_wrist2hand,
991.7758,-0.8679156,0.0007410853,NaN,-0.3679404,0.0009120328,NaN,1.149141,-14.79996,NaN,-0.6872113,-1.470325,0.431294,14.10991,NaN,NaN,-0.01046169,0.8221212,-8.331353E-07,1.058166,-2.600909E-08,1.319856
991.7906,-0.8655412,0.0007406212,NaN,-0.3671108,0.0009120558,NaN,1.149058,-14.80014,NaN,-0.6842157,-1.466918,0.4324234,14.10627,NaN,NaN,-0.01028632,0.8218393,-8.343274E-07,1.053173,-2.839327E-08,1.317116
991.8056,-0.8630599,0.0007402662,NaN,-0.3662436,0.0009115396,NaN,1.148888,-14.80047,NaN,-0.6809359,-1.465863,0.4337342,14.10518,NaN,NaN,-0.01011435,0.8214776,-8.367116E-07,1.05164,-3.077746E-08,1.31827
991.8206,-0.8605227,0.000740029,NaN,-0.3653578,0.0009096343,NaN,1.148745,-14.80148,NaN,-0.6775481,-1.480691,0.4350725,14.12125,NaN,NaN,-0.009945849,0.8209455,-8.390958E-07,1.07345,-2.958536E-08,1.326123
991.8356,-0.8605227,0.000740029,NaN,-0.3653578,0.0009096343,NaN,1.148745,-14.80148,NaN,-0.6775481,-1.480691,0.4350725,14.12125,NaN,NaN,-0.009945849,0.8209455,-8.390958E-07,1.07345,-2.958536E-08,1.326123
991.8499,-0.8579614,0.0007399632,NaN,-0.3644646,0.0009089485,NaN,1.148654,-14.80034,NaN,-0.6741374,-1.470708,0.4363855,14.11041,NaN,NaN,-0.009780751,0.821911,-8.319432E-07,1.05878,-2.958536E-08,1.317722
991.8667,-0.8556089,0.0007402197,NaN,-0.3636479,0.0009099655,NaN,1.148956,-14.80088,NaN,-0.6712319,-1.481181,0.4371782,14.12175,NaN,NaN,-0.009703032,0.8216608,-8.247907E-07,1.07418,-2.839327E-08,1.323783
991.8806,-0.8533967,0.0007398907,NaN,-0.3628813,0.0009115197,NaN,1.149387,-14.80116,NaN,-0.6686852,-1.467141,0.4377313,14.10668,NaN,NaN,-0.009626942,0.8211691,-8.16446E-07,1.053572,-2.36249E-08,1.32118
991.8958,-0.8533967,0.0007398907,NaN,-0.3628813,0.0009115197,NaN,1.149387,-14.80116,NaN,-0.6686852,-1.467141,0.4377313,14.10668,NaN,NaN,-0.009626942,0.8211691,-8.16446E-07,1.053572,-2.36249E-08,1.32118
991.9096,-0.8512813,0.0007404315,NaN,-0.3621485,0.0009097694,NaN,1.149821,-14.80067,NaN,-0.6663288,-1.482197,0.4382024,14.12278,NaN,NaN,-0.009552307,0.8221244,-8.057171E-07,1.075642,-2.004862E-08,1.320547
991.9254,-0.8492353,0.0007403803,NaN,-0.3614396,0.0009088751,NaN,1.150225,-14.80026,NaN,-0.6640804,-1.466926,0.4386486,14.10631,NaN,NaN,-0.009479076,0.822283,-7.949883E-07,1.053202,-1.528025E-08,1.315355
991.9406,-0.8474541,0.0007404463,NaN,-0.3608252,0.0009060401,NaN,1.150948,-14.80034,NaN,-0.6623884,-1.482161,0.4386093,14.12271,NaN,NaN,-0.009491337,0.822658,-7.78299E-07,1.075585,-1.051188E-08,1.319629
991.9569,-0.8474541,0.0007404463,NaN,-0.3608252,0.0009060401,NaN,1.150948,-14.80034,NaN,-0.6623884,-1.482161,0.4386093,14.12271,NaN,NaN,-0.009491337,0.822658,-7.78299E-07,1.075585,-1.051188E-08,1.319629
991.9697,-0.8458458,0.0007407328,NaN,-0.3602711,0.0009055025,NaN,1.151744,-14.80096,NaN,-0.6610684,-1.46671,0.4383657,14.10613,NaN,NaN,-0.009503352,0.821794,-7.592255E-07,1.052889,-1.528025E-08,1.322101
991.9855,-0.8443524,0.0007414567,NaN,-0.3597561,0.0009044099,NaN,1.152503,-14.80163,NaN,-0.6599342,-1.474754,0.4380707,14.11487,NaN,NaN,-0.009515029,0.821358,-7.3896E-07,1.064731,-2.004862E-08,1.324534
992.0007,-0.8429371,0.0007422491,NaN,-0.3592674,0.0009029532,NaN,1.153203,-14.80106,NaN,-0.6588955,-1.483281,0.4377768,14.12396,NaN,NaN,-0.009526372,0.8221039,-7.222707E-07,1.077227,-1.885653E-08,1.325051
992.0156,-0.8429371,0.0007422491,NaN,-0.3592674,0.0009029532,NaN,1.153203,-14.80106,NaN,-0.6588955,-1.483281,0.4377768,14.12396,NaN,NaN,-0.009526372,0.8221039,-7.222707E-07,1.077227,-1.885653E-08,1.325051
992.0298,-0.8417892,0.0007427225,NaN,-0.3588738,0.0009009092,NaN,1.154204,-14.80144,NaN,-0.6583977,-1.480312,0.4370201,14.12081,NaN,NaN,-0.009621537,0.8216634,-6.984288E-07,1.072877,-2.243281E-08,1.325068
992.0453,-0.8408135,0.0007429235,NaN,-0.3585399,0.0009001461,NaN,1.155263,-14.79991,NaN,-0.6582546,-1.4718,0.4360773,14.11149,NaN,NaN,-0.009714806,0.8230352,-6.74587E-07,1.060344,-2.600908E-08,1.314579
992.0615,-0.8399497,0.0007431933,NaN,-0.3582441,0.0008988224,NaN,1.156271,-14.80026,NaN,-0.6582797,-1.466757,0.4350992,14.1061,NaN,NaN,-0.00980612,0.8225534,-6.519372E-07,1.052947,-2.839327E-08,1.314464
992.0751,-0.8399497,0.0007431933,NaN,-0.3582441,0.0008988224,NaN,1.156271,-14.80026,NaN,-0.6582797,-1.466757,0.4350992,14.1061,NaN,NaN,-0.00980612,0.8225534,-6.519372E-07,1.052947,-2.839327E-08,1.314464
992.0895,-0.8393723,0.0007429582,NaN,-0.3580499,0.0008968973,NaN,1.157562,-14.80015,NaN,-0.6588712,-1.465999,0.433659,14.10527,NaN,NaN,-0.009979637,0.8226311,-6.221349E-07,1.051831,-3.077746E-08,1.313836
992.1049,-0.8389766,0.0007432706,NaN,-0.3579187,0.0008955338,NaN,1.158886,-14.80098,NaN,-0.6598204,-1.465724,0.4320465,14.10509,NaN,NaN,-0.01014967,0.8217931,-5.911405E-07,1.051469,-2.958536E-08,1.318657
992.1201,-0.8386967,0.0007432422,NaN,-0.3578268,0.0008936887,NaN,1.160139,-14.80126,NaN,-0.6609299,-1.465335,0.4304158,14.10472,NaN,NaN,-0.01031621,0.8214994,-5.625303E-07,1.050915,-2.720118E-08,1.319378
992.1352,-0.8386967,0.0007432422,NaN,-0.3578268,0.0008936887,NaN,1.160139,-14.80126,NaN,-0.6609299,-1.465335,0.4304158,14.10472,NaN,NaN,-0.01031621,0.8214994,-5.625303E-07,1.050915,-2.720118E-08,1.319378
992.1493,-0.8384904,0.0007432372,NaN,-0.3577594,0.0008924338,NaN,1.161304,-14.80187,NaN,-0.6621045,-1.465177,0.4288177,14.10463,NaN,NaN,-0.01047934,0.8208854,-5.339201E-07,1.050715,-2.36249E-08,1.322619
992.1652,-0.8385427,0.0007438044,NaN,-0.3577833,0.000890272,NaN,1.162743,-14.80276,NaN,-0.6637873,-1.48046,0.426785,14.12116,NaN,NaN,-0.01072322,0.8204896,-4.945811E-07,1.073174,-2.958536E-08,1.331326
992.1799,-0.8385427,0.0007438044,NaN,-0.3577833,0.000890272,NaN,1.162743,-14.80276,NaN,-0.6637873,-1.48046,0.426785,14.12116,NaN,NaN,-0.01072322,0.8204896,-4.945811E-07,1.073174,-2.958536E-08,1.331326
992.1943,-0.8387572,0.0007438617,NaN,-0.3578631,0.0008892256,NaN,1.164215,-14.80157,NaN,-0.6657919,-1.468957,0.4245951,14.10869,NaN,NaN,-0.01096226,0.8214831,-4.659708E-07,1.05628,-2.720118E-08,1.322939
992.2099,-0.8390725,0.0007439418,NaN,-0.3579771,0.0008876753,NaN,1.165613,-14.80206,NaN,-0.6679314,-1.466889,0.4223977,14.10654,NaN,NaN,-0.01119644,0.8209367,-4.361685E-07,1.053267,-2.839327E-08,1.324535
992.2251,-0.8394498,0.0007444983,NaN,-0.3581115,0.0008858204,NaN,1.16692,-14.80237,NaN,-0.6701159,-1.481263,0.4202425,14.122,NaN,NaN,-0.01142589,0.8210658,-4.063662E-07,1.074363,-2.839327E-08,1.329492
992.2398,-0.8394498,0.0007444983,NaN,-0.3581115,0.0008858204,NaN,1.16692,-14.80237,NaN,-0.6701159,-1.481263,0.4202425,14.122,NaN,NaN,-0.01142589,0.8210658,-4.063662E-07,1.074363,-2.839327E-08,1.329492
992.2561,-0.8400769,0.0007444377,NaN,-0.3583347,0.0008841226,NaN,1.168499,-14.80217,NaN,-0.6727914,-1.468424,0.417657,14.1082,NaN,NaN,-0.01173472,0.8210579,-3.717955E-07,1.055522,-2.720118E-08,1.32788
992.2697,-0.840858,0.000743921,NaN,-0.3586113,0.0008831854,NaN,1.170099,-14.80213,NaN,-0.6757724,-1.466794,0.4149262,14.10644,NaN,NaN,-0.01203742,0.8210474,-3.324564E-07,1.053127,-2.720118E-08,1.324795
992.2847,-0.8417324,0.0007443583,NaN,-0.3589193,0.0008820633,NaN,1.171615,-14.80211,NaN,-0.6788725,-1.480955,0.4122004,14.12163,NaN,NaN,-0.01233402,0.8214987,-2.990778E-07,1.073898,-2.36249E-08,1.329156
992.2996,-0.8417324,0.0007443583,NaN,-0.3589193,0.0008820633,NaN,1.171615,-14.80211,NaN,-0.6788725,-1.480955,0.4122004,14.12163,NaN,NaN,-0.01233402,0.8214987,-2.990778E-07,1.073898,-2.36249E-08,1.329156
992.314,-0.8428741,0.0007443181,NaN,-0.359322,0.0008829437,NaN,1.173381,-14.80212,NaN,-0.6824908,-1.467624,0.4090407,14.1073,NaN,NaN,-0.01270856,0.8212643,-2.585467E-07,1.054325,-2.600908E-08,1.325232
992.3295,-0.8441785,0.0007452401,NaN,-0.3597807,0.0008843993,NaN,1.175141,-14.80179,NaN,-0.6864192,-1.480289,0.4057502,14.12085,NaN,NaN,-0.01307566,0.821973,-2.144393E-07,1.072891,-2.600908E-08,1.327169
992.3445,-0.8455793,0.0007456073,NaN,-0.3602714,0.0008847927,NaN,1.176793,-14.80201,NaN,-0.6904607,-1.469342,0.4024823,14.10909,NaN,NaN,-0.01343535,0.821566,-1.762923E-07,1.056816,-2.720118E-08,1.326017
992.3596,-0.8455793,0.0007456073,NaN,-0.3602714,0.0008847927,NaN,1.176793,-14.80201,NaN,-0.6904607,-1.469342,0.4024823,14.10909,NaN,NaN,-0.01343535,0.821566,-1.762923E-07,1.056816,-2.720118E-08,1.326017
992.3738,-0.8470345,0.0007458906,NaN,-0.3607793,0.0008847671,NaN,1.178326,-14.80367,NaN,-0.694521,-1.476438,0.3992849,14.11693,NaN,NaN,-0.01378778,0.8201025,-1.417216E-07,1.067298,-2.958536E-08,1.336578
992.3895,-0.8487303,0.0007463749,NaN,-0.3613723,0.0008840464,NaN,1.180104,-14.8029,NaN,-0.6990443,-1.468932,0.3956727,14.1088,NaN,NaN,-0.01421698,0.8207227,-9.999833E-08,1.056275,-3.196955E-08,1.329831
992.4044,-0.8505695,0.0007468615,NaN,-0.3620143,0.000882944,NaN,1.181872,-14.80432,NaN,-0.7038442,-1.479878,0.3919447,14.12073,NaN,NaN,-0.01463768,0.8196213,-5.827508E-08,1.072386,-3.077746E-08,1.340608
992.4207,-0.8524907,0.0007469307,NaN,-0.362683,0.0008820618,NaN,1.18353,-14.80425,NaN,-0.7087347,-1.483566,0.3882507,14.12467,NaN,NaN,-0.01504992,0.8197546,-1.774392E-08,1.07779,-2.600909E-08,1.339792
992.4343,-0.8524907,0.0007469307,NaN,-0.362683,0.0008820618,NaN,1.18353,-14.80425,NaN,-0.7087347,-1.483566,0.3882507,14.12467,NaN,NaN,-0.01504992,0.8197546,-1.774392E-08,1.07779,-2.600909E-08,1.339792
992.4485,-0.854455,0.0007469016,NaN,-0.3633649,0.0008833405,NaN,1.185068,-14.80296,NaN,-0.7136265,-1.477784,0.3846363,14.11834,NaN,NaN,-0.01545388,0.8209754,1.563468E-08,1.06929,-2.36249E-08,1.330755
992.4644,-0.8566509,0.0007469876,NaN,-0.3641286,0.0008834747,NaN,1.186846,-14.80259,NaN,-0.718966,-1.473656,0.3806074,14.11387,NaN,NaN,-0.0159335,0.8212731,6.093421E-08,1.063227,-2.243281E-08,1.327392
992.4791,-0.8566509,0.0007469876,NaN,-0.3641286,0.0008834747,NaN,1.186846,-14.80259,NaN,-0.718966,-1.473656,0.3806074,14.11387,NaN,NaN,-0.0159335,0.8212731,6.093421E-08,1.063227,-2.243281E-08,1.327392
992.4934,-0.8589824,0.0007480243,NaN,-0.3649382,0.0008830607,NaN,1.188601,-14.80435,NaN,-0.7245683,-1.479763,0.3764753,14.12065,NaN,NaN,-0.01640362,0.8196665,1.026575E-07,1.072251,-1.885653E-08,1.338447
992.509,-0.8613887,0.000748563,NaN,-0.3657719,0.0008825643,NaN,1.190238,-14.80275,NaN,-0.7302479,-1.469922,0.3723904,14.10993,NaN,NaN,-0.01686432,0.8211008,1.443807E-07,1.057797,-1.885653E-08,1.327439
992.5239,-0.8638316,0.0007486559,NaN,-0.3666164,0.0008817296,NaN,1.191748,-14.80414,NaN,-0.7359162,-1.4748,0.3683964,14.11535,NaN,NaN,-0.01731578,0.8198584,1.86104E-07,1.065011,-1.528025E-08,1.334819
992.5389,-0.8638316,0.0007486559,NaN,-0.3666164,0.0008817296,NaN,1.191748,-14.80414,NaN,-0.7359162,-1.4748,0.3683964,14.11535,NaN,NaN,-0.01731578,0.8198584,1.86104E-07,1.065011,-1.528025E-08,1.334819
992.5534,-0.8665002,0.0007490461,NaN,-0.3675403,0.0008808988,NaN,1.193491,-14.80289,NaN,-0.7420194,-1.483442,0.3639879,14.12447,NaN,NaN,-0.01784185,0.8212909,2.337877E-07,1.077637,-1.051188E-08,1.330972
992.569,-0.8692985,0.0007492576,NaN,-0.368508,0.0008800064,NaN,1.195197,-14.80195,NaN,-0.748373,-1.472847,0.3594911,14.11299,NaN,NaN,-0.01835753,0.8221008,2.755109E-07,1.062071,-6.9356E-09,1.323889
992.584,-0.8721658,0.0007492905,NaN,-0.3694975,0.0008784899,NaN,1.196774,-14.80295,NaN,-0.7547919,-1.468899,0.3550559,14.10887,NaN,NaN,-0.01886288,0.8210289,3.196184E-07,1.056313,-1.051188E-08,1.326637
992.5991,-0.8721658,0.0007492905,NaN,-0.3694975,0.0008784899,NaN,1.196774,-14.80295,NaN,-0.7547919,-1.468899,0.3550559,14.10887,NaN,NaN,-0.01886288,0.8210289,3.196184E-07,1.056313,-1.051188E-08,1.326637
992.6135,-0.8752775,0.0007503763,NaN,-0.3705725,0.0008789693,NaN,1.198558,-14.80315,NaN,-0.7616746,-1.482032,0.3502024,14.12299,NaN,NaN,-0.0194417,0.8212134,3.684942E-07,1.075588,-8.127692E-09,1.330644
992.629,-0.8785284,0.0007506968,NaN,-0.371694,0.0008800519,NaN,1.200275,-14.80298,NaN,-0.7688146,-1.469038,0.3452796,14.10902,NaN,NaN,-0.02000905,0.8211988,4.137937E-07,1.056517,-6.9356E-09,1.327222
992.644,-0.8818524,0.0007509402,NaN,-0.3728381,0.0008803434,NaN,1.201842,-14.80313,NaN,-0.7760159,-1.466859,0.3404379,14.1067,NaN,NaN,-0.02056504,0.820995,4.602853E-07,1.053326,-4.551414E-09,1.327011
992.66,-0.8852081,0.0007515885,NaN,-0.3739905,0.0008804988,NaN,1.203265,-14.80406,NaN,-0.7831857,-1.468323,0.3357145,14.10839,NaN,NaN,-0.02110989,0.8201336,5.055849E-07,1.055516,-6.9356E-09,1.332895
992.6737,-0.8852081,0.0007515885,NaN,-0.3739905,0.0008804988,NaN,1.203265,-14.80406,NaN,-0.7831857,-1.468323,0.3357145,14.10839,NaN,NaN,-0.02110989,0.8201336,5.055849E-07,1.055516,-6.9356E-09,1.332895
992.6881,-0.888783,0.0007523458,NaN,-0.3752196,0.0008807274,NaN,1.204902,-14.80336,NaN,-0.7907674,-1.465876,0.3305778,14.10568,NaN,NaN,-0.02172736,0.8207636,5.508844E-07,1.051902,-6.9356E-09,1.32878
992.7038,-0.8924794,0.0007529448,NaN,-0.3764889,0.0008798699,NaN,1.206471,-14.8045,NaN,-0.7985764,-1.47263,0.3253868,14.11308,NaN,NaN,-0.02233263,0.8198466,6.009523E-07,1.061862,-6.9356E-09,1.334474
992.7188,-0.8924794,0.0007529448,NaN,-0.3764889,0.0008798699,NaN,1.206471,-14.8045,NaN,-0.7985764,-1.47263,0.3253868,14.11308,NaN,NaN,-0.02233263,0.8198466,6.009523E-07,1.061862,-6.9356E-09,1.334474
992.7332,-0.8962358,0.0007543712,NaN,-0.3777764,0.000882354,NaN,1.207894,-14.80513,NaN,-0.8064275,-1.475158,0.3202881,14.11587,NaN,NaN,-0.02292582,0.819281,6.462519E-07,1.065588,-2.167228E-09,1.343548
992.7488,-0.900014,0.0007553188,NaN,-0.3790687,0.0008831232,NaN,1.209179,-14.80404,NaN,-0.8142329,-1.466414,0.3153152,14.10638,NaN,NaN,-0.02350715,0.8201821,6.915514E-07,1.052753,-4.551414E-09,1.330423
992.7643,-0.9040036,0.0007563817,NaN,-0.3804351,0.0008826713,NaN,1.210677,-14.80411,NaN,-0.822438,-1.465223,0.3099205,14.10511,NaN,NaN,-0.02416032,0.8200826,7.38043E-07,1.051013,-8.127692E-09,1.33278
992.779,-0.9040036,0.0007563817,NaN,-0.3804351,0.0008826713,NaN,1.210677,-14.80411,NaN,-0.822438,-1.465223,0.3099205,14.10511,NaN,NaN,-0.02416032,0.8200826,7.38043E-07,1.051013,-8.127692E-09,1.33278
992.7933,-0.908108,0.0007571709,NaN,-0.3818393,0.0008819827,NaN,1.212097,-14.8046,NaN,-0.8308593,-1.46554,0.3044882,14.10552,NaN,NaN,-0.0248006,0.8196049,7.857267E-07,1.051503,-4.551413E-09,1.333708
992.8089,-0.9122666,0.0007579296,NaN,-0.3832594,0.0008811015,NaN,1.213368,-14.80629,NaN,-0.8393126,-1.474013,0.2991624,14.11483,NaN,NaN,-0.02542811,0.8181923,8.334105E-07,1.063993,-5.743506E-09,1.346178
992.8239,-0.9164414,0.0007590003,NaN,-0.3846826,0.0008793048,NaN,1.214504,-14.80577,NaN,-0.8477106,-1.482254,0.2939713,14.12357,NaN,NaN,-0.02604312,0.8188981,8.715575E-07,1.076034,-5.743506E-09,1.343548
992.8388,-0.9164414,0.0007590003,NaN,-0.3846826,0.0008793048,NaN,1.214504,-14.80577,NaN,-0.8477106,-1.482254,0.2939713,14.12357,NaN,NaN,-0.02604312,0.8188981,8.715575E-07,1.076034,-5.743506E-09,1.343548
992.8542,-0.920823,0.0007593692,NaN,-0.3861781,0.0008769491,NaN,1.21585,-14.80552,NaN,-0.8564983,-1.482206,0.2883494,14.12349,NaN,NaN,-0.02672924,0.8191354,9.108965E-07,1.075962,-2.167228E-09,1.342459
992.8689,-0.9253146,0.0007596794,NaN,-0.3877095,0.0008758025,NaN,1.217106,-14.80433,NaN,-0.8654927,-1.472446,0.2827096,14.11292,NaN,NaN,-0.02740182,0.8201764,9.585802E-07,1.061646,-8.127691E-09,1.33379
992.8839,-0.9298557,0.0007592384,NaN,-0.3892553,0.0008746935,NaN,1.218214,-14.80406,NaN,-0.8745099,-1.46683,0.2771905,14.10687,NaN,NaN,-0.02806102,0.8203022,9.967272E-07,1.053408,-9.751342E-10,1.329071
992.9001,-0.9344086,0.0007590723,NaN,-0.3908024,0.0008729645,NaN,1.21919,-14.80407,NaN,-0.8834634,-1.480552,0.2718145,14.12158,NaN,NaN,-0.02870709,0.8207099,1.034874E-06,1.073522,-4.551413E-09,1.332788
992.9141,-0.9344086,0.0007590723,NaN,-0.3908024,0.0008729645,NaN,1.21919,-14.80407,NaN,-0.8834634,-1.480552,0.2718145,14.12158,NaN,NaN,-0.02870709,0.8207099,1.034874E-06,1.073522,-4.551413E-09,1.332788
992.9283,-0.9391642,0.0007593099,NaN,-0.3924202,0.0008733793,NaN,1.220373,-14.80419,NaN,-0.8927972,-1.467549,0.2659965,14.10764,NaN,NaN,-0.02942362,0.820373,1.070637E-06,1.054451,2.601145E-09,1.332541
992.944,-0.9440256,0.0007594604,NaN,-0.3940724,0.0008731255,NaN,1.221457,-14.80414,NaN,-0.9023288,-1.467382,0.2601823,14.10746,NaN,NaN,-0.03012603,0.820411,1.11236E-06,1.054207,-3.790874E-10,1.331023
992.9592,-0.9440256,0.0007594604,NaN,-0.3940724,0.0008731255,NaN,1.221457,-14.80414,NaN,-0.9023288,-1.467382,0.2601823,14.10746,NaN,NaN,-0.03012603,0.820411,1.11236E-06,1.054207,-3.790874E-10,1.331023
992.9736,-0.9489323,0.0007586649,NaN,-0.3957372,0.0008727862,NaN,1.222393,-14.80413,NaN,-0.9118749,-1.466665,0.2545024,14.10669,NaN,NaN,-0.03081447,0.8203881,1.155276E-06,1.053157,-1.57118E-09,1.329251
992.989,-0.9540612,0.0007581735,NaN,-0.3974789,0.0008710253,NaN,1.223511,-14.80551,NaN,-0.9218323,-1.480473,0.2483787,14.12168,NaN,NaN,-0.03157249,0.8194366,1.194615E-06,1.073461,4.389284E-09,1.33666
993.0039,-0.9593063,0.0007577334,NaN,-0.3992579,0.0008708754,NaN,1.224506,-14.80408,NaN,-0.9319963,-1.469011,0.2422864,14.10926,NaN,NaN,-0.03231555,0.8206657,1.235146E-06,1.05664,6.773469E-09,1.329612
993.019,-0.9593063,0.0007577334,NaN,-0.3992579,0.0008708754,NaN,1.224506,-14.80408,NaN,-0.9319963,-1.469011,0.2422864,14.10926,NaN,NaN,-0.03231555,0.8206657,1.235146E-06,1.05664,6.773469E-09,1.329612
993.0333,-0.9646014,0.0007570584,NaN,-0.4010505,0.000868847,NaN,1.225346,-14.80456,NaN,-0.9421738,-1.466974,0.2363456,14.10714,NaN,NaN,-0.03304385,0.8201377,1.276869E-06,1.053677,4.389284E-09,1.332713
993.05,-0.9699054,0.0007568796,NaN,-0.4028429,0.0008667851,NaN,1.22606,-14.80485,NaN,-0.9522743,-1.465817,0.2305647,14.10595,NaN,NaN,-0.03375769,0.8198075,1.313824E-06,1.052,2.169585E-10,1.332143
993.0641,-0.9754078,0.0007568494,NaN,-0.4047039,0.0008648367,NaN,1.226971,-14.80625,NaN,-0.9627382,-1.479054,0.2243225,14.12032,NaN,NaN,-0.0345406,0.8188224,1.350779E-06,1.071457,2.601144E-09,1.344181
993.0789,-0.9754078,0.0007568494,NaN,-0.4047039,0.0008648367,NaN,1.226971,-14.80625,NaN,-0.9627382,-1.479054,0.2243225,14.12032,NaN,NaN,-0.0345406,0.8188224,1.350779E-06,1.071457,2.601144E-09,1.344181
993.0933,-0.98101,0.0007567885,NaN,-0.4065967,0.0008628309,NaN,1.227763,-14.80465,NaN,-0.9733826,-1.468767,0.2181324,14.10915,NaN,NaN,-0.03530808,0.8202432,1.39131E-06,1.056364,8.130049E-10,1.333369
993.1088,-0.9866504,0.0007572786,NaN,-0.4084993,0.0008610961,NaN,1.228415,-14.80479,NaN,-0.9840248,-1.482021,0.2121004,14.12337,NaN,NaN,-0.03606034,0.820476,1.427073E-06,1.075798,2.169585E-10,1.335701
993.124,-0.9922909,0.0007574541,NaN,-0.410399,0.0008605454,NaN,1.228955,-14.80506,NaN,-0.9945796,-1.46838,0.2062291,14.10877,NaN,NaN,-0.03679769,0.8200197,1.459259E-06,1.055803,8.130049E-10,1.335004
993.139,-0.9922909,0.0007574541,NaN,-0.410399,0.0008605454,NaN,1.228955,-14.80506,NaN,-0.9945796,-1.46838,0.2062291,14.10877,NaN,NaN,-0.03679769,0.8200197,1.459259E-06,1.055803,8.130049E-10,1.335004
993.1537,-0.9981235,0.0007572993,NaN,-0.4123652,0.0008575125,NaN,1.229689,-14.80469,NaN,-1.005489,-1.482781,0.1998803,14.12415,NaN,NaN,-0.03760365,0.8208033,1.49383E-06,1.07689,2.005098E-09,1.339831
993.1693,-1.00405,0.0007576609,NaN,-0.4143612,0.0008558886,NaN,1.230301,-14.80576,NaN,-1.01657,-1.484848,0.1936095,14.12648,NaN,NaN,-0.03839371,0.8197445,1.528401E-06,1.079947,1.409051E-09,1.340933
993.1841,-1.01001,0.0007571554,NaN,-0.4163654,0.0008540888,NaN,1.230782,-14.80486,NaN,-1.027643,-1.476495,0.1875036,14.11744,NaN,NaN,-0.03916812,0.820523,1.560587E-06,1.067689,-2.167227E-09,1.33246
993.1992,-1.01001,0.0007571554,NaN,-0.4163654,0.0008540888,NaN,1.230782,-14.80486,NaN,-1.027643,-1.476495,0.1875036,14.11744,NaN,NaN,-0.03916812,0.820523,1.560587E-06,1.067689,-2.167227E-09,1.33246
993.2136,-1.016182,0.0007569204,NaN,-0.4184423,0.0008539513,NaN,1.231433,-14.80478,NaN,-1.039103,-1.472306,0.1809195,14.11293,NaN,NaN,-0.04001038,0.8205175,1.593966E-06,1.061543,-9.751344E-10,1.333306
993.2294,-1.022459,0.0007573647,NaN,-0.4205518,0.0008540838,NaN,1.231947,-14.80661,NaN,-1.050745,-1.478028,0.1744417,14.1193,NaN,NaN,-0.04083602,0.8188255,1.627345E-06,1.069997,2.005098E-09,1.34353
993.2458,-1.028773,0.0007579909,NaN,-0.4226706,0.0008545666,NaN,1.232332,-14.80573,NaN,-1.062379,-1.468272,0.1681384,14.10876,NaN,NaN,-0.04164532,0.8195253,1.651186E-06,1.055694,4.389284E-09,1.336544
993.2592,-1.028773,0.0007579909,NaN,-0.4226706,0.0008545666,NaN,1.232332,-14.80573,NaN,-1.062379,-1.468272,0.1681384,14.10876,NaN,NaN,-0.04164532,0.8195253,1.651186E-06,1.055694,4.389284E-09,1.336544
993.2734,-1.035085,0.0007585171,NaN,-0.424785,0.0008547676,NaN,1.23262,-14.80635,NaN,-1.073916,-1.481192,0.1620017,14.12267,NaN,NaN,-0.04243864,0.8192669,1.675028E-06,1.07464,6.177423E-09,1.341693
993.2892,-1.041586,0.0007585787,NaN,-0.4269641,0.0008547432,NaN,1.233084,-14.80717,NaN,-1.085794,-1.479039,0.1553689,14.12045,NaN,NaN,-0.04329944,0.8184217,1.703638E-06,1.071505,7.965562E-09,1.341907
993.3041,-1.048175,0.0007599954,NaN,-0.4291707,0.0008567379,NaN,1.233421,-14.8063,NaN,-1.09783,-1.485064,0.1488636,14.12679,NaN,NaN,-0.04414326,0.8193791,1.72748E-06,1.080299,7.071493E-09,1.336586
993.3192,-1.048175,0.0007599954,NaN,-0.4291707,0.0008567379,NaN,1.233421,-14.8063,NaN,-1.09783,-1.485064,0.1488636,14.12679,NaN,NaN,-0.04414326,0.8193791,1.72748E-06,1.080299,7.071493E-09,1.336586
993.3336,-1.054791,0.0007600696,NaN,-0.431383,0.0008583783,NaN,1.233647,-14.80511,NaN,-1.109844,-1.472206,0.1425313,14.1129,NaN,NaN,-0.04497042,0.8204344,1.746554E-06,1.06144,9.157655E-09,1.323801
993.3494,-1.061396,0.0007593985,NaN,-0.4335884,0.0008594179,NaN,1.23379,-14.8052,NaN,-1.121753,-1.470042,0.1363628,14.11059,NaN,NaN,-0.04578126,0.8203067,1.766819E-06,1.058271,1.034975E-08,1.326152
993.3658,-1.068184,0.000759364,NaN,-0.4358568,0.0008605992,NaN,1.234098,-14.80683,NaN,-1.133995,-1.472865,0.1296889,14.11382,NaN,NaN,-0.04665923,0.8187761,1.787085E-06,1.062472,1.064777E-08,1.336926
993.3794,-1.068184,0.000759364,NaN,-0.4358568,0.0008605992,NaN,1.234098,-14.80683,NaN,-1.133995,-1.472865,0.1296889,14.11382,NaN,NaN,-0.04665923,0.8187761,1.787085E-06,1.062472,1.064777E-08,1.336926
993.3937,-1.075056,0.0007593657,NaN,-0.4381511,0.0008608386,NaN,1.234287,-14.80576,NaN,-1.146389,-1.467422,0.1231622,14.10788,NaN,NaN,-0.04751989,0.8197213,1.806158E-06,1.054472,1.243591E-08,1.327352
993.4093,-1.08195,0.0007595137,NaN,-0.4404496,0.0008607229,NaN,1.234378,-14.80631,NaN,-1.158756,-1.467567,0.1168062,14.10811,NaN,NaN,-0.04836358,0.8191857,1.822848E-06,1.05471,1.303196E-08,1.330219
993.4252,-1.088829,0.0007608219,NaN,-0.4427401,0.0008625193,NaN,1.234396,-14.80651,NaN,-1.171013,-1.481242,0.1106112,14.12276,NaN,NaN,-0.04919066,0.8193966,1.839537E-06,1.074738,1.124382E-08,1.336951
993.4393,-1.088829,0.0007608219,NaN,-0.4427401,0.0008625193,NaN,1.234396,-14.80651,NaN,-1.171013,-1.481242,0.1106112,14.12276,NaN,NaN,-0.04919066,0.8193966,1.839537E-06,1.074738,1.124382E-08,1.336951
993.4535,-1.095888,0.0007614559,NaN,-0.4450924,0.0008644513,NaN,1.234565,-14.80586,NaN,-1.183599,-1.46791,0.1039079,14.10842,NaN,NaN,-0.05008453,0.8198503,1.859803E-06,1.055196,9.008644E-09,1.331427
993.4689,-1.103028,0.0007619882,NaN,-0.4474694,0.0008646799,NaN,1.234625,-14.80663,NaN,-1.196331,-1.472933,0.09736447,14.1139,NaN,NaN,-0.05096078,0.8192429,1.876492E-06,1.06259,9.008644E-09,1.332327
993.4841,-1.110187,0.0007627457,NaN,-0.4498496,0.0008642422,NaN,1.2346,-14.80737,NaN,-1.209033,-1.476698,0.0909878,14.11802,NaN,NaN,-0.05181979,0.818604,1.889605E-06,1.06813,4.836318E-09,1.338052
993.4991,-1.110187,0.0007627457,NaN,-0.4498496,0.0008642422,NaN,1.2346,-14.80737,NaN,-1.209033,-1.476698,0.0909878,14.11802,NaN,NaN,-0.05181979,0.818604,1.889605E-06,1.06813,4.836318E-09,1.338052
993.5135,-1.117547,0.000763831,NaN,-0.4522978,0.0008624611,NaN,1.234702,-14.80695,NaN,-1.222096,-1.478536,0.08411074,14.11994,NaN,NaN,-0.05274493,0.8190545,1.905102E-06,1.070813,3.048179E-09,1.335648
993.5295,-1.124998,0.0007639203,NaN,-0.4547735,0.0008609248,NaN,1.234696,-14.80619,NaN,-1.235319,-1.468866,0.07740332,14.10952,NaN,NaN,-0.05365188,0.8196406,1.915831E-06,1.05664,4.910824E-09,1.329149
993.5442,-1.132474,0.0007648742,NaN,-0.4572536,0.0008598593,NaN,1.234609,-14.80739,NaN,-1.248513,-1.481107,0.0708641,14.12278,NaN,NaN,-0.05454098,0.8187882,1.922984E-06,1.074621,7.965562E-09,1.33959
993.5591,-1.132474,0.0007648742,NaN,-0.4572536,0.0008598593,NaN,1.234609,-14.80739,NaN,-1.248513,-1.481107,0.0708641,14.12278,NaN,NaN,-0.05454098,0.8187882,1.922984E-06,1.074621,7.965562E-09,1.33959
993.5735,-1.139933,0.0007650887,NaN,-0.4597246,0.0008603614,NaN,1.234462,-14.80637,NaN,-1.261591,-1.468741,0.0644848,14.10945,NaN,NaN,-0.0554126,0.8196306,1.922984E-06,1.056501,1.087129E-08,1.331234
993.5893,-1.142317,0.0007654127,NaN,-0.4604048,0.0008606013,NaN,1.230441,-14.8071,NaN,-1.263603,-1.468297,0.07322228,14.10907,NaN,NaN,-0.05435801,0.8188945,1.844305E-06,1.055882,1.523221E-08,1.333747
993.6039,-1.141578,0.000765991,NaN,-0.4600407,0.0008606165,NaN,1.227363,-14.80719,NaN,-1.258271,-1.468151,0.08169161,14.10893,NaN,NaN,-0.05332389,0.8187976,1.757283E-06,1.055675,1.102263E-08,1.334747
993.6201,-1.138895,0.000767021,NaN,-0.4590336,0.0008614491,NaN,1.224852,-14.8079,NaN,-1.249463,-1.466874,0.08991687,14.10766,NaN,NaN,-0.05230995,0.8180606,1.689333E-06,1.053838,1.141378E-08,1.342416
993.634,-1.138895,0.000767021,NaN,-0.4590336,0.0008614491,NaN,1.224852,-14.8079,NaN,-1.249463,-1.466874,0.08991687,14.10766,NaN,NaN,-0.05230995,0.8180606,1.689333E-06,1.053838,1.141378E-08,1.342416
993.6483,-1.13502,0.0007675559,NaN,-0.4576414,0.0008602788,NaN,1.222692,-14.80687,NaN,-1.239057,-1.48062,0.09793322,14.12219,NaN,NaN,-0.05131584,0.8194914,1.627345E-06,1.073894,1.079911E-08,1.335326
993.6641,-1.130646,0.0007677132,NaN,-0.4561018,0.0008602908,NaN,1.220934,-14.80864,NaN,-1.228439,-1.469504,0.1051098,14.11048,NaN,NaN,-0.05042427,0.8175477,1.577277E-06,1.057655,9.942294E-09,1.341765
993.6789,-1.130646,0.0007677132,NaN,-0.4561018,0.0008602908,NaN,1.220934,-14.80864,NaN,-1.228439,-1.469504,0.1051098,14.11048,NaN,NaN,-0.05042427,0.8175477,1.577277E-06,1.057655,9.942294E-09,1.341765
993.6934,-1.125986,0.0007678577,NaN,-0.4544818,0.0008598983,NaN,1.219296,-14.80824,NaN,-1.217894,-1.470462,0.1121234,14.11145,NaN,NaN,-0.04955018,0.817961,1.527209E-06,1.059041,1.299703E-08,1.337446
993.7089,-1.121169,0.0007677677,NaN,-0.4528213,0.0008589569,NaN,1.217742,-14.80772,NaN,-1.207462,-1.46661,0.118988,14.10728,NaN,NaN,-0.04869321,0.8183766,1.484293E-06,1.053393,1.061285E-08,1.33391
993.7241,-1.116278,0.0007687744,NaN,-0.4511447,0.0008573373,NaN,1.216251,-14.80823,NaN,-1.197163,-1.48084,0.1257112,14.12254,NaN,NaN,-0.04785303,0.8182802,1.43661E-06,1.074233,1.269901E-08,1.339661
993.7391,-1.116278,0.0007687744,NaN,-0.4511447,0.0008573373,NaN,1.216251,-14.80823,NaN,-1.197163,-1.48084,0.1257112,14.12254,NaN,NaN,-0.04785303,0.8182802,1.43661E-06,1.074233,1.269901E-08,1.339661
993.7534,-1.111582,0.0007693785,NaN,-0.4495431,0.0008572388,NaN,1.215003,-14.80759,NaN,-1.187481,-1.468355,0.1316425,14.10914,NaN,NaN,-0.04711242,0.8187167,1.394886E-06,1.055955,1.657331E-08,1.333827
993.7688,-1.107025,0.0007694633,NaN,-0.4479935,0.0008564204,NaN,1.213758,-14.80819,NaN,-1.178259,-1.469187,0.1374487,14.11011,NaN,NaN,-0.04638631,0.818134,1.357932E-06,1.057199,1.716936E-08,1.337245
993.7839,-1.102574,0.0007700526,NaN,-0.4464818,0.0008546609,NaN,1.212523,-14.80773,NaN,-1.169328,-1.481481,0.1431433,14.12317,NaN,NaN,-0.04567441,0.8189173,1.324553E-06,1.075162,1.64243E-08,1.3358
993.7988,-1.102574,0.0007700526,NaN,-0.4464818,0.0008546609,NaN,1.212523,-14.80773,NaN,-1.169328,-1.481481,0.1431433,14.12317,NaN,NaN,-0.04567441,0.8189173,1.324553E-06,1.075162,1.64243E-08,1.3358
993.8133,-1.098426,0.00077003,NaN,-0.4450766,0.000854569,NaN,1.21151,-14.80739,NaN,-1.161079,-1.471652,0.1480713,14.11262,NaN,NaN,-0.04505959,0.8190869,1.293559E-06,1.060765,1.687133E-08,1.333093
993.8289,-1.094483,0.000770342,NaN,-0.4437413,0.0008549753,NaN,1.210474,-14.8091,NaN,-1.153311,-1.474644,0.1528924,14.11603,NaN,NaN,-0.04445681,0.8174525,1.26614E-06,1.065206,1.493418E-08,1.344358
993.845,-1.090682,0.0007710183,NaN,-0.4424537,0.0008558375,NaN,1.20943,-14.80926,NaN,-1.145833,-1.477455,0.1576248,14.11905,NaN,NaN,-0.04386581,0.8173388,1.236338E-06,1.069319,1.538122E-08,1.346186
993.8587,-1.090682,0.0007710183,NaN,-0.4424537,0.0008558375,NaN,1.20943,-14.80926,NaN,-1.145833,-1.477455,0.1576248,14.11905,NaN,NaN,-0.04386581,0.8173388,1.236338E-06,1.069319,1.538122E-08,1.346186
993.8731,-1.086987,0.0007717465,NaN,-0.4412005,0.0008590885,NaN,1.20839,-14.8074,NaN,-1.13855,-1.472156,0.1622686,14.11318,NaN,NaN,-0.04328639,0.8190872,1.204152E-06,1.061522,1.597726E-08,1.333952
993.8887,-1.08359,0.0007728505,NaN,-0.4400507,0.0008633956,NaN,1.207583,-14.80903,NaN,-1.131891,-1.47448,0.1661682,14.11586,NaN,NaN,-0.04280148,0.8175104,1.18031E-06,1.064978,1.508319E-08,1.344021
993.9036,-1.080393,0.0007739604,NaN,-0.4389679,0.0008698524,NaN,1.206748,-14.80794,NaN,-1.125674,-1.467702,0.1699727,14.10849,NaN,NaN,-0.04232606,0.8184493,1.152892E-06,1.055032,1.687133E-08,1.336465
993.9188,-1.080393,0.0007739604,NaN,-0.4389679,0.0008698524,NaN,1.206748,-14.80794,NaN,-1.125674,-1.467702,0.1699727,14.10849,NaN,NaN,-0.04232606,0.8184493,1.152892E-06,1.055032,1.687133E-08,1.336465
993.9333,-1.077332,0.0007741401,NaN,-0.4379304,0.0008755075,NaN,1.205896,-14.80786,NaN,-1.119717,-1.466493,0.1737099,14.10718,NaN,NaN,-0.04185993,0.8184907,1.127858E-06,1.053254,1.508319E-08,1.335162
993.9487,-1.074369,0.0007748369,NaN,-0.4369248,0.0008815319,NaN,1.205043,-14.80888,NaN,-1.113928,-1.469305,0.1773787,14.11031,NaN,NaN,-0.04140292,0.8175521,1.105208E-06,1.057407,1.150691E-08,1.34199
993.964,-1.071698,0.0007759525,NaN,-0.43602,0.0008872521,NaN,1.204431,-14.80951,NaN,-1.108739,-1.475655,0.1803256,14.11715,NaN,NaN,-0.04103804,0.8170903,1.089711E-06,1.066707,8.526682E-09,1.347008
993.9788,-1.071698,0.0007759525,NaN,-0.43602,0.0008872521,NaN,1.204431,-14.80951,NaN,-1.108739,-1.475655,0.1803256,14.11715,NaN,NaN,-0.04103804,0.8170903,1.089711E-06,1.066707,8.526682E-09,1.347008
993.9932,-1.069217,0.0007765951,NaN,-0.43518,0.0008934436,NaN,1.203785,-14.80788,NaN,-1.103972,-1.467327,0.1831875,14.10808,NaN,NaN,-0.04068032,0.8185395,1.074214E-06,1.054488,7.930636E-09,1.335976
994.0085,-1.066867,0.0007767677,NaN,-0.434383,0.0008988636,NaN,1.203116,-14.80816,NaN,-1.09944,-1.466523,0.1860017,14.10725,NaN,NaN,-0.04032958,0.8182417,1.05514E-06,1.053319,6.142496E-09,1.336429
994.0245,-1.064607,0.0007774383,NaN,-0.4336155,0.0009026412,NaN,1.202441,-14.80798,NaN,-1.095056,-1.480157,0.1887668,14.12177,NaN,NaN,-0.03998569,0.8188238,1.033682E-06,1.073246,7.334589E-09,1.338601
994.0383,-1.064607,0.0007774383,NaN,-0.4336155,0.0009026412,NaN,1.202441,-14.80798,NaN,-1.095056,-1.480157,0.1887668,14.12177,NaN,NaN,-0.03998569,0.8188238,1.033682E-06,1.073246,7.334589E-09,1.338601
994.0526,-1.062629,0.0007776425,NaN,-0.4329465,0.0009070749,NaN,1.202009,-14.80797,NaN,-1.091251,-1.470515,0.1908314,14.11145,NaN,NaN,-0.03973173,0.8186643,1.019377E-06,1.059126,8.228659E-09,1.337598
994.0682,-1.060836,0.0007780819,NaN,-0.4323401,0.0009117772,NaN,1.20154,-14.80926,NaN,-1.087847,-1.471236,0.1928211,14.11237,NaN,NaN,-0.03948276,0.8174033,1.005072E-06,1.060222,1.061284E-08,1.343196
994.0832,-1.059165,0.0007786465,NaN,-0.4317745,0.0009175693,NaN,1.201042,-14.80813,NaN,-1.084658,-1.467057,0.1947814,14.10776,NaN,NaN,-0.03923863,0.8184139,9.907671E-07,1.054066,1.091087E-08,1.337554
994.0981,-1.059165,0.0007786465,NaN,-0.4317745,0.0009175693,NaN,1.201042,-14.80813,NaN,-1.084658,-1.467057,0.1947814,14.10776,NaN,NaN,-0.03923863,0.8184139,9.907671E-07,1.054066,1.091087E-08,1.337554
994.1127,-1.057794,0.0007785552,NaN,-0.4313133,0.0009225092,NaN,1.200777,-14.80818,NaN,-1.082073,-1.466048,0.1960629,14.10668,NaN,NaN,-0.03908248,0.8183312,9.836145E-07,1.052586,1.061284E-08,1.335192
994.1282,-1.056615,0.0007793836,NaN,-0.4309177,0.0009270738,NaN,1.200464,-14.80964,NaN,-1.079889,-1.476933,0.1972832,14.11849,NaN,NaN,-0.03892938,0.8172047,9.800383E-07,1.068564,7.632612E-09,1.347355
994.1432,-1.055561,0.0007789061,NaN,-0.4305638,0.0009308052,NaN,1.200112,-14.80872,NaN,-1.077911,-1.467091,0.1984914,14.10789,NaN,NaN,-0.03877924,0.8179369,9.728857E-07,1.054152,6.440519E-09,1.338802
994.1581,-1.055561,0.0007789061,NaN,-0.4305638,0.0009308052,NaN,1.200112,-14.80872,NaN,-1.077911,-1.467091,0.1984914,14.10789,NaN,NaN,-0.03877924,0.8179369,9.728857E-07,1.054152,6.440519E-09,1.338802
994.1724,-1.054589,0.000778151,NaN,-0.430237,0.0009340823,NaN,1.19974,-14.80836,NaN,-1.076048,-1.467022,0.1996851,14.10777,NaN,NaN,-0.03863204,0.818292,9.63349E-07,1.054036,8.526682E-09,1.336723
994.1881,-1.05389,0.0007780258,NaN,-0.4300053,0.000938908,NaN,1.199611,-14.8089,NaN,-1.074728,-1.465896,0.2002154,14.10663,NaN,NaN,-0.03857091,0.8177137,9.585806E-07,1.052409,1.091087E-08,1.340285
994.2031,-1.053363,0.0007788183,NaN,-0.4298328,0.0009428551,NaN,1.199434,-14.80994,NaN,-1.073772,-1.479153,0.2006946,14.1209,NaN,NaN,-0.03851098,0.8170877,9.550043E-07,1.071829,1.269901E-08,1.349681
994.2189,-1.053363,0.0007788183,NaN,-0.4298328,0.0009428551,NaN,1.199434,-14.80994,NaN,-1.073772,-1.479153,0.2006946,14.1209,NaN,NaN,-0.03851098,0.8170877,9.550043E-07,1.071829,1.269901E-08,1.349681
994.2335,-1.052945,0.000779973,NaN,-0.4296972,0.0009467214,NaN,1.199215,-14.81049,NaN,-1.072995,-1.48038,0.2011763,14.12226,NaN,NaN,-0.03845219,0.8165561,9.538122E-07,1.073634,1.210296E-08,1.352427
994.2479,-1.052598,0.0007811031,NaN,-0.429585,0.0009516799,NaN,1.198974,-14.80889,NaN,-1.07231,-1.476277,0.2016585,14.11772,NaN,NaN,-0.03839453,0.8180827,9.502359E-07,1.067604,1.031482E-08,1.338767
994.2629,-1.052513,0.0007819583,NaN,-0.4295647,0.0009567377,NaN,1.198971,-14.80853,NaN,-1.072148,-1.472814,0.2014926,14.11397,NaN,NaN,-0.0384212,0.8183756,9.490438E-07,1.062526,1.061284E-08,1.339144
994.2779,-1.052513,0.0007819583,NaN,-0.4295647,0.0009567377,NaN,1.198971,-14.80853,NaN,-1.072148,-1.472814,0.2014926,14.11397,NaN,NaN,-0.0384212,0.8183756,9.490438E-07,1.062526,1.061284E-08,1.339144
994.2921,-1.052592,0.0007830902,NaN,-0.4296001,0.0009608439,NaN,1.198918,-14.81012,NaN,-1.072332,-1.479941,0.2012888,14.12177,NaN,NaN,-0.03844734,0.8169633,9.526201E-07,1.073003,1.031482E-08,1.350274
994.3098,-1.052772,0.0007834767,NaN,-0.4296698,0.0009652788,NaN,1.198816,-14.80848,NaN,-1.072677,-1.468216,0.2011019,14.1091,NaN,NaN,-0.03847294,0.8184114,9.550043E-07,1.055833,7.036565E-09,1.338654
994.3228,-1.053014,0.0007833461,NaN,-0.4297601,0.000969306,NaN,1.198688,-14.8089,NaN,-1.073095,-1.466963,0.2009297,14.10781,NaN,NaN,-0.038498,0.8179531,9.585806E-07,1.054011,4.056333E-09,1.338494
994.338,-1.053014,0.0007833461,NaN,-0.4297601,0.000969306,NaN,1.198688,-14.8089,NaN,-1.073095,-1.466963,0.2009297,14.10781,NaN,NaN,-0.038498,0.8179531,9.585806E-07,1.054011,4.056333E-09,1.338494
994.3523,-1.053511,0.0007842907,NaN,-0.4299397,0.0009728054,NaN,1.198794,-14.80973,NaN,-1.074021,-1.480592,0.2001231,14.12245,NaN,NaN,-0.03860577,0.817537,9.63349E-07,1.073967,4.056333E-09,1.346091
994.3677,-1.054166,0.0007856679,NaN,-0.4301733,0.0009758921,NaN,1.198843,-14.80865,NaN,-1.075275,-1.483187,0.1992927,14.12509,NaN,NaN,-0.03871142,0.8186426,9.728857E-07,1.077732,7.780772E-10,1.340831
994.3829,-1.054915,0.0007871795,NaN,-0.4304388,0.0009806134,NaN,1.19884,-14.80789,NaN,-1.076675,-1.477286,0.198493,14.11869,NaN,NaN,-0.03881495,0.8193184,9.776541E-07,1.069073,2.268193E-09,1.334709
994.3978,-1.054915,0.0007871795,NaN,-0.4304388,0.0009806134,NaN,1.19884,-14.80789,NaN,-1.076675,-1.477286,0.198493,14.11869,NaN,NaN,-0.03881495,0.8193184,9.776541E-07,1.069073,2.268193E-09,1.334709
994.4142,-1.055937,0.0007881331,NaN,-0.4307996,0.0009854988,NaN,1.199053,-14.80818,NaN,-1.078608,-1.4717,0.1970753,14.11273,NaN,NaN,-0.03899963,0.8189239,9.871908E-07,1.060895,3.758309E-09,1.335593
994.4276,-1.057125,0.0007896369,NaN,-0.4312169,0.0009894499,NaN,1.199196,-14.80863,NaN,-1.080873,-1.481359,0.1956517,14.12311,NaN,NaN,-0.03918067,0.8187153,9.955354E-07,1.075043,5.844472E-09,1.339995
994.4425,-1.05841,0.0007906198,NaN,-0.4316667,0.0009937143,NaN,1.199279,-14.81006,NaN,-1.083277,-1.473096,0.1942735,14.11441,NaN,NaN,-0.03935811,0.8171777,1.00388E-06,1.062972,4.652379E-09,1.34447
994.4575,-1.05841,0.0007906198,NaN,-0.4316667,0.0009937143,NaN,1.199279,-14.81006,NaN,-1.083277,-1.473096,0.1942735,14.11441,NaN,NaN,-0.03935811,0.8171777,1.00388E-06,1.062972,4.652379E-09,1.34447
994.4717,-1.059752,0.0007918178,NaN,-0.4321342,0.0009967992,NaN,1.199323,-14.80879,NaN,-1.085727,-1.482052,0.1929366,14.12379,NaN,NaN,-0.03953204,0.8186355,1.009841E-06,1.076009,1.374123E-09,1.340459
994.4874,-1.061339,0.0007923858,NaN,-0.4326874,0.001000577,NaN,1.199587,-14.80926,NaN,-1.088657,-1.469069,0.190988,14.10995,NaN,NaN,-0.03978572,0.8179888,1.025338E-06,1.057014,-3.394248E-09,1.33709
994.5025,-1.063072,0.0007936214,NaN,-0.43329,0.001003321,NaN,1.199782,-14.80813,NaN,-1.091884,-1.480095,0.1890479,14.12156,NaN,NaN,-0.04003442,0.8194088,1.037259E-06,1.073084,-3.692271E-09,1.336812
994.5175,-1.063072,0.0007936214,NaN,-0.43329,0.001003321,NaN,1.199782,-14.80813,NaN,-1.091884,-1.480095,0.1890479,14.12156,NaN,NaN,-0.04003442,0.8194088,1.037259E-06,1.073084,-3.692271E-09,1.336812
994.532,-1.064888,0.0007944976,NaN,-0.4339198,0.001005447,NaN,1.199916,-14.80915,NaN,-1.095226,-1.482004,0.1871634,14.1237,NaN,NaN,-0.04027819,0.8184153,1.04918E-06,1.075898,-5.182387E-09,1.338213
994.5475,-1.066749,0.0007952765,NaN,-0.4345632,0.001007518,NaN,1.200011,-14.81003,NaN,-1.098597,-1.483453,0.1853303,14.12533,NaN,NaN,-0.04051715,0.8175487,1.05514E-06,1.078032,-2.798201E-09,1.341406
994.5628,-1.068846,0.0007957764,NaN,-0.4352889,0.001010603,NaN,1.200318,-14.80892,NaN,-1.10243,-1.474936,0.1828931,14.11612,NaN,NaN,-0.04083458,0.8185414,1.070637E-06,1.065555,-5.182387E-09,1.333271
994.5778,-1.068846,0.0007957764,NaN,-0.4352889,0.001010603,NaN,1.200318,-14.80892,NaN,-1.10243,-1.474936,0.1828931,14.11612,NaN,NaN,-0.04083458,0.8185414,1.070637E-06,1.065555,-5.182387E-09,1.333271
994.5921,-1.071081,0.0007958355,NaN,-0.436061,0.001013685,NaN,1.200551,-14.80853,NaN,-1.106545,-1.468247,0.1804811,14.10893,NaN,NaN,-0.04114576,0.8187906,1.082558E-06,1.055754,-2.798201E-09,1.328049
994.6076,-1.073392,0.000796496,NaN,-0.4368576,0.001016006,NaN,1.200723,-14.80967,NaN,-1.110762,-1.48113,0.1781351,14.12284,NaN,NaN,-0.04145079,0.8180285,1.096863E-06,1.074652,-3.394248E-09,1.338856
994.6226,-1.075741,0.0007967901,NaN,-0.4376651,0.001019426,NaN,1.200852,-14.80854,NaN,-1.114994,-1.469492,0.1758502,14.11029,NaN,NaN,-0.0417498,0.81898,1.109976E-06,1.057604,-6.076457E-09,1.329973
994.6479,-1.07832,0.0007962808,NaN,-0.4385528,0.001021476,NaN,1.201185,-14.80868,NaN,-1.119675,-1.471934,0.1729683,14.11292,NaN,NaN,-0.0421261,0.8189174,1.120705E-06,1.061181,-3.394248E-09,1.331733
994.6545,-1.07832,0.0007962808,NaN,-0.4385528,0.001021476,NaN,1.201185,-14.80868,NaN,-1.119675,-1.471934,0.1729683,14.11292,NaN,NaN,-0.0421261,0.8189174,1.120705E-06,1.061181,-3.394248E-09,1.331733
994.6693,-1.081031,0.0007957557,NaN,-0.4394844,0.001023471,NaN,1.201439,-14.80938,NaN,-1.124625,-1.474028,0.1701287,14.11524,NaN,NaN,-0.04249498,0.8182709,1.137395E-06,1.064269,-6.37448E-09,1.334656
994.6833,-1.083813,0.0007962951,NaN,-0.4404383,0.001025561,NaN,1.201631,-14.80912,NaN,-1.129664,-1.482935,0.1673642,14.12471,NaN,NaN,-0.04285658,0.8187333,1.148123E-06,1.077288,-4.58634E-09,1.336261
994.6985,-1.083813,0.0007962951,NaN,-0.4404383,0.001025561,NaN,1.201631,-14.80912,NaN,-1.129664,-1.482935,0.1673642,14.12471,NaN,NaN,-0.04285658,0.8187333,1.148123E-06,1.077288,-4.58634E-09,1.336261
994.7132,-1.086844,0.0007964281,NaN,-0.4414781,0.001028648,NaN,1.202005,-14.80813,NaN,-1.13518,-1.469219,0.1640147,14.10994,NaN,NaN,-0.04329421,0.8195461,1.170773E-06,1.05719,-7.268549E-09,1.32971
994.7288,-1.090016,0.0007966114,NaN,-0.4425646,0.001031673,NaN,1.202292,-14.80849,NaN,-1.140972,-1.46934,0.1607257,14.11012,NaN,NaN,-0.04372322,0.8192034,1.187463E-06,1.057385,-9.652735E-09,1.330659
994.7434,-1.093262,0.0007968285,NaN,-0.443674,0.001035256,NaN,1.20251,-14.80889,NaN,-1.146849,-1.46772,0.1575228,14.10844,NaN,NaN,-0.04414375,0.818763,1.20296E-06,1.055031,-8.609654E-09,1.333715
994.7586,-1.093262,0.0007968285,NaN,-0.443674,0.001035256,NaN,1.20251,-14.80889,NaN,-1.146849,-1.46772,0.1575228,14.10844,NaN,NaN,-0.04414375,0.818763,1.20296E-06,1.055031,-8.609654E-09,1.333715
994.7762,-1.09654,0.0007976661,NaN,-0.4447919,0.001040203,NaN,1.202681,-14.80959,NaN,-1.15272,-1.467203,0.1544001,14.10798,NaN,NaN,-0.04455601,0.8180519,1.216073E-06,1.054304,-9.503724E-09,1.340173
994.7902,-1.100042,0.0007978,NaN,-0.445987,0.001044082,NaN,1.203032,-14.80943,NaN,-1.159017,-1.466427,0.150696,14.10713,NaN,NaN,-0.0450433,0.8181913,1.23157E-06,1.053163,-7.26855E-09,1.333574
994.8041,-1.103668,0.0007970172,NaN,-0.4472224,0.001046876,NaN,1.2033,-14.80958,NaN,-1.16556,-1.46521,0.1470661,14.10585,NaN,NaN,-0.04552098,0.8180018,1.243491E-06,1.051389,-5.033376E-09,1.33583
994.819,-1.103668,0.0007970172,NaN,-0.4472224,0.001046876,NaN,1.2033,-14.80958,NaN,-1.16556,-1.46521,0.1470661,14.10585,NaN,NaN,-0.04552098,0.8180018,1.243491E-06,1.051389,-5.033376E-09,1.33583
994.8338,-1.107354,0.0007965098,NaN,-0.4484762,0.001050032,NaN,1.203504,-14.81011,NaN,-1.172167,-1.465635,0.1435283,14.10637,NaN,NaN,-0.04598925,0.8174921,1.255412E-06,1.052033,-2.053144E-09,1.336882
994.8491,-1.111062,0.0007955788,NaN,-0.4497352,0.001052648,NaN,1.203662,-14.80979,NaN,-1.178754,-1.465514,0.1400767,14.10619,NaN,NaN,-0.0464483,0.8178018,1.263757E-06,1.05184,-3.02172E-09,1.333956
994.8644,-1.114987,0.0007960214,NaN,-0.4510686,0.001054987,NaN,1.20399,-14.8097,NaN,-1.185753,-1.479861,0.1360503,14.12148,NaN,NaN,-0.04698145,0.8183348,1.278062E-06,1.072806,-3.394249E-09,1.338119
994.8792,-1.114987,0.0007960214,NaN,-0.4510686,0.001054987,NaN,1.20399,-14.8097,NaN,-1.185753,-1.479861,0.1360503,14.12148,NaN,NaN,-0.04698145,0.8183348,1.278062E-06,1.072806,-3.394249E-09,1.338119
994.8935,-1.119028,0.0007963103,NaN,-0.4524399,0.001058511,NaN,1.204235,-14.80962,NaN,-1.192986,-1.468257,0.1321115,14.10907,NaN,NaN,-0.0475041,0.8182122,1.292367E-06,1.055824,-4.884365E-09,1.334191
994.9094,-1.123123,0.0007967519,NaN,-0.4538274,0.001062648,NaN,1.204419,-14.81011,NaN,-1.200273,-1.466704,0.1282702,14.10747,NaN,NaN,-0.04801645,0.8176777,1.304288E-06,1.05357,-5.405906E-09,1.336269
994.9261,-1.127235,0.0007972884,NaN,-0.4552182,0.001067512,NaN,1.204558,-14.81047,NaN,-1.207529,-1.465331,0.1245212,14.10604,NaN,NaN,-0.04851872,0.8172725,1.31144E-06,1.051573,-4.17656E-09,1.338491
994.9406,-1.131559,0.0007971766,NaN,-0.4566816,0.001071482,NaN,1.204853,-14.8104,NaN,-1.215187,-1.465264,0.1202053,14.10595,NaN,NaN,-0.04909423,0.8173307,1.32813E-06,1.051468,-8.153307E-09,1.336644
994.9567,-1.131559,0.0007971766,NaN,-0.4566816,0.001071482,NaN,1.204853,-14.8104,NaN,-1.215187,-1.465264,0.1202053,14.10595,NaN,NaN,-0.04909423,0.8173307,1.32813E-06,1.051468,-8.153307E-09,1.336644
994.9709,-1.135994,0.0007975047,NaN,-0.4581811,0.001073755,NaN,1.205068,-14.81106,NaN,-1.223069,-1.479785,0.1159879,14.12151,NaN,NaN,-0.0496584,0.8171182,1.344819E-06,1.07271,-1.059337E-08,1.343226
994.9857,-1.140479,0.0007972893,NaN,-0.4596951,0.001076582,NaN,1.205225,-14.81021,NaN,-1.230995,-1.46805,0.1118729,14.1089,NaN,NaN,-0.05021146,0.8177701,1.355548E-06,1.055539,-1.059337E-08,1.338266
