JMolnar6/NonAnthroHands_User_Study/HandsLoggerWithURDF/tempdata/PID 0 (test)/files/Reachy_PID0_JointMotion_gesture_7_32.csv
Time,r_shoulder,r_shoulder_x,r_upper_arm,r_forearm,r_wrist,r_wrist2hand,
372.5204,-0.09841176,-1.690622E-08,NaN,-0.3272431,-1.354828E-07,NaN,0.4562786,8.577222E-09,NaN,-2.168978,1.178326E-05,-0.3672074,-2.389135E-08,NaN,NaN,-0.05522091,2.793956E-10,-1.599642E-07,-1.13866E-07,-2.018794E-09,-2.861022E-08
372.5361,-0.09841176,-1.690622E-08,NaN,-0.3272431,-1.354828E-07,NaN,0.4562786,8.577222E-09,NaN,-2.168978,1.178326E-05,-0.3672074,-2.389135E-08,NaN,NaN,-0.05522091,2.793956E-10,-1.599642E-07,-1.13866E-07,-2.018794E-09,-2.861022E-08
372.549,-0.09803586,-1.690526E-08,NaN,-0.3272398,-1.354839E-07,NaN,0.4562415,9.639545E-09,NaN,-2.169149,1.178384E-05,-0.3670536,-2.446484E-08,NaN,NaN,-0.05453009,2.887088E-10,-1.519921E-07,-1.138686E-07,-3.210887E-09,-2.622604E-08
372.5643,-0.09720136,-1.690431E-08,NaN,-0.3272355,-1.354849E-07,NaN,0.456124,1.070187E-08,NaN,-2.169436,1.178441E-05,-0.3669491,-2.503461E-08,NaN,NaN,-0.05385287,2.933654E-10,-1.465159E-07,-1.138713E-07,-5.595073E-09,-2.861022E-08
372.5793,-0.09720136,-1.690431E-08,NaN,-0.3272355,-1.354849E-07,NaN,0.456124,1.070187E-08,NaN,-2.169436,1.178441E-05,-0.3669491,-2.503461E-08,NaN,NaN,-0.05385287,2.933654E-10,-1.465159E-07,-1.138713E-07,-5.595073E-09,-2.861022E-08
372.5932,-0.0960818,-1.690336E-08,NaN,-0.3272308,-1.35486E-07,NaN,0.4559909,1.176419E-08,NaN,-2.169729,1.178499E-05,-0.3668734,-2.560068E-08,NaN,NaN,-0.05318899,2.98022E-10,-1.418965E-07,-1.138739E-07,-5.595073E-09,-2.622604E-08
372.6087,-0.09551587,-1.690241E-08,NaN,-0.3272283,-1.354871E-07,NaN,0.4560317,1.282652E-08,NaN,-2.169606,1.178557E-05,-0.3668374,-2.616307E-08,NaN,NaN,-0.05253856,3.026786E-10,-1.455287E-07,-1.138765E-07,-3.210887E-09,-2.861022E-08
372.623,-0.09530066,-1.690146E-08,NaN,-0.3272271,-1.354881E-07,NaN,0.4561706,1.388884E-08,NaN,-2.169333,1.178615E-05,-0.3667535,-2.672182E-08,NaN,NaN,-0.05190085,3.073352E-10,-1.497383E-07,-1.138791E-07,-6.787165E-09,-2.622604E-08
372.6379,-0.09530066,-1.690146E-08,NaN,-0.3272271,-1.354881E-07,NaN,0.4561706,1.388884E-08,NaN,-2.169333,1.178615E-05,-0.3667535,-2.672182E-08,NaN,NaN,-0.05190085,3.073352E-10,-1.497383E-07,-1.138791E-07,-6.787165E-09,-2.622604E-08
372.6519,-0.09530595,-1.69005E-08,NaN,-0.3272264,-1.354892E-07,NaN,0.4563408,1.495116E-08,NaN,-2.169019,1.178672E-05,-0.3666396,-2.727693E-08,NaN,NaN,-0.05127558,3.119918E-10,-1.531096E-07,-1.138818E-07,-7.979258E-09,-2.861022E-08
372.6694,-0.09544996,-1.689955E-08,NaN,-0.3272258,-1.354903E-07,NaN,0.4565117,1.601349E-08,NaN,-2.168709,1.17873E-05,-0.3665152,-2.782844E-08,NaN,NaN,-0.05066255,3.213051E-10,-1.565183E-07,-1.138844E-07,-7.979258E-09,-2.622604E-08
372.6829,-0.09640897,-1.68986E-08,NaN,-0.3272267,-1.354914E-07,NaN,0.4568362,1.707581E-08,NaN,-2.168027,1.178787E-05,-0.3664181,-2.837637E-08,NaN,NaN,-0.0500619,3.213051E-10,-1.647512E-07,-1.13887E-07,-7.979258E-09,-2.861022E-08
372.6967,-0.09640897,-1.68986E-08,NaN,-0.3272267,-1.354914E-07,NaN,0.4568362,1.707581E-08,NaN,-2.168027,1.178787E-05,-0.3664181,-2.837637E-08,NaN,NaN,-0.0500619,3.213051E-10,-1.647512E-07,-1.13887E-07,-7.979258E-09,-2.861022E-08
372.7107,-0.09787677,-1.689765E-08,NaN,-0.3272279,-1.354925E-07,NaN,0.4572293,1.813813E-08,NaN,-2.167248,1.178845E-05,-0.3662748,-2.892075E-08,NaN,NaN,-0.04947296,3.259617E-10,-1.733566E-07,-1.138896E-07,-9.171351E-09,-2.622604E-08
372.726,-0.09965856,-1.68967E-08,NaN,-0.3272288,-1.354936E-07,NaN,0.4576272,1.920046E-08,NaN,-2.166479,1.178903E-05,-0.3661074,-2.946159E-08,NaN,NaN,-0.0488955,3.259617E-10,-1.795033E-07,-1.138922E-07,-1.155554E-08,-2.861022E-08
372.7402,-0.1016305,-1.689574E-08,NaN,-0.3272293,-1.354947E-07,NaN,0.4580045,2.026278E-08,NaN,-2.165752,1.178962E-05,-0.3659353,-2.999891E-08,NaN,NaN,-0.04832931,3.213051E-10,-1.869167E-07,-1.138948E-07,-9.171352E-09,-2.622604E-08
372.7552,-0.1016305,-1.689574E-08,NaN,-0.3272293,-1.354947E-07,NaN,0.4580045,2.026278E-08,NaN,-2.165752,1.178962E-05,-0.3659353,-2.999891E-08,NaN,NaN,-0.04832931,3.213051E-10,-1.869167E-07,-1.138948E-07,-9.171352E-09,-2.622604E-08
372.7715,-0.104442,-1.689479E-08,NaN,-0.3272316,-1.354958E-07,NaN,0.4585196,2.132511E-08,NaN,-2.164685,1.17902E-05,-0.3657936,-3.053275E-08,NaN,NaN,-0.04777457,3.213051E-10,-2.003463E-07,-1.138974E-07,-1.274763E-08,-2.861022E-08
372.7847,-0.1077701,-1.689384E-08,NaN,-0.3272341,-1.354969E-07,NaN,0.4590906,2.238743E-08,NaN,-2.163548,1.179077E-05,-0.3656089,-3.106313E-08,NaN,NaN,-0.04723065,3.306183E-10,-2.134594E-07,-1.139001E-07,-1.393972E-08,-2.622604E-08
372.7994,-0.1077701,-1.689384E-08,NaN,-0.3272341,-1.354969E-07,NaN,0.4590906,2.238743E-08,NaN,-2.163548,1.179077E-05,-0.3656089,-3.106313E-08,NaN,NaN,-0.04723065,3.306183E-10,-2.134594E-07,-1.139001E-07,-1.393972E-08,-2.622604E-08
372.8133,-0.1114092,-1.689289E-08,NaN,-0.3272361,-1.35498E-07,NaN,0.4596561,2.344975E-08,NaN,-2.162439,1.179135E-05,-0.3654029,-3.159006E-08,NaN,NaN,-0.0466973,3.352749E-10,-2.241509E-07,-1.139027E-07,-1.155554E-08,-2.861022E-08
372.8288,-0.1159571,-1.689193E-08,NaN,-0.3272395,-1.354991E-07,NaN,0.4603569,2.451208E-08,NaN,-2.161004,1.179193E-05,-0.3652191,-3.211357E-08,NaN,NaN,-0.04617473,3.399315E-10,-2.403187E-07,-1.139053E-07,-1.513182E-08,-2.622604E-08
372.8436,-0.1210577,-1.689098E-08,NaN,-0.3272425,-1.355003E-07,NaN,0.4611037,2.55744E-08,NaN,-2.159516,1.179251E-05,-0.3649911,-3.263368E-08,NaN,NaN,-0.04566232,3.445881E-10,-2.552012E-07,-1.139079E-07,-1.274763E-08,-2.861022E-08
372.8581,-0.1210577,-1.689098E-08,NaN,-0.3272425,-1.355003E-07,NaN,0.4611037,2.55744E-08,NaN,-2.159516,1.179251E-05,-0.3649911,-3.263368E-08,NaN,NaN,-0.04566232,3.445881E-10,-2.552012E-07,-1.139079E-07,-1.274763E-08,-2.861022E-08
372.872,-0.1264846,-1.689003E-08,NaN,-0.3272442,-1.355014E-07,NaN,0.4618344,2.663672E-08,NaN,-2.158077,1.179309E-05,-0.3647436,-3.315041E-08,NaN,NaN,-0.04515987,3.492447E-10,-2.676437E-07,-1.139105E-07,-1.155554E-08,-2.622604E-08
372.8875,-0.1320941,-1.688908E-08,NaN,-0.3272447,-1.355025E-07,NaN,0.462527,2.769905E-08,NaN,-2.156714,1.179368E-05,-0.3644958,-3.36638E-08,NaN,NaN,-0.04466721,3.492447E-10,-2.772549E-07,-1.13913E-07,-1.7516E-08,-2.861022E-08
372.9024,-0.1385233,-1.688813E-08,NaN,-0.3272461,-1.355036E-07,NaN,0.4633442,2.876137E-08,NaN,-2.155043,1.179425E-05,-0.3642769,-3.417384E-08,NaN,NaN,-0.04418452,3.585579E-10,-2.950991E-07,-1.139156E-07,-2.109228E-08,-2.622604E-08
372.9168,-0.1385233,-1.688813E-08,NaN,-0.3272461,-1.355036E-07,NaN,0.4633442,2.876137E-08,NaN,-2.155043,1.179425E-05,-0.3642769,-3.417384E-08,NaN,NaN,-0.04418452,3.585579E-10,-2.950991E-07,-1.139156E-07,-2.109228E-08,-2.622604E-08
372.9329,-0.1454411,-1.688717E-08,NaN,-0.3272468,-1.355048E-07,NaN,0.4642031,2.98237E-08,NaN,-2.153327,1.179483E-05,-0.3640172,-3.468058E-08,NaN,NaN,-0.04371122,3.539013E-10,-3.121982E-07,-1.139182E-07,-1.870809E-08,-2.861022E-08
372.9472,-0.1526375,-1.688622E-08,NaN,-0.3272467,-1.355059E-07,NaN,0.4650439,3.088602E-08,NaN,-2.151663,1.17954E-05,-0.3637399,-3.518403E-08,NaN,NaN,-0.04324711,3.585579E-10,-3.276581E-07,-1.139208E-07,-1.870809E-08,-2.622604E-08
372.9608,-0.1599788,-1.688527E-08,NaN,-0.3272461,-1.355071E-07,NaN,0.4658453,3.194835E-08,NaN,-2.150079,1.179597E-05,-0.3634632,-3.568421E-08,NaN,NaN,-0.04279205,3.585579E-10,-3.411064E-07,-1.139234E-07,-1.870809E-08,-2.861022E-08
372.9757,-0.1599788,-1.688527E-08,NaN,-0.3272461,-1.355071E-07,NaN,0.4658453,3.194835E-08,NaN,-2.150079,1.179597E-05,-0.3634632,-3.568421E-08,NaN,NaN,-0.04279205,3.585579E-10,-3.411064E-07,-1.139234E-07,-1.870809E-08,-2.861022E-08
372.9894,-0.168109,-1.688432E-08,NaN,-0.3272463,-1.355082E-07,NaN,0.4667704,3.301067E-08,NaN,-2.148191,1.179655E-05,-0.363212,-3.618114E-08,NaN,NaN,-0.04234621,3.585579E-10,-3.598819E-07,-1.13926E-07,-1.632391E-08,-2.622604E-08
373.0047,-0.1767013,-1.688337E-08,NaN,-0.3272459,-1.355094E-07,NaN,0.4677339,3.4073E-08,NaN,-2.146263,1.179713E-05,-0.3629203,-3.667484E-08,NaN,NaN,-0.04190902,3.539013E-10,-3.77428E-07,-1.139286E-07,-1.990019E-08,-2.861022E-08
373.0193,-0.1767013,-1.688337E-08,NaN,-0.3272459,-1.355094E-07,NaN,0.4677339,3.4073E-08,NaN,-2.146263,1.179713E-05,-0.3629203,-3.667484E-08,NaN,NaN,-0.04190902,3.539013E-10,-3.77428E-07,-1.139286E-07,-1.990019E-08,-2.861022E-08
373.0334,-0.1855483,-1.688241E-08,NaN,-0.3272446,-1.355105E-07,NaN,0.4686759,3.513532E-08,NaN,-2.144394,1.179771E-05,-0.3626121,-3.716534E-08,NaN,NaN,-0.04148032,3.539013E-10,-3.929624E-07,-1.139311E-07,-1.7516E-08,-2.622604E-08
373.0489,-0.1952468,-1.688146E-08,NaN,-0.327244,-1.355117E-07,NaN,0.4697414,3.619765E-08,NaN,-2.142226,1.179828E-05,-0.3623206,-3.765266E-08,NaN,NaN,-0.04106029,3.585579E-10,-4.134888E-07,-1.139337E-07,-1.7516E-08,-2.861022E-08
373.0635,-0.2054403,-1.688051E-08,NaN,-0.3272425,-1.355128E-07,NaN,0.4708368,3.725997E-08,NaN,-2.140032,1.179886E-05,-0.3619881,-3.813681E-08,NaN,NaN,-0.04064839,3.632145E-10,-4.330466E-07,-1.139363E-07,-1.274763E-08,-2.622604E-08
373.0783,-0.2054403,-1.688051E-08,NaN,-0.3272425,-1.355128E-07,NaN,0.4708368,3.725997E-08,NaN,-2.140032,1.179886E-05,-0.3619881,-3.813681E-08,NaN,NaN,-0.04064839,3.632145E-10,-4.330466E-07,-1.139363E-07,-1.274763E-08,-2.622604E-08
373.0921,-0.2159024,-1.687956E-08,NaN,-0.3272399,-1.35514E-07,NaN,0.4719013,3.83223E-08,NaN,-2.137913,1.179943E-05,-0.3616413,-3.861782E-08,NaN,NaN,-0.04024448,3.678712E-10,-4.527906E-07,-1.139388E-07,-5.595074E-09,-2.861022E-08
373.1079,-0.2264896,-1.687861E-08,NaN,-0.327236,-1.35515E-07,NaN,0.4729149,3.770986E-08,NaN,-2.135895,1.180001E-05,-0.3612979,-3.753973E-08,NaN,NaN,-0.03984842,3.632145E-10,-4.70821E-07,-1.139389E-07,-6.787167E-09,-2.622604E-08
373.1224,-0.2378395,-1.687765E-08,NaN,-0.3272332,-1.355154E-07,NaN,0.4740432,3.687938E-08,NaN,-2.133594,1.180059E-05,-0.360977,-3.633635E-08,NaN,NaN,-0.03946039,3.632145E-10,-4.922787E-07,-1.139384E-07,-5.595075E-09,-2.861022E-08
373.1373,-0.2378395,-1.687765E-08,NaN,-0.3272332,-1.355154E-07,NaN,0.4740432,3.687938E-08,NaN,-2.133594,1.180059E-05,-0.360977,-3.633635E-08,NaN,NaN,-0.03946039,3.632145E-10,-4.922787E-07,-1.139384E-07,-5.595075E-09,-2.861022E-08
373.1512,-0.2496216,-1.68767E-08,NaN,-0.3272291,-1.355153E-07,NaN,0.4751986,3.591948E-08,NaN,-2.131271,1.180117E-05,-0.3606179,-3.507773E-08,NaN,NaN,-0.03907988,3.632145E-10,-5.115756E-07,-1.139376E-07,-9.171353E-09,-2.622604E-08
373.1667,-0.2616261,-1.687575E-08,NaN,-0.3272229,-1.35515E-07,NaN,0.4763226,3.487989E-08,NaN,-2.129024,1.180174E-05,-0.3602457,-3.379878E-08,NaN,NaN,-0.03870673,3.632145E-10,-5.290845E-07,-1.139367E-07,-1.274763E-08,-2.861022E-08
373.1814,-0.2737202,-1.68748E-08,NaN,-0.3272149,-1.355144E-07,NaN,0.4773952,3.412529E-08,NaN,-2.126879,1.180233E-05,-0.3598779,-3.28523E-08,NaN,NaN,-0.03834084,3.632145E-10,-5.476364E-07,-1.139373E-07,-1.393972E-08,-2.622604E-08
373.1982,-0.2737202,-1.68748E-08,NaN,-0.3272149,-1.355144E-07,NaN,0.4773952,3.412529E-08,NaN,-2.126879,1.180233E-05,-0.3598779,-3.28523E-08,NaN,NaN,-0.03834084,3.632145E-10,-5.476364E-07,-1.139373E-07,-1.393972E-08,-2.622604E-08
373.2121,-0.2865483,-1.687384E-08,NaN,-0.3272077,-1.355141E-07,NaN,0.4785828,3.341896E-08,NaN,-2.124453,1.180291E-05,-0.359529,-3.199208E-08,NaN,NaN,-0.03798236,3.678712E-10,-5.656668E-07,-1.139381E-07,-1.274763E-08,-2.861022E-08
373.2253,-0.2997843,-1.687289E-08,NaN,-0.327199,-1.35514E-07,NaN,0.4797945,3.273442E-08,NaN,-2.122009,1.180349E-05,-0.3591428,-3.118404E-08,NaN,NaN,-0.03763082,3.678712E-10,-5.862304E-07,-1.139392E-07,-1.274763E-08,-2.622604E-08
373.2399,-0.2997843,-1.687289E-08,NaN,-0.327199,-1.35514E-07,NaN,0.4797945,3.273442E-08,NaN,-2.122009,1.180349E-05,-0.3591428,-3.118404E-08,NaN,NaN,-0.03763082,3.678712E-10,-5.862304E-07,-1.139392E-07,-1.274763E-08,-2.622604E-08
373.2568,-0.3132213,-1.687194E-08,NaN,-0.3271881,-1.355141E-07,NaN,0.480972,3.206123E-08,NaN,-2.119643,1.180408E-05,-0.3587452,-3.041167E-08,NaN,NaN,-0.03728607,3.678712E-10,-6.045589E-07,-1.139403E-07,-1.393972E-08,-2.861022E-08
373.271,-0.3274568,-1.687099E-08,NaN,-0.3271776,-1.355142E-07,NaN,0.4822638,3.139509E-08,NaN,-2.117002,1.180466E-05,-0.3583585,-2.966579E-08,NaN,NaN,-0.03694829,3.678712E-10,-6.266126E-07,-1.139414E-07,-1.393972E-08,-2.622604E-08
373.2836,-0.3421348,-1.687004E-08,NaN,-0.3271649,-1.355143E-07,NaN,0.4835715,3.073516E-08,NaN,-2.114356,1.180524E-05,-0.3579348,-2.894169E-08,NaN,NaN,-0.03661704,3.678712E-10,-6.467291E-07,-1.139426E-07,-1.632391E-08,-2.861022E-08
373.2982,-0.3421348,-1.687004E-08,NaN,-0.3271649,-1.355143E-07,NaN,0.4835715,3.073516E-08,NaN,-2.114356,1.180524E-05,-0.3579348,-2.894169E-08,NaN,NaN,-0.03661704,3.678712E-10,-6.467291E-07,-1.139426E-07,-1.632391E-08,-2.861022E-08
373.3123,-0.3570295,-1.686908E-08,NaN,-0.3271494,-1.355145E-07,NaN,0.4848362,3.007988E-08,NaN,-2.111803,1.180583E-05,-0.3575025,-2.823469E-08,NaN,NaN,-0.03629218,3.678712E-10,-6.644615E-07,-1.139437E-07,-1.513182E-08,-2.622604E-08
373.3278,-0.3719981,-1.686813E-08,NaN,-0.3271315,-1.355147E-07,NaN,0.4860398,2.943001E-08,NaN,-2.109371,1.180641E-05,-0.3570788,-2.754305E-08,NaN,NaN,-0.03597362,3.725278E-10,-6.780215E-07,-1.139449E-07,-1.87081E-08,-2.861022E-08
373.3423,-0.3876786,-1.686718E-08,NaN,-0.3271142,-1.355149E-07,NaN,0.4873509,2.878724E-08,NaN,-2.106677,1.1807E-05,-0.3566699,-2.686649E-08,NaN,NaN,-0.03566152,3.678712E-10,-6.991812E-07,-1.139461E-07,-2.228438E-08,-2.622604E-08
373.3567,-0.3876786,-1.686718E-08,NaN,-0.3271142,-1.355149E-07,NaN,0.4873509,2.878724E-08,NaN,-2.106677,1.1807E-05,-0.3566699,-2.686649E-08,NaN,NaN,-0.03566152,3.678712E-10,-6.991812E-07,-1.139461E-07,-2.228438E-08,-2.622604E-08
373.3708,-0.4037412,-1.686623E-08,NaN,-0.3270949,-1.355152E-07,NaN,0.4886758,2.817685E-08,NaN,-2.10398,1.180759E-05,-0.3562275,-2.622868E-08,NaN,NaN,-0.03535544,3.678712E-10,-7.184037E-07,-1.139456E-07,-2.109228E-08,-2.622604E-08
373.3863,-0.4199768,-1.686528E-08,NaN,-0.327073,-1.355151E-07,NaN,0.4899578,2.749086E-08,NaN,-2.101376,1.180816E-05,-0.3557787,-2.552036E-08,NaN,NaN,-0.03505526,3.678712E-10,-7.331558E-07,-1.139447E-07,-1.632391E-08,-2.622604E-08
373.4008,-0.436253,-1.686433E-08,NaN,-0.327049,-1.355147E-07,NaN,0.4911794,2.67711E-08,NaN,-2.098892,1.180874E-05,-0.3553392,-2.478236E-08,NaN,NaN,-0.03476091,3.678712E-10,-7.470139E-07,-1.139437E-07,-1.513182E-08,-2.622604E-08
373.4156,-0.436253,-1.686433E-08,NaN,-0.327049,-1.355147E-07,NaN,0.4911794,2.67711E-08,NaN,-2.098892,1.180874E-05,-0.3553392,-2.478236E-08,NaN,NaN,-0.03476091,3.678712E-10,-7.470139E-07,-1.139437E-07,-1.513182E-08,-2.622604E-08
373.4295,-0.4532148,-1.686338E-08,NaN,-0.3270259,-1.355142E-07,NaN,0.4925093,2.603729E-08,NaN,-2.096147,1.180931E-05,-0.354911,-2.403356E-08,NaN,NaN,-0.03447253,3.725278E-10,-7.669815E-07,-1.139426E-07,-1.393972E-08,-2.622604E-08
373.445,-0.4705367,-1.686243E-08,NaN,-0.3270008,-1.355137E-07,NaN,0.4938509,2.530157E-08,NaN,-2.093401,1.180989E-05,-0.3544507,-2.328545E-08,NaN,NaN,-0.03418969,3.725278E-10,-7.832238E-07,-1.139415E-07,-1.632391E-08,-2.622604E-08
373.4596,-0.4705367,-1.686243E-08,NaN,-0.3270008,-1.355137E-07,NaN,0.4938509,2.530157E-08,NaN,-2.093401,1.180989E-05,-0.3544507,-2.328545E-08,NaN,NaN,-0.03418969,3.725278E-10,-7.832238E-07,-1.139415E-07,-1.632391E-08,-2.622604E-08
373.4733,-0.4880125,-1.686148E-08,NaN,-0.3269733,-1.35513E-07,NaN,0.4951478,2.457006E-08,NaN,-2.090751,1.181047E-05,-0.3539857,-2.254365E-08,NaN,NaN,-0.0339123,3.725278E-10,-7.981249E-07,-1.139403E-07,-1.632391E-08,-2.622604E-08
373.4908,-0.50624,-1.686053E-08,NaN,-0.326946,-1.355124E-07,NaN,0.496552,2.38473E-08,NaN,-2.087843,1.181104E-05,-0.3535251,-2.181227E-08,NaN,NaN,-0.03364053,3.771844E-10,-8.173474E-07,-1.139391E-07,-1.870809E-08,-2.622604E-08
373.5044,-0.5248638,-1.685958E-08,NaN,-0.3269162,-1.355117E-07,NaN,0.4979599,2.313482E-08,NaN,-2.084946,1.181162E-05,-0.3530339,-2.109249E-08,NaN,NaN,-0.03337397,3.771844E-10,-8.364209E-07,-1.139379E-07,-1.870809E-08,-2.622604E-08
373.5181,-0.5248638,-1.685958E-08,NaN,-0.3269162,-1.355117E-07,NaN,0.4979599,2.313482E-08,NaN,-2.084946,1.181162E-05,-0.3530339,-2.109249E-08,NaN,NaN,-0.03337397,3.771844E-10,-8.364209E-07,-1.139379E-07,-1.870809E-08,-2.622604E-08
373.532,-0.5436587,-1.685862E-08,NaN,-0.3268832,-1.355111E-07,NaN,0.4993151,2.243548E-08,NaN,-2.082159,1.18122E-05,-0.3525411,-2.038693E-08,NaN,NaN,-0.03311254,3.771844E-10,-8.516201E-07,-1.139367E-07,-1.7516E-08,-2.622604E-08
373.5473,-0.5624824,-1.685767E-08,NaN,-0.3268476,-1.355104E-07,NaN,0.5006019,2.174781E-08,NaN,-2.079508,1.181278E-05,-0.3520622,-1.969387E-08,NaN,NaN,-0.03285619,3.771844E-10,-8.63541E-07,-1.139355E-07,-1.990019E-08,-2.622604E-08
373.5619,-0.5819735,-1.685672E-08,NaN,-0.3268129,-1.355097E-07,NaN,0.501991,2.107454E-08,NaN,-2.076611,1.181335E-05,-0.3515905,-1.901592E-08,NaN,NaN,-0.03260501,3.771844E-10,-8.805283E-07,-1.139343E-07,-2.228437E-08,-2.622604E-08
373.5764,-0.5819735,-1.685672E-08,NaN,-0.3268129,-1.355097E-07,NaN,0.501991,2.107454E-08,NaN,-2.076611,1.181335E-05,-0.3515905,-1.901592E-08,NaN,NaN,-0.03260501,3.771844E-10,-8.805283E-07,-1.139343E-07,-2.228437E-08,-2.622604E-08
373.5903,-0.6018026,-1.685577E-08,NaN,-0.3267758,-1.35509E-07,NaN,0.5033826,2.041411E-08,NaN,-2.073726,1.181393E-05,-0.3510915,-1.835135E-08,NaN,NaN,-0.03235865,3.771844E-10,-8.954295E-07,-1.139331E-07,-2.943693E-08,-2.622604E-08
373.6057,-0.621761,-1.685482E-08,NaN,-0.3267362,-1.355083E-07,NaN,0.5047226,1.976778E-08,NaN,-2.070949,1.181451E-05,-0.3505929,-1.770131E-08,NaN,NaN,-0.03211705,3.771844E-10,-9.070524E-07,-1.139319E-07,-2.943693E-08,-2.622604E-08
373.6205,-0.6417171,-1.685387E-08,NaN,-0.3266943,-1.355076E-07,NaN,0.5059958,1.913393E-08,NaN,-2.068306,1.181509E-05,-0.3501089,-1.706411E-08,NaN,NaN,-0.03188012,3.771844E-10,-9.177812E-07,-1.139307E-07,-2.824484E-08,-2.622604E-08
373.6351,-0.6417171,-1.685387E-08,NaN,-0.3266943,-1.355076E-07,NaN,0.5059958,1.913393E-08,NaN,-2.068306,1.181509E-05,-0.3501089,-1.706411E-08,NaN,NaN,-0.03188012,3.771844E-10,-9.177812E-07,-1.139307E-07,-2.824484E-08,-2.622604E-08
373.6492,-0.6623163,-1.685292E-08,NaN,-0.3266536,-1.35507E-07,NaN,0.5073725,1.85138E-08,NaN,-2.065417,1.181566E-05,-0.3496286,-1.64409E-08,NaN,NaN,-0.03164798,3.771844E-10,-9.314903E-07,-1.139295E-07,-2.586065E-08,-2.622604E-08
373.6645,-0.6832336,-1.685197E-08,NaN,-0.3266108,-1.355063E-07,NaN,0.5087504,1.790576E-08,NaN,-2.062541,1.181624E-05,-0.3491228,-1.583001E-08,NaN,NaN,-0.03142028,3.771844E-10,-9.437092E-07,-1.139283E-07,-2.705274E-08,-2.622604E-08
373.6792,-0.6832336,-1.685197E-08,NaN,-0.3266108,-1.355063E-07,NaN,0.5087504,1.790576E-08,NaN,-2.062541,1.181624E-05,-0.3491228,-1.583001E-08,NaN,NaN,-0.03142028,3.771844E-10,-9.437092E-07,-1.139283E-07,-2.705274E-08,-2.622604E-08
373.6932,-0.7042632,-1.685102E-08,NaN,-0.3265655,-1.355056E-07,NaN,0.5100758,1.731102E-08,NaN,-2.059774,1.181682E-05,-0.3486193,-1.52326E-08,NaN,NaN,-0.03119698,3.771844E-10,-9.53544E-07,-1.139271E-07,-3.062902E-08,-2.622604E-08
373.7088,-0.7254962,-1.685007E-08,NaN,-0.3265189,-1.35505E-07,NaN,0.5113853,1.672794E-08,NaN,-2.057028,1.18174E-05,-0.3481264,-1.464699E-08,NaN,NaN,-0.03097805,3.771844E-10,-9.624847E-07,-1.13926E-07,-2.347646E-08,-2.622604E-08
373.7231,-0.7467682,-1.684912E-08,NaN,-0.3264707,-1.355043E-07,NaN,0.5126467,1.615773E-08,NaN,-2.054383,1.181797E-05,-0.3476399,-1.407437E-08,NaN,NaN,-0.03076335,3.771844E-10,-9.705313E-07,-1.139248E-07,-2.705274E-08,-2.622604E-08
373.7379,-0.7467682,-1.684912E-08,NaN,-0.3264707,-1.355043E-07,NaN,0.5126467,1.615773E-08,NaN,-2.054383,1.181797E-05,-0.3476399,-1.407437E-08,NaN,NaN,-0.03076335,3.771844E-10,-9.705313E-07,-1.139248E-07,-2.705274E-08,-2.622604E-08
373.7533,-0.7679754,-1.684817E-08,NaN,-0.3264213,-1.355036E-07,NaN,0.5138477,1.560017E-08,NaN,-2.051864,1.181855E-05,-0.3471685,-1.351448E-08,NaN,NaN,-0.03055281,3.81841E-10,-9.797701E-07,-1.139236E-07,-2.466856E-08,-2.622604E-08
373.7685,-0.7890532,-1.684722E-08,NaN,-0.3263715,-1.35503E-07,NaN,0.5149883,1.505359E-08,NaN,-2.04947,1.181912E-05,-0.346715,-1.296566E-08,NaN,NaN,-0.03034637,3.81841E-10,-9.851345E-07,-1.139225E-07,-2.228437E-08,-2.622604E-08
373.7822,-0.8099613,-1.684627E-08,NaN,-0.3263218,-1.355023E-07,NaN,0.5160726,1.451922E-08,NaN,-2.047194,1.18197E-05,-0.3462794,-1.24291E-08,NaN,NaN,-0.03014394,3.81841E-10,-9.899029E-07,-1.139213E-07,-2.705274E-08,-2.622604E-08
373.7967,-0.8099613,-1.684627E-08,NaN,-0.3263218,-1.355023E-07,NaN,0.5160726,1.451922E-08,NaN,-2.047194,1.18197E-05,-0.3462794,-1.24291E-08,NaN,NaN,-0.03014394,3.81841E-10,-9.899029E-07,-1.139213E-07,-2.705274E-08,-2.622604E-08
373.8106,-0.8306751,-1.684532E-08,NaN,-0.326273,-1.355016E-07,NaN,0.5171054,1.399542E-08,NaN,-2.045029,1.182028E-05,-0.3458606,-1.190315E-08,NaN,NaN,-0.02994544,3.81841E-10,-9.922871E-07,-1.139201E-07,-2.466856E-08,-2.622604E-08
373.826,-0.8511801,-1.684437E-08,NaN,-0.3262253,-1.35501E-07,NaN,0.5180907,1.348339E-08,NaN,-2.042967,1.182086E-05,-0.3454574,-1.138902E-08,NaN,NaN,-0.02975081,3.81841E-10,-9.952673E-07,-1.13919E-07,-2.943693E-08,-2.622604E-08
373.8402,-0.8714681,-1.684341E-08,NaN,-0.326179,-1.355003E-07,NaN,0.5190319,1.298292E-08,NaN,-2.041001,1.182143E-05,-0.3450688,-1.088647E-08,NaN,NaN,-0.02955997,3.81841E-10,-9.973535E-07,-1.139178E-07,-3.182112E-08,-2.622604E-08
373.8552,-0.8714681,-1.684341E-08,NaN,-0.326179,-1.355003E-07,NaN,0.5190319,1.298292E-08,NaN,-2.041001,1.182143E-05,-0.3450688,-1.088647E-08,NaN,NaN,-0.02955997,3.81841E-10,-9.973535E-07,-1.139178E-07,-3.182112E-08,-2.622604E-08
373.869,-0.8915347,-1.684246E-08,NaN,-0.3261344,-1.354997E-07,NaN,0.5199317,1.249237E-08,NaN,-2.039126,1.182201E-05,-0.3446939,-1.039387E-08,NaN,NaN,-0.02937284,3.81841E-10,-9.979495E-07,-1.139167E-07,-3.182112E-08,-2.622604E-08
373.8842,-0.9113783,-1.684151E-08,NaN,-0.3260915,-1.35499E-07,NaN,0.520792,1.201297E-08,NaN,-2.037339,1.182259E-05,-0.3443322,-9.912431E-09,NaN,NaN,-0.02918936,3.81841E-10,-1.002122E-06,-1.139155E-07,-3.182112E-08,-2.622604E-08
373.899,-0.9113783,-1.684151E-08,NaN,-0.3260915,-1.35499E-07,NaN,0.520792,1.201297E-08,NaN,-2.037339,1.182259E-05,-0.3443322,-9.912431E-09,NaN,NaN,-0.02918936,3.81841E-10,-1.002122E-06,-1.139155E-07,-3.182112E-08,-2.622604E-08
373.913,-0.9309987,-1.684056E-08,NaN,-0.3260505,-1.354984E-07,NaN,0.5216147,1.154308E-08,NaN,-2.035635,1.182317E-05,-0.3439833,-9.44052E-09,NaN,NaN,-0.02900945,3.81841E-10,-1.004208E-06,-1.139144E-07,-3.182112E-08,-2.622604E-08
373.9285,-0.9503966,-1.683961E-08,NaN,-0.3260112,-1.354977E-07,NaN,0.5224012,1.108393E-08,NaN,-2.034012,1.182374E-05,-0.3436466,-8.979364E-09,NaN,NaN,-0.02883305,3.864976E-10,-1.003612E-06,-1.139133E-07,-3.182112E-08,-2.622604E-08
373.9428,-0.9695736,-1.683866E-08,NaN,-0.3259737,-1.35497E-07,NaN,0.5231528,1.063531E-08,NaN,-2.032468,1.182431E-05,-0.3433221,-8.528751E-09,NaN,NaN,-0.02866008,3.911542E-10,-1.0054E-06,-1.139122E-07,-3.42053E-08,-2.622604E-08
373.9575,-0.9695736,-1.683866E-08,NaN,-0.3259737,-1.35497E-07,NaN,0.5231528,1.063531E-08,NaN,-2.032468,1.182431E-05,-0.3433221,-8.528751E-09,NaN,NaN,-0.02866008,3.911542E-10,-1.0054E-06,-1.139122E-07,-3.42053E-08,-2.622604E-08
373.9716,-0.9885314,-1.683771E-08,NaN,-0.325938,-1.354964E-07,NaN,0.5238706,1.019561E-08,NaN,-2.031,1.182489E-05,-0.3430092,-8.087064E-09,NaN,NaN,-0.02849049,3.911542E-10,-1.00242E-06,-1.13911E-07,-3.658949E-08,-2.622604E-08
373.987,-1.007272,-1.683676E-08,NaN,-0.3259042,-1.354958E-07,NaN,0.5245557,9.76607E-09,NaN,-2.029606,1.182547E-05,-0.3427079,-7.655542E-09,NaN,NaN,-0.02832419,3.911542E-10,-1.001824E-06,-1.139099E-07,-3.658949E-08,-2.622604E-08
374.0015,-1.025798,-1.683581E-08,NaN,-0.325872,-1.354951E-07,NaN,0.5252092,9.345074E-09,NaN,-2.028285,1.182605E-05,-0.3424178,-7.23257E-09,NaN,NaN,-0.02816115,3.911542E-10,-9.994396E-07,-1.139088E-07,-4.135786E-08,-2.622604E-08
374.0165,-1.025798,-1.683581E-08,NaN,-0.325872,-1.354951E-07,NaN,0.5252092,9.345074E-09,NaN,-2.028285,1.182605E-05,-0.3424178,-7.23257E-09,NaN,NaN,-0.02816115,3.911542E-10,-9.994396E-07,-1.139088E-07,-4.135786E-08,-2.622604E-08
374.0302,-1.044112,-1.683486E-08,NaN,-0.3258415,-1.354945E-07,NaN,0.5258319,8.933871E-09,NaN,-2.027035,1.182662E-05,-0.3421387,-6.819396E-09,NaN,NaN,-0.02800128,3.911542E-10,-9.970554E-07,-1.139077E-07,-4.374205E-08,-2.622604E-08
374.0474,-1.062215,-1.68339E-08,NaN,-0.3258126,-1.354938E-07,NaN,0.5264247,8.530857E-09,NaN,-2.025853,1.18272E-05,-0.3418705,-6.414413E-09,NaN,NaN,-0.02784452,3.911542E-10,-9.940752E-07,-1.139066E-07,-4.851042E-08,-2.622604E-08
374.061,-1.08011,-1.683295E-08,NaN,-0.3257854,-1.354932E-07,NaN,0.5269886,8.137285E-09,NaN,-2.024739,1.182778E-05,-0.3416129,-6.018874E-09,NaN,NaN,-0.02769083,3.911542E-10,-9.91691E-07,-1.139055E-07,-4.135786E-08,-2.622604E-08
374.0746,-1.08011,-1.683295E-08,NaN,-0.3257854,-1.354932E-07,NaN,0.5269886,8.137285E-09,NaN,-2.024739,1.182778E-05,-0.3416129,-6.018874E-09,NaN,NaN,-0.02769083,3.911542E-10,-9.91691E-07,-1.139055E-07,-4.135786E-08,-2.622604E-08
374.0885,-1.0978,-1.6832E-08,NaN,-0.3257596,-1.354926E-07,NaN,0.5275242,7.75297E-09,NaN,-2.02369,1.182836E-05,-0.3413657,-5.632597E-09,NaN,NaN,-0.02754013,3.911542E-10,-9.887108E-07,-1.139044E-07,-3.42053E-08,-2.622604E-08
374.1037,-1.115286,-1.683105E-08,NaN,-0.3257354,-1.354919E-07,NaN,0.5280325,7.376319E-09,NaN,-2.022706,1.182893E-05,-0.3411286,-5.253983E-09,NaN,NaN,-0.02739239,3.911542E-10,-9.821542E-07,-1.139033E-07,-2.705275E-08,-2.622604E-08
374.1183,-1.115286,-1.683105E-08,NaN,-0.3257354,-1.354919E-07,NaN,0.5280325,7.376319E-09,NaN,-2.022706,1.182893E-05,-0.3411286,-5.253983E-09,NaN,NaN,-0.02739239,3.911542E-10,-9.821542E-07,-1.139033E-07,-2.705275E-08,-2.622604E-08
374.132,-1.132572,-1.68301E-08,NaN,-0.3257127,-1.354913E-07,NaN,0.5285143,7.008592E-09,NaN,-2.021784,1.182951E-05,-0.3409016,-4.884296E-09,NaN,NaN,-0.02724751,3.911542E-10,-9.761937E-07,-1.139022E-07,-2.943693E-08,-2.622604E-08
374.1475,-1.149659,-1.682915E-08,NaN,-0.3256913,-1.354907E-07,NaN,0.5289701,6.648203E-09,NaN,-2.020923,1.183009E-05,-0.3406843,-4.521948E-09,NaN,NaN,-0.02710547,3.911542E-10,-9.714254E-07,-1.139011E-07,-3.182112E-08,-2.622604E-08
374.162,-1.16655,-1.68282E-08,NaN,-0.3256714,-1.3549E-07,NaN,0.5294009,6.296423E-09,NaN,-2.020122,1.183067E-05,-0.3404765,-4.168209E-09,NaN,NaN,-0.0269662,3.911542E-10,-9.642728E-07,-1.139E-07,-3.658949E-08,-2.622604E-08
374.1766,-1.16655,-1.68282E-08,NaN,-0.3256714,-1.3549E-07,NaN,0.5294009,6.296423E-09,NaN,-2.020122,1.183067E-05,-0.3404765,-4.168209E-09,NaN,NaN,-0.0269662,3.911542E-10,-9.642728E-07,-1.139E-07,-3.658949E-08,-2.622604E-08
374.1904,-1.183246,-1.682725E-08,NaN,-0.3256527,-1.354894E-07,NaN,0.5298072,5.95308E-09,NaN,-2.019378,1.183124E-05,-0.3402782,-3.822908E-09,NaN,NaN,-0.02682965,3.911542E-10,-9.583123E-07,-1.138989E-07,-3.42053E-08,-2.622604E-08
374.2058,-1.199751,-1.68263E-08,NaN,-0.3256354,-1.354888E-07,NaN,0.5301899,5.616599E-09,NaN,-2.018692,1.183182E-05,-0.340089,-3.48447E-09,NaN,NaN,-0.02669576,3.911542E-10,-9.505637E-07,-1.138978E-07,-3.658949E-08,-2.622604E-08
374.2204,-1.216066,-1.682534E-08,NaN,-0.3256193,-1.354882E-07,NaN,0.5305495,5.288259E-09,NaN,-2.018061,1.18324E-05,-0.3399088,-3.154173E-09,NaN,NaN,-0.02656449,3.911542E-10,-9.463914E-07,-1.138968E-07,-4.135786E-08,-2.622604E-08
374.2397,-1.216066,-1.682534E-08,NaN,-0.3256193,-1.354882E-07,NaN,0.5305495,5.288259E-09,NaN,-2.018061,1.18324E-05,-0.3399088,-3.154173E-09,NaN,NaN,-0.02656449,3.911542E-10,-9.463914E-07,-1.138968E-07,-4.135786E-08,-2.622604E-08
374.2492,-1.232193,-1.682439E-08,NaN,-0.3256044,-1.354875E-07,NaN,0.5308867,4.966483E-09,NaN,-2.017484,1.183298E-05,-0.3397374,-2.830442E-09,NaN,NaN,-0.02643578,3.911542E-10,-9.410269E-07,-1.138957E-07,-4.135786E-08,-2.622604E-08
374.2639,-1.248136,-1.682344E-08,NaN,-0.3255906,-1.354869E-07,NaN,0.5312021,4.65256E-09,NaN,-2.016959,1.183355E-05,-0.3395745,-2.514563E-09,NaN,NaN,-0.02630959,3.911542E-10,-9.356625E-07,-1.138946E-07,-4.135786E-08,-2.622604E-08
374.279,-1.248136,-1.682344E-08,NaN,-0.3255906,-1.354869E-07,NaN,0.5312021,4.65256E-09,NaN,-2.016959,1.183355E-05,-0.3395745,-2.514563E-09,NaN,NaN,-0.02630959,3.911542E-10,-9.356625E-07,-1.138946E-07,-4.135786E-08,-2.622604E-08
374.2925,-1.263674,-1.682249E-08,NaN,-0.3255773,-1.354863E-07,NaN,0.5314454,4.344921E-09,NaN,-2.0166,1.183413E-05,-0.3394296,-2.204967E-09,NaN,NaN,-0.02618583,3.911542E-10,-9.279139E-07,-1.138936E-07,-3.658949E-08,-2.622604E-08
374.3076,-1.278892,-1.682154E-08,NaN,-0.3255654,-1.354857E-07,NaN,0.5316523,4.044855E-09,NaN,-2.016324,1.183471E-05,-0.3393036,-1.902946E-09,NaN,NaN,-0.0260645,3.911542E-10,-9.207614E-07,-1.138925E-07,-4.135786E-08,-2.622604E-08
374.3222,-1.293847,-1.682058E-08,NaN,-0.3255551,-1.354851E-07,NaN,0.5318398,3.750801E-09,NaN,-2.016098,1.183529E-05,-0.3391879,-1.606937E-09,NaN,NaN,-0.02594555,3.911542E-10,-9.136088E-07,-1.138914E-07,-3.658949E-08,-2.622604E-08
374.3367,-1.293847,-1.682058E-08,NaN,-0.3255551,-1.354851E-07,NaN,0.5318398,3.750801E-09,NaN,-2.016098,1.183529E-05,-0.3391879,-1.606937E-09,NaN,NaN,-0.02594555,3.911542E-10,-9.136088E-07,-1.138914E-07,-3.658949E-08,-2.622604E-08
374.3528,-1.308573,-1.681963E-08,NaN,-0.3255465,-1.354845E-07,NaN,0.5320134,3.464016E-09,NaN,-2.01591,1.183586E-05,-0.3390791,-1.318196E-09,NaN,NaN,-0.02582893,3.958108E-10,-9.088404E-07,-1.138904E-07,-3.42053E-08,-2.622604E-08
374.3669,-1.322365,-1.681868E-08,NaN,-0.325537,-1.354839E-07,NaN,0.532006,3.182981E-09,NaN,-2.016132,1.183644E-05,-0.3390079,-1.035205E-09,NaN,NaN,-0.02571448,3.958108E-10,-8.951314E-07,-1.138893E-07,-2.705274E-08,-2.622604E-08
374.3814,-1.335512,-1.681773E-08,NaN,-0.3255296,-1.354832E-07,NaN,0.5319338,2.908999E-09,NaN,-2.016499,1.183701E-05,-0.3389772,-7.592682E-10,NaN,NaN,-0.02560233,3.958108E-10,-8.849986E-07,-1.138883E-07,-1.7516E-08,-2.622604E-08
374.3949,-1.335512,-1.681773E-08,NaN,-0.3255296,-1.354832E-07,NaN,0.5319338,2.908999E-09,NaN,-2.016499,1.183701E-05,-0.3389772,-7.592682E-10,NaN,NaN,-0.02560233,3.958108E-10,-8.849986E-07,-1.138883E-07,-1.7516E-08,-2.622604E-08
374.4088,-1.348199,-1.681678E-08,NaN,-0.3255252,-1.354826E-07,NaN,0.5318497,2.641931E-09,NaN,-2.016906,1.183759E-05,-0.3389598,-4.902454E-10,NaN,NaN,-0.02549239,3.958108E-10,-8.748658E-07,-1.138873E-07,-7.979256E-09,-2.622604E-08
374.4238,-1.360544,-1.681582E-08,NaN,-0.3255231,-1.35482E-07,NaN,0.5317694,2.380229E-09,NaN,-2.017317,1.183817E-05,-0.3389451,-2.26588E-10,NaN,NaN,-0.0253846,3.958108E-10,-8.635409E-07,-1.138862E-07,-3.210885E-09,-2.622604E-08
374.4383,-1.360544,-1.681582E-08,NaN,-0.3255231,-1.35482E-07,NaN,0.5317694,2.380229E-09,NaN,-2.017317,1.183817E-05,-0.3389451,-2.26588E-10,NaN,NaN,-0.0253846,3.958108E-10,-8.635409E-07,-1.138862E-07,-3.210885E-09,-2.622604E-08
374.452,-1.371893,-1.681487E-08,NaN,-0.3255211,-1.354814E-07,NaN,0.5315264,2.1252E-09,NaN,-2.018101,1.183875E-05,-0.3389617,3.039596E-11,NaN,NaN,-0.02527883,3.958108E-10,-8.534082E-07,-1.138852E-07,-8.266992E-10,-2.622604E-08
374.4673,-1.382569,-1.681392E-08,NaN,-0.3255205,-1.354808E-07,NaN,0.5312344,1.875301E-09,NaN,-2.018996,1.183932E-05,-0.3390127,2.822504E-10,NaN,NaN,-0.02517517,4.004674E-10,-8.396991E-07,-1.138842E-07,-1.036344E-08,-2.622604E-08
374.4819,-1.392776,-1.681297E-08,NaN,-0.3255212,-1.354807E-07,NaN,0.5309437,1.57757E-09,NaN,-2.019902,1.183991E-05,-0.3390718,5.819328E-10,NaN,NaN,-0.02507355,3.958108E-10,-8.277782E-07,-1.138822E-07,-1.274763E-08,-2.622604E-08
374.4966,-1.392776,-1.681297E-08,NaN,-0.3255212,-1.354807E-07,NaN,0.5309437,1.57757E-09,NaN,-2.019902,1.183991E-05,-0.3390718,5.819328E-10,NaN,NaN,-0.02507355,3.958108E-10,-8.277782E-07,-1.138822E-07,-1.274763E-08,-2.622604E-08
374.5105,-1.401919,-1.681202E-08,NaN,-0.3255217,-1.354804E-07,NaN,0.5304993,1.268912E-09,NaN,-2.021163,1.18405E-05,-0.3391606,8.9254E-10,NaN,NaN,-0.02497384,3.911542E-10,-8.12877E-07,-1.138802E-07,-1.036344E-08,-2.622604E-08
374.5254,-1.410353,-1.681107E-08,NaN,-0.3255233,-1.354802E-07,NaN,0.5300173,9.579901E-10,NaN,-2.022511,1.184109E-05,-0.3392804,1.20541E-09,NaN,NaN,-0.02487612,3.81841E-10,-7.99168E-07,-1.138781E-07,-1.513181E-08,-2.622604E-08
374.54,-1.410353,-1.681107E-08,NaN,-0.3255233,-1.354802E-07,NaN,0.5300173,9.579901E-10,NaN,-2.022511,1.184109E-05,-0.3392804,1.20541E-09,NaN,NaN,-0.02487612,3.81841E-10,-7.99168E-07,-1.138781E-07,-1.513181E-08,-2.622604E-08
374.5538,-1.418306,-1.681012E-08,NaN,-0.3255262,-1.354799E-07,NaN,0.5295474,6.504871E-10,NaN,-2.023846,1.184168E-05,-0.3394048,1.514859E-09,NaN,NaN,-0.02478034,3.81841E-10,-7.86055E-07,-1.13876E-07,-2.466856E-08,-2.622604E-08
374.5691,-1.425924,-1.680917E-08,NaN,-0.3255305,-1.354796E-07,NaN,0.5291013,3.463294E-10,NaN,-2.02514,1.184227E-05,-0.3395243,1.820963E-09,NaN,NaN,-0.02468644,3.81841E-10,-7.747301E-07,-1.13874E-07,-2.705274E-08,-2.622604E-08
374.5839,-1.432571,-1.680822E-08,NaN,-0.3255341,-1.354792E-07,NaN,0.528509,4.827602E-11,NaN,-2.026768,1.184285E-05,-0.3396672,2.120963E-09,NaN,NaN,-0.02459426,3.81841E-10,-7.586368E-07,-1.138719E-07,-2.705274E-08,-2.622604E-08
374.5985,-1.432571,-1.680822E-08,NaN,-0.3255341,-1.354792E-07,NaN,0.528509,4.827602E-11,NaN,-2.026768,1.184285E-05,-0.3396672,2.120963E-09,NaN,NaN,-0.02459426,3.81841E-10,-7.586368E-07,-1.138719E-07,-2.705274E-08,-2.622604E-08
374.6122,-1.438578,-1.680727E-08,NaN,-0.3255394,-1.354789E-07,NaN,0.5278814,-2.437945E-10,NaN,-2.028472,1.184345E-05,-0.3398402,2.414979E-09,NaN,NaN,-0.02450395,3.725278E-10,-7.425435E-07,-1.138698E-07,-2.466856E-08,-2.622604E-08
374.6274,-1.444159,-1.680632E-08,NaN,-0.3255469,-1.354786E-07,NaN,0.5272675,-5.285892E-10,NaN,-2.030157,1.184403E-05,-0.3400175,2.70172E-09,NaN,NaN,-0.02441542,3.725278E-10,-7.288345E-07,-1.138677E-07,-2.466856E-08,-2.622604E-08
374.6419,-1.449448,-1.680537E-08,NaN,-0.3255564,-1.354783E-07,NaN,0.5266798,-8.062511E-10,NaN,-2.031793,1.184463E-05,-0.3401891,2.981329E-09,NaN,NaN,-0.02432863,3.678712E-10,-7.145294E-07,-1.138657E-07,-1.990018E-08,-2.622604E-08
374.6564,-1.449448,-1.680537E-08,NaN,-0.3255564,-1.354783E-07,NaN,0.5266798,-8.062511E-10,NaN,-2.031793,1.184463E-05,-0.3401891,2.981329E-09,NaN,NaN,-0.02432863,3.678712E-10,-7.145294E-07,-1.138657E-07,-1.990018E-08,-2.622604E-08
374.6701,-1.453803,-1.680441E-08,NaN,-0.3255652,-1.354779E-07,NaN,0.5259481,-1.07692E-09,NaN,-2.033756,1.184521E-05,-0.3403815,3.253945E-09,NaN,NaN,-0.02424343,3.725278E-10,-6.948599E-07,-1.138636E-07,-2.466856E-08,-2.622604E-08
374.6873,-1.457553,-1.680346E-08,NaN,-0.3255751,-1.354776E-07,NaN,0.5251834,-1.342145E-09,NaN,-2.035787,1.18458E-05,-0.3406034,3.521117E-09,NaN,NaN,-0.02415994,3.678712E-10,-6.781706E-07,-1.138616E-07,-1.990018E-08,-2.622604E-08
374.702,-1.460905,-1.680251E-08,NaN,-0.3255864,-1.354767E-07,NaN,0.5244357,-1.544532E-09,NaN,-2.037789,1.184639E-05,-0.3408288,3.725456E-09,NaN,NaN,-0.02407811,3.585579E-10,-6.650575E-07,-1.138588E-07,-1.274763E-08,-2.861022E-08
374.7167,-1.460905,-1.680251E-08,NaN,-0.3255864,-1.354767E-07,NaN,0.5244357,-1.544532E-09,NaN,-2.037789,1.184639E-05,-0.3408288,3.725456E-09,NaN,NaN,-0.02407811,3.585579E-10,-6.650575E-07,-1.138588E-07,-1.274763E-08,-2.861022E-08
374.7292,-1.463266,-1.680156E-08,NaN,-0.3255966,-1.354754E-07,NaN,0.5235485,-1.821684E-09,NaN,-2.04011,1.184696E-05,-0.341074,4.004567E-09,NaN,NaN,-0.02399777,3.492447E-10,-6.441959E-07,-1.138558E-07,-1.513181E-08,-2.622604E-08
374.7434,-1.464993,-1.680061E-08,NaN,-0.3256073,-1.354739E-07,NaN,0.5226359,-2.135509E-09,NaN,-2.042483,1.184754E-05,-0.3413472,4.320359E-09,NaN,NaN,-0.02391905,3.352749E-10,-6.257184E-07,-1.138526E-07,-1.7516E-08,-2.861022E-08
374.7579,-1.464993,-1.680061E-08,NaN,-0.3256073,-1.354739E-07,NaN,0.5226359,-2.135509E-09,NaN,-2.042483,1.184754E-05,-0.3413472,4.320359E-09,NaN,NaN,-0.02391905,3.352749E-10,-6.257184E-07,-1.138526E-07,-1.7516E-08,-2.861022E-08
374.7716,-1.466314,-1.679966E-08,NaN,-0.3256189,-1.354723E-07,NaN,0.5217482,-2.466974E-09,NaN,-2.044808,1.184811E-05,-0.3416213,4.653796E-09,NaN,NaN,-0.0238419,3.259617E-10,-6.084331E-07,-1.138493E-07,-1.513181E-08,-2.622604E-08
374.7867,-1.467374,-1.679871E-08,NaN,-0.3256312,-1.354705E-07,NaN,0.5208974,-2.804465E-09,NaN,-2.04706,1.184868E-05,-0.3418861,4.993265E-09,NaN,NaN,-0.02376626,3.213051E-10,-5.917438E-07,-1.13846E-07,-1.513181E-08,-2.861022E-08
374.8014,-1.467537,-1.679776E-08,NaN,-0.3256418,-1.354687E-07,NaN,0.5199121,-3.142235E-09,NaN,-2.049613,1.184925E-05,-0.3421638,5.333017E-09,NaN,NaN,-0.02369196,3.166485E-10,-5.720743E-07,-1.138426E-07,-1.036344E-08,-2.622604E-08
374.816,-1.467537,-1.679776E-08,NaN,-0.3256418,-1.354687E-07,NaN,0.5199121,-3.142235E-09,NaN,-2.049613,1.184925E-05,-0.3421638,5.333017E-09,NaN,NaN,-0.02369196,3.166485E-10,-5.720743E-07,-1.138426E-07,-1.036344E-08,-2.622604E-08
374.8297,-1.467136,-1.679681E-08,NaN,-0.3256519,-1.354669E-07,NaN,0.5189011,-3.476047E-09,NaN,-2.052212,1.184982E-05,-0.3424692,5.668815E-09,NaN,NaN,-0.02361917,3.119918E-10,-5.535968E-07,-1.138392E-07,-1.036344E-08,-2.861022E-08
374.845,-1.466383,-1.679586E-08,NaN,-0.3256619,-1.354651E-07,NaN,0.5179148,-3.803159E-09,NaN,-2.054759,1.185039E-05,-0.3427759,5.997916E-09,NaN,NaN,-0.02354784,3.073352E-10,-5.339273E-07,-1.138359E-07,-1.274763E-08,-2.622604E-08
374.8594,-1.466383,-1.679586E-08,NaN,-0.3256619,-1.354651E-07,NaN,0.5179148,-3.803159E-09,NaN,-2.054759,1.185039E-05,-0.3427759,5.997916E-09,NaN,NaN,-0.02354784,3.073352E-10,-5.339273E-07,-1.138359E-07,-1.274763E-08,-2.622604E-08
374.8732,-1.464683,-1.679491E-08,NaN,-0.3256696,-1.354632E-07,NaN,0.5167962,-4.123709E-09,NaN,-2.057606,1.185096E-05,-0.343095,6.320458E-09,NaN,NaN,-0.02347775,3.026786E-10,-5.112775E-07,-1.138325E-07,-1.513181E-08,-2.861022E-08
374.8886,-1.462394,-1.679396E-08,NaN,-0.3256761,-1.354614E-07,NaN,0.5156571,-4.436415E-09,NaN,-2.060485,1.185152E-05,-0.3434411,6.635157E-09,NaN,NaN,-0.02340909,2.98022E-10,-4.910119E-07,-1.138292E-07,-1.7516E-08,-2.622604E-08
374.9032,-1.459744,-1.679301E-08,NaN,-0.3256819,-1.354596E-07,NaN,0.5145491,-4.740021E-09,NaN,-2.063298,1.185209E-05,-0.3437869,6.940759E-09,NaN,NaN,-0.0233418,2.933654E-10,-4.713424E-07,-1.138258E-07,-2.466856E-08,-2.861022E-08
374.9177,-1.459744,-1.679301E-08,NaN,-0.3256819,-1.354596E-07,NaN,0.5145491,-4.740021E-09,NaN,-2.063298,1.185209E-05,-0.3437869,6.940759E-09,NaN,NaN,-0.0233418,2.933654E-10,-4.713424E-07,-1.138258E-07,-2.466856E-08,-2.861022E-08
374.9315,-1.456878,-1.679206E-08,NaN,-0.3256873,-1.354577E-07,NaN,0.5134847,-5.036118E-09,NaN,-2.066019,1.185266E-05,-0.3441212,7.238854E-09,NaN,NaN,-0.02327583,2.887088E-10,-4.54057E-07,-1.138225E-07,-1.990018E-08,-2.622604E-08
374.9468,-1.45316,-1.679111E-08,NaN,-0.32569,-1.354559E-07,NaN,0.5122921,-5.323442E-09,NaN,-2.069026,1.185323E-05,-0.3444602,7.528175E-09,NaN,NaN,-0.02321099,2.840522E-10,-4.320033E-07,-1.138192E-07,-1.7516E-08,-2.861022E-08
374.9611,-1.448922,-1.679016E-08,NaN,-0.3256916,-1.354541E-07,NaN,0.511077,-5.603577E-09,NaN,-2.072061,1.18538E-05,-0.3448265,7.810309E-09,NaN,NaN,-0.02314747,2.793956E-10,-4.087575E-07,-1.138159E-07,-1.513181E-08,-2.622604E-08
374.9756,-1.448922,-1.679016E-08,NaN,-0.3256916,-1.354541E-07,NaN,0.511077,-5.603577E-09,NaN,-2.072061,1.18538E-05,-0.3448265,7.810309E-09,NaN,NaN,-0.02314747,2.793956E-10,-4.087575E-07,-1.138159E-07,-1.513181E-08,-2.622604E-08
374.9893,-1.444373,-1.678921E-08,NaN,-0.3256926,-1.354523E-07,NaN,0.5098915,-5.875254E-09,NaN,-2.075029,1.185437E-05,-0.3451937,8.083984E-09,NaN,NaN,-0.02308522,2.74739E-10,-3.878959E-07,-1.138126E-07,-1.036344E-08,-2.861022E-08
375.0045,-1.439649,-1.678826E-08,NaN,-0.3256935,-1.354504E-07,NaN,0.5087491,-6.138639E-09,NaN,-2.077904,1.185493E-05,-0.3455498,8.349368E-09,NaN,NaN,-0.0230242,2.74739E-10,-3.700145E-07,-1.138093E-07,-7.979256E-09,-2.622604E-08
375.019,-1.439649,-1.678826E-08,NaN,-0.3256935,-1.354504E-07,NaN,0.5087491,-6.138639E-09,NaN,-2.077904,1.185493E-05,-0.3455498,8.349368E-09,NaN,NaN,-0.0230242,2.74739E-10,-3.700145E-07,-1.138093E-07,-7.979256E-09,-2.622604E-08
375.0348,-1.434107,-1.678731E-08,NaN,-0.325693,-1.354486E-07,NaN,0.5074787,-6.393891E-09,NaN,-2.081062,1.18555E-05,-0.3459073,8.60662E-09,NaN,NaN,-0.02296419,2.700824E-10,-3.467687E-07,-1.13806E-07,-7.979256E-09,-2.861022E-08
375.0489,-1.428072,-1.678636E-08,NaN,-0.3256916,-1.354468E-07,NaN,0.5061851,-6.642586E-09,NaN,-2.084246,1.185607E-05,-0.3462929,8.857316E-09,NaN,NaN,-0.0229054,2.654258E-10,-3.259071E-07,-1.138027E-07,-7.979256E-09,-2.622604E-08
375.0634,-1.421752,-1.678541E-08,NaN,-0.3256895,-1.35445E-07,NaN,0.5049218,-6.883438E-09,NaN,-2.087358,1.185664E-05,-0.3466798,9.100168E-09,NaN,NaN,-0.0228478,2.607692E-10,-3.050455E-07,-1.137995E-07,-5.595071E-09,-2.861022E-08
375.0778,-1.421752,-1.678541E-08,NaN,-0.3256895,-1.35445E-07,NaN,0.5049218,-6.883438E-09,NaN,-2.087358,1.185664E-05,-0.3466798,9.100168E-09,NaN,NaN,-0.0228478,2.607692E-10,-3.050455E-07,-1.137995E-07,-5.595071E-09,-2.861022E-08
375.0916,-1.414553,-1.678445E-08,NaN,-0.3256845,-1.354433E-07,NaN,0.5035334,-7.116601E-09,NaN,-2.090749,1.18572E-05,-0.347067,9.33533E-09,NaN,NaN,-0.02279113,2.561125E-10,-2.764352E-07,-1.137962E-07,-5.595071E-09,-2.622604E-08
375.1057,-1.406829,-1.67835E-08,NaN,-0.3256773,-1.354415E-07,NaN,0.5021273,-7.343639E-09,NaN,-2.094152,1.185777E-05,-0.3474817,9.564368E-09,NaN,NaN,-0.02273563,2.514559E-10,-2.537855E-07,-1.13793E-07,-3.210885E-09,-2.861022E-08
375.1201,-1.398808,-1.678255E-08,NaN,-0.3256686,-1.354397E-07,NaN,0.500758,-7.563257E-09,NaN,-2.097468,1.185834E-05,-0.3478963,9.785984E-09,NaN,NaN,-0.02268123,2.467993E-10,-2.287515E-07,-1.137898E-07,-8.266992E-10,-2.622604E-08
375.1345,-1.398808,-1.678255E-08,NaN,-0.3256686,-1.354397E-07,NaN,0.500758,-7.563257E-09,NaN,-2.097468,1.185834E-05,-0.3478963,9.785984E-09,NaN,NaN,-0.02268123,2.467993E-10,-2.287515E-07,-1.137898E-07,-8.266992E-10,-2.622604E-08
375.1485,-1.390634,-1.67816E-08,NaN,-0.3256588,-1.354379E-07,NaN,0.4994397,-7.775606E-09,NaN,-2.10067,1.18589E-05,-0.3482977,1.000033E-08,NaN,NaN,-0.02262792,2.421427E-10,-2.072938E-07,-1.137866E-07,-3.210885E-09,-2.861022E-08
375.1638,-1.38167,-1.678065E-08,NaN,-0.325646,-1.354361E-07,NaN,0.4980009,-7.980824E-09,NaN,-2.10414,1.185946E-05,-0.3486899,1.020755E-08,NaN,NaN,-0.02257543,2.374861E-10,-1.810678E-07,-1.137834E-07,-8.266992E-10,-2.622604E-08
375.1785,-1.38167,-1.678065E-08,NaN,-0.325646,-1.354361E-07,NaN,0.4980009,-7.980824E-09,NaN,-2.10414,1.185946E-05,-0.3486899,1.020755E-08,NaN,NaN,-0.02257543,2.374861E-10,-1.810678E-07,-1.137834E-07,-8.266992E-10,-2.622604E-08
375.1933,-1.372245,-1.67797E-08,NaN,-0.3256307,-1.354344E-07,NaN,0.4965417,-8.180463E-09,NaN,-2.107618,1.186003E-05,-0.3491098,1.040919E-08,NaN,NaN,-0.02252401,2.328295E-10,-1.554378E-07,-1.137802E-07,-5.595071E-09,-2.861022E-08
375.2072,-1.362571,-1.677875E-08,NaN,-0.3256136,-1.354326E-07,NaN,0.4951167,-8.373224E-09,NaN,-2.11101,1.186059E-05,-0.349531,1.060395E-08,NaN,NaN,-0.02247363,2.281729E-10,-1.292117E-07,-1.13777E-07,-7.979256E-09,-2.622604E-08
375.2216,-1.352781,-1.67778E-08,NaN,-0.3255953,-1.354309E-07,NaN,0.4937415,-8.55924E-09,NaN,-2.114287,1.186116E-05,-0.3499399,1.079197E-08,NaN,NaN,-0.02242425,2.235163E-10,-1.06562E-07,-1.137739E-07,-7.979256E-09,-2.861022E-08
375.2364,-1.352781,-1.67778E-08,NaN,-0.3255953,-1.354309E-07,NaN,0.4937415,-8.55924E-09,NaN,-2.114287,1.186116E-05,-0.3499399,1.079197E-08,NaN,NaN,-0.02242425,2.235163E-10,-1.06562E-07,-1.137739E-07,-7.979256E-09,-2.861022E-08
375.2502,-1.34223,-1.677686E-08,NaN,-0.325574,-1.354291E-07,NaN,0.4922461,-8.740098E-09,NaN,-2.117831,1.186172E-05,-0.3503352,1.097483E-08,NaN,NaN,-0.02237559,2.188597E-10,-7.914385E-08,-1.137707E-07,-5.595071E-09,-2.622604E-08
375.2654,-1.331244,-1.677591E-08,NaN,-0.3255501,-1.354274E-07,NaN,0.4907284,-8.914443E-09,NaN,-2.121382,1.186228E-05,-0.3507592,1.115117E-08,NaN,NaN,-0.02232794,2.142031E-10,-5.232176E-08,-1.137676E-07,1.557487E-09,-2.861022E-08
375.28,-1.320032,-1.677496E-08,NaN,-0.3255242,-1.354256E-07,NaN,0.4892447,-9.082403E-09,NaN,-2.124844,1.186285E-05,-0.3511857,1.132114E-08,NaN,NaN,-0.02228125,2.095465E-10,-2.549967E-08,-1.137644E-07,1.557487E-09,-2.622604E-08
375.2948,-1.320032,-1.677496E-08,NaN,-0.3255242,-1.354256E-07,NaN,0.4892447,-9.082403E-09,NaN,-2.124844,1.186285E-05,-0.3511857,1.132114E-08,NaN,NaN,-0.02228125,2.095465E-10,-2.549967E-08,-1.137644E-07,1.557487E-09,-2.622604E-08
375.3084,-1.307995,-1.677401E-08,NaN,-0.3254948,-1.354239E-07,NaN,0.4876426,-9.245517E-09,NaN,-2.128569,1.186341E-05,-0.3515988,1.148625E-08,NaN,NaN,-0.02223522,2.048899E-10,3.706608E-09,-1.137613E-07,6.325858E-09,-2.861022E-08
375.3234,-1.295491,-1.677306E-08,NaN,-0.3254621,-1.354222E-07,NaN,0.4860231,-9.402465E-09,NaN,-2.132288,1.186397E-05,-0.3520406,1.16452E-08,NaN,NaN,-0.02219015,2.048899E-10,3.410498E-08,-1.137582E-07,3.941672E-09,-2.622604E-08
375.3381,-1.295491,-1.677306E-08,NaN,-0.3254621,-1.354222E-07,NaN,0.4860231,-9.402465E-09,NaN,-2.132288,1.186397E-05,-0.3520406,1.16452E-08,NaN,NaN,-0.02219015,2.048899E-10,3.410498E-08,-1.137582E-07,3.941672E-09,-2.622604E-08
375.3517,-1.282744,-1.677211E-08,NaN,-0.325427,-1.354204E-07,NaN,0.4844435,-9.553371E-09,NaN,-2.135904,1.186452E-05,-0.3524842,1.179812E-08,NaN,NaN,-0.022146,2.002332E-10,6.271521E-08,-1.137551E-07,6.325858E-09,-2.861022E-08
375.3671,-1.269899,-1.677116E-08,NaN,-0.3253903,-1.354187E-07,NaN,0.4829203,-9.699768E-09,NaN,-2.13939,1.186508E-05,-0.3529143,1.194652E-08,NaN,NaN,-0.02210272,1.955766E-10,9.251753E-08,-1.13752E-07,6.325858E-09,-2.622604E-08
375.3838,-1.256317,-1.677022E-08,NaN,-0.3253503,-1.35417E-07,NaN,0.4812844,-9.840329E-09,NaN,-2.143128,1.186564E-05,-0.3533198,1.208909E-08,NaN,NaN,-0.02206001,1.9092E-10,1.229159E-07,-1.137489E-07,1.109423E-08,-2.861022E-08
375.3969,-1.256317,-1.677022E-08,NaN,-0.3253503,-1.35417E-07,NaN,0.4812844,-9.840329E-09,NaN,-2.143128,1.186564E-05,-0.3533198,1.208909E-08,NaN,NaN,-0.02206001,1.9092E-10,1.229159E-07,-1.137489E-07,1.109423E-08,-2.861022E-08
375.4109,-1.242328,-1.676927E-08,NaN,-0.3253074,-1.354153E-07,NaN,0.4796277,-9.975166E-09,NaN,-2.14686,1.186621E-05,-0.3537537,1.222593E-08,NaN,NaN,-0.02201818,1.769502E-10,1.539103E-07,-1.137459E-07,1.109423E-08,-2.622604E-08
375.426,-1.228142,-1.676832E-08,NaN,-0.3252622,-1.354136E-07,NaN,0.4780074,-1.010581E-08,NaN,-2.150489,1.186677E-05,-0.3541912,1.235858E-08,NaN,NaN,-0.02197722,1.722936E-10,1.807324E-07,-1.137428E-07,6.325858E-09,-2.861022E-08
375.4394,-1.228142,-1.676832E-08,NaN,-0.3252622,-1.354136E-07,NaN,0.4780074,-1.010581E-08,NaN,-2.150489,1.186677E-05,-0.3541912,1.235858E-08,NaN,NaN,-0.02197722,1.722936E-10,1.807324E-07,-1.137428E-07,6.325858E-09,-2.861022E-08
375.4533,-1.213164,-1.676737E-08,NaN,-0.3252133,-1.354119E-07,NaN,0.4762739,-1.023093E-08,NaN,-2.154373,1.186733E-05,-0.3546057,1.24857E-08,NaN,NaN,-0.02193676,1.67637E-10,2.164952E-07,-1.137398E-07,8.710044E-09,-2.622604E-08
375.4685,-1.19775,-1.676642E-08,NaN,-0.3251609,-1.354102E-07,NaN,0.4745226,-1.035204E-08,NaN,-2.15824,1.186788E-05,-0.3550496,1.260882E-08,NaN,NaN,-0.02189713,1.629804E-10,2.498738E-07,-1.137368E-07,3.941673E-09,-2.861022E-08
375.4828,-1.182126,-1.676547E-08,NaN,-0.3251057,-1.354085E-07,NaN,0.4728125,-1.046782E-08,NaN,-2.161993,1.186844E-05,-0.3554969,1.27266E-08,NaN,NaN,-0.02185833,1.583238E-10,2.802722E-07,-1.137337E-07,1.557487E-09,-2.622604E-08
375.4974,-1.182126,-1.676547E-08,NaN,-0.3251057,-1.354085E-07,NaN,0.4728125,-1.046782E-08,NaN,-2.161993,1.186844E-05,-0.3554969,1.27266E-08,NaN,NaN,-0.02185833,1.583238E-10,2.802722E-07,-1.137337E-07,1.557487E-09,-2.622604E-08
375.5113,-1.166435,-1.676452E-08,NaN,-0.3250488,-1.354068E-07,NaN,0.471162,-1.057977E-08,NaN,-2.165605,1.186901E-05,-0.3559313,1.284056E-08,NaN,NaN,-0.02182031,1.443539E-10,3.094784E-07,-1.137307E-07,1.557487E-09,-2.861022E-08
375.5266,-1.150041,-1.676358E-08,NaN,-0.3249887,-1.354051E-07,NaN,0.4694042,-1.068656E-08,NaN,-2.169463,1.186957E-05,-0.356331,1.294935E-08,NaN,NaN,-0.0217827,1.350407E-10,3.440491E-07,-1.137277E-07,-8.266987E-10,-2.622604E-08
375.5409,-1.133272,-1.676263E-08,NaN,-0.3249255,-1.354035E-07,NaN,0.4676248,-1.07883E-08,NaN,-2.173305,1.187012E-05,-0.3567593,1.305309E-08,NaN,NaN,-0.02174586,1.257275E-10,3.780238E-07,-1.137247E-07,-3.210884E-09,-2.861022E-08
375.5557,-1.133272,-1.676263E-08,NaN,-0.3249255,-1.354035E-07,NaN,0.4676248,-1.07883E-08,NaN,-2.173305,1.187012E-05,-0.3567593,1.305309E-08,NaN,NaN,-0.02174586,1.257275E-10,3.780238E-07,-1.137247E-07,-3.210884E-09,-2.861022E-08
375.5693,-1.116337,-1.676168E-08,NaN,-0.32486,-1.354018E-07,NaN,0.4658823,-1.08879E-08,NaN,-2.177035,1.187068E-05,-0.3571933,1.315469E-08,NaN,NaN,-0.0217098,1.164142E-10,4.108063E-07,-1.137217E-07,-8.266987E-10,-2.622604E-08
375.5846,-1.09937,-1.676073E-08,NaN,-0.3247931,-1.354001E-07,NaN,0.4641968,-1.098258E-08,NaN,-2.180628,1.187124E-05,-0.3576162,1.325138E-08,NaN,NaN,-0.02167445,1.07101E-10,4.406087E-07,-1.137188E-07,6.325859E-09,-2.861022E-08
375.5992,-1.09937,-1.676073E-08,NaN,-0.3247931,-1.354001E-07,NaN,0.4641968,-1.098258E-08,NaN,-2.180628,1.187124E-05,-0.3576162,1.325138E-08,NaN,NaN,-0.02167445,1.07101E-10,4.406087E-07,-1.137188E-07,6.325859E-09,-2.861022E-08
375.6133,-1.081724,-1.675979E-08,NaN,-0.3247234,-1.353985E-07,NaN,0.462404,-1.107386E-08,NaN,-2.184468,1.187179E-05,-0.3580001,1.334465E-08,NaN,NaN,-0.02163946,1.024444E-10,4.781596E-07,-1.137158E-07,1.109423E-08,-2.622604E-08
375.6284,-1.063727,-1.675884E-08,NaN,-0.3246508,-1.353968E-07,NaN,0.4605538,-1.116038E-08,NaN,-2.187414,1.187236E-05,-0.3584867,1.343317E-08,NaN,NaN,-0.02160421,8.847455E-11,5.329958E-07,-1.137129E-07,1.109423E-08,-2.861022E-08
375.6427,-1.045583,-1.675789E-08,NaN,-0.3245761,-1.353951E-07,NaN,0.4587085,-1.124224E-08,NaN,-2.188776,1.187291E-05,-0.3590611,1.351703E-08,NaN,NaN,-0.02156883,8.381794E-11,6.009452E-07,-1.137099E-07,6.325858E-09,-2.622604E-08
375.6572,-1.045583,-1.675789E-08,NaN,-0.3245761,-1.353951E-07,NaN,0.4587085,-1.124224E-08,NaN,-2.188776,1.187291E-05,-0.3590611,1.351703E-08,NaN,NaN,-0.02156883,8.381794E-11,6.009452E-07,-1.137099E-07,6.325858E-09,-2.622604E-08
375.6723,-1.026695,-1.675695E-08,NaN,-0.3244977,-1.353935E-07,NaN,0.4567559,-1.132094E-08,NaN,-2.189217,1.187348E-05,-0.3596211,1.359774E-08,NaN,NaN,-0.02153377,6.98481E-11,6.742589E-07,-1.13707E-07,6.325858E-09,-2.861022E-08
375.6866,-1.007417,-1.6756E-08,NaN,-0.3244157,-1.353918E-07,NaN,0.4547946,-1.139514E-08,NaN,-2.188947,1.187403E-05,-0.3602043,1.367393E-08,NaN,NaN,-0.02149968,6.98481E-11,7.39824E-07,-1.137041E-07,1.557487E-09,-2.622604E-08
375.7007,-0.9879764,-1.675505E-08,NaN,-0.3243309,-1.353902E-07,NaN,0.4528906,-1.146632E-08,NaN,-2.18836,1.187459E-05,-0.3607733,1.374712E-08,NaN,NaN,-0.02146672,5.587826E-11,7.964484E-07,-1.137011E-07,1.557487E-09,-2.861022E-08
375.7153,-0.9879764,-1.675505E-08,NaN,-0.3243309,-1.353902E-07,NaN,0.4528906,-1.146632E-08,NaN,-2.18836,1.187459E-05,-0.3607733,1.374712E-08,NaN,NaN,-0.02146672,5.587826E-11,7.964484E-07,-1.137011E-07,1.557487E-09,-2.861022E-08
375.7313,-0.9685135,-1.675411E-08,NaN,-0.3242444,-1.353886E-07,NaN,0.451065,-1.153315E-08,NaN,-2.187778,1.187514E-05,-0.3613099,1.381595E-08,NaN,NaN,-0.02143479,5.587826E-11,8.447282E-07,-1.136982E-07,6.325858E-09,-2.622604E-08
375.7456,-0.9483905,-1.675316E-08,NaN,-0.3241551,-1.353869E-07,NaN,0.4491509,-1.159711E-08,NaN,-2.18775,1.187569E-05,-0.3617928,1.388191E-08,NaN,NaN,-0.0214034,5.587826E-11,8.953922E-07,-1.136954E-07,3.941672E-09,-2.861022E-08
375.7591,-0.9483905,-1.675316E-08,NaN,-0.3241551,-1.353869E-07,NaN,0.4491509,-1.159711E-08,NaN,-2.18775,1.187569E-05,-0.3617928,1.388191E-08,NaN,NaN,-0.0214034,5.587826E-11,8.953922E-07,-1.136954E-07,3.941672E-09,-2.861022E-08
375.7736,-0.9279365,-1.675221E-08,NaN,-0.3240628,-1.353853E-07,NaN,0.4472206,-1.165686E-08,NaN,-2.187887,1.187624E-05,-0.3623138,1.394366E-08,NaN,NaN,-0.02137264,5.587826E-11,9.430759E-07,-1.136925E-07,3.941672E-09,-2.622604E-08
375.7878,-0.9073599,-1.675127E-08,NaN,-0.3239682,-1.353837E-07,NaN,0.4453343,-1.171388E-08,NaN,-2.187972,1.18768E-05,-0.3628549,1.400269E-08,NaN,NaN,-0.02134249,4.656504E-11,9.907596E-07,-1.136896E-07,3.941672E-09,-2.861022E-08
375.8023,-0.8867923,-1.675032E-08,NaN,-0.3238725,-1.353821E-07,NaN,0.4435168,-1.176682E-08,NaN,-2.187939,1.187735E-05,-0.3633938,1.405763E-08,NaN,NaN,-0.02131296,4.656504E-11,1.036655E-06,-1.136868E-07,-8.266992E-10,-2.622604E-08
375.817,-0.8867923,-1.675032E-08,NaN,-0.3238725,-1.353821E-07,NaN,0.4435168,-1.176682E-08,NaN,-2.187939,1.187735E-05,-0.3633938,1.405763E-08,NaN,NaN,-0.02131296,4.656504E-11,1.036655E-06,-1.136868E-07,-8.266992E-10,-2.622604E-08
375.8308,-0.8655886,-1.674937E-08,NaN,-0.3237744,-1.353805E-07,NaN,0.4416069,-1.181718E-08,NaN,-2.188201,1.18779E-05,-0.3638969,1.410999E-08,NaN,NaN,-0.02128373,3.725181E-11,1.087915E-06,-1.136839E-07,-5.595071E-09,-2.861022E-08
375.846,-0.8440737,-1.674842E-08,NaN,-0.3236735,-1.353789E-07,NaN,0.4396818,-1.186358E-08,NaN,-2.188398,1.187845E-05,-0.3644415,1.415839E-08,NaN,NaN,-0.02125505,3.725181E-11,1.136791E-06,-1.136811E-07,-7.979256E-09,-2.622604E-08
375.8605,-0.822453,-1.674748E-08,NaN,-0.3235707,-1.353773E-07,NaN,0.4378034,-1.190752E-08,NaN,-2.188411,1.187901E-05,-0.3650021,1.420433E-08,NaN,NaN,-0.02122699,2.793859E-11,1.185667E-06,-1.136782E-07,-8.266992E-10,-2.861022E-08
375.8751,-0.822453,-1.674748E-08,NaN,-0.3235707,-1.353773E-07,NaN,0.4378034,-1.190752E-08,NaN,-2.188411,1.187901E-05,-0.3650021,1.420433E-08,NaN,NaN,-0.02122699,2.793859E-11,1.185667E-06,-1.136782E-07,-8.266992E-10,-2.861022E-08
375.8892,-0.8001285,-1.674653E-08,NaN,-0.3234647,-1.353757E-07,NaN,0.4358308,-1.194763E-08,NaN,-2.188659,1.187956E-05,-0.3655342,1.424644E-08,NaN,NaN,-0.02119922,2.793859E-11,1.234543E-06,-1.136754E-07,-3.210885E-09,-2.622604E-08
375.9043,-0.7774547,-1.674559E-08,NaN,-0.323355,-1.353741E-07,NaN,0.4338488,-1.19854E-08,NaN,-2.188809,1.188012E-05,-0.3661069,1.428622E-08,NaN,NaN,-0.02117201,1.862536E-11,1.284611E-06,-1.136726E-07,3.941672E-09,-2.861022E-08
375.9189,-0.7774547,-1.674559E-08,NaN,-0.323355,-1.353741E-07,NaN,0.4338488,-1.19854E-08,NaN,-2.188809,1.188012E-05,-0.3661069,1.428622E-08,NaN,NaN,-0.02117201,1.862536E-11,1.284611E-06,-1.136726E-07,3.941672E-09,-2.861022E-08
375.9329,-0.7546563,-1.674464E-08,NaN,-0.3232426,-1.353725E-07,NaN,0.4319206,-1.201947E-08,NaN,-2.18877,1.188067E-05,-0.3666924,1.432229E-08,NaN,NaN,-0.02114542,1.862536E-11,1.331102E-06,-1.136698E-07,1.557487E-09,-2.622604E-08
375.9484,-0.7318746,-1.67437E-08,NaN,-0.3231288,-1.353709E-07,NaN,0.4300701,-1.206118E-08,NaN,-2.188589,1.188123E-05,-0.3672661,1.436601E-08,NaN,NaN,-0.02111948,9.312136E-12,1.37819E-06,-1.13667E-07,1.557487E-09,-2.861022E-08
375.9628,-0.7084713,-1.674275E-08,NaN,-0.3230127,-1.353693E-07,NaN,0.4281334,-1.210192E-08,NaN,-2.188744,1.188178E-05,-0.3677993,1.440876E-08,NaN,NaN,-0.02109383,9.312136E-12,1.421105E-06,-1.136641E-07,1.557487E-09,-2.622604E-08
375.9774,-0.7084713,-1.674275E-08,NaN,-0.3230127,-1.353693E-07,NaN,0.4281334,-1.210192E-08,NaN,-2.188744,1.188178E-05,-0.3677993,1.440876E-08,NaN,NaN,-0.02109383,9.312136E-12,1.421105E-06,-1.136641E-07,1.557487E-09,-2.622604E-08
375.9913,-0.6847749,-1.674181E-08,NaN,-0.3228937,-1.353678E-07,NaN,0.4261868,-1.214031E-08,NaN,-2.188888,1.188233E-05,-0.3683696,1.444915E-08,NaN,NaN,-0.0210687,-1.089406E-15,1.465809E-06,-1.136613E-07,1.557487E-09,-2.861022E-08
376.0066,-0.6609934,-1.674086E-08,NaN,-0.3227727,-1.353662E-07,NaN,0.4242906,-1.217782E-08,NaN,-2.188889,1.188288E-05,-0.3689539,1.448866E-08,NaN,NaN,-0.02104412,4.655523E-12,1.513492E-06,-1.136584E-07,3.941672E-09,-2.622604E-08
376.0212,-0.6372578,-1.673992E-08,NaN,-0.3226509,-1.353646E-07,NaN,0.4224685,-1.221162E-08,NaN,-2.188756,1.188345E-05,-0.3695292,1.452446E-08,NaN,NaN,-0.02102011,-4.657702E-12,1.552831E-06,-1.136556E-07,1.557487E-09,-2.861022E-08
376.0358,-0.6372578,-1.673992E-08,NaN,-0.3226509,-1.353646E-07,NaN,0.4224685,-1.221162E-08,NaN,-2.188756,1.188345E-05,-0.3695292,1.452446E-08,NaN,NaN,-0.02102011,-4.657702E-12,1.552831E-06,-1.136556E-07,1.557487E-09,-2.861022E-08
376.0518,-0.6130947,-1.673897E-08,NaN,-0.3225279,-1.35363E-07,NaN,0.4205969,-1.22432E-08,NaN,-2.188854,1.1884E-05,-0.3700717,1.455805E-08,NaN,NaN,-0.02099643,-1.089406E-15,1.596343E-06,-1.136528E-07,3.941672E-09,-2.622604E-08
376.0661,-0.5887641,-1.673803E-08,NaN,-0.3224034,-1.353615E-07,NaN,0.418734,-1.227261E-08,NaN,-2.188928,1.188457E-05,-0.3706381,1.458946E-08,NaN,NaN,-0.02097324,-1.089406E-15,1.634788E-06,-1.1365E-07,1.557487E-09,-2.861022E-08
376.0797,-0.5887641,-1.673803E-08,NaN,-0.3224034,-1.353615E-07,NaN,0.418734,-1.227261E-08,NaN,-2.188928,1.188457E-05,-0.3706381,1.458946E-08,NaN,NaN,-0.02097324,-1.089406E-15,1.634788E-06,-1.1365E-07,1.557487E-09,-2.861022E-08
376.0936,-0.5644299,-1.673708E-08,NaN,-0.3222782,-1.353599E-07,NaN,0.4169248,-1.229848E-08,NaN,-2.188888,1.188512E-05,-0.3712104,1.461733E-08,NaN,NaN,-0.02095058,9.312136E-12,1.674425E-06,-1.136472E-07,1.557487E-09,-2.622604E-08
376.1089,-0.5401953,-1.673614E-08,NaN,-0.3221535,-1.353583E-07,NaN,0.4151863,-1.232229E-08,NaN,-2.18875,1.188568E-05,-0.3717713,1.464315E-08,NaN,NaN,-0.02092846,1.862536E-11,1.71138E-06,-1.136444E-07,1.557487E-09,-2.861022E-08
376.1234,-0.5161247,-1.673519E-08,NaN,-0.3220304,-1.353568E-07,NaN,0.4135198,-1.234267E-08,NaN,-2.188566,1.188624E-05,-0.3723131,1.466552E-08,NaN,NaN,-0.02090688,2.793859E-11,1.74595E-06,-1.136416E-07,-8.266992E-10,-2.622604E-08
376.1393,-0.5161247,-1.673519E-08,NaN,-0.3220304,-1.353568E-07,NaN,0.4135198,-1.234267E-08,NaN,-2.188566,1.188624E-05,-0.3723131,1.466552E-08,NaN,NaN,-0.02090688,2.793859E-11,1.74595E-06,-1.136416E-07,-8.266992E-10,-2.622604E-08
376.1521,-0.4922581,-1.673425E-08,NaN,-0.3219098,-1.353553E-07,NaN,0.4119209,-1.236109E-08,NaN,-2.188384,1.18868E-05,-0.3728345,1.468595E-08,NaN,NaN,-0.02088585,3.725181E-11,1.779627E-06,-1.136389E-07,1.557487E-09,-2.861022E-08
376.1676,-0.4686198,-1.67333E-08,NaN,-0.3217924,-1.353537E-07,NaN,0.4103841,-1.237619E-08,NaN,-2.188232,1.188736E-05,-0.3733373,1.470305E-08,NaN,NaN,-0.02086532,4.190842E-11,1.808833E-06,-1.136361E-07,-8.266992E-10,-2.622604E-08
376.1823,-0.4452241,-1.673236E-08,NaN,-0.3216788,-1.353522E-07,NaN,0.4089042,-1.238943E-08,NaN,-2.188113,1.188794E-05,-0.3738241,1.47183E-08,NaN,NaN,-0.02084528,3.725181E-11,1.836549E-06,-1.136333E-07,3.941672E-09,-2.861022E-08
376.1969,-0.4452241,-1.673236E-08,NaN,-0.3216788,-1.353522E-07,NaN,0.4089042,-1.238943E-08,NaN,-2.188113,1.188794E-05,-0.3738241,1.47183E-08,NaN,NaN,-0.02084528,3.725181E-11,1.836549E-06,-1.136333E-07,3.941672E-09,-2.861022E-08
376.211,-0.422079,-1.673141E-08,NaN,-0.3215695,-1.353506E-07,NaN,0.4074773,-1.240086E-08,NaN,-2.18802,1.18885E-05,-0.3742971,1.473173E-08,NaN,NaN,-0.02082567,4.190842E-11,1.863074E-06,-1.136306E-07,3.941672E-09,-2.622604E-08
376.2263,-0.3991885,-1.673047E-08,NaN,-0.3214647,-1.353491E-07,NaN,0.4061004,-1.24091E-08,NaN,-2.18794,1.188907E-05,-0.3747577,1.474198E-08,NaN,NaN,-0.0208065,3.725181E-11,1.885723E-06,-1.136279E-07,6.325858E-09,-2.861022E-08
376.2409,-0.3765541,-1.672952E-08,NaN,-0.3213645,-1.353476E-07,NaN,0.4047713,-1.241563E-08,NaN,-2.187865,1.188964E-05,-0.3752065,1.475051E-08,NaN,NaN,-0.02078776,4.190842E-11,1.907777E-06,-1.136252E-07,3.941672E-09,-2.622604E-08
376.2557,-0.3765541,-1.672952E-08,NaN,-0.3213645,-1.353476E-07,NaN,0.4047713,-1.241563E-08,NaN,-2.187865,1.188964E-05,-0.3752065,1.475051E-08,NaN,NaN,-0.02078776,4.190842E-11,1.907777E-06,-1.136252E-07,3.941672E-09,-2.622604E-08
376.2695,-0.3541757,-1.672858E-08,NaN,-0.3212689,-1.353461E-07,NaN,0.4034882,-1.241905E-08,NaN,-2.187788,1.189021E-05,-0.3756438,1.475594E-08,NaN,NaN,-0.02076943,3.725181E-11,1.924764E-06,-1.136224E-07,3.941672E-09,-2.861022E-08
376.285,-0.332052,-1.672763E-08,NaN,-0.321178,-1.353445E-07,NaN,0.4022498,-1.242086E-08,NaN,-2.187708,1.189077E-05,-0.3760697,1.475975E-08,NaN,NaN,-0.02075151,4.190842E-11,1.944285E-06,-1.136197E-07,8.710044E-09,-2.622604E-08
376.2996,-0.332052,-1.672763E-08,NaN,-0.321178,-1.353445E-07,NaN,0.4022498,-1.242086E-08,NaN,-2.187708,1.189077E-05,-0.3760697,1.475975E-08,NaN,NaN,-0.02075151,4.190842E-11,1.944285E-06,-1.136197E-07,8.710044E-09,-2.622604E-08
376.3135,-0.3101812,-1.672669E-08,NaN,-0.3210918,-1.35343E-07,NaN,0.4010547,-1.241966E-08,NaN,-2.187627,1.189135E-05,-0.3764842,1.476056E-08,NaN,NaN,-0.02073399,3.725181E-11,1.962166E-06,-1.13617E-07,1.347842E-08,-2.861022E-08
376.3301,-0.294935,-1.672574E-08,NaN,-0.3210308,-1.353415E-07,NaN,0.4013626,-1.241693E-08,NaN,-2.18407,1.189191E-05,-0.3769898,1.475984E-08,NaN,NaN,-0.02072009,4.190842E-11,1.92238E-06,-1.136144E-07,1.824679E-08,-2.622604E-08
376.3445,-0.2839199,-1.67248E-08,NaN,-0.3210036,-1.3534E-07,NaN,0.4024373,-1.241129E-08,NaN,-2.180758,1.189248E-05,-0.3769452,1.47562E-08,NaN,NaN,-0.02070766,3.725181E-11,1.856815E-06,-1.136117E-07,1.824679E-08,-2.861022E-08
376.358,-0.2839199,-1.67248E-08,NaN,-0.3210036,-1.3534E-07,NaN,0.4024373,-1.241129E-08,NaN,-2.180758,1.189248E-05,-0.3769452,1.47562E-08,NaN,NaN,-0.02070766,3.725181E-11,1.856815E-06,-1.136117E-07,1.824679E-08,-2.861022E-08
376.3721,-0.2756135,-1.672385E-08,NaN,-0.3210047,-1.353385E-07,NaN,0.4036661,-1.24042E-08,NaN,-2.178687,1.189305E-05,-0.3766316,1.475112E-08,NaN,NaN,-0.02069535,4.190842E-11,1.791101E-06,-1.13609E-07,1.824679E-08,-2.622604E-08
376.3873,-0.2690465,-1.672291E-08,NaN,-0.3210238,-1.35337E-07,NaN,0.4047858,-1.23957E-08,NaN,-2.177453,1.189362E-05,-0.3762947,1.474462E-08,NaN,NaN,-0.02068252,3.725181E-11,1.737755E-06,-1.136064E-07,2.063097E-08,-2.861022E-08
376.4021,-0.2636019,-1.672196E-08,NaN,-0.3210559,-1.353355E-07,NaN,0.4057544,-1.238439E-08,NaN,-2.176775,1.189418E-05,-0.3759993,1.473532E-08,NaN,NaN,-0.0206696,4.190842E-11,1.69469E-06,-1.136037E-07,2.063097E-08,-2.622604E-08
376.4166,-0.2636019,-1.672196E-08,NaN,-0.3210559,-1.353355E-07,NaN,0.4057544,-1.238439E-08,NaN,-2.176775,1.189418E-05,-0.3759993,1.473532E-08,NaN,NaN,-0.0206696,4.190842E-11,1.69469E-06,-1.136037E-07,2.063097E-08,-2.622604E-08
376.4306,-0.2588862,-1.672102E-08,NaN,-0.3210967,-1.35334E-07,NaN,0.4065933,-1.237175E-08,NaN,-2.176463,1.189474E-05,-0.375752,1.472469E-08,NaN,NaN,-0.02065676,5.122165E-11,1.655053E-06,-1.136011E-07,2.063097E-08,-2.861022E-08
376.4461,-0.2546492,-1.672007E-08,NaN,-0.3211432,-1.353326E-07,NaN,0.4073351,-1.23564E-08,NaN,-2.176386,1.189531E-05,-0.375544,1.471134E-08,NaN,NaN,-0.02064409,5.587826E-11,1.618694E-06,-1.135985E-07,1.824679E-08,-2.622604E-08
376.4607,-0.250731,-1.671913E-08,NaN,-0.3211932,-1.353311E-07,NaN,0.4080079,-1.233979E-08,NaN,-2.176457,1.189587E-05,-0.3753646,1.469673E-08,NaN,NaN,-0.02063162,6.053488E-11,1.585316E-06,-1.135958E-07,2.301516E-08,-2.861022E-08
376.4753,-0.250731,-1.671913E-08,NaN,-0.3211932,-1.353311E-07,NaN,0.4080079,-1.233979E-08,NaN,-2.176457,1.189587E-05,-0.3753646,1.469673E-08,NaN,NaN,-0.02063162,6.053488E-11,1.585316E-06,-1.135958E-07,2.301516E-08,-2.861022E-08
376.4894,-0.2470679,-1.671819E-08,NaN,-0.33385,-1.353296E-07,NaN,0.4076918,-1.232195E-08,NaN,-2.179732,1.189643E-05,-0.3790414,1.46809E-08,NaN,NaN,-0.02062818,6.519149E-11,1.433622E-06,-1.135932E-07,2.301516E-08,-2.622604E-08
376.5047,-0.2436631,-1.671724E-08,NaN,-0.3541272,-1.353281E-07,NaN,0.4080759,-1.23015E-08,NaN,-2.183834,1.1897E-05,-0.3824601,1.466246E-08,NaN,NaN,-0.02062345,6.984811E-11,1.30957E-06,-1.135906E-07,2.063097E-08,-2.861022E-08
376.5193,-0.2436631,-1.671724E-08,NaN,-0.3541272,-1.353281E-07,NaN,0.4080759,-1.23015E-08,NaN,-2.183834,1.1897E-05,-0.3824601,1.466246E-08,NaN,NaN,-0.02062345,6.984811E-11,1.30957E-06,-1.135906E-07,2.063097E-08,-2.861022E-08
376.5334,-0.2404743,-1.67163E-08,NaN,-0.3789661,-1.353267E-07,NaN,0.4088529,-1.227989E-08,NaN,-2.18724,1.189756E-05,-0.3853236,1.464286E-08,NaN,NaN,-0.02061629,7.450472E-11,1.231786E-06,-1.13588E-07,2.063097E-08,-2.622604E-08
376.549,-0.2374489,-1.671536E-08,NaN,-0.4057303,-1.353252E-07,NaN,0.4097843,-1.225719E-08,NaN,-2.188625,1.189813E-05,-0.3876069,1.462216E-08,NaN,NaN,-0.02060639,7.450472E-11,1.19565E-06,-1.135855E-07,2.539934E-08,-2.861022E-08
376.5636,-0.2345415,-1.671441E-08,NaN,-0.4335554,-1.353237E-07,NaN,0.4106934,-1.223338E-08,NaN,-2.188427,1.189869E-05,-0.3896247,1.460036E-08,NaN,NaN,-0.02059615,7.450472E-11,1.166668E-06,-1.135829E-07,2.778353E-08,-2.622604E-08
376.5783,-0.2345415,-1.671441E-08,NaN,-0.4335554,-1.353237E-07,NaN,0.4106934,-1.223338E-08,NaN,-2.188427,1.189869E-05,-0.3896247,1.460036E-08,NaN,NaN,-0.02059615,7.450472E-11,1.166668E-06,-1.135829E-07,2.778353E-08,-2.622604E-08
376.592,-0.2317199,-1.671347E-08,NaN,-0.4619064,-1.353223E-07,NaN,0.41158,-1.220849E-08,NaN,-2.187478,1.189925E-05,-0.3914306,1.457747E-08,NaN,NaN,-0.02058643,7.916134E-11,1.135226E-06,-1.135803E-07,2.301516E-08,-2.861022E-08
376.6086,-0.2289629,-1.671253E-08,NaN,-0.4904516,-1.353208E-07,NaN,0.4124465,-1.218111E-08,NaN,-2.18647,1.189981E-05,-0.3930573,1.455211E-08,NaN,NaN,-0.02057738,8.381795E-11,1.095887E-06,-1.135778E-07,2.301516E-08,-2.622604E-08
376.6234,-0.2262526,-1.671159E-08,NaN,-0.5182242,-1.353194E-07,NaN,0.4133453,-1.215273E-08,NaN,-2.185575,1.190037E-05,-0.3943058,1.452572E-08,NaN,NaN,-0.02056828,8.847457E-11,1.05625E-06,-1.135752E-07,2.301516E-08,-2.861022E-08
376.6369,-0.2262526,-1.671159E-08,NaN,-0.5182242,-1.353194E-07,NaN,0.4133453,-1.215273E-08,NaN,-2.185575,1.190037E-05,-0.3943058,1.452572E-08,NaN,NaN,-0.02056828,8.847457E-11,1.05625E-06,-1.135752E-07,2.301516E-08,-2.861022E-08
376.6508,-0.2235778,-1.671064E-08,NaN,-0.5453972,-1.35318E-07,NaN,0.414159,-1.212334E-08,NaN,-2.18507,1.190092E-05,-0.3954741,1.449835E-08,NaN,NaN,-0.02055966,9.313118E-11,1.011696E-06,-1.135727E-07,2.182306E-08,-2.622604E-08
376.666,-0.220933,-1.67097E-08,NaN,-0.5720781,-1.353165E-07,NaN,0.4148998,-1.209157E-08,NaN,-2.184932,1.190148E-05,-0.3966203,1.446858E-08,NaN,NaN,-0.02055134,9.77878E-11,9.635648E-07,-1.135702E-07,2.778353E-08,-2.861022E-08
376.6807,-0.2183157,-1.670876E-08,NaN,-0.5983344,-1.353151E-07,NaN,0.41559,-1.205886E-08,NaN,-2.185007,1.190204E-05,-0.3977535,1.443787E-08,NaN,NaN,-0.02054313,1.024444E-10,9.203515E-07,-1.135676E-07,2.420725E-08,-2.622604E-08
376.6957,-0.2183157,-1.670876E-08,NaN,-0.5983344,-1.353151E-07,NaN,0.41559,-1.205886E-08,NaN,-2.185007,1.190204E-05,-0.3977535,1.443787E-08,NaN,NaN,-0.02054313,1.024444E-10,9.203515E-07,-1.135676E-07,2.420725E-08,-2.622604E-08
376.7096,-0.2157201,-1.670781E-08,NaN,-0.6234473,-1.353137E-07,NaN,0.4163083,-1.202524E-08,NaN,-2.18495,1.19026E-05,-0.3986289,1.440626E-08,NaN,NaN,-0.02053441,1.07101E-10,8.851847E-07,-1.135651E-07,2.778353E-08,-2.861022E-08
376.725,-0.2131437,-1.670687E-08,NaN,-0.6477447,-1.353122E-07,NaN,0.4169624,-1.198932E-08,NaN,-2.184876,1.190316E-05,-0.3994901,1.437234E-08,NaN,NaN,-0.02052595,1.117576E-10,8.497199E-07,-1.135626E-07,2.897562E-08,-2.622604E-08
376.7397,-0.2131437,-1.670687E-08,NaN,-0.6477447,-1.353122E-07,NaN,0.4169624,-1.198932E-08,NaN,-2.184876,1.190316E-05,-0.3994901,1.437234E-08,NaN,NaN,-0.02052595,1.117576E-10,8.497199E-07,-1.135626E-07,2.897562E-08,-2.622604E-08
376.7537,-0.2105865,-1.670593E-08,NaN,-0.6714306,-1.353108E-07,NaN,0.4175754,-1.195255E-08,NaN,-2.184829,1.190372E-05,-0.4003553,1.433758E-08,NaN,NaN,-0.02051775,1.164143E-10,8.11871E-07,-1.135601E-07,2.420725E-08,-2.861022E-08
376.7693,-0.2080444,-1.670498E-08,NaN,-0.6938706,-1.353094E-07,NaN,0.4182295,-1.191495E-08,NaN,-2.184619,1.190427E-05,-0.4009706,1.430198E-08,NaN,NaN,-0.0205092,1.210709E-10,7.832608E-07,-1.135576E-07,2.420725E-08,-2.622604E-08
376.7839,-0.2055163,-1.670404E-08,NaN,-0.7154455,-1.35308E-07,NaN,0.4188294,-1.187512E-08,NaN,-2.184443,1.190483E-05,-0.4015775,1.426416E-08,NaN,NaN,-0.02050099,1.257275E-10,7.519683E-07,-1.135552E-07,2.301516E-08,-2.861022E-08
376.7987,-0.2055163,-1.670404E-08,NaN,-0.7154455,-1.35308E-07,NaN,0.4188294,-1.187512E-08,NaN,-2.184443,1.190483E-05,-0.4015775,1.426416E-08,NaN,NaN,-0.02050099,1.257275E-10,7.519683E-07,-1.135552E-07,2.301516E-08,-2.861022E-08
376.8128,-0.2030034,-1.67031E-08,NaN,-0.7363916,-1.353066E-07,NaN,0.419394,-1.183451E-08,NaN,-2.184362,1.190539E-05,-0.4021958,1.422556E-08,NaN,NaN,-0.02049309,1.303841E-10,7.203779E-07,-1.135527E-07,1.943888E-08,-2.622604E-08
376.828,-0.2005077,-1.670215E-08,NaN,-0.7568564,-1.353052E-07,NaN,0.4199421,-1.179315E-08,NaN,-2.184358,1.190596E-05,-0.4028145,1.41862E-08,NaN,NaN,-0.02048539,1.257275E-10,6.887875E-07,-1.135502E-07,2.063097E-08,-2.861022E-08
376.8429,-0.1980253,-1.670121E-08,NaN,-0.7761706,-1.353038E-07,NaN,0.4205426,-1.175104E-08,NaN,-2.184196,1.190652E-05,-0.4031836,1.41461E-08,NaN,NaN,-0.02047725,1.303841E-10,6.652436E-07,-1.135478E-07,2.420725E-08,-2.622604E-08
376.8572,-0.1980253,-1.670121E-08,NaN,-0.7761706,-1.353038E-07,NaN,0.4205426,-1.175104E-08,NaN,-2.184196,1.190652E-05,-0.4031836,1.41461E-08,NaN,NaN,-0.02047725,1.303841E-10,6.652436E-07,-1.135478E-07,2.420725E-08,-2.622604E-08
376.8733,-0.1955549,-1.670027E-08,NaN,-0.7946936,-1.353024E-07,NaN,0.4210934,-1.170679E-08,NaN,-2.184052,1.190708E-05,-0.4035479,1.410386E-08,NaN,NaN,-0.02046942,1.350407E-10,6.419978E-07,-1.135453E-07,2.063097E-08,-2.861022E-08
376.8878,-0.1930978,-1.669932E-08,NaN,-0.8126482,-1.35301E-07,NaN,0.4216117,-1.166186E-08,NaN,-2.183985,1.190763E-05,-0.4039284,1.406093E-08,NaN,NaN,-0.02046188,1.396973E-10,6.115994E-07,-1.135429E-07,2.539934E-08,-2.622604E-08
376.9013,-0.1906565,-1.669838E-08,NaN,-0.8301732,-1.352996E-07,NaN,0.4221155,-1.161626E-08,NaN,-2.183983,1.19082E-05,-0.4043144,1.401733E-08,NaN,NaN,-0.02045453,1.350407E-10,5.823932E-07,-1.135405E-07,2.539934E-08,-2.861022E-08
376.916,-0.1906565,-1.669838E-08,NaN,-0.8301732,-1.352996E-07,NaN,0.4221155,-1.161626E-08,NaN,-2.183983,1.19082E-05,-0.4043144,1.401733E-08,NaN,NaN,-0.02045453,1.350407E-10,5.823932E-07,-1.135405E-07,2.539934E-08,-2.861022E-08
376.9301,-0.1882263,-1.669744E-08,NaN,-0.8465934,-1.352982E-07,NaN,0.4226726,-1.156858E-08,NaN,-2.183816,1.190876E-05,-0.4044567,1.397166E-08,NaN,NaN,-0.02044675,1.396973E-10,5.615315E-07,-1.135381E-07,2.539934E-08,-2.622604E-08
376.9455,-0.1858057,-1.669649E-08,NaN,-0.8622653,-1.352969E-07,NaN,0.4231806,-1.152028E-08,NaN,-2.183669,1.190932E-05,-0.4046003,1.392537E-08,NaN,NaN,-0.02043928,1.443539E-10,5.376897E-07,-1.135357E-07,2.778353E-08,-2.861022E-08
376.9601,-0.1833963,-1.669555E-08,NaN,-0.8774094,-1.352955E-07,NaN,0.4236565,-1.147137E-08,NaN,-2.183603,1.190988E-05,-0.4047664,1.387847E-08,NaN,NaN,-0.02043211,1.490105E-10,5.138479E-07,-1.135333E-07,2.659143E-08,-2.622604E-08
376.9748,-0.1833963,-1.669555E-08,NaN,-0.8774094,-1.352955E-07,NaN,0.4236565,-1.147137E-08,NaN,-2.183603,1.190988E-05,-0.4047664,1.387847E-08,NaN,NaN,-0.02043211,1.490105E-10,5.138479E-07,-1.135333E-07,2.659143E-08,-2.622604E-08
376.9889,-0.1809938,-1.669461E-08,NaN,-0.8914005,-1.352941E-07,NaN,0.4241767,-1.142188E-08,NaN,-2.183412,1.191044E-05,-0.4047057,1.383098E-08,NaN,NaN,-0.02042456,1.536671E-10,4.977546E-07,-1.135309E-07,2.36112E-08,-2.861022E-08
377.0043,-0.1785967,-1.669367E-08,NaN,-0.9046264,-1.352928E-07,NaN,0.424644,-1.137038E-08,NaN,-2.183274,1.191101E-05,-0.4046602,1.378149E-08,NaN,NaN,-0.02041735,1.490105E-10,4.780851E-07,-1.135285E-07,2.241911E-08,-2.622604E-08
377.0192,-0.1785967,-1.669367E-08,NaN,-0.9046264,-1.352928E-07,NaN,0.424644,-1.137038E-08,NaN,-2.183274,1.191101E-05,-0.4046602,1.378149E-08,NaN,NaN,-0.02041735,1.490105E-10,4.780851E-07,-1.135285E-07,2.241911E-08,-2.622604E-08
377.033,-0.1762076,-1.669273E-08,NaN,-0.9173262,-1.352914E-07,NaN,0.4250784,-1.131834E-08,NaN,-2.183234,1.191156E-05,-0.4046485,1.373146E-08,NaN,NaN,-0.02041041,1.536671E-10,4.560314E-07,-1.135261E-07,1.943888E-08,-2.861022E-08
377.0486,-0.1738297,-1.669178E-08,NaN,-0.9296479,-1.3529E-07,NaN,0.4254998,-1.126577E-08,NaN,-2.183264,1.191212E-05,-0.4046578,1.368089E-08,NaN,NaN,-0.02040365,1.583237E-10,4.315935E-07,-1.135237E-07,2.420725E-08,-2.622604E-08
377.0632,-0.1714589,-1.669084E-08,NaN,-0.9409217,-1.352887E-07,NaN,0.4259753,-1.121267E-08,NaN,-2.183124,1.191268E-05,-0.4044384,1.36298E-08,NaN,NaN,-0.02039644,1.629804E-10,4.160963E-07,-1.135214E-07,2.36112E-08,-2.861022E-08
377.078,-0.1714589,-1.669084E-08,NaN,-0.9409217,-1.352887E-07,NaN,0.4259753,-1.121267E-08,NaN,-2.183124,1.191268E-05,-0.4044384,1.36298E-08,NaN,NaN,-0.02039644,1.629804E-10,4.160963E-07,-1.135214E-07,2.36112E-08,-2.861022E-08
377.0934,-0.169093,-1.66899E-08,NaN,-0.951508,-1.352873E-07,NaN,0.4264025,-1.115765E-08,NaN,-2.182995,1.191325E-05,-0.4042336,1.357679E-08,NaN,NaN,-0.02038954,1.583237E-10,3.99407E-07,-1.13519E-07,2.003492E-08,-2.622604E-08
377.1072,-0.1667345,-1.668896E-08,NaN,-0.9616287,-1.35286E-07,NaN,0.4267991,-1.152787E-08,NaN,-2.18294,1.191381E-05,-0.4040632,1.394901E-08,NaN,NaN,-0.02038292,1.583237E-10,3.797374E-07,-1.135167E-07,1.884283E-08,-2.861022E-08
377.1217,-0.1643868,-1.668802E-08,NaN,-0.9714209,-1.352847E-07,NaN,0.4271842,-1.188791E-08,NaN,-2.182951,1.191436E-05,-0.4039153,1.431106E-08,NaN,NaN,-0.02037648,1.583237E-10,3.588758E-07,-1.135144E-07,1.884283E-08,-2.622604E-08
377.1376,-0.1643868,-1.668802E-08,NaN,-0.9714209,-1.352847E-07,NaN,0.4271842,-1.188791E-08,NaN,-2.182951,1.191436E-05,-0.4039153,1.431106E-08,NaN,NaN,-0.02037648,1.583237E-10,3.588758E-07,-1.135144E-07,1.884283E-08,-2.622604E-08
377.1516,-0.1620454,-1.668708E-08,NaN,-0.9802074,-1.352833E-07,NaN,0.4276237,-1.223939E-08,NaN,-2.182797,1.191492E-05,-0.4035421,1.466455E-08,NaN,NaN,-0.02036961,1.490105E-10,3.475509E-07,-1.13512E-07,2.063097E-08,-2.861022E-08
377.1661,-0.1597078,-1.668614E-08,NaN,-0.9883446,-1.35282E-07,NaN,0.4280145,-1.258248E-08,NaN,-2.182663,1.191547E-05,-0.4031878,1.500963E-08,NaN,NaN,-0.02036304,1.443539E-10,3.344379E-07,-1.135097E-07,2.182306E-08,-2.622604E-08
377.1806,-0.1573767,-1.668519E-08,NaN,-0.9960515,-1.352807E-07,NaN,0.4283745,-1.291733E-08,NaN,-2.182611,1.191603E-05,-0.4028725,1.534649E-08,NaN,NaN,-0.02035674,1.396973E-10,3.177486E-07,-1.135074E-07,2.122701E-08,-2.861022E-08
377.1953,-0.1573767,-1.668519E-08,NaN,-0.9960515,-1.352807E-07,NaN,0.4283745,-1.291733E-08,NaN,-2.182611,1.191603E-05,-0.4028725,1.534649E-08,NaN,NaN,-0.02035674,1.396973E-10,3.177486E-07,-1.135074E-07,2.122701E-08,-2.861022E-08
377.2099,-0.1550477,-1.668425E-08,NaN,-1.002701,-1.352793E-07,NaN,0.4287793,-1.324269E-08,NaN,-2.182433,1.191658E-05,-0.4023481,1.567386E-08,NaN,NaN,-0.02035008,1.350407E-10,3.088079E-07,-1.135051E-07,2.122701E-08,-2.622604E-08
377.2246,-0.1527191,-1.668331E-08,NaN,-1.00868,-1.35278E-07,NaN,0.4291316,-1.356018E-08,NaN,-2.182309,1.191714E-05,-0.4018555,1.599335E-08,NaN,NaN,-0.02034374,1.303841E-10,2.992712E-07,-1.135028E-07,2.063097E-08,-2.861022E-08
377.2394,-0.1527191,-1.668331E-08,NaN,-1.00868,-1.35278E-07,NaN,0.4291316,-1.356018E-08,NaN,-2.182309,1.191714E-05,-0.4018555,1.599335E-08,NaN,NaN,-0.02034374,1.303841E-10,2.992712E-07,-1.135028E-07,2.063097E-08,-2.861022E-08
377.2532,-0.1503941,-1.668237E-08,NaN,-1.014227,-1.352767E-07,NaN,0.4294525,-1.386993E-08,NaN,-2.182284,1.191769E-05,-0.4014118,1.63051E-08,NaN,NaN,-0.02033766,1.257275E-10,2.849661E-07,-1.135005E-07,2.033295E-08,-2.622604E-08
377.269,-0.1480777,-1.668143E-08,NaN,-1.019487,-1.352754E-07,NaN,0.4297629,-1.41721E-08,NaN,-2.182328,1.191824E-05,-0.4010032,1.660928E-08,NaN,NaN,-0.02033175,1.210709E-10,2.71257E-07,-1.134983E-07,1.824678E-08,-2.861022E-08
377.2837,-0.145766,-1.668049E-08,NaN,-1.023788,-1.352741E-07,NaN,0.430129,-1.446684E-08,NaN,-2.182199,1.19188E-05,-0.4003809,1.690603E-08,NaN,NaN,-0.02032539,1.164142E-10,2.652965E-07,-1.13496E-07,1.824678E-08,-2.622604E-08
377.2986,-0.145766,-1.668049E-08,NaN,-1.023788,-1.352741E-07,NaN,0.430129,-1.446684E-08,NaN,-2.182199,1.19188E-05,-0.4003809,1.690603E-08,NaN,NaN,-0.02032539,1.164142E-10,2.652965E-07,-1.13496E-07,1.824678E-08,-2.622604E-08
377.3127,-0.1434565,-1.667954E-08,NaN,-1.027491,-1.352728E-07,NaN,0.4304476,-1.475289E-08,NaN,-2.182081,1.191936E-05,-0.3997877,1.719409E-08,NaN,NaN,-0.02031932,1.024444E-10,2.563558E-07,-1.134937E-07,1.884283E-08,-2.861022E-08
377.328,-0.1411523,-1.667861E-08,NaN,-1.030815,-1.352715E-07,NaN,0.4307372,-1.503182E-08,NaN,-2.182039,1.191991E-05,-0.3992424,1.747502E-08,NaN,NaN,-0.02031352,1.024444E-10,2.444349E-07,-1.134915E-07,1.824678E-08,-2.622604E-08
377.3427,-0.1388582,-1.667767E-08,NaN,-1.033895,-1.352702E-07,NaN,0.4310176,-1.530378E-08,NaN,-2.182061,1.192047E-05,-0.3987322,1.774899E-08,NaN,NaN,-0.02030788,9.313118E-11,2.301298E-07,-1.134892E-07,1.943888E-08,-2.861022E-08
377.3574,-0.1388582,-1.667767E-08,NaN,-1.033895,-1.352702E-07,NaN,0.4310176,-1.530378E-08,NaN,-2.182061,1.192047E-05,-0.3987322,1.774899E-08,NaN,NaN,-0.02030788,9.313118E-11,2.301298E-07,-1.134892E-07,1.943888E-08,-2.861022E-08
377.3716,-0.1365701,-1.667673E-08,NaN,-1.036052,-1.352685E-07,NaN,0.4313542,-1.569709E-08,NaN,-2.181915,1.192102E-05,-0.3980101,1.814431E-08,NaN,NaN,-0.02030182,9.313118E-11,2.253614E-07,-1.134879E-07,1.854481E-08,-2.622604E-08
377.3888,-0.1342852,-1.667579E-08,NaN,-1.037643,-1.352668E-07,NaN,0.4316413,-1.606287E-08,NaN,-2.181745,1.192157E-05,-0.3973238,1.85121E-08,NaN,NaN,-0.02029597,9.313118E-11,2.211891E-07,-1.134867E-07,1.943888E-08,-2.861022E-08
377.4025,-0.1320066,-1.667485E-08,NaN,-1.038884,-1.352652E-07,NaN,0.4318984,-1.641152E-08,NaN,-2.181592,1.192212E-05,-0.3966919,1.886276E-08,NaN,NaN,-0.02029036,9.313118E-11,2.140366E-07,-1.134855E-07,2.003492E-08,-2.622604E-08
377.4164,-0.1320066,-1.667485E-08,NaN,-1.038884,-1.352652E-07,NaN,0.4318984,-1.641152E-08,NaN,-2.181592,1.192212E-05,-0.3966919,1.886276E-08,NaN,NaN,-0.02029036,9.313118E-11,2.140366E-07,-1.134855E-07,2.003492E-08,-2.622604E-08
377.4304,-0.1297307,-1.667391E-08,NaN,-1.039147,-1.352636E-07,NaN,0.4322023,-1.67476E-08,NaN,-2.181266,1.192268E-05,-0.3958636,1.920085E-08,NaN,NaN,-0.02028439,8.381796E-11,2.134405E-07,-1.134844E-07,1.824678E-08,-2.861022E-08
377.4458,-0.1274555,-1.667297E-08,NaN,-1.038827,-1.352621E-07,NaN,0.4324527,-1.707417E-08,NaN,-2.180915,1.192322E-05,-0.395086,1.952944E-08,NaN,NaN,-0.02027867,8.381796E-11,2.074801E-07,-1.134832E-07,1.884283E-08,-2.622604E-08
377.4604,-0.1251949,-1.667203E-08,NaN,-1.038149,-1.352605E-07,NaN,0.4326818,-1.739143E-08,NaN,-2.180581,1.192377E-05,-0.3943652,1.984871E-08,NaN,NaN,-0.02027317,8.381796E-11,2.003275E-07,-1.134821E-07,1.884283E-08,-2.861022E-08
377.4752,-0.1251949,-1.667203E-08,NaN,-1.038149,-1.352605E-07,NaN,0.4326818,-1.739143E-08,NaN,-2.180581,1.192377E-05,-0.3943652,1.984871E-08,NaN,NaN,-0.02027317,8.381796E-11,2.003275E-07,-1.134821E-07,1.884283E-08,-2.861022E-08
377.4892,-0.1229625,-1.667109E-08,NaN,-1.037257,-1.35259E-07,NaN,0.4329143,-1.769955E-08,NaN,-2.180271,1.192432E-05,-0.3936839,2.015884E-08,NaN,NaN,-0.02026785,8.381796E-11,1.961552E-07,-1.13481E-07,1.556457E-08,-2.622604E-08
377.5046,-0.1207545,-1.667015E-08,NaN,-1.035479,-1.352575E-07,NaN,0.4332123,-1.800012E-08,NaN,-2.179787,1.192487E-05,-0.3927949,2.046142E-08,NaN,NaN,-0.02026212,8.381796E-11,1.991354E-07,-1.134799E-07,1.705469E-08,-2.861022E-08
377.5194,-0.1207545,-1.667015E-08,NaN,-1.035479,-1.352575E-07,NaN,0.4332123,-1.800012E-08,NaN,-2.179787,1.192487E-05,-0.3927949,2.046142E-08,NaN,NaN,-0.02026212,8.381796E-11,1.991354E-07,-1.134799E-07,1.705469E-08,-2.861022E-08
377.5334,-0.1185902,-1.666921E-08,NaN,-1.033174,-1.352559E-07,NaN,0.4334828,-1.82933E-08,NaN,-2.179265,1.192542E-05,-0.3919429,2.075661E-08,NaN,NaN,-0.0202566,8.381796E-11,1.997315E-07,-1.134788E-07,1.675667E-08,-2.622604E-08
377.5491,-0.1164728,-1.666827E-08,NaN,-1.030561,-1.352544E-07,NaN,0.4337404,-1.858063E-08,NaN,-2.178757,1.192597E-05,-0.3911449,2.104595E-08,NaN,NaN,-0.0202513,8.381796E-11,1.949631E-07,-1.134776E-07,1.675667E-08,-2.861022E-08
377.5637,-0.1143996,-1.666733E-08,NaN,-1.027772,-1.352529E-07,NaN,0.4339985,-1.886082E-08,NaN,-2.178277,1.192652E-05,-0.390387,2.132816E-08,NaN,NaN,-0.02024616,8.381796E-11,1.925789E-07,-1.134765E-07,1.407446E-08,-2.622604E-08
377.5802,-0.1123578,-1.666639E-08,NaN,-1.024127,-1.352514E-07,NaN,0.4343142,-1.913401E-08,NaN,-2.177625,1.192707E-05,-0.389427,2.160336E-08,NaN,NaN,-0.02024062,8.381796E-11,1.961552E-07,-1.134754E-07,1.318039E-08,-2.861022E-08
377.5933,-0.1123578,-1.666639E-08,NaN,-1.024127,-1.352514E-07,NaN,0.4343142,-1.913401E-08,NaN,-2.177625,1.192707E-05,-0.389427,2.160336E-08,NaN,NaN,-0.02024062,8.381796E-11,1.961552E-07,-1.134754E-07,1.318039E-08,-2.861022E-08
377.6073,-0.1103609,-1.666545E-08,NaN,-1.01998,-1.352499E-07,NaN,0.4345955,-1.940033E-08,NaN,-2.176941,1.192762E-05,-0.388509,2.187169E-08,NaN,NaN,-0.0202353,8.381796E-11,1.979433E-07,-1.134743E-07,1.377644E-08,-2.622604E-08
377.6225,-0.1084091,-1.666451E-08,NaN,-1.015547,-1.352484E-07,NaN,0.4348586,-1.966134E-08,NaN,-2.176276,1.192817E-05,-0.3876494,2.213472E-08,NaN,NaN,-0.0202302,8.381796E-11,1.955591E-07,-1.134732E-07,1.645864E-08,-2.861022E-08
377.6394,-0.1084091,-1.666451E-08,NaN,-1.015547,-1.352484E-07,NaN,0.4348586,-1.966134E-08,NaN,-2.176276,1.192817E-05,-0.3876494,2.213472E-08,NaN,NaN,-0.0202302,8.381796E-11,1.955591E-07,-1.134732E-07,1.645864E-08,-2.861022E-08
377.6524,-0.1064901,-1.666357E-08,NaN,-1.010198,-1.352469E-07,NaN,0.43517,-1.991572E-08,NaN,-2.175445,1.192872E-05,-0.3866054,2.239111E-08,NaN,NaN,-0.02022475,8.381796E-11,2.009236E-07,-1.134722E-07,1.526655E-08,-2.622604E-08
377.667,-0.1046159,-1.666263E-08,NaN,-1.004318,-1.352454E-07,NaN,0.435444,-2.016361E-08,NaN,-2.17459,1.192927E-05,-0.3856144,2.264101E-08,NaN,NaN,-0.02021953,8.381796E-11,2.050959E-07,-1.134711E-07,1.288237E-08,-2.861022E-08
377.6816,-0.1027856,-1.66617E-08,NaN,-0.9981393,-1.352439E-07,NaN,0.4356987,-2.040654E-08,NaN,-2.173763,1.192982E-05,-0.3846891,2.288596E-08,NaN,NaN,-0.02021455,8.381796E-11,2.086721E-07,-1.1347E-07,1.109423E-08,-2.622604E-08
377.6962,-0.1027856,-1.66617E-08,NaN,-0.9981393,-1.352439E-07,NaN,0.4356987,-2.040654E-08,NaN,-2.173763,1.192982E-05,-0.3846891,2.288596E-08,NaN,NaN,-0.02021455,8.381796E-11,2.086721E-07,-1.1347E-07,1.109423E-08,-2.622604E-08
377.7104,-0.1009944,-1.666076E-08,NaN,-0.9918067,-1.352425E-07,NaN,0.4359493,-2.064321E-08,NaN,-2.172976,1.193037E-05,-0.3838133,2.312463E-08,NaN,NaN,-0.02020973,8.381796E-11,2.116524E-07,-1.134689E-07,1.07962E-08,-2.861022E-08
377.7257,-0.09922904,-1.665982E-08,NaN,-0.9846451,-1.35241E-07,NaN,0.4362516,-2.087513E-08,NaN,-2.17203,1.193092E-05,-0.3827495,2.335857E-08,NaN,NaN,-0.02020454,8.381796E-11,2.170168E-07,-1.134678E-07,9.008064E-09,-2.622604E-08
377.7404,-0.09750076,-1.665888E-08,NaN,-0.9770117,-1.352395E-07,NaN,0.4365165,-2.110101E-08,NaN,-2.171062,1.193146E-05,-0.3817361,2.358646E-08,NaN,NaN,-0.02019957,8.381796E-11,2.19997E-07,-1.134668E-07,1.139225E-08,-2.861022E-08
377.7551,-0.09750076,-1.665888E-08,NaN,-0.9770117,-1.352395E-07,NaN,0.4365165,-2.110101E-08,NaN,-2.171062,1.193146E-05,-0.3817361,2.358646E-08,NaN,NaN,-0.02019957,8.381796E-11,2.19997E-07,-1.134668E-07,1.139225E-08,-2.861022E-08
377.7697,-0.09580942,-1.665794E-08,NaN,-0.9691241,-1.352381E-07,NaN,0.4367608,-2.132094E-08,NaN,-2.170122,1.193201E-05,-0.3807877,2.380841E-08,NaN,NaN,-0.02019482,8.381796E-11,2.241693E-07,-1.134657E-07,1.049818E-08,-2.622604E-08
377.7847,-0.09415112,-1.665701E-08,NaN,-0.9611154,-1.352366E-07,NaN,0.4369996,-2.153647E-08,NaN,-2.169224,1.193257E-05,-0.3798896,2.402595E-08,NaN,NaN,-0.02019024,7.450474E-11,2.283417E-07,-1.134646E-07,1.07962E-08,-2.861022E-08
377.7995,-0.09415112,-1.665701E-08,NaN,-0.9611154,-1.352366E-07,NaN,0.4369996,-2.153647E-08,NaN,-2.169224,1.193257E-05,-0.3798896,2.402595E-08,NaN,NaN,-0.02019024,7.450474E-11,2.283417E-07,-1.134646E-07,1.07962E-08,-2.861022E-08
377.8136,-0.09251387,-1.665607E-08,NaN,-0.952305,-1.352351E-07,NaN,0.4372869,-2.174627E-08,NaN,-2.168166,1.193312E-05,-0.3788089,2.423775E-08,NaN,NaN,-0.02018528,7.450474E-11,2.378784E-07,-1.134636E-07,1.347841E-08,-2.622604E-08
377.829,-0.09090874,-1.665513E-08,NaN,-0.9430457,-1.352337E-07,NaN,0.4375358,-2.195044E-08,NaN,-2.167089,1.193367E-05,-0.3777811,2.444394E-08,NaN,NaN,-0.02018056,7.450474E-11,2.438389E-07,-1.134625E-07,1.318039E-08,-2.861022E-08
377.8437,-0.08933591,-1.665419E-08,NaN,-0.9335526,-1.352322E-07,NaN,0.4377634,-2.215051E-08,NaN,-2.166042,1.193422E-05,-0.3768199,2.464603E-08,NaN,NaN,-0.02017605,7.450474E-11,2.492033E-07,-1.134615E-07,1.407446E-08,-2.622604E-08
377.8583,-0.08933591,-1.665419E-08,NaN,-0.9335526,-1.352322E-07,NaN,0.4377634,-2.215051E-08,NaN,-2.166042,1.193422E-05,-0.3768199,2.464603E-08,NaN,NaN,-0.02017605,7.450474E-11,2.492033E-07,-1.134615E-07,1.407446E-08,-2.622604E-08
377.8724,-0.08778468,-1.665325E-08,NaN,-0.9231957,-1.352308E-07,NaN,0.4380316,-2.234516E-08,NaN,-2.16484,1.193478E-05,-0.3756933,2.484269E-08,NaN,NaN,-0.02017122,6.519151E-11,2.617203E-07,-1.134604E-07,1.58626E-08,-2.861022E-08
377.8878,-0.08626517,-1.665232E-08,NaN,-0.912358,-1.352294E-07,NaN,0.4382596,-2.253589E-08,NaN,-2.163625,1.193533E-05,-0.3746292,2.503544E-08,NaN,NaN,-0.02016663,6.519151E-11,2.700649E-07,-1.134594E-07,1.258434E-08,-2.622604E-08
377.9034,-0.08477696,-1.665138E-08,NaN,-0.9012735,-1.352279E-07,NaN,0.4384665,-2.272138E-08,NaN,-2.16245,1.193588E-05,-0.3736376,2.522293E-08,NaN,NaN,-0.02016227,6.05349E-11,2.742373E-07,-1.134583E-07,1.377643E-08,-2.861022E-08
377.9171,-0.08477696,-1.665138E-08,NaN,-0.9012735,-1.352279E-07,NaN,0.4384665,-2.272138E-08,NaN,-2.16245,1.193588E-05,-0.3736376,2.522293E-08,NaN,NaN,-0.02016227,6.05349E-11,2.742373E-07,-1.134583E-07,1.377643E-08,-2.861022E-08
377.9313,-0.0833164,-1.665044E-08,NaN,-0.8900856,-1.352265E-07,NaN,0.4386679,-2.290172E-08,NaN,-2.161326,1.193643E-05,-0.3727023,2.540529E-08,NaN,NaN,-0.02015807,6.519151E-11,2.801977E-07,-1.134573E-07,1.288236E-08,-2.622604E-08
377.9466,-0.08187958,-1.66495E-08,NaN,-0.8788821,-1.352251E-07,NaN,0.4388695,-2.307844E-08,NaN,-2.160251,1.193698E-05,-0.3718106,2.558401E-08,NaN,NaN,-0.020154,6.05349E-11,2.83774E-07,-1.134562E-07,1.318039E-08,-2.861022E-08
377.9612,-0.08046326,-1.664857E-08,NaN,-0.8677165,-1.352237E-07,NaN,0.4390726,-2.325017E-08,NaN,-2.159221,1.193753E-05,-0.370955,2.575776E-08,NaN,NaN,-0.02015005,6.519151E-11,2.861582E-07,-1.134552E-07,1.07962E-08,-2.622604E-08
377.9759,-0.08046326,-1.664857E-08,NaN,-0.8677165,-1.352237E-07,NaN,0.4390726,-2.325017E-08,NaN,-2.159221,1.193753E-05,-0.370955,2.575776E-08,NaN,NaN,-0.02015005,6.519151E-11,2.861582E-07,-1.134552E-07,1.07962E-08,-2.622604E-08
377.9897,-0.07906505,-1.664763E-08,NaN,-0.8566218,-1.352223E-07,NaN,0.4392765,-2.341704E-08,NaN,-2.158228,1.193808E-05,-0.3701308,2.592664E-08,NaN,NaN,-0.0201462,6.05349E-11,2.921186E-07,-1.134542E-07,8.113992E-09,-2.861022E-08
378.0052,-0.07768329,-1.664669E-08,NaN,-0.8456178,-1.352208E-07,NaN,0.4394805,-2.358053E-08,NaN,-2.157269,1.193862E-05,-0.3693354,2.609215E-08,NaN,NaN,-0.02014245,6.519151E-11,2.980791E-07,-1.134532E-07,5.729806E-09,-2.622604E-08
378.02,-0.07632345,-1.664576E-08,NaN,-0.8354781,-1.352194E-07,NaN,0.4396409,-2.373932E-08,NaN,-2.156539,1.193917E-05,-0.3687752,2.625295E-08,NaN,NaN,-0.02013924,6.984813E-11,2.962909E-07,-1.134521E-07,6.623876E-09,-2.861022E-08
378.0348,-0.07632345,-1.664576E-08,NaN,-0.8354781,-1.352194E-07,NaN,0.4396409,-2.373932E-08,NaN,-2.156539,1.193917E-05,-0.3687752,2.625295E-08,NaN,NaN,-0.02013924,6.984813E-11,2.962909E-07,-1.134521E-07,6.623876E-09,-2.861022E-08
378.0488,-0.07497352,-1.664482E-08,NaN,-0.8259087,-1.35218E-07,NaN,0.4398402,-2.38949E-08,NaN,-2.155891,1.193972E-05,-0.368218,2.641054E-08,NaN,NaN,-0.02013602,6.984813E-11,2.945028E-07,-1.134511E-07,5.431783E-09,-2.622604E-08
378.0656,-0.07363047,-1.664389E-08,NaN,-0.8167287,-1.352166E-07,NaN,0.4400595,-2.404593E-08,NaN,-2.155269,1.194027E-05,-0.3676473,2.656358E-08,NaN,NaN,-0.02013278,6.519151E-11,2.962909E-07,-1.134501E-07,4.835737E-09,-2.861022E-08
378.079,-0.07363047,-1.664389E-08,NaN,-0.8167287,-1.352166E-07,NaN,0.4400595,-2.404593E-08,NaN,-2.155269,1.194027E-05,-0.3676473,2.656358E-08,NaN,NaN,-0.02013278,6.519151E-11,2.962909E-07,-1.134501E-07,4.835737E-09,-2.861022E-08
378.0931,-0.07230105,-1.664295E-08,NaN,-0.808588,-1.352152E-07,NaN,0.4402409,-2.419248E-08,NaN,-2.154852,1.194083E-05,-0.3672805,2.671215E-08,NaN,NaN,-0.02013001,6.05349E-11,2.897344E-07,-1.134491E-07,1.855505E-09,-2.622604E-08
378.1086,-0.07097623,-1.664201E-08,NaN,-0.8011171,-1.352139E-07,NaN,0.4404595,-2.433607E-08,NaN,-2.154492,1.194138E-05,-0.3668979,2.685775E-08,NaN,NaN,-0.02012719,6.05349E-11,2.849661E-07,-1.134481E-07,2.451551E-09,-2.861022E-08
378.1231,-0.06965488,-1.664108E-08,NaN,-0.7940879,-1.352125E-07,NaN,0.440695,-2.447534E-08,NaN,-2.154136,1.194192E-05,-0.3664895,2.699903E-08,NaN,NaN,-0.02012434,6.05349E-11,2.83774E-07,-1.134471E-07,2.451551E-09,-2.622604E-08
378.1377,-0.06965488,-1.664108E-08,NaN,-0.7940879,-1.352125E-07,NaN,0.440695,-2.447534E-08,NaN,-2.154136,1.194192E-05,-0.3664895,2.699903E-08,NaN,NaN,-0.02012434,6.05349E-11,2.83774E-07,-1.134471E-07,2.451551E-09,-2.622604E-08
378.1537,-0.06833861,-1.664014E-08,NaN,-0.7873595,-1.352111E-07,NaN,0.440932,-2.461178E-08,NaN,-2.153767,1.194247E-05,-0.3660695,2.713748E-08,NaN,NaN,-0.02012148,6.05349E-11,2.83774E-07,-1.134461E-07,2.451551E-09,-2.861022E-08
378.1681,-0.06703573,-1.663921E-08,NaN,-0.7816061,-1.352097E-07,NaN,0.4411231,-2.474403E-08,NaN,-2.153588,1.194302E-05,-0.365853,2.727175E-08,NaN,NaN,-0.02011913,6.05349E-11,2.730451E-07,-1.134451E-07,4.23969E-09,-2.622604E-08
378.1817,-0.06573879,-1.663827E-08,NaN,-0.7764736,-1.352084E-07,NaN,0.4413483,-2.487219E-08,NaN,-2.153456,1.194357E-05,-0.3656193,2.740192E-08,NaN,NaN,-0.02011672,6.05349E-11,2.670847E-07,-1.134441E-07,6.02783E-09,-2.861022E-08
378.1965,-0.06573879,-1.663827E-08,NaN,-0.7764736,-1.352084E-07,NaN,0.4413483,-2.487219E-08,NaN,-2.153456,1.194357E-05,-0.3656193,2.740192E-08,NaN,NaN,-0.02011672,6.05349E-11,2.670847E-07,-1.134441E-07,6.02783E-09,-2.861022E-08
378.2104,-0.06444684,-1.663733E-08,NaN,-0.7717432,-1.35207E-07,NaN,0.4415897,-2.499774E-08,NaN,-2.153321,1.194412E-05,-0.365357,2.752948E-08,NaN,NaN,-0.02011426,6.05349E-11,2.629124E-07,-1.134431E-07,6.02783E-09,-2.622604E-08
378.2256,-0.06316122,-1.66364E-08,NaN,-0.7672796,-1.352056E-07,NaN,0.4418326,-2.511932E-08,NaN,-2.153169,1.194467E-05,-0.3650792,2.765307E-08,NaN,NaN,-0.02011181,6.05349E-11,2.605282E-07,-1.134421E-07,4.23969E-09,-2.861022E-08
378.2404,-0.06188976,-1.663546E-08,NaN,-0.7637604,-1.352043E-07,NaN,0.4420302,-2.523842E-08,NaN,-2.153201,1.194522E-05,-0.365,2.777418E-08,NaN,NaN,-0.02010983,6.05349E-11,2.509914E-07,-1.134411E-07,3.047598E-09,-2.622604E-08
378.2551,-0.06188976,-1.663546E-08,NaN,-0.7637604,-1.352043E-07,NaN,0.4420302,-2.523842E-08,NaN,-2.153201,1.194522E-05,-0.365,2.777418E-08,NaN,NaN,-0.02010983,6.05349E-11,2.509914E-07,-1.134411E-07,3.047598E-09,-2.622604E-08
378.2692,-0.06062547,-1.663452E-08,NaN,-0.7608344,-1.352029E-07,NaN,0.442262,-2.535367E-08,NaN,-2.153275,1.194577E-05,-0.3648996,2.789145E-08,NaN,NaN,-0.02010779,6.05349E-11,2.444349E-07,-1.134401E-07,6.634118E-10,-2.861022E-08
378.2844,-0.05936719,-1.663359E-08,NaN,-0.758284,-1.352016E-07,NaN,0.4425103,-2.546516E-08,NaN,-2.153342,1.194632E-05,-0.3647664,2.800495E-08,NaN,NaN,-0.02010569,6.05349E-11,2.378784E-07,-1.134391E-07,1.855505E-09,-2.622604E-08
378.2993,-0.05936719,-1.663359E-08,NaN,-0.758284,-1.352016E-07,NaN,0.4425103,-2.546516E-08,NaN,-2.153342,1.194632E-05,-0.3647664,2.800495E-08,NaN,NaN,-0.02010569,6.05349E-11,2.378784E-07,-1.134391E-07,1.855505E-09,-2.622604E-08
378.3135,-0.05812181,-1.663266E-08,NaN,-0.7567366,-1.352002E-07,NaN,0.4427188,-2.557442E-08,NaN,-2.153588,1.194687E-05,-0.3648178,2.811622E-08,NaN,NaN,-0.02010403,6.05349E-11,2.265535E-07,-1.134382E-07,-5.286811E-10,-2.861022E-08
378.3291,-0.05688264,-1.663172E-08,NaN,-0.7558095,-1.351989E-07,NaN,0.4429627,-2.568001E-08,NaN,-2.153867,1.194742E-05,-0.3648387,2.822383E-08,NaN,NaN,-0.02010229,5.587828E-11,2.164207E-07,-1.134372E-07,-1.720774E-09,-2.622604E-08
378.3436,-0.05564867,-1.663079E-08,NaN,-0.7552664,-1.351975E-07,NaN,0.4432225,-2.578345E-08,NaN,-2.154128,1.194797E-05,-0.3648201,2.832927E-08,NaN,NaN,-0.02010047,5.587828E-11,2.080761E-07,-1.134362E-07,-5.297053E-09,-2.861022E-08
378.3582,-0.05564867,-1.663079E-08,NaN,-0.7552664,-1.351975E-07,NaN,0.4432225,-2.578345E-08,NaN,-2.154128,1.194797E-05,-0.3648201,2.832927E-08,NaN,NaN,-0.02010047,5.587828E-11,2.080761E-07,-1.134362E-07,-5.297053E-09,-2.861022E-08
378.3722,-0.05442106,-1.662985E-08,NaN,-0.7549605,-1.351962E-07,NaN,0.4434832,-2.588335E-08,NaN,-2.154359,1.194852E-05,-0.3647766,2.843118E-08,NaN,NaN,-0.02009864,5.587828E-11,1.997314E-07,-1.134353E-07,-6.489145E-09,-2.622604E-08
378.3878,-0.05320733,-1.662892E-08,NaN,-0.7555596,-1.351949E-07,NaN,0.4436976,-2.598119E-08,NaN,-2.15476,1.194907E-05,-0.3649228,2.853104E-08,NaN,NaN,-0.02009727,5.587828E-11,1.866184E-07,-1.134343E-07,-4.701006E-09,-2.861022E-08
378.4023,-0.05200788,-1.662798E-08,NaN,-0.7567128,-1.351935E-07,NaN,0.4439489,-2.607561E-08,NaN,-2.15519,1.194961E-05,-0.365041,2.862747E-08,NaN,NaN,-0.02009581,6.519151E-11,1.746975E-07,-1.134333E-07,-2.912866E-09,-2.622604E-08
378.4189,-0.05200788,-1.662798E-08,NaN,-0.7567128,-1.351935E-07,NaN,0.4439489,-2.607561E-08,NaN,-2.15519,1.194961E-05,-0.365041,2.862747E-08,NaN,NaN,-0.02009581,6.519151E-11,1.746975E-07,-1.134333E-07,-2.912866E-09,-2.622604E-08
378.4319,-0.05082456,-1.662705E-08,NaN,-0.7582003,-1.351922E-07,NaN,0.4442208,-2.616667E-08,NaN,-2.155599,1.195016E-05,-0.365118,2.872054E-08,NaN,NaN,-0.02009429,6.519151E-11,1.669489E-07,-1.134324E-07,-3.508913E-09,-2.861022E-08
378.4464,-0.04965756,-1.662612E-08,NaN,-0.759886,-1.351909E-07,NaN,0.4444971,-2.625585E-08,NaN,-2.155972,1.195071E-05,-0.365167,2.881174E-08,NaN,NaN,-0.02009274,6.519151E-11,1.583062E-07,-1.134314E-07,-5.893098E-09,-2.622604E-08
378.461,-0.04851227,-1.662518E-08,NaN,-0.7624474,-1.351896E-07,NaN,0.4447281,-2.634177E-08,NaN,-2.156515,1.195126E-05,-0.3654054,2.889967E-08,NaN,NaN,-0.02009163,6.519151E-11,1.42511E-07,-1.134305E-07,-4.104959E-09,-2.861022E-08
378.4757,-0.04851227,-1.662518E-08,NaN,-0.7624474,-1.351896E-07,NaN,0.4447281,-2.634177E-08,NaN,-2.156515,1.195126E-05,-0.3654054,2.889967E-08,NaN,NaN,-0.02009163,6.519151E-11,1.42511E-07,-1.134305E-07,-4.104959E-09,-2.861022E-08
378.4895,-0.04738791,-1.662425E-08,NaN,-0.765534,-1.351883E-07,NaN,0.4449979,-2.642592E-08,NaN,-2.157084,1.195181E-05,-0.3656122,2.898583E-08,NaN,NaN,-0.02009045,6.519151E-11,1.323782E-07,-1.134295E-07,-3.508913E-09,-2.622604E-08
378.5051,-0.04628267,-1.662331E-08,NaN,-0.7689288,-1.35187E-07,NaN,0.4452879,-2.65069E-08,NaN,-2.157627,1.195236E-05,-0.3657749,2.906883E-08,NaN,NaN,-0.02008917,6.519151E-11,1.240335E-07,-1.134286E-07,-4.701006E-09,-2.861022E-08
378.5196,-0.04628267,-1.662331E-08,NaN,-0.7689288,-1.35187E-07,NaN,0.4452879,-2.65069E-08,NaN,-2.157627,1.195236E-05,-0.3657749,2.906883E-08,NaN,NaN,-0.02008917,6.519151E-11,1.240335E-07,-1.134286E-07,-4.701006E-09,-2.861022E-08
378.5349,-0.04520055,-1.662238E-08,NaN,-0.7732593,-1.351857E-07,NaN,0.4455381,-2.658621E-08,NaN,-2.158337,1.195291E-05,-0.3661155,2.915014E-08,NaN,NaN,-0.02008832,6.519151E-11,1.073442E-07,-1.134276E-07,-5.297052E-09,-2.622604E-08
378.549,-0.04413949,-1.662144E-08,NaN,-0.7781443,-1.351844E-07,NaN,0.4458282,-2.666245E-08,NaN,-2.159064,1.195346E-05,-0.3664161,2.92284E-08,NaN,NaN,-0.02008736,6.519151E-11,9.512527E-08,-1.134267E-07,-3.508913E-09,-2.861022E-08
378.5639,-0.04309693,-1.662051E-08,NaN,-0.7833476,-1.351831E-07,NaN,0.4461379,-2.673569E-08,NaN,-2.159758,1.195401E-05,-0.3666669,2.930365E-08,NaN,NaN,-0.0200863,6.519151E-11,8.380039E-08,-1.134258E-07,-5.297052E-09,-2.622604E-08
378.5786,-0.04309693,-1.662051E-08,NaN,-0.7833476,-1.351831E-07,NaN,0.4461379,-2.673569E-08,NaN,-2.159758,1.195401E-05,-0.3666669,2.930365E-08,NaN,NaN,-0.0200863,6.519151E-11,8.380039E-08,-1.134258E-07,-5.297052E-09,-2.622604E-08
378.5925,-0.04207059,-1.661958E-08,NaN,-0.7887231,-1.351818E-07,NaN,0.4464501,-2.680739E-08,NaN,-2.160408,1.195455E-05,-0.3668829,2.937737E-08,NaN,NaN,-0.0200852,6.519151E-11,7.336958E-08,-1.134248E-07,-4.701006E-09,-2.861022E-08
378.6082,-0.04106477,-1.661864E-08,NaN,-0.7949421,-1.351805E-07,NaN,0.4467131,-2.687619E-08,NaN,-2.161219,1.19551E-05,-0.3672867,2.944818E-08,NaN,NaN,-0.02008455,6.519151E-11,5.668028E-08,-1.134239E-07,-4.104959E-09,-2.622604E-08
378.6226,-0.04007728,-1.661771E-08,NaN,-0.801651,-1.351792E-07,NaN,0.4470136,-2.694354E-08,NaN,-2.162048,1.195565E-05,-0.3676544,2.951754E-08,NaN,NaN,-0.0200838,6.519151E-11,4.53554E-08,-1.13423E-07,-4.701006E-09,-2.861022E-08
378.6375,-0.04007728,-1.661771E-08,NaN,-0.801651,-1.351792E-07,NaN,0.4470136,-2.694354E-08,NaN,-2.162048,1.195565E-05,-0.3676544,2.951754E-08,NaN,NaN,-0.0200838,6.519151E-11,4.53554E-08,-1.13423E-07,-4.701006E-09,-2.861022E-08
378.6514,-0.03910578,-1.661678E-08,NaN,-0.8086306,-1.35178E-07,NaN,0.4473337,-2.700806E-08,NaN,-2.162845,1.19562E-05,-0.3679729,2.958408E-08,NaN,NaN,-0.02008295,6.519151E-11,3.432854E-08,-1.134221E-07,-4.701006E-09,-2.622604E-08
378.6668,-0.03814831,-1.661585E-08,NaN,-0.8157454,-1.351767E-07,NaN,0.447657,-2.707122E-08,NaN,-2.163597,1.195675E-05,-0.3682556,2.964925E-08,NaN,NaN,-0.02008205,6.519151E-11,2.330168E-08,-1.134211E-07,-5.297052E-09,-2.861022E-08
378.6836,-0.03720972,-1.661491E-08,NaN,-0.8236731,-1.351754E-07,NaN,0.4479305,-2.713164E-08,NaN,-2.16451,1.19573E-05,-0.3687276,2.971168E-08,NaN,NaN,-0.02008161,6.519151E-11,7.80447E-09,-1.134202E-07,-5.893098E-09,-2.622604E-08
378.6971,-0.03720972,-1.661491E-08,NaN,-0.8236731,-1.351754E-07,NaN,0.4479305,-2.713164E-08,NaN,-2.16451,1.19573E-05,-0.3687276,2.971168E-08,NaN,NaN,-0.02008161,6.519151E-11,7.80447E-09,-1.134202E-07,-5.893098E-09,-2.622604E-08
378.7113,-0.03628766,-1.661398E-08,NaN,-0.8320645,-1.351741E-07,NaN,0.4482422,-2.719077E-08,NaN,-2.165441,1.195785E-05,-0.3691624,2.977283E-08,NaN,NaN,-0.02008107,6.519151E-11,-4.712505E-09,-1.134193E-07,-4.104959E-09,-2.861022E-08
378.7254,-0.03537989,-1.661305E-08,NaN,-0.8407033,-1.351729E-07,NaN,0.4485745,-2.724724E-08,NaN,-2.166337,1.19584E-05,-0.3695457,2.983131E-08,NaN,NaN,-0.02008041,6.519151E-11,-1.484529E-08,-1.134184E-07,-3.508913E-09,-2.622604E-08
378.74,-0.03448462,-1.661212E-08,NaN,-0.8494554,-1.351716E-07,NaN,0.4489106,-2.73011E-08,NaN,-2.167186,1.195895E-05,-0.369891,2.988718E-08,NaN,NaN,-0.0200797,6.519151E-11,-2.676622E-08,-1.134175E-07,-1.720773E-09,-2.861022E-08
378.7549,-0.03448462,-1.661212E-08,NaN,-0.8494554,-1.351716E-07,NaN,0.4489106,-2.73011E-08,NaN,-2.167186,1.195895E-05,-0.369891,2.988718E-08,NaN,NaN,-0.0200797,6.519151E-11,-2.676622E-08,-1.134175E-07,-1.720773E-09,-2.861022E-08
378.769,-0.03360717,-1.661118E-08,NaN,-0.8589998,-1.351704E-07,NaN,0.4491957,-2.73538E-08,NaN,-2.168195,1.19595E-05,-0.3704269,2.994189E-08,NaN,NaN,-0.02007945,6.519151E-11,-4.345552E-08,-1.134166E-07,-1.720773E-09,-2.622604E-08
378.7845,-0.0327449,-1.661025E-08,NaN,-0.8689882,-1.351691E-07,NaN,0.4495195,-2.740396E-08,NaN,-2.169218,1.196005E-05,-0.3709241,2.999407E-08,NaN,NaN,-0.02007908,6.519151E-11,-5.895273E-08,-1.134157E-07,-2.018797E-09,-2.861022E-08
378.799,-0.0327449,-1.661025E-08,NaN,-0.8689882,-1.351691E-07,NaN,0.4495195,-2.740396E-08,NaN,-2.169218,1.196005E-05,-0.3709241,2.999407E-08,NaN,NaN,-0.02007908,6.519151E-11,-5.895273E-08,-1.134157E-07,-2.018797E-09,-2.861022E-08
378.813,-0.03189557,-1.660932E-08,NaN,-0.8792049,-1.351679E-07,NaN,0.4498646,-2.745308E-08,NaN,-2.170205,1.19606E-05,-0.3713675,3.004521E-08,NaN,NaN,-0.02007861,6.519151E-11,-7.087365E-08,-1.134148E-07,-3.806936E-09,-2.622604E-08
378.8286,-0.03106443,-1.660839E-08,NaN,-0.8902778,-1.351666E-07,NaN,0.450165,-2.749974E-08,NaN,-2.171347,1.196115E-05,-0.3719909,3.009388E-08,NaN,NaN,-0.02007856,6.519151E-11,-8.637086E-08,-1.134139E-07,-3.508913E-09,-2.861022E-08
378.8433,-0.03024815,-1.660745E-08,NaN,-0.9018276,-1.351654E-07,NaN,0.4505064,-2.754538E-08,NaN,-2.172496,1.19617E-05,-0.3725677,3.014153E-08,NaN,NaN,-0.02007838,6.519151E-11,-1.030602E-07,-1.13413E-07,-3.806936E-09,-2.622604E-08
378.8579,-0.03024815,-1.660745E-08,NaN,-0.9018276,-1.351654E-07,NaN,0.4505064,-2.754538E-08,NaN,-2.172496,1.19617E-05,-0.3725677,3.014153E-08,NaN,NaN,-0.02007838,6.519151E-11,-1.030602E-07,-1.13413E-07,-3.806936E-09,-2.622604E-08
378.8718,-0.02944422,-1.660652E-08,NaN,-0.9136187,-1.351642E-07,NaN,0.4508693,-2.758862E-08,NaN,-2.173601,1.196225E-05,-0.3730846,3.018679E-08,NaN,NaN,-0.02007807,6.519151E-11,-1.149811E-07,-1.134121E-07,-2.912866E-09,-2.861022E-08
378.8874,-0.02865086,-1.660559E-08,NaN,-0.9255056,-1.351629E-07,NaN,0.4512361,-2.763092E-08,NaN,-2.174649,1.196279E-05,-0.373557,3.02311E-08,NaN,NaN,-0.02007769,6.519151E-11,-1.257099E-07,-1.134112E-07,-2.912866E-09,-2.622604E-08
378.902,-0.02787422,-1.660466E-08,NaN,-0.9381597,-1.351617E-07,NaN,0.4515482,-2.767089E-08,NaN,-2.175849,1.196334E-05,-0.3742218,3.027307E-08,NaN,NaN,-0.02007777,6.519151E-11,-1.423992E-07,-1.134104E-07,-1.124727E-09,-2.861022E-08
