JMolnar6/NonAnthroHands_User_Study/HandsLoggerWithURDF/tempdata/PID 0 (test)/files/Reachy_PID0_JointMotion_gesture_13_4.csv
Time,r_shoulder,r_shoulder_x,r_upper_arm,r_forearm,r_wrist,r_wrist2hand,
1188.971,-0.2575719,-0.3508667,0.1126566,-0.5539823,0.06717027,0.1560502
1188.987,-0.2576489,-0.3506445,0.1130758,-0.5538459,0.0671343,0.1560207
1189.001,-0.257725,-0.3504249,0.1134907,-0.553712,0.06709737,0.1559917
1189.016,-0.257725,-0.3504249,0.1134907,-0.553712,0.06709737,0.1559917
1189.031,-0.2578002,-0.350208,0.1139014,-0.5535806,0.06705953,0.1559633
1189.046,-0.2578746,-0.3499937,0.1143079,-0.5534517,0.06702081,0.1559355
1189.061,-0.2579481,-0.3497819,0.1147103,-0.5533252,0.06698123,0.1559082
1189.075,-0.2579481,-0.3497819,0.1147103,-0.5533252,0.06698123,0.1559082
1189.089,-0.2580208,-0.3495726,0.1151085,-0.553201,0.06694084,0.1558814
1189.105,-0.2580926,-0.3493659,0.1155025,-0.5530792,0.06689967,0.1558552
1189.122,-0.2581636,-0.3491616,0.1158926,-0.5529596,0.06685774,0.1558294
1189.135,-0.2581636,-0.3491616,0.1158926,-0.5529596,0.06685774,0.1558294
1189.149,-0.2582338,-0.3489597,0.1162786,-0.5528423,0.06681509,0.1558042
1189.164,-0.2583031,-0.3487602,0.1166606,-0.5527272,0.06677173,0.1557795
1189.178,-0.2583031,-0.3487602,0.1166606,-0.5527272,0.06677173,0.1557795
1189.192,-0.2583717,-0.3485631,0.1170386,-0.5526143,0.06672771,0.1557552
1189.208,-0.2584395,-0.3483684,0.1174127,-0.5525035,0.06668305,0.1557315
1189.222,-0.2585065,-0.348176,0.1177829,-0.5523947,0.06663779,0.1557081
1189.237,-0.2585065,-0.348176,0.1177829,-0.5523947,0.06663779,0.1557081
1189.251,-0.2585728,-0.3479859,0.1181493,-0.5522881,0.06659195,0.1556853
1189.266,-0.2586383,-0.347798,0.1185118,-0.5521834,0.06654555,0.1556629
1189.281,-0.258703,-0.3476124,0.1188705,-0.5520807,0.06649861,0.1556409
1189.296,-0.258703,-0.3476124,0.1188705,-0.5520807,0.06649861,0.1556409
1189.31,-0.258767,-0.347429,0.1192255,-0.5519799,0.06645116,0.1556194
1189.326,-0.2588302,-0.3472478,0.1195767,-0.551881,0.06640323,0.1555983
1189.34,-0.2588927,-0.3470688,0.1199243,-0.551784,0.06635485,0.1555776
1189.355,-0.2588927,-0.3470688,0.1199243,-0.551784,0.06635485,0.1555776
1189.369,-0.2589546,-0.3468919,0.1202681,-0.5516889,0.06630603,0.1555573
1189.385,-0.2590156,-0.346717,0.1206084,-0.5515956,0.06625681,0.1555374
1189.399,-0.2590156,-0.346717,0.1206084,-0.5515956,0.06625681,0.1555374
1189.413,-0.259076,-0.3465443,0.1209451,-0.551504,0.06620718,0.1555179
1189.429,-0.2591357,-0.3463736,0.1212781,-0.5514142,0.06615718,0.1554987
1189.443,-0.2591947,-0.346205,0.1216077,-0.5513261,0.06610685,0.15548
1189.458,-0.2591947,-0.346205,0.1216077,-0.5513261,0.06610685,0.15548
1189.472,-0.2592531,-0.3460384,0.1219338,-0.5512397,0.06605618,0.1554616
1189.488,-0.2593107,-0.3458737,0.1222564,-0.5511549,0.0660052,0.1554436
1189.502,-0.2593677,-0.3457111,0.1225755,-0.5510717,0.06595393,0.1554259
1189.517,-0.2593677,-0.3457111,0.1225755,-0.5510717,0.06595393,0.1554259
1189.531,-0.2594241,-0.3455504,0.1228913,-0.5509901,0.06590239,0.1554086
1189.547,-0.2594798,-0.3453915,0.1232037,-0.5509101,0.0658506,0.1553916
1189.561,-0.2595348,-0.3452346,0.1235127,-0.5508316,0.06579858,0.1553749
1189.576,-0.2595348,-0.3452346,0.1235127,-0.5508316,0.06579858,0.1553749
1189.59,-0.2595893,-0.3450796,0.1238184,-0.5507545,0.06574634,0.1553586
1189.606,-0.259643,-0.3449264,0.1241209,-0.550679,0.06569389,0.1553426
1189.62,-0.2596962,-0.344775,0.12442,-0.550605,0.06564127,0.1553269
1189.636,-0.2596962,-0.344775,0.12442,-0.550605,0.06564127,0.1553269
1189.65,-0.2597488,-0.3446254,0.124716,-0.5505324,0.06558847,0.1553115
1189.664,-0.2598007,-0.3444776,0.1250088,-0.5504612,0.06553553,0.1552964
1189.679,-0.2598007,-0.3444776,0.1250088,-0.5504612,0.06553553,0.1552964
1189.693,-0.2598521,-0.3443316,0.1252984,-0.5503913,0.06548245,0.1552816
1189.709,-0.2599029,-0.3441873,0.1255849,-0.5503228,0.06542926,0.1552671
1189.723,-0.2599531,-0.3440447,0.1258682,-0.5502557,0.06537595,0.1552529
1189.738,-0.2599531,-0.3440447,0.1258682,-0.5502557,0.06537595,0.1552529
1189.752,-0.2600027,-0.3439039,0.1261485,-0.5501898,0.06532256,0.1552389
1189.768,-0.2600517,-0.3437647,0.1264258,-0.5501252,0.06526908,0.1552253
1189.785,-0.2601002,-0.3436272,0.1267,-0.5500618,0.06521554,0.1552119
1189.797,-0.2601002,-0.3436272,0.1267,-0.5500618,0.06521554,0.1552119
1189.811,-0.2601481,-0.3434913,0.1269712,-0.5499997,0.06516194,0.1551987
1189.827,-0.2601955,-0.343357,0.1272395,-0.5499388,0.0651083,0.1551858
1189.841,-0.2602423,-0.3432244,0.1275049,-0.5498791,0.06505464,0.1551732
1189.856,-0.2602423,-0.3432244,0.1275049,-0.5498791,0.06505464,0.1551732
1189.87,-0.2602886,-0.3430933,0.1277673,-0.5498205,0.06500096,0.1551608
1189.886,-0.2603343,-0.3429638,0.1280269,-0.5497631,0.06494728,0.1551487
1189.901,-0.2603796,-0.3428358,0.1282836,-0.5497069,0.0648936,0.1551368
1189.915,-0.2603796,-0.3428358,0.1282836,-0.5497069,0.0648936,0.1551368
1189.929,-0.2604243,-0.3427094,0.1285375,-0.5496517,0.06483995,0.1551251
1189.944,-0.2604685,-0.3425844,0.1287886,-0.5495976,0.06478633,0.1551137
1189.959,-0.2604685,-0.3425844,0.1287886,-0.5495976,0.06478633,0.1551137
1189.973,-0.2605122,-0.342461,0.1290369,-0.5495446,0.06473275,0.1551024
1189.99,-0.2605876,-0.3422344,0.1288972,-0.5489574,0.06534882,0.1547772
1190.004,-0.2606827,-0.3419451,0.1287209,-0.548252,0.06623665,0.1544584
1190.019,-0.2606827,-0.3419451,0.1287209,-0.548252,0.06623665,0.1544584
1190.033,-0.2607899,-0.3416185,0.1286252,-0.5475001,0.06719908,0.154146
1190.049,-0.2609041,-0.3412703,0.1286259,-0.5467352,0.06816134,0.1538397
1190.064,-0.2609901,-0.341015,0.1290954,-0.5465081,0.06842873,0.1538537
1190.078,-0.2609901,-0.341015,0.1290954,-0.5465081,0.06842873,0.1538537
1190.093,-0.2610579,-0.3408181,0.1296594,-0.5464096,0.06839499,0.1538672
1190.108,-0.261114,-0.3406582,0.1301818,-0.5463707,0.06825849,0.1538804
1190.124,-0.2611625,-0.3405217,0.1306333,-0.5463588,0.06809675,0.1538933
1190.137,-0.2611625,-0.3405217,0.1306333,-0.5463588,0.06809675,0.1538933
1190.152,-0.2611738,-0.3405051,0.1314089,-0.5468938,0.06726716,0.1542203
1190.167,-0.2611629,-0.340561,0.1321674,-0.5475521,0.06617863,0.1545406
1190.182,-0.2611381,-0.3406616,0.1328061,-0.5482594,0.06502645,0.1548547
1190.196,-0.2611381,-0.3406616,0.1328061,-0.5482594,0.06502645,0.1548547
1190.211,-0.2610723,-0.3408939,0.1337059,-0.5495162,0.06321345,0.1554769
1190.226,-0.260981,-0.3412065,0.1345342,-0.5508907,0.0611619,0.1560867
1190.24,-0.260874,-0.3415672,0.1351995,-0.552304,0.05907139,0.1566845
1190.255,-0.260874,-0.3415672,0.1351995,-0.552304,0.05907139,0.1566845
1190.27,-0.2607576,-0.3419559,0.1357077,-0.5537193,0.05701323,0.1572706
1190.285,-0.2606034,-0.3424649,0.1364696,-0.5556556,0.05434001,0.1581595
1190.3,-0.2604262,-0.3430457,0.1371641,-0.5576897,0.05145175,0.1590309
1190.315,-0.2604262,-0.3430457,0.1371641,-0.5576897,0.05145175,0.1590309
1190.329,-0.2602352,-0.3436682,0.137699,-0.559747,0.0485412,0.1598851
1190.344,-0.2600363,-0.3443137,0.1380776,-0.5617931,0.04567736,0.1607226
1190.36,-0.259801,-0.345075,0.138699,-0.5643477,0.04221395,0.161858
1190.374,-0.259801,-0.345075,0.138699,-0.5643477,0.04221395,0.161858
1190.388,-0.2595439,-0.3459043,0.1392446,-0.5669881,0.0385483,0.162971
1190.403,-0.2592741,-0.3467719,0.1396219,-0.5696401,0.0348745,0.1640621
1190.419,-0.2592741,-0.3467719,0.1396219,-0.5696401,0.0348745,0.1640621
1190.432,-0.2589652,-0.3477637,0.1401954,-0.5728043,0.03059718,0.1654461
1190.447,-0.2586331,-0.3488276,0.1406509,-0.5760491,0.02612932,0.1668029
1190.462,-0.2582877,-0.3499312,0.1409028,-0.5792968,0.02167148,0.1681331
1190.477,-0.2582877,-0.3499312,0.1409028,-0.5792968,0.02167148,0.1681331
1190.491,-0.2579356,-0.3510543,0.1409628,-0.5825117,0.01729379,0.1694372
1190.506,-0.2575482,-0.352289,0.1412134,-0.5862124,0.01235237,0.17103
1190.521,-0.2571405,-0.3535869,0.1413542,-0.5899762,0.007236696,0.1725916
1190.536,-0.2571405,-0.3535869,0.1413542,-0.5899762,0.007236696,0.1725916
1190.55,-0.2567217,-0.3549178,0.1412983,-0.5937296,0.002142923,0.1741225
1190.565,-0.2562977,-0.3562631,0.1410544,-0.5974395,-0.002860027,0.1756234
1190.58,-0.2558398,-0.3577158,0.140986,-0.6016244,-0.008414365,0.1774091
1190.595,-0.2558398,-0.3577158,0.140986,-0.6016244,-0.008414365,0.1774091
1190.611,-0.2553627,-0.3592283,0.1408007,-0.6058621,-0.01413467,0.1791597
1190.625,-0.2548755,-0.3607706,0.1404121,-0.6100801,-0.01982197,0.1808761
1190.639,-0.2548755,-0.3607706,0.1404121,-0.6100801,-0.01982197,0.1808761
1190.653,-0.2543516,-0.362429,0.1401469,-0.6147773,-0.02606626,0.182873
1190.668,-0.253807,-0.3641514,0.1397222,-0.6195234,-0.03246695,0.1848307
1190.683,-0.2532517,-0.3659054,0.1390611,-0.6242422,-0.03881784,0.1867501
1190.698,-0.2532517,-0.3659054,0.1390611,-0.6242422,-0.03881784,0.1867501
1190.712,-0.252692,-0.367671,0.138183,-0.6288996,-0.04504836,0.1886319
1190.727,-0.2520995,-0.3695404,0.1374258,-0.6340118,-0.05179935,0.190791
1190.742,-0.251489,-0.3714653,0.1365232,-0.6391572,-0.05869427,0.1929077
1190.757,-0.251489,-0.3714653,0.1365232,-0.6391572,-0.05869427,0.1929077
1190.771,-0.2508697,-0.3734157,0.1353971,-0.6442643,-0.06553022,0.194983
1190.786,-0.2502475,-0.3753729,0.1340642,-0.6493014,-0.07223747,0.1970177
1190.801,-0.2495937,-0.3774303,0.1328383,-0.6547837,-0.07945611,0.1993265
1190.816,-0.2495937,-0.3774303,0.1328383,-0.6547837,-0.07945611,0.1993265
1190.83,-0.2489227,-0.3795399,0.1314647,-0.6602908,-0.08681309,0.2015901
1190.845,-0.248244,-0.3816722,0.129867,-0.6657522,-0.09410183,0.2038094
1190.862,-0.2475632,-0.3838089,0.1280639,-0.6711367,-0.1012517,0.2059853
1190.876,-0.2475632,-0.3838089,0.1280639,-0.6711367,-0.1012517,0.2059853
1190.889,-0.2468513,-0.3860432,0.126348,-0.6769577,-0.1089028,0.2084325
1190.904,-0.246123,-0.3883276,0.1244795,-0.6827959,-0.1166853,0.2108319
1190.919,-0.246123,-0.3883276,0.1244795,-0.6827959,-0.1166853,0.2108319
1190.933,-0.2453876,-0.3906324,0.1223861,-0.6885817,-0.1243895,0.2131843
1190.948,-0.2446182,-0.3930441,0.1203245,-0.6948085,-0.132602,0.2158045
1190.963,-0.2438309,-0.3955105,0.1180716,-0.7010503,-0.1409363,0.2183735
1190.978,-0.2438309,-0.3955105,0.1180716,-0.7010503,-0.1409363,0.2183735
1190.992,-0.2430357,-0.3979995,0.1155681,-0.7072343,-0.1491754,0.2208923
1191.007,-0.2422388,-0.4004911,0.1128473,-0.7133287,-0.157248,0.2233617
1191.022,-0.2414116,-0.4030779,0.1101679,-0.7198418,-0.1657977,0.2260966
1191.037,-0.2414116,-0.4030779,0.1101679,-0.7198418,-0.1657977,0.2260966
1191.051,-0.240569,-0.4057114,0.1073231,-0.7263574,-0.1744601,0.228778
1191.066,-0.2397203,-0.4083617,0.1042517,-0.732807,-0.1830209,0.231407
1191.081,-0.2388713,-0.4110104,0.1009834,-0.7391614,-0.1914093,0.2339845
1191.096,-0.2388713,-0.4110104,0.1009834,-0.7391614,-0.1914093,0.2339845
1191.112,-0.2379929,-0.413751,0.09774778,-0.7459263,-0.2002707,0.2368252
1191.126,-0.2370999,-0.4165356,0.09435215,-0.7526879,-0.2092406,0.2396106
1191.14,-0.2362016,-0.4193346,0.09073882,-0.759379,-0.2181007,0.2423413
1191.155,-0.2362016,-0.4193346,0.09073882,-0.759379,-0.2181007,0.2423413
1191.169,-0.2352708,-0.4222346,0.08710364,-0.7664857,-0.2274416,0.2453324
1191.184,-0.2343239,-0.4251834,0.08327467,-0.7735884,-0.2368801,0.2482651
1191.199,-0.2343239,-0.4251834,0.08327467,-0.7735884,-0.2368801,0.2482651
1191.213,-0.2333709,-0.4281489,0.07920966,-0.7806171,-0.2461912,0.2511404
1191.228,-0.2324181,-0.4311113,0.07495212,-0.7875419,-0.2553047,0.2539593
1191.243,-0.2314364,-0.4341632,0.07069184,-0.7948616,-0.2648731,0.2570367
1191.258,-0.2314364,-0.4341632,0.07069184,-0.7948616,-0.2648731,0.2570367
1191.272,-0.2304409,-0.4372562,0.06627117,-0.8021672,-0.274532,0.2600541
1191.287,-0.2294412,-0.4403604,0.06164484,-0.8093928,-0.2840587,0.2630124
1191.302,-0.2284428,-0.4434576,0.05685186,-0.8165107,-0.2933839,0.2659127
1191.317,-0.2284428,-0.4434576,0.05685186,-0.8165107,-0.2933839,0.2659127
1191.331,-0.2274164,-0.4466412,0.05204998,-0.8240161,-0.3031633,0.2690698
1191.347,-0.2263769,-0.4498635,0.04709725,-0.8315038,-0.3130287,0.2721653
1191.363,-0.2253338,-0.4530949,0.04195298,-0.838909,-0.3227541,0.2752002
1191.377,-0.2253338,-0.4530949,0.04195298,-0.838909,-0.3227541,0.2752002
1191.39,-0.2242596,-0.456422,0.03674576,-0.8467072,-0.3329411,0.2784894
1191.405,-0.2231708,-0.4597927,0.03135881,-0.8544888,-0.3432002,0.2817143
1191.42,-0.2231708,-0.4597927,0.03135881,-0.8544888,-0.3432002,0.2817143
1191.434,-0.2220775,-0.463175,0.0257687,-0.8621864,-0.3533009,0.2848761
1191.45,-0.220986,-0.4665492,0.02002765,-0.8697714,-0.363176,0.2879759
1191.464,-0.2198668,-0.4700079,0.01424926,-0.87773,-0.3734927,0.2913285
1191.479,-0.2198668,-0.4700079,0.01424926,-0.87773,-0.3734927,0.2913285
1191.493,-0.2187353,-0.4735027,0.008328393,-0.8856639,-0.3838761,0.2946158
1191.509,-0.217601,-0.4770039,0.002237733,-0.8935097,-0.3940978,0.2978387
1191.523,-0.2164697,-0.4804933,-0.003975927,-0.9012406,-0.4040914,0.3009983
1191.538,-0.2164697,-0.4804933,-0.003975927,-0.9012406,-0.4040914,0.3009983
1191.552,-0.2153114,-0.4840644,-0.01023287,-0.9093382,-0.4145291,0.3044096
1191.568,-0.2141415,-0.4876694,-0.01662092,-0.9174095,-0.4250278,0.3077544
1191.583,-0.2129694,-0.4912789,-0.02316179,-0.9253919,-0.4353567,0.3110337
1191.599,-0.2129694,-0.4912789,-0.02316179,-0.9253919,-0.4353567,0.3110337
1191.613,-0.2117672,-0.4949795,-0.02979904,-0.9337469,-0.4461348,0.3145623
1191.628,-0.2105518,-0.4987192,-0.03659134,-0.942079,-0.4569565,0.318022
1191.641,-0.2093334,-0.502466,-0.04354222,-0.9503222,-0.4675893,0.321414
1191.656,-0.2093334,-0.502466,-0.04354222,-0.9503222,-0.4675893,0.321414
1191.67,-0.2081182,-0.5062002,-0.05059332,-0.9584488,-0.4779724,0.3247394
1191.686,-0.2068763,-0.5100145,-0.05771286,-0.9669291,-0.4887918,0.3283132
1191.7,-0.2056234,-0.5138607,-0.06495005,-0.9753801,-0.4996503,0.3318172
1191.715,-0.2056234,-0.5138607,-0.06495005,-0.9753801,-0.4996503,0.3318172
1191.729,-0.204369,-0.517709,-0.07231268,-0.9837393,-0.5103179,0.3352526
1191.744,-0.203119,-0.5215412,-0.07974839,-0.9919805,-0.520735,0.3386207
1191.76,-0.203119,-0.5215412,-0.07974839,-0.9919805,-0.520735,0.3386207
1191.773,-0.201843,-0.525451,-0.08726034,-1.000569,-0.531593,0.3422362
1191.789,-0.2005565,-0.5293906,-0.09487827,-1.009128,-0.5424822,0.3457812
1191.804,-0.1992692,-0.5333306,-0.1026036,-1.017596,-0.5531729,0.3492568
1191.818,-0.1992692,-0.5333306,-0.1026036,-1.017596,-0.5531729,0.3492568
1191.833,-0.1979526,-0.5373577,-0.1104563,-1.026417,-0.564306,0.3529778
1191.848,-0.1966241,-0.5414199,-0.1184336,-1.035215,-0.5754498,0.3566262
1191.864,-0.1952938,-0.5454852,-0.1265192,-1.043923,-0.5863765,0.360203
1191.878,-0.1952938,-0.5454852,-0.1265192,-1.043923,-0.5863765,0.360203
1191.891,-0.1939681,-0.549534,-0.1346516,-1.052512,-0.5970351,0.3637097
1191.907,-0.1926164,-0.5536592,-0.1428855,-1.061437,-0.6081301,0.3674612
1191.922,-0.191255,-0.5578123,-0.1512093,-1.070333,-0.6192316,0.3711395
1191.936,-0.191255,-0.5578123,-0.1512093,-1.070333,-0.6192316,0.3711395
1191.95,-0.1898933,-0.5619639,-0.1596103,-1.079136,-0.6301156,0.3747457
1191.966,-0.1885372,-0.5660957,-0.1680336,-1.08782,-0.6407329,0.3782812
1191.981,-0.1871558,-0.5703014,-0.1765693,-1.096832,-0.6517914,0.3820609
1191.995,-0.1871558,-0.5703014,-0.1765693,-1.096832,-0.6517914,0.3820609
1192.009,-0.185765,-0.5745333,-0.1851833,-1.105817,-0.6628466,0.3857668
1192.025,-0.1843746,-0.5787621,-0.1938564,-1.11471,-0.6736786,0.3894001
1192.04,-0.1843746,-0.5787621,-0.1938564,-1.11471,-0.6736786,0.3894001
1192.054,-0.1829557,-0.5830745,-0.2026896,-1.12394,-0.6849487,0.3932758
1192.069,-0.1815258,-0.5874184,-0.2116141,-1.133149,-0.6961938,0.3970758
1192.084,-0.1800954,-0.5917618,-0.2205944,-1.142269,-0.7071998,0.4008013
1192.099,-0.1800954,-0.5917618,-0.2205944,-1.142269,-0.7071998,0.4008013
1192.115,-0.1786708,-0.5960854,-0.2295704,-1.15127,-0.7179281,0.4044537
1192.128,-0.177221,-0.600482,-0.2386864,-1.160588,-0.7290928,0.4083481
1192.143,-0.1757623,-0.6049033,-0.2478627,-1.16988,-0.7402285,0.4121665
1192.158,-0.1757623,-0.6049033,-0.2478627,-1.16988,-0.7402285,0.4121665
1192.172,-0.1743045,-0.6093196,-0.2570671,-1.179081,-0.7511273,0.4159101
1192.187,-0.1728535,-0.6137129,-0.266246,-1.188163,-0.7617525,0.4195803
1192.202,-0.1713778,-0.6181771,-0.2755792,-1.197555,-0.7728165,0.4234922
1192.217,-0.1713778,-0.6181771,-0.2755792,-1.197555,-0.7728165,0.4234922
1192.23,-0.1698937,-0.6226642,-0.2849607,-1.206923,-0.7838416,0.4273277
1192.246,-0.1684111,-0.6271449,-0.2943529,-1.216201,-0.7946278,0.431088
1192.261,-0.1669356,-0.6316017,-0.3037036,-1.225361,-0.8051429,0.4347746
1192.276,-0.1669356,-0.6316017,-0.3037036,-1.225361,-0.8051429,0.4347746
1192.29,-0.1654355,-0.6361283,-0.3132253,-1.234825,-0.8160956,0.4387025
1192.305,-0.1639273,-0.6406769,-0.3227841,-1.244269,-0.8269993,0.4425537
1192.32,-0.1639273,-0.6406769,-0.3227841,-1.244269,-0.8269993,0.4425537
1192.334,-0.1624209,-0.6452184,-0.3323368,-1.253623,-0.8376639,0.4463294
1192.35,-0.1608867,-0.6498395,-0.3421013,-1.263293,-0.8487572,0.4503447
1192.365,-0.1593427,-0.6544882,-0.3519084,-1.272949,-0.8597838,0.4542815
1192.379,-0.1593427,-0.6544882,-0.3519084,-1.272949,-0.8597838,0.4542815
1192.393,-0.1577997,-0.6591327,-0.3617029,-1.282519,-0.870563,0.4581412
1192.408,-0.156264,-0.6637536,-0.3714329,-1.29197,-0.8810711,0.4619252
1192.423,-0.1547036,-0.6684439,-0.3813652,-1.301715,-0.8920029,0.4659487
1192.438,-0.1547036,-0.6684439,-0.3813652,-1.301715,-0.8920029,0.4659487
1192.452,-0.1531355,-0.6731551,-0.3913143,-1.311442,-0.9028658,0.4698936
1192.467,-0.1515698,-0.6778576,-0.4012286,-1.321081,-0.9134886,0.4737612
1192.482,-0.1500123,-0.6825338,-0.4110626,-1.330599,-0.9238484,0.477553
1192.497,-0.1500123,-0.6825338,-0.4110626,-1.330599,-0.9238484,0.477553
1192.511,-0.1484304,-0.6872773,-0.4211159,-1.340405,-0.9346252,0.4815842
1192.526,-0.1468414,-0.6920403,-0.4311737,-1.350196,-0.9453285,0.4855365
1192.541,-0.1452551,-0.6967934,-0.4411818,-1.359899,-0.9557977,0.4894115
1192.556,-0.1452551,-0.6967934,-0.4411818,-1.359899,-0.9557977,0.4894115
1192.57,-0.1436414,-0.7016237,-0.4514441,-1.3699,-0.966672,0.4935242
1192.586,-0.1420188,-0.706479,-0.4617117,-1.379893,-0.9774631,0.4975566
1192.601,-0.1403983,-0.7113273,-0.4719231,-1.389801,-0.9880187,0.5015099
1192.616,-0.1403983,-0.7113273,-0.4719231,-1.389801,-0.9880187,0.5015099
1192.63,-0.1387862,-0.7161496,-0.482035,-1.399588,-0.998319,0.5053858
1192.646,-0.1371496,-0.7210388,-0.4923976,-1.409652,-1.009009,0.5094994
1192.661,-0.1355062,-0.7259464,-0.5027437,-1.419705,-1.019619,0.5135327
1192.675,-0.1355062,-0.7259464,-0.5027437,-1.419705,-1.019619,0.5135327
1192.689,-0.1338663,-0.7308429,-0.5130157,-1.429668,-1.030004,0.5174869
1192.705,-0.1322356,-0.7357106,-0.5231761,-1.439509,-1.040143,0.5213637
1192.72,-0.1322356,-0.7357106,-0.5231761,-1.439509,-1.040143,0.5213637
1192.734,-0.1305808,-0.7406434,-0.5336034,-1.449622,-1.050658,0.5254782
1192.749,-0.1289196,-0.7455931,-0.544003,-1.459725,-1.061094,0.5295123
1192.764,-0.1272622,-0.7505308,-0.5543167,-1.46974,-1.071317,0.5334675
1192.779,-0.1272622,-0.7505308,-0.5543167,-1.46974,-1.071317,0.5334675
1192.793,-0.1256145,-0.7554388,-0.56451,-1.479632,-1.081305,0.5373451
1192.808,-0.1239796,-0.7603067,-0.5745658,-1.489386,-1.09106,0.5411468
1192.824,-0.1223594,-0.7651283,-0.5844762,-1.498997,-1.100585,0.5448739
1192.839,-0.1223594,-0.7651283,-0.5844762,-1.498997,-1.100585,0.5448739
1192.852,-0.1207549,-0.7699001,-0.5942382,-1.508463,-1.109888,0.548528
1192.867,-0.1192038,-0.7745158,-0.6034151,-1.517383,-1.118407,0.5517967
1192.882,-0.11769,-0.7790162,-0.6123391,-1.52602,-1.126557,0.5550013
1192.896,-0.11769,-0.7790162,-0.6123391,-1.52602,-1.126557,0.5550013
1192.911,-0.1162043,-0.7834265,-0.6210668,-1.534457,-1.134475,0.558143
1192.926,-0.1147413,-0.7877623,-0.6296289,-1.542733,-1.142199,0.5612231
1192.94,-0.1133354,-0.791929,-0.6375891,-1.550468,-1.1492,0.563929
1192.955,-0.1133354,-0.791929,-0.6375891,-1.550468,-1.1492,0.563929
1192.969,-0.1119684,-0.7959744,-0.6453078,-1.557927,-1.155868,0.5665817
1192.984,-0.1106298,-0.799928,-0.6528464,-1.5652,-1.162336,0.5691825
1192.999,-0.1106298,-0.799928,-0.6528464,-1.5652,-1.162336,0.5691825
1193.014,-0.1093512,-0.8037037,-0.6597741,-1.571931,-1.168116,0.5714183
1193.029,-0.1081126,-0.8073544,-0.6664705,-1.578391,-1.173587,0.5736103
1193.044,-0.1069027,-0.8109128,-0.673001,-1.584674,-1.178881,0.5757593
1193.058,-0.1069027,-0.8109128,-0.673001,-1.584674,-1.178881,0.5757593
1193.072,-0.1057146,-0.8143992,-0.6793971,-1.590825,-1.18404,0.5778661
1193.089,-0.1045826,-0.8177215,-0.6852027,-1.59647,-1.188572,0.5796177
1193.103,-0.1034878,-0.8209293,-0.6908022,-1.601867,-1.192827,0.5813349
1193.117,-0.1034878,-0.8209293,-0.6908022,-1.601867,-1.192827,0.5813349
1193.131,-0.1024195,-0.824053,-0.6962579,-1.607105,-1.196931,0.5830185
1193.147,-0.1013712,-0.8271115,-0.7015989,-1.612229,-1.200926,0.584669
1193.162,-0.1003776,-0.8300121,-0.7063598,-1.616866,-1.204336,0.5859732
1193.176,-0.1003776,-0.8300121,-0.7063598,-1.616866,-1.204336,0.5859732
1193.19,-0.09941999,-0.8328035,-0.7109331,-1.621269,-1.207492,0.5872518
1193.205,-0.09848753,-0.8355159,-0.7153815,-1.625528,-1.210518,0.5885053
1193.22,-0.09757395,-0.838168,-0.7197331,-1.629688,-1.213457,0.5897342
1193.235,-0.09757395,-0.838168,-0.7197331,-1.629688,-1.213457,0.5897342
1193.249,-0.09671388,-0.8406669,-0.7235157,-1.633377,-1.215845,0.5906251
1193.265,-0.09588868,-0.8430612,-0.7271284,-1.636845,-1.217999,0.5914984
1193.28,-0.09588868,-0.8430612,-0.7271284,-1.636845,-1.217999,0.5914984
1193.294,-0.09508751,-0.845381,-0.730634,-1.640184,-1.220042,0.5923547
1193.309,-0.09434247,-0.8475404,-0.7335713,-1.643048,-1.221541,0.5928801
1193.324,-0.0936334,-0.8495921,-0.7363495,-1.645693,-1.222816,0.5933952
1193.34,-0.0936334,-0.8495921,-0.7363495,-1.645693,-1.222816,0.5933952
1193.354,-0.09294853,-0.8515689,-0.7390342,-1.648218,-1.223993,0.5939001
1193.368,-0.09228098,-0.8534911,-0.7416537,-1.650667,-1.225117,0.5943952
1193.383,-0.09166525,-0.8552666,-0.7437285,-1.652673,-1.225735,0.5945665
1193.397,-0.09166525,-0.8552666,-0.7437285,-1.652673,-1.225735,0.5945665
1193.412,-0.09108254,-0.8569446,-0.745665,-1.654481,-1.226153,0.5947345
1193.427,-0.09052184,-0.8585554,-0.7475261,-1.656184,-1.226489,0.5948991
1193.442,-0.08997665,-0.8601177,-0.7493383,-1.657826,-1.22679,0.5950605
1193.457,-0.08997665,-0.8601177,-0.7493383,-1.657826,-1.22679,0.5950605
1193.47,-0.08948184,-0.8615389,-0.750619,-1.659039,-1.226603,0.5949048
1193.486,-0.08901876,-0.8628672,-0.7517766,-1.660066,-1.22623,0.594752
1193.501,-0.08857647,-0.8641327,-0.7528739,-1.661,-1.22579,0.5946022
1193.516,-0.08857647,-0.8641327,-0.7528739,-1.661,-1.22579,0.5946022
1193.53,-0.08818723,-0.8652495,-0.7534419,-1.661497,-1.224857,0.5941414
1193.546,-0.08783092,-0.86627,-0.7538964,-1.661809,-1.223744,0.5936896
1193.56,-0.08783092,-0.86627,-0.7538964,-1.661809,-1.223744,0.5936896
1193.574,-0.08749564,-0.8672268,-0.7543027,-1.662036,-1.222573,0.5932465
1193.59,-0.08717435,-0.8681402,-0.7546874,-1.662222,-1.22139,0.5928122
1193.604,-0.08690168,-0.8689184,-0.7545659,-1.662,-1.21974,0.5920724
1193.62,-0.08690168,-0.8689184,-0.7545659,-1.662,-1.21974,0.5920724
1193.633,-0.08665892,-0.86961,-0.7543487,-1.661612,-1.21793,0.591347
1193.648,-0.08643495,-0.8702451,-0.7540982,-1.661153,-1.216077,0.5906358
1193.663,-0.08622318,-0.8708427,-0.7538394,-1.660666,-1.214226,0.5899385
1193.678,-0.08622318,-0.8708427,-0.7538394,-1.660666,-1.214226,0.5899385
1193.691,-0.08605852,-0.8713101,-0.7530872,-1.659782,-1.211913,0.588941
1193.707,-0.08592248,-0.8716951,-0.7522521,-1.658742,-1.209452,0.5879629
1193.722,-0.08580403,-0.8720277,-0.7513959,-1.657642,-1.20696,0.587004
1193.736,-0.08580403,-0.8720277,-0.7513959,-1.657642,-1.20696,0.587004
1193.75,-0.08573548,-0.872222,-0.7500488,-1.656134,-1.203995,0.58575
1193.766,-0.08569685,-0.8723302,-0.748627,-1.654472,-1.200884,0.5845205
1193.781,-0.08567616,-0.8723847,-0.7471944,-1.652754,-1.19775,0.583315
1193.795,-0.08567616,-0.8723847,-0.7471944,-1.652754,-1.19775,0.583315
1193.81,-0.08566624,-0.8724058,-0.7457761,-1.651025,-1.194638,0.5821332
1193.825,-0.08570005,-0.8723031,-0.7438902,-1.648915,-1.191067,0.5806606
1193.841,-0.08575969,-0.8721245,-0.7419447,-1.64667,-1.18737,0.5792168
1193.854,-0.08575969,-0.8721245,-0.7419447,-1.64667,-1.18737,0.5792168
1193.868,-0.08583437,-0.8718997,-0.7400004,-1.644381,-1.183664,0.5778012
1193.884,-0.08591759,-0.8716475,-0.7380808,-1.642091,-1.179991,0.5764135
1193.899,-0.08591759,-0.8716475,-0.7380808,-1.642091,-1.179991,0.5764135
1193.912,-0.08604436,-0.871275,-0.7357054,-1.639429,-1.175856,0.574739
1193.928,-0.08619626,-0.87083,-0.7332806,-1.636641,-1.171606,0.5730972
1193.942,-0.08636223,-0.8703423,-0.7308664,-1.633818,-1.167358,0.5714876
1193.957,-0.08636223,-0.8703423,-0.7308664,-1.633818,-1.167358,0.5714876
1193.971,-0.08657454,-0.869726,-0.7279992,-1.630611,-1.162632,0.5695957
1193.987,-0.08681308,-0.8690333,-0.725089,-1.627277,-1.157794,0.5677407
1194.001,-0.08706582,-0.8682966,-0.7221978,-1.623913,-1.152967,0.5659221
1194.016,-0.08706582,-0.8682966,-0.7221978,-1.623913,-1.152967,0.5659221
1194.03,-0.08732564,-0.8675361,-0.7193494,-1.620563,-1.14819,0.5641392
1194.046,-0.08762712,-0.8666599,-0.7160707,-1.616853,-1.142941,0.5620773
1194.061,-0.0879515,-0.8657164,-0.7127616,-1.613034,-1.137598,0.5600557
1194.075,-0.0879515,-0.8657164,-0.7127616,-1.613034,-1.137598,0.5600557
1194.092,-0.08828763,-0.8647358,-0.7094805,-1.609196,-1.13228,0.5580738
1194.106,-0.08862894,-0.8637367,-0.7062502,-1.605381,-1.127022,0.5561306
1194.12,-0.08862894,-0.8637367,-0.7062502,-1.605381,-1.127022,0.5561306
1194.134,-0.08901031,-0.8626263,-0.7026031,-1.601214,-1.121283,0.5539118
1194.149,-0.08941313,-0.8614524,-0.6989329,-1.596945,-1.115461,0.5517363
1194.164,-0.08982642,-0.8602448,-0.6952974,-1.592665,-1.109675,0.5496034
1194.178,-0.08982642,-0.8602448,-0.6952974,-1.592665,-1.109675,0.5496034
1194.192,-0.09028242,-0.8589174,-0.6912484,-1.588018,-1.10339,0.5471985
1194.208,-0.09076095,-0.8575224,-0.6871802,-1.58327,-1.097026,0.5448406
1194.222,-0.09125015,-0.8560922,-0.6831527,-1.578513,-1.090707,0.5425289
1194.237,-0.09125015,-0.8560922,-0.6831527,-1.578513,-1.090707,0.5425289
1194.251,-0.09174305,-0.8546466,-0.6791896,-1.573792,-1.084465,0.5402625
1194.266,-0.0922742,-0.8530937,-0.6748374,-1.568727,-1.077724,0.5377266
1194.281,-0.09282483,-0.851482,-0.6704757,-1.563577,-1.070921,0.5352404
1194.296,-0.09282483,-0.851482,-0.6704757,-1.563577,-1.070921,0.5352404
1194.31,-0.09338395,-0.8498413,-0.6661609,-1.55843,-1.064176,0.5328029
1194.326,-0.09394515,-0.8481902,-0.6619162,-1.553326,-1.057519,0.5304131
1194.34,-0.09454317,-0.8464356,-0.6572977,-1.547883,-1.050349,0.5277564
1194.356,-0.09454317,-0.8464356,-0.6572977,-1.547883,-1.050349,0.5277564
1194.37,-0.09515949,-0.8446255,-0.6526739,-1.542363,-1.043129,0.5251516
1194.385,-0.09578323,-0.8427894,-0.6481008,-1.536852,-1.035978,0.5225978
1194.399,-0.09578323,-0.8427894,-0.6481008,-1.536852,-1.035978,0.5225978
1194.414,-0.09644649,-0.8408411,-0.643158,-1.530988,-1.028298,0.5197803
1194.429,-0.0971292,-0.8388328,-0.6382108,-1.525044,-1.020573,0.5170179
1194.443,-0.09781966,-0.8367968,-0.6333178,-1.519112,-1.012926,0.5143095
1194.458,-0.09781966,-0.8367968,-0.6333178,-1.519112,-1.012926,0.5143095
1194.472,-0.09851105,-0.8347529,-0.6285041,-1.513234,-1.005385,0.5116543
1194.488,-0.09923774,-0.8326088,-0.6233486,-1.507023,-0.9973103,0.5087373
1194.502,-0.09998108,-0.830413,-0.6181953,-1.50075,-0.9892046,0.5058773
1194.517,-0.09998108,-0.830413,-0.6181953,-1.50075,-0.9892046,0.5058773
1194.531,-0.1007302,-0.8281953,-0.6130999,-1.494498,-0.9811904,0.5030733
1194.547,-0.1014789,-0.8259741,-0.6080873,-1.488307,-0.9732925,0.5003242
1194.562,-0.1022616,-0.8236562,-0.6027513,-1.481787,-0.9648474,0.4973153
1194.576,-0.1022616,-0.8236562,-0.6027513,-1.481787,-0.9648474,0.4973153
1194.59,-0.10306,-0.8212895,-0.5974183,-1.475212,-0.9563805,0.4943652
1194.607,-0.1038633,-0.8189036,-0.5921441,-1.468664,-0.9480165,0.4914728
1194.621,-0.1046654,-0.8165165,-0.5869545,-1.462181,-0.9397784,0.4886371
1194.635,-0.1046654,-0.8165165,-0.5869545,-1.462181,-0.9397784,0.4886371
1194.649,-0.1055006,-0.8140349,-0.5814607,-1.455371,-0.9309809,0.4855433
1194.665,-0.1063507,-0.8115065,-0.5759697,-1.448513,-0.922169,0.4825098
1194.679,-0.1063507,-0.8115065,-0.5759697,-1.448513,-0.922169,0.4825098
1194.693,-0.1072051,-0.8089609,-0.5705373,-1.441686,-0.9134713,0.4795358
1194.709,-0.1080954,-0.8063116,-0.5648051,-1.434516,-0.9042041,0.4763063
1194.723,-0.1090019,-0.8036108,-0.5590723,-1.427296,-0.8949289,0.4731399
1194.738,-0.1090019,-0.8036108,-0.5590723,-1.427296,-0.8949289,0.4731399
1194.752,-0.109913,-0.8008906,-0.5533978,-1.420108,-0.8857786,0.4700354
1194.768,-0.1108223,-0.7981707,-0.5478117,-1.412994,-0.8767738,0.4669918
1194.783,-0.1117635,-0.7953585,-0.5419612,-1.405556,-0.8671938,0.4636942
1194.797,-0.1117635,-0.7953585,-0.5419612,-1.405556,-0.8671938,0.4636942
1194.812,-0.1127183,-0.7925025,-0.536114,-1.398083,-0.8576119,0.4604609
1194.827,-0.1136762,-0.7896326,-0.5303257,-1.390651,-0.8481664,0.4572909
1194.843,-0.1146309,-0.7867669,-0.5246266,-1.3833,-0.8388766,0.454183
1194.857,-0.1146309,-0.7867669,-0.5246266,-1.3833,-0.8388766,0.454183
1194.871,-0.1156166,-0.783812,-0.5186861,-1.375625,-0.8290037,0.4508223
1194.886,-0.116615,-0.7808159,-0.5127465,-1.367923,-0.8191323,0.4475272
1194.901,-0.1176158,-0.777808,-0.5068626,-1.360267,-0.8094078,0.4442967
1194.916,-0.1176158,-0.777808,-0.5068626,-1.360267,-0.8094078,0.4442967
1194.93,-0.1186502,-0.7747017,-0.5007408,-1.352271,-0.7990986,0.4408157
1194.945,-0.1196988,-0.7715493,-0.4946132,-1.344244,-0.7887965,0.4374026
1194.96,-0.1196988,-0.7715493,-0.4946132,-1.344244,-0.7887965,0.4374026
1194.974,-0.1207502,-0.7683829,-0.4885383,-1.336264,-0.7786528,0.4340564
1194.99,-0.1217981,-0.765222,-0.4825523,-1.328371,-0.7686859,0.4307758
1195.004,-0.1228757,-0.7619739,-0.4763703,-1.320154,-0.7581307,0.4272457
1195.019,-0.1228757,-0.7619739,-0.4763703,-1.320154,-0.7581307,0.4272457
1195.033,-0.1239651,-0.7586871,-0.4701869,-1.311922,-0.7475815,0.4237845
1195.049,-0.1250558,-0.7553915,-0.4640545,-1.303746,-0.7371992,0.4203911
1195.064,-0.1261418,-0.752105,-0.4580098,-1.295662,-0.7270032,0.4170642
1195.08,-0.1261418,-0.752105,-0.4580098,-1.295662,-0.7270032,0.4170642
1195.094,-0.1272567,-0.7487342,-0.4517956,-1.287254,-0.7162175,0.4134887
1195.108,-0.1283826,-0.7453271,-0.4455767,-1.278837,-0.7054363,0.4099831
1195.123,-0.1295092,-0.741913,-0.4394031,-1.27048,-0.6948303,0.4065461
1195.138,-0.1295092,-0.741913,-0.4394031,-1.27048,-0.6948303,0.4065461
1195.152,-0.1306675,-0.7384052,-0.4330603,-1.261781,-0.6836423,0.4028626
1195.167,-0.1318383,-0.7348561,-0.4267033,-1.25307,-0.6724643,0.3992511
1195.182,-0.1330104,-0.7312975,-0.4203858,-1.244419,-0.661473,0.3957103
1195.197,-0.1330104,-0.7312975,-0.4203858,-1.244419,-0.661473,0.3957103
1195.211,-0.1341775,-0.7277489,-0.4141513,-1.235864,-0.6506895,0.3922388
1195.227,-0.1353725,-0.7241178,-0.4077975,-1.226984,-0.6393244,0.3885217
1195.241,-0.1365777,-0.7204524,-0.4014368,-1.218106,-0.6279612,0.3848771
1195.256,-0.1365777,-0.7204524,-0.4014368,-1.218106,-0.6279612,0.3848771
1195.27,-0.1377828,-0.7167825,-0.3951131,-1.209295,-0.6167886,0.3813038
1195.286,-0.138982,-0.7131262,-0.3888695,-1.200587,-0.6058314,0.3778006
1195.301,-0.1402081,-0.7093898,-0.3825354,-1.191551,-0.5942978,0.3740523
1195.317,-0.1402081,-0.7093898,-0.3825354,-1.191551,-0.5942978,0.3740523
1195.331,-0.1414439,-0.7056213,-0.3761922,-1.182522,-0.582761,0.3703771
1195.345,-0.1426791,-0.70185,-0.3698789,-1.173566,-0.5714197,0.3667738
1195.36,-0.1426791,-0.70185,-0.3698789,-1.173566,-0.5714197,0.3667738
1195.374,-0.1439441,-0.6979892,-0.3634701,-1.164262,-0.559516,0.3629274
1195.389,-0.1452202,-0.6940911,-0.3570401,-1.154963,-0.5476161,0.3591561
1195.404,-0.1464964,-0.6901876,-0.3506314,-1.145735,-0.5359229,0.3554586
1195.419,-0.1464964,-0.6901876,-0.3506314,-1.145735,-0.5359229,0.3554586
1195.433,-0.1477665,-0.6862981,-0.3442941,-1.136612,-0.5244655,0.3518336
1195.449,-0.1490627,-0.6823299,-0.3379197,-1.127157,-0.5124509,0.3479658
1195.463,-0.1503679,-0.6783314,-0.3315373,-1.11772,-0.5004276,0.3441736
1195.478,-0.1503679,-0.6783314,-0.3315373,-1.11772,-0.5004276,0.3441736
1195.492,-0.1516718,-0.6743323,-0.3251749,-1.108361,-0.4886093,0.3404556
1195.508,-0.1529687,-0.6703506,-0.3188801,-1.099113,-0.4770312,0.3368105
1195.526,-0.1542553,-0.666397,-0.3126831,-1.089992,-0.4656869,0.3332368
1195.538,-0.1542553,-0.666397,-0.3126831,-1.089992,-0.4656869,0.3332368
1195.553,-0.1555297,-0.6624781,-0.3065977,-1.081006,-0.454565,0.3297332
1195.568,-0.1567908,-0.6585979,-0.3006287,-1.072158,-0.4436566,0.3262983
1195.583,-0.1580381,-0.6547583,-0.2947762,-1.063449,-0.4329557,0.3229307
1195.598,-0.1580381,-0.6547583,-0.2947762,-1.063449,-0.4329557,0.3229307
1195.612,-0.1592714,-0.6509607,-0.2890383,-1.054878,-0.4224574,0.319629
1195.627,-0.1604906,-0.6472054,-0.2834125,-1.046443,-0.4121582,0.3163922
1195.642,-0.1616958,-0.6434927,-0.277896,-1.038142,-0.4020545,0.3132187
1195.657,-0.1616958,-0.6434927,-0.277896,-1.038142,-0.4020545,0.3132187
1195.671,-0.162887,-0.6398224,-0.2724858,-1.029975,-0.3921431,0.3101075
1195.687,-0.1640643,-0.6361943,-0.2671794,-1.021938,-0.382421,0.3070572
1195.702,-0.165228,-0.6326082,-0.261974,-1.01403,-0.372885,0.3040667
1195.717,-0.165228,-0.6326082,-0.261974,-1.01403,-0.372885,0.3040667
1195.731,-0.166378,-0.6290635,-0.2568671,-1.006249,-0.363532,0.3011349
1195.746,-0.1675146,-0.6255599,-0.2518561,-0.9985931,-0.3543591,0.2982605
1195.762,-0.1686379,-0.622097,-0.2469386,-0.9910598,-0.3453633,0.2954425
1195.776,-0.1686379,-0.622097,-0.2469386,-0.9910598,-0.3453633,0.2954425
1195.79,-0.1697481,-0.6186743,-0.2421122,-0.9836476,-0.3365415,0.2926797
1195.806,-0.1708452,-0.6152915,-0.2373747,-0.9763544,-0.3278908,0.2899711
1195.821,-0.1719296,-0.611948,-0.2327237,-0.9691786,-0.3194083,0.2873155
1195.835,-0.1719296,-0.611948,-0.2327237,-0.9691786,-0.3194083,0.2873155
1195.849,-0.1730012,-0.6086435,-0.2281571,-0.9621181,-0.311091,0.2847121
1195.865,-0.1740604,-0.6053774,-0.2236728,-0.9551713,-0.3029362,0.2821597
1195.88,-0.1740604,-0.6053774,-0.2236728,-0.9551713,-0.3029362,0.2821597
1195.894,-0.1751071,-0.6021495,-0.2192686,-0.9483365,-0.294941,0.2796573
1195.91,-0.1761416,-0.5989591,-0.2149427,-0.9416118,-0.2871026,0.2772039
1195.924,-0.177164,-0.5958061,-0.210693,-0.9349955,-0.2794182,0.2747987
1195.939,-0.177164,-0.5958061,-0.210693,-0.9349955,-0.2794182,0.2747987
1195.954,-0.1781744,-0.5926898,-0.2065176,-0.928486,-0.2718851,0.2724407
1195.969,-0.179173,-0.5896099,-0.2024146,-0.9220816,-0.2645006,0.2701288
1195.985,-0.1801599,-0.586566,-0.1983823,-0.9157807,-0.2572621,0.2678623
1195.999,-0.1801599,-0.586566,-0.1983823,-0.9157807,-0.2572621,0.2678623
1196.013,-0.1811353,-0.5835577,-0.1944189,-0.9095817,-0.2501669,0.2656403
1196.028,-0.1820993,-0.5805845,-0.1905227,-0.903483,-0.2432124,0.2634618
1196.043,-0.1830519,-0.5776461,-0.1866919,-0.8974831,-0.2363961,0.261326
1196.058,-0.1830519,-0.5776461,-0.1866919,-0.8974831,-0.2363961,0.261326
1196.072,-0.1839935,-0.5747421,-0.182925,-0.8915803,-0.2297155,0.2592321
1196.088,-0.184924,-0.5718721,-0.1792205,-0.8857733,-0.2231681,0.2571793
1196.102,-0.1858437,-0.5690357,-0.1755766,-0.8800605,-0.2167515,0.2551667
1196.117,-0.1858437,-0.5690357,-0.1755766,-0.8800605,-0.2167515,0.2551667
1196.131,-0.1867526,-0.5662325,-0.171992,-0.8744405,-0.2104632,0.2531936
1196.147,-0.1876508,-0.5634621,-0.1684653,-0.8689118,-0.204301,0.2512592
1196.162,-0.1885386,-0.5607243,-0.1649949,-0.863473,-0.1982623,0.2493627
1196.177,-0.1885386,-0.5607243,-0.1649949,-0.863473,-0.1982623,0.2493627
1196.191,-0.189416,-0.5580184,-0.1615795,-0.8581227,-0.1923451,0.2475034
1196.207,-0.1902832,-0.5553444,-0.1582177,-0.8528596,-0.186547,0.2456806
1196.221,-0.1911402,-0.5527017,-0.1549083,-0.8476822,-0.1808658,0.2438935
1196.236,-0.1911402,-0.5527017,-0.1549083,-0.8476822,-0.1808658,0.2438935
1196.25,-0.1919872,-0.55009,-0.15165,-0.8425893,-0.1752994,0.2421415
1196.266,-0.1928243,-0.547509,-0.1484415,-0.8375795,-0.1698455,0.2404238
1196.28,-0.1936516,-0.5449583,-0.1452817,-0.8326516,-0.1645021,0.2387398
1196.295,-0.1936516,-0.5449583,-0.1452817,-0.8326516,-0.1645021,0.2387398
1196.309,-0.1944693,-0.5424376,-0.1421693,-0.8278043,-0.1592671,0.2370888
1196.324,-0.1952774,-0.5399464,-0.1391032,-0.8230362,-0.1541385,0.2354702
1196.34,-0.1952774,-0.5399464,-0.1391032,-0.8230362,-0.1541385,0.2354702
1196.356,-0.196076,-0.5374845,-0.1360823,-0.8183462,-0.1491143,0.2338834
1196.37,-0.1968654,-0.5350515,-0.1331055,-0.813733,-0.1441924,0.2323276
1196.386,-0.1976455,-0.5326472,-0.1301718,-0.8091956,-0.139371,0.2308024
1196.401,-0.1984165,-0.5302711,-0.1272802,-0.8047326,-0.1346481,0.2293071
1196.417,-0.1984165,-0.5302711,-0.1272802,-0.8047326,-0.1346481,0.2293071
1196.431,-0.1991786,-0.527923,-0.1244296,-0.8003428,-0.1300219,0.2278412
1196.447,-0.1999317,-0.5256025,-0.1216192,-0.7960252,-0.1254906,0.2264039
1196.462,-0.2006761,-0.5233094,-0.1188479,-0.7917786,-0.1210523,0.2249949
1196.477,-0.2006761,-0.5233094,-0.1188479,-0.7917786,-0.1210523,0.2249949
1196.491,-0.2014117,-0.5210432,-0.1161148,-0.7876019,-0.1167053,0.2236135
1196.506,-0.2021388,-0.5188037,-0.1134191,-0.7834941,-0.1124478,0.2222592
1196.521,-0.2028574,-0.5165905,-0.1107599,-0.7794539,-0.1082782,0.2209315
1196.536,-0.2028574,-0.5165905,-0.1107599,-0.7794539,-0.1082782,0.2209315
1196.55,-0.2035677,-0.5144035,-0.1081364,-0.7754803,-0.1041947,0.2196297
1196.566,-0.2042696,-0.5122421,-0.1055477,-0.7715724,-0.1001956,0.2183536
1196.581,-0.2049634,-0.5101063,-0.1029931,-0.767729,-0.09627948,0.2171024
1196.596,-0.2049634,-0.5101063,-0.1029931,-0.767729,-0.09627948,0.2171024
1196.612,-0.2056491,-0.5079956,-0.1004717,-0.7639492,-0.09244461,0.2158758
1196.625,-0.2063268,-0.5059098,-0.09798294,-0.7602319,-0.08868948,0.2146733
1196.64,-0.2069966,-0.5038486,-0.09552595,-0.7565761,-0.08501253,0.2134943
1196.655,-0.2069966,-0.5038486,-0.09552595,-0.7565761,-0.08501253,0.2134943
1196.669,-0.2076586,-0.5018117,-0.09310007,-0.7529809,-0.08141226,0.2123385
1196.684,-0.2083129,-0.4997988,-0.09070462,-0.7494453,-0.07788721,0.2112053
1196.699,-0.2083129,-0.4997988,-0.09070462,-0.7494453,-0.07788721,0.2112053
1196.713,-0.2089595,-0.4978097,-0.08833892,-0.7459683,-0.0744359,0.2100944
1196.728,-0.2095987,-0.495844,-0.08600233,-0.7425491,-0.07105694,0.2090052
1196.743,-0.2102304,-0.4939016,-0.08369422,-0.7391867,-0.06774891,0.2079374
1196.758,-0.2102304,-0.4939016,-0.08369422,-0.7391867,-0.06774891,0.2079374
1196.772,-0.2108547,-0.491982,-0.08141398,-0.7358802,-0.06451045,0.2068906
1196.788,-0.2114718,-0.4900851,-0.07916103,-0.7326287,-0.06134021,0.2058643
1196.802,-0.2120817,-0.4882106,-0.07693478,-0.7294313,-0.05823686,0.2048581
1196.818,-0.2120817,-0.4882106,-0.07693478,-0.7294313,-0.05823686,0.2048581
1196.832,-0.2126845,-0.4863583,-0.07473468,-0.7262872,-0.05519911,0.2038716
1196.848,-0.2132803,-0.4845279,-0.07256018,-0.7231955,-0.05222569,0.2029045
1196.862,-0.2138692,-0.482719,-0.07041076,-0.7201554,-0.04931534,0.2019564
1196.877,-0.2138692,-0.482719,-0.07041076,-0.7201554,-0.04931534,0.2019564
1196.891,-0.2144512,-0.4809315,-0.0682859,-0.7171659,-0.04646685,0.2010269
1196.906,-0.2150265,-0.4791652,-0.06618511,-0.7142265,-0.043679,0.2001156
1196.921,-0.215595,-0.4774197,-0.06410791,-0.7113361,-0.04095062,0.1992221
1196.935,-0.215595,-0.4774197,-0.06410791,-0.7113361,-0.04095062,0.1992221
1196.95,-0.216157,-0.4756948,-0.06205383,-0.7084941,-0.03828054,0.1983462
1196.965,-0.2167124,-0.4739904,-0.06002241,-0.7056997,-0.03566763,0.1974875
1196.98,-0.2167124,-0.4739904,-0.06002241,-0.7056997,-0.03566763,0.1974875
1196.994,-0.2172614,-0.4723061,-0.05801321,-0.702952,-0.03311078,0.1966456
1197.009,-0.217804,-0.4706417,-0.05602581,-0.7002504,-0.03060888,0.1958203
1197.024,-0.2183403,-0.468997,-0.0540598,-0.6975942,-0.02816086,0.1950111
1197.039,-0.2183403,-0.468997,-0.0540598,-0.6975942,-0.02816086,0.1950111
