JMolnar6/NonAnthroHands_User_Study/HandsLoggerWithURDF/tempdata/PID 0 (test)/files/Reachy_PID0_JointMotion_gesture_4_19.csv
Time,r_shoulder,r_shoulder_x,r_upper_arm,r_forearm,r_wrist,r_wrist2hand,
225.732,0.04500185,-2.440022E-08,NaN,-0.326999,-1.36786E-07,NaN,0.4708831,6.871458E-09,NaN,-0.5274282,7.250672E-06,-0.3827341,-6.998521E-10,NaN,NaN,-0.01997241,1.396932E-11,1.642426E-07,-1.146052E-07,-2.209689E-09,-2.622604E-08
225.7412,0.04500186,-2.439913E-08,NaN,-0.326999,-1.367854E-07,NaN,0.4710229,6.874933E-09,NaN,-0.5292146,7.251329E-06,-0.3829509,-7.010527E-10,NaN,NaN,-0.01997443,4.656096E-12,1.456162E-07,-1.146043E-07,-2.209689E-09,-2.622604E-08
225.7561,0.04500186,-2.439913E-08,NaN,-0.326999,-1.367854E-07,NaN,0.4710229,6.874933E-09,NaN,-0.5292146,7.251329E-06,-0.3829509,-7.010527E-10,NaN,NaN,-0.01997443,4.656096E-12,1.456162E-07,-1.146043E-07,-2.209689E-09,-2.622604E-08
225.7701,0.04500187,-2.439804E-08,NaN,-0.326999,-1.367848E-07,NaN,0.4711185,6.878436E-09,NaN,-0.5313168,7.251972E-06,-0.3831291,-7.022812E-10,NaN,NaN,-0.0199758,9.312709E-12,1.326522E-07,-1.146034E-07,-1.174643E-08,-2.622604E-08
225.7854,0.04500188,-2.439695E-08,NaN,-0.326999,-1.367842E-07,NaN,0.4711797,6.881968E-09,NaN,-0.5335508,7.252624E-06,-0.3832695,-7.035377E-10,NaN,NaN,-0.0199769,4.656096E-12,1.223704E-07,-1.146024E-07,-6.97806E-09,-2.622604E-08
225.8002,0.04500188,-2.439587E-08,NaN,-0.326999,-1.367836E-07,NaN,0.4710765,6.886938E-09,NaN,-0.5345957,7.253266E-06,-0.3831871,-7.062331E-10,NaN,NaN,-0.01997435,9.312709E-12,1.42934E-07,-1.146015E-07,-6.97806E-09,-2.622604E-08
225.8159,0.04500188,-2.439587E-08,NaN,-0.326999,-1.367836E-07,NaN,0.4710765,6.886938E-09,NaN,-0.5345957,7.253266E-06,-0.3831871,-7.062331E-10,NaN,NaN,-0.01997435,9.312709E-12,1.42934E-07,-1.146015E-07,-6.97806E-09,-2.622604E-08
225.83,0.04500187,-2.439478E-08,NaN,-0.326999,-1.36783E-07,NaN,0.4709754,6.891907E-09,NaN,-0.5349445,7.253918E-06,-0.3830746,-7.089264E-10,NaN,NaN,-0.01997326,4.656096E-12,1.514276E-07,-1.146006E-07,-9.362246E-09,-2.622604E-08
225.8444,0.04500187,-2.439369E-08,NaN,-0.326999,-1.367825E-07,NaN,0.4709127,6.896874E-09,NaN,-0.5349622,7.254561E-06,-0.3829892,-7.11619E-10,NaN,NaN,-0.01997275,9.312709E-12,1.56494E-07,-1.145997E-07,-1.174643E-08,-2.622604E-08
225.8591,0.04500187,-2.439369E-08,NaN,-0.326999,-1.367825E-07,NaN,0.4709127,6.896874E-09,NaN,-0.5349622,7.254561E-06,-0.3829892,-7.11619E-10,NaN,NaN,-0.01997275,9.312709E-12,1.56494E-07,-1.145997E-07,-1.174643E-08,-2.622604E-08
225.873,0.04500186,-2.439261E-08,NaN,-0.326999,-1.367823E-07,NaN,0.4707371,6.980566E-09,NaN,-0.5335901,7.255213E-06,-0.3827378,-7.930403E-10,NaN,NaN,-0.01996899,4.656096E-12,1.873394E-07,-1.145979E-07,-9.362246E-09,-2.622604E-08
225.8883,0.04500185,-2.439152E-08,NaN,-0.326999,-1.367821E-07,NaN,0.4705906,7.051443E-09,NaN,-0.5314467,7.25587E-06,-0.382493,-8.616479E-10,NaN,NaN,-0.01996681,-4.65713E-12,2.059659E-07,-1.14596E-07,-1.174643E-08,-2.622604E-08
225.9032,0.04500183,-2.439043E-08,NaN,-0.326999,-1.367819E-07,NaN,0.4704953,7.116814E-09,NaN,-0.5289572,7.256522E-06,-0.3822981,-9.247493E-10,NaN,NaN,-0.01996529,-9.313742E-12,2.192279E-07,-1.14594E-07,-9.362246E-09,-2.622604E-08
225.9179,0.04500183,-2.439043E-08,NaN,-0.326999,-1.367819E-07,NaN,0.4704953,7.116814E-09,NaN,-0.5289572,7.256522E-06,-0.3822981,-9.247493E-10,NaN,NaN,-0.01996529,-9.313742E-12,2.192279E-07,-1.14594E-07,-9.362246E-09,-2.622604E-08
225.9321,0.04500183,-2.438934E-08,NaN,-0.326999,-1.367816E-07,NaN,0.4704362,7.179597E-09,NaN,-0.5263245,7.257174E-06,-0.3821469,-9.852644E-10,NaN,NaN,-0.01996404,-1.397036E-11,2.298077E-07,-1.145921E-07,-9.362246E-09,-2.622604E-08
225.9476,0.04500181,-2.438826E-08,NaN,-0.326999,-1.367813E-07,NaN,0.4702514,7.239838E-09,NaN,-0.5224127,7.257826E-06,-0.3818281,-1.043238E-09,NaN,NaN,-0.01995932,-1.862697E-11,2.676567E-07,-1.145901E-07,-9.362246E-09,-2.622604E-08
225.9622,0.04500179,-2.438717E-08,NaN,-0.326999,-1.36781E-07,NaN,0.4700853,7.298996E-09,NaN,-0.517803,7.258478E-06,-0.3815119,-1.100129E-09,NaN,NaN,-0.01995619,-2.328358E-11,2.937337E-07,-1.145882E-07,-1.413062E-08,-2.622604E-08
225.9773,0.04500179,-2.438717E-08,NaN,-0.326999,-1.36781E-07,NaN,0.4700853,7.298996E-09,NaN,-0.517803,7.258478E-06,-0.3815119,-1.100129E-09,NaN,NaN,-0.01995619,-2.328358E-11,2.937337E-07,-1.145882E-07,-1.413062E-08,-2.622604E-08
225.991,0.04500178,-2.438608E-08,NaN,-0.326999,-1.367807E-07,NaN,0.4699652,7.35709E-09,NaN,-0.5129022,7.259135E-06,-0.381244,-1.155957E-09,NaN,NaN,-0.01995371,-3.259681E-11,3.135522E-07,-1.145862E-07,-1.413062E-08,-2.622604E-08
226.0066,0.04500177,-2.4385E-08,NaN,-0.326999,-1.367804E-07,NaN,0.4698801,7.414143E-09,NaN,-0.5079042,7.259791E-06,-0.3810205,-1.210743E-09,NaN,NaN,-0.01995151,-4.191003E-11,3.294965E-07,-1.145843E-07,-1.174643E-08,-2.622604E-08
226.0212,0.04500175,-2.438391E-08,NaN,-0.3269989,-1.367801E-07,NaN,0.4696635,7.471585E-09,NaN,-0.5016688,7.260443E-06,-0.3806271,-1.265918E-09,NaN,NaN,-0.01994558,-4.656664E-11,3.756901E-07,-1.145823E-07,-1.413062E-08,-2.622604E-08
226.0361,0.04500175,-2.438391E-08,NaN,-0.3269989,-1.367801E-07,NaN,0.4696635,7.471585E-09,NaN,-0.5016688,7.260443E-06,-0.3806271,-1.265918E-09,NaN,NaN,-0.01994558,-4.656664E-11,3.756901E-07,-1.145823E-07,-1.413062E-08,-2.622604E-08
226.0498,0.04500172,-2.438282E-08,NaN,-0.3269989,-1.367788E-07,NaN,0.4694638,7.559158E-09,NaN,-0.494774,7.261081E-06,-0.380236,-1.351215E-09,NaN,NaN,-0.01994131,-4.656664E-11,4.050454E-07,-1.145806E-07,-1.174643E-08,-2.861022E-08
226.0664,0.0450017,-2.438173E-08,NaN,-0.3269989,-1.367772E-07,NaN,0.4693112,7.60156E-09,NaN,-0.4876254,7.261719E-06,-0.3798952,-1.391335E-09,NaN,NaN,-0.01993771,-5.122325E-11,4.311969E-07,-1.145786E-07,-1.174643E-08,-2.622604E-08
226.0811,0.04500169,-2.438065E-08,NaN,-0.3269989,-1.367754E-07,NaN,0.4691958,7.620761E-09,NaN,-0.4804158,7.262343E-06,-0.3796016,-1.408245E-09,NaN,NaN,-0.01993438,-4.656664E-11,4.536977E-07,-1.145765E-07,-1.174643E-08,-2.861022E-08
226.0948,0.04500169,-2.438065E-08,NaN,-0.3269989,-1.367754E-07,NaN,0.4691958,7.620761E-09,NaN,-0.4804158,7.262343E-06,-0.3796016,-1.408245E-09,NaN,NaN,-0.01993438,-4.656664E-11,4.536977E-07,-1.145765E-07,-1.174643E-08,-2.861022E-08
226.1091,0.04500167,-2.437956E-08,NaN,-0.3269989,-1.367734E-07,NaN,0.4690847,7.627048E-09,NaN,-0.4730918,7.262972E-06,-0.3793184,-1.412236E-09,NaN,NaN,-0.01993065,-4.656664E-11,4.770925E-07,-1.145743E-07,-6.97806E-09,-2.622604E-08
226.1241,0.04500166,-2.437847E-08,NaN,-0.3269989,-1.367714E-07,NaN,0.4689873,7.626304E-09,NaN,-0.4657592,7.263596E-06,-0.3790569,-1.409188E-09,NaN,NaN,-0.01992716,-3.725342E-11,4.991462E-07,-1.14572E-07,-6.97806E-09,-2.861022E-08
226.139,0.04500166,-2.437847E-08,NaN,-0.3269989,-1.367714E-07,NaN,0.4689873,7.626304E-09,NaN,-0.4657592,7.263596E-06,-0.3790569,-1.409188E-09,NaN,NaN,-0.01992716,-3.725342E-11,4.991462E-07,-1.14572E-07,-6.97806E-09,-2.861022E-08
226.1527,0.04500164,-2.437739E-08,NaN,-0.3269989,-1.367693E-07,NaN,0.4689029,7.621473E-09,NaN,-0.4584833,7.26422E-06,-0.3788171,-1.40205E-09,NaN,NaN,-0.01992374,-2.794019E-11,5.185177E-07,-1.145698E-07,-4.593874E-09,-2.622604E-08
226.1684,0.04500163,-2.43763E-08,NaN,-0.3269989,-1.367673E-07,NaN,0.4688282,7.198631E-09,NaN,-0.4512941,7.264848E-06,-0.3785952,-9.768978E-10,NaN,NaN,-0.01992035,-2.328358E-11,5.368461E-07,-1.145673E-07,-2.209688E-09,-2.861022E-08
226.1845,0.04500161,-2.437521E-08,NaN,-0.3269989,-1.367656E-07,NaN,0.4687609,7.279744E-09,NaN,-0.4442053,7.265482E-06,-0.3783876,-1.0557E-09,NaN,NaN,-0.01991695,-2.328358E-11,5.541315E-07,-1.145641E-07,2.558683E-09,-2.622604E-08
226.1981,0.04500161,-2.437521E-08,NaN,-0.3269989,-1.367656E-07,NaN,0.4687609,7.279744E-09,NaN,-0.4442053,7.265482E-06,-0.3783876,-1.0557E-09,NaN,NaN,-0.01991695,-2.328358E-11,5.541315E-07,-1.145641E-07,2.558683E-09,-2.622604E-08
226.2122,0.0450016,-2.437413E-08,NaN,-0.3269989,-1.367638E-07,NaN,0.4686995,7.353755E-09,NaN,-0.4372225,7.266115E-06,-0.3781921,-1.127399E-09,NaN,NaN,-0.01991352,-2.328358E-11,5.714168E-07,-1.145608E-07,-2.209688E-09,-2.861022E-08
226.2275,0.04500159,-2.437304E-08,NaN,-0.3269989,-1.367621E-07,NaN,0.4686435,7.416594E-09,NaN,-0.4303474,7.266749E-06,-0.3780072,-1.187924E-09,NaN,NaN,-0.01991007,-2.328358E-11,5.8751E-07,-1.145575E-07,4.942869E-09,-2.622604E-08
226.2422,0.04500157,-2.437196E-08,NaN,-0.3269989,-1.367603E-07,NaN,0.4685929,7.475505E-09,NaN,-0.4235799,7.267382E-06,-0.3778322,-1.24452E-09,NaN,NaN,-0.01990658,-2.328358E-11,6.033053E-07,-1.145542E-07,4.942869E-09,-2.861022E-08
226.2567,0.04500157,-2.437196E-08,NaN,-0.3269989,-1.367603E-07,NaN,0.4685929,7.475505E-09,NaN,-0.4235799,7.267382E-06,-0.3778322,-1.24452E-09,NaN,NaN,-0.01990658,-2.328358E-11,6.033053E-07,-1.145542E-07,4.942869E-09,-2.861022E-08
226.2707,0.04500156,-2.437087E-08,NaN,-0.3269989,-1.367585E-07,NaN,0.4685477,7.533379E-09,NaN,-0.4169193,7.268015E-06,-0.3776667,-1.300078E-09,NaN,NaN,-0.01990305,-2.328358E-11,6.179084E-07,-1.145509E-07,2.558683E-09,-2.622604E-08
226.2863,0.04500155,-2.436979E-08,NaN,-0.3269989,-1.367567E-07,NaN,0.4685081,7.590234E-09,NaN,-0.4103641,7.268649E-06,-0.3775103,-1.354615E-09,NaN,NaN,-0.01989948,-2.328358E-11,6.323626E-07,-1.145476E-07,1.744973E-10,-2.861022E-08
226.3007,0.04500154,-2.43687E-08,NaN,-0.3269989,-1.367549E-07,NaN,0.4684744,7.646086E-09,NaN,-0.4039129,7.269282E-06,-0.3773628,-1.408149E-09,NaN,NaN,-0.01989588,-2.328358E-11,6.460716E-07,-1.145443E-07,4.942869E-09,-2.622604E-08
226.3154,0.04500154,-2.43687E-08,NaN,-0.3269989,-1.367549E-07,NaN,0.4684744,7.646086E-09,NaN,-0.4039129,7.269282E-06,-0.3773628,-1.408149E-09,NaN,NaN,-0.01989588,-2.328358E-11,6.460716E-07,-1.145443E-07,4.942869E-09,-2.622604E-08
226.3316,0.04500153,-2.436762E-08,NaN,-0.3269989,-1.367531E-07,NaN,0.4684465,7.702369E-09,NaN,-0.3975641,7.269916E-06,-0.3772243,-1.462112E-09,NaN,NaN,-0.01989223,-2.328358E-11,6.593336E-07,-1.14541E-07,1.744973E-10,-2.861022E-08
226.3449,0.04500151,-2.436653E-08,NaN,-0.3269989,-1.367513E-07,NaN,0.4684246,7.759069E-09,NaN,-0.3913162,7.270549E-06,-0.3770944,-1.516493E-09,NaN,NaN,-0.01988853,-2.328358E-11,6.722976E-07,-1.145377E-07,-2.209688E-09,-2.622604E-08
226.3595,0.04500151,-2.436653E-08,NaN,-0.3269989,-1.367513E-07,NaN,0.4684246,7.759069E-09,NaN,-0.3913162,7.270549E-06,-0.3770944,-1.516493E-09,NaN,NaN,-0.01988853,-2.328358E-11,6.722976E-07,-1.145377E-07,-2.209688E-09,-2.622604E-08
226.3737,0.0450015,-2.436545E-08,NaN,-0.3269989,-1.367495E-07,NaN,0.4684089,7.816181E-09,NaN,-0.3851674,7.271183E-06,-0.3769733,-1.571286E-09,NaN,NaN,-0.01988479,-2.328358E-11,6.852616E-07,-1.145344E-07,-9.362246E-09,-2.861022E-08
226.389,0.04500149,-2.436436E-08,NaN,-0.3269989,-1.367477E-07,NaN,0.4683993,7.882162E-09,NaN,-0.3791164,7.271821E-06,-0.3768606,-1.634947E-09,NaN,NaN,-0.019881,-2.794019E-11,6.976296E-07,-1.145311E-07,-1.65148E-08,-2.622604E-08
226.4037,0.04500148,-2.436328E-08,NaN,-0.3269989,-1.367459E-07,NaN,0.4683959,7.948373E-09,NaN,-0.3731614,7.272463E-06,-0.3767565,-1.698837E-09,NaN,NaN,-0.01987716,-3.725342E-11,7.083585E-07,-1.145279E-07,-1.413062E-08,-2.861022E-08
226.4184,0.04500148,-2.436328E-08,NaN,-0.3269989,-1.367459E-07,NaN,0.4683959,7.948373E-09,NaN,-0.3731614,7.272463E-06,-0.3767565,-1.698837E-09,NaN,NaN,-0.01987716,-3.725342E-11,7.083585E-07,-1.145279E-07,-1.413062E-08,-2.861022E-08
226.4326,0.04500147,-2.43622E-08,NaN,-0.3269989,-1.367441E-07,NaN,0.4683987,8.014807E-09,NaN,-0.3673011,7.273106E-06,-0.3766608,-1.762952E-09,NaN,NaN,-0.01987326,-4.656664E-11,7.190873E-07,-1.145246E-07,-1.413062E-08,-2.622604E-08
226.4481,0.04500146,-2.436111E-08,NaN,-0.3269989,-1.367423E-07,NaN,0.4684077,8.081463E-09,NaN,-0.3615338,7.273748E-06,-0.3765733,-1.827287E-09,NaN,NaN,-0.01986931,-5.587986E-11,7.299652E-07,-1.145214E-07,-1.65148E-08,-2.861022E-08
226.4631,0.04500145,-2.436003E-08,NaN,-0.3269989,-1.367406E-07,NaN,0.4684229,8.148334E-09,NaN,-0.3558582,7.274391E-06,-0.3764941,-1.891838E-09,NaN,NaN,-0.0198653,-6.519309E-11,7.395019E-07,-1.145182E-07,-1.65148E-08,-2.622604E-08
226.4778,0.04500145,-2.436003E-08,NaN,-0.3269989,-1.367406E-07,NaN,0.4684229,8.148334E-09,NaN,-0.3558582,7.274391E-06,-0.3764941,-1.891838E-09,NaN,NaN,-0.0198653,-6.519309E-11,7.395019E-07,-1.145182E-07,-1.65148E-08,-2.622604E-08
226.4916,0.04500144,-2.435895E-08,NaN,-0.3269989,-1.367388E-07,NaN,0.4684443,8.215418E-09,NaN,-0.3502727,7.275034E-06,-0.3764229,-1.956602E-09,NaN,NaN,-0.01986123,-7.450631E-11,7.490386E-07,-1.145149E-07,-1.65148E-08,-2.861022E-08
226.5071,0.04500142,-2.435786E-08,NaN,-0.3269989,-1.36737E-07,NaN,0.4684719,8.282711E-09,NaN,-0.344776,7.275676E-06,-0.3763598,-2.021575E-09,NaN,NaN,-0.0198571,-8.381953E-11,7.576813E-07,-1.145117E-07,-1.65148E-08,-2.622604E-08
226.5218,0.04500141,-2.435678E-08,NaN,-0.3269989,-1.367353E-07,NaN,0.4685057,8.350207E-09,NaN,-0.3393666,7.276319E-06,-0.3763047,-2.08675E-09,NaN,NaN,-0.01985291,-9.313276E-11,7.649829E-07,-1.145086E-07,-1.413062E-08,-2.861022E-08
226.5366,0.04500141,-2.435678E-08,NaN,-0.3269989,-1.367353E-07,NaN,0.4685057,8.350207E-09,NaN,-0.3393666,7.276319E-06,-0.3763047,-2.08675E-09,NaN,NaN,-0.01985291,-9.313276E-11,7.649829E-07,-1.145086E-07,-1.413062E-08,-2.861022E-08
226.5504,0.0450014,-2.43557E-08,NaN,-0.3269989,-1.367335E-07,NaN,0.4685457,8.417902E-09,NaN,-0.3340432,7.276961E-06,-0.3762574,-2.152125E-09,NaN,NaN,-0.01984866,-1.02446E-10,7.733276E-07,-1.145054E-07,-1.889899E-08,-2.622604E-08
226.5659,0.04500139,-2.435462E-08,NaN,-0.3269989,-1.367318E-07,NaN,0.4685919,8.485793E-09,NaN,-0.3288043,7.277604E-06,-0.376218,-2.217695E-09,NaN,NaN,-0.01984433,-1.117592E-10,7.803312E-07,-1.145022E-07,-1.889899E-08,-2.861022E-08
226.5818,0.04500138,-2.435353E-08,NaN,-0.3269989,-1.3673E-07,NaN,0.4686443,8.553876E-09,NaN,-0.3236487,7.278246E-06,-0.3761863,-2.283457E-09,NaN,NaN,-0.01983995,-1.210724E-10,7.870367E-07,-1.14499E-07,-1.889899E-08,-2.622604E-08
226.5953,0.04500138,-2.435353E-08,NaN,-0.3269989,-1.3673E-07,NaN,0.4686443,8.553876E-09,NaN,-0.3236487,7.278246E-06,-0.3761863,-2.283457E-09,NaN,NaN,-0.01983995,-1.210724E-10,7.870367E-07,-1.14499E-07,-1.889899E-08,-2.622604E-08
226.6096,0.04500137,-2.435245E-08,NaN,-0.3269989,-1.367283E-07,NaN,0.4687028,8.622148E-09,NaN,-0.318575,7.278889E-06,-0.3761622,-2.349409E-09,NaN,NaN,-0.01983549,-1.303857E-10,7.932952E-07,-1.144959E-07,-2.605155E-08,-2.861022E-08
226.6247,0.04500136,-2.435137E-08,NaN,-0.3269989,-1.367266E-07,NaN,0.4687674,8.690605E-09,NaN,-0.3135819,7.279522E-06,-0.3761457,-2.415544E-09,NaN,NaN,-0.01983095,-1.303857E-10,8.001497E-07,-1.144928E-07,-3.081992E-08,-2.622604E-08
226.6398,0.04500136,-2.435137E-08,NaN,-0.3269989,-1.367266E-07,NaN,0.4687674,8.690605E-09,NaN,-0.3135819,7.279522E-06,-0.3761457,-2.415544E-09,NaN,NaN,-0.01983095,-1.303857E-10,8.001497E-07,-1.144928E-07,-3.081992E-08,-2.622604E-08
226.6546,0.04500135,-2.435029E-08,NaN,-0.3269989,-1.367249E-07,NaN,0.4688382,8.759242E-09,NaN,-0.3086682,7.280165E-06,-0.3761367,-2.481861E-09,NaN,NaN,-0.01982634,-1.396989E-10,8.056631E-07,-1.144896E-07,-3.558829E-08,-2.861022E-08
226.6688,0.04500134,-2.434921E-08,NaN,-0.3269989,-1.367231E-07,NaN,0.4689151,8.828057E-09,NaN,-0.3038325,7.280798E-06,-0.3761352,-2.548354E-09,NaN,NaN,-0.01982166,-1.396989E-10,8.105805E-07,-1.144865E-07,-3.797248E-08,-2.622604E-08
226.6835,0.04500132,-2.434813E-08,NaN,-0.3269989,-1.367214E-07,NaN,0.4689981,8.897045E-09,NaN,-0.2990737,7.281441E-06,-0.376141,-2.615021E-09,NaN,NaN,-0.01981689,-1.490121E-10,8.156469E-07,-1.144834E-07,-2.843573E-08,-2.861022E-08
226.6983,0.04500132,-2.434813E-08,NaN,-0.3269989,-1.367214E-07,NaN,0.4689981,8.897045E-09,NaN,-0.2990737,7.281441E-06,-0.376141,-2.615021E-09,NaN,NaN,-0.01981689,-1.490121E-10,8.156469E-07,-1.144834E-07,-2.843573E-08,-2.861022E-08
226.7124,0.04500131,-2.434704E-08,NaN,-0.3269989,-1.367197E-07,NaN,0.4690873,8.966204E-09,NaN,-0.2943905,7.282084E-06,-0.3761542,-2.681859E-09,NaN,NaN,-0.01981204,-1.583254E-10,8.213094E-07,-1.144803E-07,-2.605155E-08,-2.622604E-08
226.728,0.0450013,-2.434596E-08,NaN,-0.3269989,-1.36718E-07,NaN,0.4691825,9.035506E-09,NaN,-0.2897817,7.282726E-06,-0.3761746,-2.748839E-09,NaN,NaN,-0.01980711,-1.676386E-10,8.254817E-07,-1.144772E-07,-2.366736E-08,-2.861022E-08
226.743,0.04500129,-2.434488E-08,NaN,-0.3269989,-1.367163E-07,NaN,0.4692838,9.105601E-09,NaN,-0.2852462,7.283355E-06,-0.3762023,-2.816612E-09,NaN,NaN,-0.01980209,-1.62982E-10,8.29654E-07,-1.144742E-07,-2.128318E-08,-2.622604E-08
226.7574,0.04500129,-2.434488E-08,NaN,-0.3269989,-1.367163E-07,NaN,0.4692838,9.105601E-09,NaN,-0.2852462,7.283355E-06,-0.3762023,-2.816612E-09,NaN,NaN,-0.01980209,-1.62982E-10,8.29654E-07,-1.144742E-07,-2.128318E-08,-2.622604E-08
226.7713,0.04500128,-2.43438E-08,NaN,-0.3269989,-1.367146E-07,NaN,0.4693911,9.175846E-09,NaN,-0.2807827,7.283993E-06,-0.376237,-2.884535E-09,NaN,NaN,-0.01979698,-1.62982E-10,8.329322E-07,-1.144711E-07,-1.651481E-08,-2.861022E-08
226.7867,0.04500127,-2.434272E-08,NaN,-0.3269989,-1.367129E-07,NaN,0.4695046,9.246237E-09,NaN,-0.2763902,7.284626E-06,-0.3762788,-2.952603E-09,NaN,NaN,-0.01979178,-1.583254E-10,8.357634E-07,-1.144681E-07,-1.889899E-08,-2.622604E-08
226.8016,0.04500126,-2.434164E-08,NaN,-0.3269989,-1.367112E-07,NaN,0.469624,9.31677E-09,NaN,-0.2720674,7.285264E-06,-0.3763276,-3.020814E-09,NaN,NaN,-0.01978649,-1.583254E-10,8.402338E-07,-1.14465E-07,-1.651481E-08,-2.861022E-08
226.816,0.04500126,-2.434164E-08,NaN,-0.3269989,-1.367112E-07,NaN,0.469624,9.31677E-09,NaN,-0.2720674,7.285264E-06,-0.3763276,-3.020814E-09,NaN,NaN,-0.01978649,-1.583254E-10,8.402338E-07,-1.14465E-07,-1.651481E-08,-2.861022E-08
226.8322,0.04500125,-2.434056E-08,NaN,-0.3269989,-1.367095E-07,NaN,0.4697495,9.387445E-09,NaN,-0.2678134,7.285897E-06,-0.3763834,-3.089165E-09,NaN,NaN,-0.0197811,-1.536688E-10,8.418729E-07,-1.14462E-07,-1.413062E-08,-2.622604E-08
226.8467,0.04500123,-2.433948E-08,NaN,-0.3269989,-1.367079E-07,NaN,0.469881,9.458256E-09,NaN,-0.263627,7.286545E-06,-0.3764461,-3.157652E-09,NaN,NaN,-0.01977562,-1.62982E-10,8.441081E-07,-1.14459E-07,-1.651481E-08,-2.861022E-08
226.8602,0.04500122,-2.43384E-08,NaN,-0.3269989,-1.367062E-07,NaN,0.4700184,9.529205E-09,NaN,-0.2595071,7.287178E-06,-0.3765157,-3.226277E-09,NaN,NaN,-0.01977003,-1.583254E-10,8.473864E-07,-1.14456E-07,-1.651481E-08,-2.622604E-08
226.8748,0.04500122,-2.43384E-08,NaN,-0.3269989,-1.367062E-07,NaN,0.4700184,9.529205E-09,NaN,-0.2595071,7.287178E-06,-0.3765157,-3.226277E-09,NaN,NaN,-0.01977003,-1.583254E-10,8.473864E-07,-1.14456E-07,-1.651481E-08,-2.622604E-08
226.8887,0.04500121,-2.433732E-08,NaN,-0.3269989,-1.367045E-07,NaN,0.4701619,9.600285E-09,NaN,-0.2554526,7.287825E-06,-0.376592,-3.295034E-09,NaN,NaN,-0.01976434,-1.676386E-10,8.494725E-07,-1.14453E-07,-2.128318E-08,-2.861022E-08
226.9042,0.04500121,-2.433624E-08,NaN,-0.3269989,-1.367029E-07,NaN,0.4703113,9.671496E-09,NaN,-0.2514627,7.288459E-06,-0.3766751,-3.363921E-09,NaN,NaN,-0.01975854,-1.62982E-10,8.524528E-07,-1.1445E-07,-1.174643E-08,-2.622604E-08
226.9189,0.04500121,-2.433624E-08,NaN,-0.3269989,-1.367029E-07,NaN,0.4703113,9.671496E-09,NaN,-0.2514627,7.288459E-06,-0.3766751,-3.363921E-09,NaN,NaN,-0.01975854,-1.62982E-10,8.524528E-07,-1.1445E-07,-1.174643E-08,-2.622604E-08
226.9331,0.0450012,-2.433516E-08,NaN,-0.3269989,-1.367012E-07,NaN,0.4704667,9.742831E-09,NaN,-0.2475361,7.289092E-06,-0.3767649,-3.432933E-09,NaN,NaN,-0.01975263,-1.583254E-10,8.536449E-07,-1.14447E-07,-6.978063E-09,-2.861022E-08
226.9486,0.04500119,-2.433408E-08,NaN,-0.3269989,-1.366996E-07,NaN,0.4706281,9.81429E-09,NaN,-0.243672,7.289735E-06,-0.3768613,-3.50207E-09,NaN,NaN,-0.01974661,-1.62982E-10,8.539429E-07,-1.14444E-07,-2.209692E-09,-2.622604E-08
226.9634,0.04500118,-2.4333E-08,NaN,-0.3269989,-1.366979E-07,NaN,0.4707953,9.885871E-09,NaN,-0.2398692,7.290373E-06,-0.3769644,-3.571327E-09,NaN,NaN,-0.01974048,-1.62982E-10,8.551351E-07,-1.144411E-07,2.558679E-09,-2.861022E-08
226.9784,0.04500118,-2.4333E-08,NaN,-0.3269989,-1.366979E-07,NaN,0.4707953,9.885871E-09,NaN,-0.2398692,7.290373E-06,-0.3769644,-3.571327E-09,NaN,NaN,-0.01974048,-1.62982E-10,8.551351E-07,-1.144411E-07,2.558679E-09,-2.861022E-08
226.9923,0.04500118,-2.433192E-08,NaN,-0.3269989,-1.366963E-07,NaN,0.4709685,9.957573E-09,NaN,-0.2361269,7.291011E-06,-0.3770739,-3.640707E-09,NaN,NaN,-0.01973423,-1.62982E-10,8.554331E-07,-1.144382E-07,4.942865E-09,-2.622604E-08
227.0078,0.04500117,-2.433084E-08,NaN,-0.3269989,-1.366946E-07,NaN,0.4711475,1.002939E-08,NaN,-0.2324441,7.291649E-06,-0.37719,-3.710203E-09,NaN,NaN,-0.01972786,-1.62982E-10,8.563272E-07,-1.144352E-07,7.327051E-09,-2.861022E-08
227.0223,0.04500116,-2.432976E-08,NaN,-0.3269989,-1.36693E-07,NaN,0.4713324,1.009992E-08,NaN,-0.2288198,7.292287E-06,-0.3773125,-3.778403E-09,NaN,NaN,-0.01972136,-1.62982E-10,8.566252E-07,-1.144323E-07,7.327051E-09,-2.622604E-08
227.0372,0.04500116,-2.432976E-08,NaN,-0.3269989,-1.36693E-07,NaN,0.4713324,1.009992E-08,NaN,-0.2288198,7.292287E-06,-0.3773125,-3.778403E-09,NaN,NaN,-0.01972136,-1.62982E-10,8.566252E-07,-1.144323E-07,7.327051E-09,-2.622604E-08
227.0513,0.04500115,-2.432868E-08,NaN,-0.3269989,-1.366914E-07,NaN,0.4715232,1.017058E-08,NaN,-0.2252532,7.292934E-06,-0.3774413,-3.846742E-09,NaN,NaN,-0.01971474,-1.722952E-10,8.572213E-07,-1.144294E-07,1.209542E-08,-2.861022E-08
227.0666,0.04500115,-2.43276E-08,NaN,-0.3269989,-1.366898E-07,NaN,0.4717197,1.024138E-08,NaN,-0.2217432,7.293567E-06,-0.3775766,-3.91522E-09,NaN,NaN,-0.019708,-1.676386E-10,8.575193E-07,-1.144265E-07,1.447961E-08,-2.622604E-08
227.0813,0.04500114,-2.432652E-08,NaN,-0.3269989,-1.366881E-07,NaN,0.4719221,1.03109E-08,NaN,-0.2182891,7.29421E-06,-0.3777181,-3.982419E-09,NaN,NaN,-0.01970112,-1.722952E-10,8.563272E-07,-1.144236E-07,1.686379E-08,-2.861022E-08
227.097,0.04500114,-2.432652E-08,NaN,-0.3269989,-1.366881E-07,NaN,0.4719221,1.03109E-08,NaN,-0.2182891,7.29421E-06,-0.3777181,-3.982419E-09,NaN,NaN,-0.01970112,-1.722952E-10,8.563272E-07,-1.144236E-07,1.686379E-08,-2.861022E-08
227.1112,0.04500113,-2.432544E-08,NaN,-0.3269989,-1.366865E-07,NaN,0.4721303,1.038059E-08,NaN,-0.2148898,7.294843E-06,-0.3778659,-4.04978E-09,NaN,NaN,-0.01969411,-1.676386E-10,8.560291E-07,-1.144207E-07,1.209542E-08,-2.622604E-08
227.1269,0.04500112,-2.432436E-08,NaN,-0.3269989,-1.366849E-07,NaN,0.4723442,1.045043E-08,NaN,-0.2115446,7.295486E-06,-0.3780198,-4.117297E-09,NaN,NaN,-0.01968696,-1.722952E-10,8.563272E-07,-1.144178E-07,2.558679E-09,-2.861022E-08
227.1401,0.04500112,-2.432328E-08,NaN,-0.3269989,-1.366833E-07,NaN,0.4725638,1.052043E-08,NaN,-0.2082525,7.296119E-06,-0.37818,-4.184968E-09,NaN,NaN,-0.01967967,-1.676386E-10,8.554331E-07,-1.14415E-07,2.558679E-09,-2.622604E-08
227.1546,0.04500112,-2.432328E-08,NaN,-0.3269989,-1.366833E-07,NaN,0.4725638,1.052043E-08,NaN,-0.2082525,7.296119E-06,-0.37818,-4.184968E-09,NaN,NaN,-0.01967967,-1.676386E-10,8.554331E-07,-1.14415E-07,2.558679E-09,-2.622604E-08
227.1689,0.04500111,-2.43222E-08,NaN,-0.3269989,-1.366817E-07,NaN,0.4727891,1.059057E-08,NaN,-0.2050128,7.296762E-06,-0.3783462,-4.25279E-09,NaN,NaN,-0.01967224,-1.722952E-10,8.54837E-07,-1.144121E-07,2.558679E-09,-2.861022E-08
227.1843,0.0450011,-2.432112E-08,NaN,-0.3269989,-1.366801E-07,NaN,0.4730201,1.066087E-08,NaN,-0.2018247,7.297395E-06,-0.3785184,-4.320761E-09,NaN,NaN,-0.01966466,-1.676386E-10,8.54837E-07,-1.144093E-07,2.558679E-09,-2.622604E-08
227.1992,0.0450011,-2.432112E-08,NaN,-0.3269989,-1.366801E-07,NaN,0.4730201,1.066087E-08,NaN,-0.2018247,7.297395E-06,-0.3785184,-4.320761E-09,NaN,NaN,-0.01966466,-1.676386E-10,8.54837E-07,-1.144093E-07,2.558679E-09,-2.622604E-08
227.2134,0.04500109,-2.432004E-08,NaN,-0.3269989,-1.366785E-07,NaN,0.4732567,1.073131E-08,NaN,-0.1986871,7.298038E-06,-0.3786966,-4.388876E-09,NaN,NaN,-0.01965693,-1.722952E-10,8.54241E-07,-1.144064E-07,4.942865E-09,-2.861022E-08
227.229,0.04500109,-2.431896E-08,NaN,-0.3269989,-1.36677E-07,NaN,0.4734989,1.083598E-08,NaN,-0.1955995,7.298666E-06,-0.3788808,-4.491223E-09,NaN,NaN,-0.01964905,-1.583254E-10,8.524528E-07,-1.144069E-07,2.558679E-09,-2.622604E-08
227.2438,0.04500108,-2.431788E-08,NaN,-0.3269989,-1.366763E-07,NaN,0.4737467,1.105822E-08,NaN,-0.192561,7.299309E-06,-0.3790708,-4.711152E-09,NaN,NaN,-0.01964102,-1.536688E-10,8.503667E-07,-1.144081E-07,1.744938E-10,-2.861022E-08
227.2582,0.04500108,-2.431788E-08,NaN,-0.3269989,-1.366763E-07,NaN,0.4737467,1.105822E-08,NaN,-0.192561,7.299309E-06,-0.3790708,-4.711152E-09,NaN,NaN,-0.01964102,-1.536688E-10,8.503667E-07,-1.144081E-07,1.744938E-10,-2.861022E-08
227.2726,0.04500107,-2.43168E-08,NaN,-0.3269989,-1.366762E-07,NaN,0.474,1.133669E-08,NaN,-0.1895708,7.299947E-06,-0.3792667,-4.987308E-09,NaN,NaN,-0.01963283,-1.443556E-10,8.488766E-07,-1.144096E-07,1.744938E-10,-2.622604E-08
227.2878,0.04500106,-2.431573E-08,NaN,-0.3269989,-1.366764E-07,NaN,0.4742588,1.164496E-08,NaN,-0.1866281,7.300585E-06,-0.3794683,-5.293287E-09,NaN,NaN,-0.01962447,-1.350423E-10,8.473865E-07,-1.144114E-07,1.744938E-10,-2.861022E-08
227.3026,0.04500106,-2.431465E-08,NaN,-0.3269989,-1.366767E-07,NaN,0.4745231,1.1967E-08,NaN,-0.1837322,7.301232E-06,-0.3796756,-5.61304E-09,NaN,NaN,-0.01961595,-1.350423E-10,8.453003E-07,-1.144133E-07,2.558679E-09,-2.622604E-08
227.3172,0.04500106,-2.431465E-08,NaN,-0.3269989,-1.366767E-07,NaN,0.4745231,1.1967E-08,NaN,-0.1837322,7.301232E-06,-0.3796756,-5.61304E-09,NaN,NaN,-0.01961595,-1.350423E-10,8.453003E-07,-1.144133E-07,2.558679E-09,-2.622604E-08
227.3333,0.04500105,-2.431357E-08,NaN,-0.3269989,-1.366772E-07,NaN,0.4747927,1.22941E-08,NaN,-0.1808824,7.301875E-06,-0.3798886,-5.93786E-09,NaN,NaN,-0.01960727,-1.257291E-10,8.432142E-07,-1.144153E-07,7.327051E-09,-2.861022E-08
227.3478,0.04500104,-2.431249E-08,NaN,-0.3269989,-1.366778E-07,NaN,0.4750676,1.262053E-08,NaN,-0.1780778,7.302531E-06,-0.3801071,-6.262022E-09,NaN,NaN,-0.01959841,-1.257291E-10,8.420221E-07,-1.144173E-07,2.558679E-09,-2.622604E-08
227.3616,0.04500103,-2.431142E-08,NaN,-0.3269989,-1.366784E-07,NaN,0.4753479,1.29435E-08,NaN,-0.1753179,7.303178E-06,-0.3803311,-6.582729E-09,NaN,NaN,-0.01958938,-1.164159E-10,8.396379E-07,-1.144194E-07,4.942865E-09,-2.861022E-08
227.3763,0.04500103,-2.431142E-08,NaN,-0.3269989,-1.366784E-07,NaN,0.4753479,1.29435E-08,NaN,-0.1753179,7.303178E-06,-0.3803311,-6.582729E-09,NaN,NaN,-0.01958938,-1.164159E-10,8.396379E-07,-1.144194E-07,4.942865E-09,-2.861022E-08
227.3901,0.04500103,-2.431034E-08,NaN,-0.3269989,-1.36679E-07,NaN,0.4756335,1.326168E-08,NaN,-0.1726019,7.30383E-06,-0.3805606,-6.898644E-09,NaN,NaN,-0.01958017,-1.117592E-10,8.366576E-07,-1.144214E-07,1.744938E-10,-2.622604E-08
227.4056,0.04500102,-2.430926E-08,NaN,-0.3269989,-1.366796E-07,NaN,0.4759242,1.357516E-08,NaN,-0.1699291,7.304483E-06,-0.3807955,-7.209867E-09,NaN,NaN,-0.01957079,-1.071026E-10,8.345715E-07,-1.144234E-07,-2.209692E-09,-2.861022E-08
227.4202,0.04500101,-2.430819E-08,NaN,-0.3269989,-1.366802E-07,NaN,0.4762201,1.388263E-08,NaN,-0.1672987,7.305135E-06,-0.3810357,-7.515082E-09,NaN,NaN,-0.01956122,-1.02446E-10,8.327834E-07,-1.144255E-07,2.558679E-09,-2.622604E-08
227.4351,0.04500101,-2.430819E-08,NaN,-0.3269989,-1.366802E-07,NaN,0.4762201,1.388263E-08,NaN,-0.1672987,7.305135E-06,-0.3810357,-7.515082E-09,NaN,NaN,-0.01956122,-1.02446E-10,8.327834E-07,-1.144255E-07,2.558679E-09,-2.622604E-08
227.4492,0.045001,-2.430711E-08,NaN,-0.3269989,-1.366808E-07,NaN,0.476521,1.41842E-08,NaN,-0.1647102,7.305787E-06,-0.3812811,-7.814403E-09,NaN,NaN,-0.01955147,-9.77894E-11,8.298031E-07,-1.144275E-07,1.744938E-10,-2.861022E-08
227.4647,0.045001,-2.430603E-08,NaN,-0.3269989,-1.366815E-07,NaN,0.476827,1.447859E-08,NaN,-0.1621629,7.306439E-06,-0.3815317,-8.106538E-09,NaN,NaN,-0.01954152,-9.313279E-11,8.265249E-07,-1.144295E-07,2.558679E-09,-2.622604E-08
227.4798,0.045001,-2.430603E-08,NaN,-0.3269989,-1.366815E-07,NaN,0.476827,1.447859E-08,NaN,-0.1621629,7.306439E-06,-0.3815317,-8.106538E-09,NaN,NaN,-0.01954152,-9.313279E-11,8.265249E-07,-1.144295E-07,2.558679E-09,-2.622604E-08
227.4937,0.04500099,-2.430496E-08,NaN,-0.3269989,-1.366821E-07,NaN,0.4771379,1.476734E-08,NaN,-0.1596561,7.307091E-06,-0.3817873,-8.39304E-09,NaN,NaN,-0.01953138,-8.847617E-11,8.241407E-07,-1.144316E-07,9.711236E-09,-2.861022E-08
227.5091,0.04500098,-2.430388E-08,NaN,-0.3269989,-1.366827E-07,NaN,0.4774537,1.504916E-08,NaN,-0.1571891,7.307743E-06,-0.3820479,-8.672607E-09,NaN,NaN,-0.01952104,-8.381956E-11,8.211604E-07,-1.144336E-07,4.942865E-09,-2.622604E-08
227.5236,0.04500097,-2.43028E-08,NaN,-0.3269989,-1.366834E-07,NaN,0.4777743,1.532418E-08,NaN,-0.1547614,7.308395E-06,-0.3823135,-8.945376E-09,NaN,NaN,-0.01951052,-7.450633E-11,8.190743E-07,-1.144356E-07,9.711236E-09,-2.861022E-08
227.5384,0.04500097,-2.43028E-08,NaN,-0.3269989,-1.366834E-07,NaN,0.4777743,1.532418E-08,NaN,-0.1547614,7.308395E-06,-0.3823135,-8.945376E-09,NaN,NaN,-0.01951052,-7.450633E-11,8.190743E-07,-1.144356E-07,9.711236E-09,-2.861022E-08
227.5524,0.04500097,-2.430173E-08,NaN,-0.3269989,-1.36684E-07,NaN,0.4780996,1.559253E-08,NaN,-0.1523724,7.309047E-06,-0.3825839,-9.21148E-09,NaN,NaN,-0.01949979,-6.519311E-11,8.15796E-07,-1.144376E-07,7.327051E-09,-2.622604E-08
227.5679,0.04500096,-2.430065E-08,NaN,-0.3269989,-1.366846E-07,NaN,0.4784957,1.585435E-08,NaN,-0.1501642,7.309699E-06,-0.3829274,-9.47105E-09,NaN,NaN,-0.01949378,-5.587988E-11,8.095375E-07,-1.144396E-07,1.209542E-08,-2.861022E-08
227.5845,0.04500095,-2.429957E-08,NaN,-0.3269989,-1.366852E-07,NaN,0.4788967,1.611117E-08,NaN,-0.1480775,7.310356E-06,-0.3832774,-9.725626E-09,NaN,NaN,-0.0194856,-5.122327E-11,8.041731E-07,-1.144416E-07,9.711236E-09,-2.622604E-08
227.5996,0.04500095,-2.429957E-08,NaN,-0.3269989,-1.366852E-07,NaN,0.4788967,1.611117E-08,NaN,-0.1480775,7.310356E-06,-0.3832774,-9.725626E-09,NaN,NaN,-0.0194856,-5.122327E-11,8.041731E-07,-1.144416E-07,9.711236E-09,-2.622604E-08
227.6124,0.04500094,-2.429849E-08,NaN,-0.3269989,-1.366859E-07,NaN,0.47929,1.636169E-08,NaN,-0.1460648,7.311013E-06,-0.3836203,-9.973894E-09,NaN,NaN,-0.0194764,-4.656666E-11,8.002988E-07,-1.144436E-07,2.558679E-09,-2.861022E-08
227.6269,0.04500094,-2.429742E-08,NaN,-0.3269989,-1.366865E-07,NaN,0.4796765,1.660743E-08,NaN,-0.1441036,7.311669E-06,-0.3839566,-1.021739E-08,NaN,NaN,-0.01946667,-4.191005E-11,7.961265E-07,-1.144455E-07,1.744933E-10,-2.622604E-08
227.6415,0.04500094,-2.429634E-08,NaN,-0.3269989,-1.366871E-07,NaN,0.480657,1.684708E-08,NaN,-0.1433958,7.312326E-06,-0.3849061,-1.04548E-08,NaN,NaN,-0.01950303,-3.725344E-11,7.615558E-07,-1.144475E-07,-4.593878E-09,-2.861022E-08
227.6561,0.04500094,-2.429634E-08,NaN,-0.3269989,-1.366871E-07,NaN,0.480657,1.684708E-08,NaN,-0.1433958,7.312326E-06,-0.3849061,-1.04548E-08,NaN,NaN,-0.01950303,-3.725344E-11,7.615558E-07,-1.144475E-07,-4.593878E-09,-2.861022E-08
227.6703,0.04500094,-2.429526E-08,NaN,-0.3269989,-1.366877E-07,NaN,0.4816232,1.708077E-08,NaN,-0.1434396,7.312983E-06,-0.3858533,-1.068623E-08,NaN,NaN,-0.01952026,-3.259682E-11,7.418863E-07,-1.144495E-07,-1.413062E-08,-2.622604E-08
227.6857,0.04500095,-2.429418E-08,NaN,-0.3269989,-1.366884E-07,NaN,0.4824728,1.731001E-08,NaN,-0.1438328,7.313639E-06,-0.3866886,-1.091323E-08,NaN,NaN,-0.01952934,-2.32836E-11,7.254951E-07,-1.144514E-07,-1.413062E-08,-2.861022E-08
227.7005,0.04500095,-2.42931E-08,NaN,-0.3269989,-1.36689E-07,NaN,0.483221,1.753348E-08,NaN,-0.1443859,7.314296E-06,-0.3874233,-1.113446E-08,NaN,NaN,-0.01953489,-1.397037E-11,7.12382E-07,-1.144534E-07,-2.128318E-08,-2.622604E-08
227.7155,0.04500095,-2.42931E-08,NaN,-0.3269989,-1.36689E-07,NaN,0.483221,1.753348E-08,NaN,-0.1443859,7.314296E-06,-0.3874233,-1.113446E-08,NaN,NaN,-0.01953489,-1.397037E-11,7.12382E-07,-1.144534E-07,-2.128318E-08,-2.622604E-08
227.7295,0.04500096,-2.429202E-08,NaN,-0.3269989,-1.366896E-07,NaN,0.4845013,1.77513E-08,NaN,-0.1462225,7.314953E-06,-0.3887087,-1.135003E-08,NaN,NaN,-0.01958585,-4.657148E-12,6.706588E-07,-1.144553E-07,-2.128318E-08,-2.861022E-08
227.7452,0.04500097,-2.429095E-08,NaN,-0.3269989,-1.366902E-07,NaN,0.4857037,1.796499E-08,NaN,-0.1488044,7.315609E-06,-0.3899276,-1.156148E-08,NaN,NaN,-0.01961604,4.656078E-12,6.408565E-07,-1.144572E-07,-1.889899E-08,-2.622604E-08
