JMolnar6/NonAnthroHands_User_Study/HandsLoggerWithURDF/tempdata/PID 0 (test)/files/Reachy_PID0_JointMotion_gesture_7_1.csv
Time,r_shoulder,r_shoulder_x,r_upper_arm,r_forearm,r_wrist,r_wrist2hand,
500.1899,-0.1173973,-0.327261,0.4648829,-2.141904,-0.3570482,-0.01919065
500.205,-0.11753,-0.3272596,0.464894,-2.141986,-0.3570675,-0.01920666
500.2197,-0.11753,-0.3272596,0.464894,-2.141986,-0.3570675,-0.01920666
500.2336,-0.1176611,-0.3272581,0.4649049,-2.142068,-0.3570863,-0.01922235
500.249,-0.1177908,-0.3272567,0.4649155,-2.142148,-0.3571048,-0.01923773
500.2635,-0.117919,-0.3272553,0.4649259,-2.142228,-0.357123,-0.01925281
500.2782,-0.117919,-0.3272553,0.4649259,-2.142228,-0.357123,-0.01925281
500.2924,-0.1180456,-0.3272539,0.4649361,-2.142306,-0.3571408,-0.01926759
500.3079,-0.1181709,-0.3272525,0.464946,-2.142384,-0.3571583,-0.01928209
500.3227,-0.1182946,-0.3272512,0.4649557,-2.142462,-0.3571755,-0.0192963
500.3375,-0.1182946,-0.3272512,0.4649557,-2.142462,-0.3571755,-0.0192963
500.3517,-0.118417,-0.3272498,0.4649652,-2.142538,-0.3571923,-0.01931023
500.3671,-0.118538,-0.3272485,0.4649744,-2.142613,-0.3572089,-0.01932388
500.3817,-0.1186575,-0.3272472,0.4649834,-2.142688,-0.3572251,-0.01933727
500.3962,-0.1186575,-0.3272472,0.4649834,-2.142688,-0.3572251,-0.01933727
500.4127,-0.1187757,-0.3272459,0.4649923,-2.142762,-0.357241,-0.01935039
500.427,-0.1188925,-0.3272445,0.4650009,-2.142836,-0.3572566,-0.01936327
500.4407,-0.119008,-0.3272433,0.4650093,-2.142908,-0.3572719,-0.01937589
500.4552,-0.119008,-0.3272433,0.4650093,-2.142908,-0.3572719,-0.01937589
500.4692,-0.1191221,-0.327242,0.4650175,-2.14298,-0.357287,-0.01938826
500.4843,-0.1192349,-0.3272407,0.4650255,-2.143051,-0.3573018,-0.01940038
500.4993,-0.1192349,-0.3272407,0.4650255,-2.143051,-0.3573018,-0.01940038
500.5132,-0.1193465,-0.3272395,0.4650333,-2.143121,-0.3573163,-0.01941227
500.5284,-0.1194567,-0.3272383,0.4650409,-2.143191,-0.3573305,-0.01942391
500.5432,-0.1195657,-0.327237,0.4650483,-2.14326,-0.3573444,-0.01943533
500.558,-0.1195657,-0.327237,0.4650483,-2.14326,-0.3573444,-0.01943533
500.5721,-0.1196734,-0.3272358,0.4650556,-2.143328,-0.3573582,-0.01944654
500.5875,-0.1197799,-0.3272347,0.4650626,-2.143395,-0.3573716,-0.01945752
500.6021,-0.1198851,-0.3272335,0.4650695,-2.143462,-0.3573848,-0.01946828
500.6171,-0.1198851,-0.3272335,0.4650695,-2.143462,-0.3573848,-0.01946828
500.631,-0.1199892,-0.3272323,0.4650762,-2.143528,-0.3573978,-0.01947884
500.6464,-0.120092,-0.3272311,0.4650828,-2.143594,-0.3574105,-0.01948918
500.6609,-0.1201937,-0.32723,0.4650892,-2.143658,-0.357423,-0.01949933
500.6768,-0.1201937,-0.32723,0.4650892,-2.143658,-0.357423,-0.01949933
500.6909,-0.1202941,-0.3272289,0.4650954,-2.143722,-0.3574353,-0.01950927
500.7054,-0.1203935,-0.3272277,0.4651014,-2.143785,-0.3574473,-0.01951902
500.72,-0.1204917,-0.3272266,0.4651073,-2.143848,-0.3574591,-0.01952858
500.7346,-0.1204917,-0.3272266,0.4651073,-2.143848,-0.3574591,-0.01952858
500.7485,-0.1205887,-0.3272255,0.4651131,-2.14391,-0.3574707,-0.01953795
500.764,-0.1206846,-0.3272245,0.4651186,-2.143971,-0.3574821,-0.01954713
500.7786,-0.1206846,-0.3272245,0.4651186,-2.143971,-0.3574821,-0.01954713
500.7926,-0.1207795,-0.3272234,0.4651241,-2.144032,-0.3574933,-0.01955613
500.8087,-0.1208732,-0.3272223,0.4651293,-2.144092,-0.3575043,-0.01956496
500.823,-0.1209659,-0.3272213,0.4651345,-2.144152,-0.3575151,-0.01957361
500.8376,-0.1209659,-0.3272213,0.4651345,-2.144152,-0.3575151,-0.01957361
500.8517,-0.1210575,-0.3272202,0.4651395,-2.144211,-0.3575256,-0.0195821
500.8672,-0.121148,-0.3272192,0.4651444,-2.144269,-0.357536,-0.01959042
500.8818,-0.1212375,-0.3272182,0.4651491,-2.144326,-0.3575462,-0.01959858
500.8969,-0.1212375,-0.3272182,0.4651491,-2.144326,-0.3575462,-0.01959858
500.9107,-0.1213259,-0.3272172,0.4651537,-2.144383,-0.3575563,-0.01960657
500.9272,-0.1214134,-0.3272162,0.4651582,-2.144439,-0.3575661,-0.01961441
500.9411,-0.1214998,-0.3272152,0.4651625,-2.144495,-0.3575757,-0.01962209
500.9558,-0.1214998,-0.3272152,0.4651625,-2.144495,-0.3575757,-0.01962209
500.97,-0.1215852,-0.3272142,0.4651667,-2.14455,-0.3575852,-0.01962963
500.9849,-0.1216697,-0.3272133,0.4651708,-2.144605,-0.3575945,-0.01963701
500.9997,-0.1216697,-0.3272133,0.4651708,-2.144605,-0.3575945,-0.01963701
501.0135,-0.1217532,-0.3272123,0.4651747,-2.144659,-0.3576037,-0.01964425
501.0291,-0.1218357,-0.3272114,0.4651786,-2.144712,-0.3576127,-0.01965135
501.0439,-0.1219173,-0.3272104,0.4651823,-2.144765,-0.3576215,-0.01965831
501.0584,-0.1219173,-0.3272104,0.4651823,-2.144765,-0.3576215,-0.01965831
501.0727,-0.1219979,-0.3272095,0.4651859,-2.144818,-0.3576302,-0.01966513
501.0881,-0.1220776,-0.3272086,0.4651894,-2.144869,-0.3576387,-0.01967182
501.1027,-0.1221564,-0.3272077,0.4651928,-2.144921,-0.3576471,-0.01967837
501.1173,-0.1221564,-0.3272077,0.4651928,-2.144921,-0.3576471,-0.01967837
501.1315,-0.1222343,-0.3272068,0.4651961,-2.144971,-0.3576553,-0.0196848
501.147,-0.1223112,-0.3272059,0.4651993,-2.145021,-0.3576634,-0.01969109
501.1617,-0.1223873,-0.327205,0.4652024,-2.145071,-0.3576713,-0.01969727
501.178,-0.1223873,-0.327205,0.4652024,-2.145071,-0.3576713,-0.01969727
501.1926,-0.1224625,-0.3272041,0.4652053,-2.14512,-0.3576791,-0.01970333
501.2067,-0.1218097,-0.3272009,0.4650383,-2.145554,-0.357682,-0.01970898
501.22,-0.1207014,-0.3271966,0.4647983,-2.146101,-0.3577331,-0.01971457
501.2344,-0.1207014,-0.3271966,0.4647983,-2.146101,-0.3577331,-0.01971457
501.2481,-0.1193112,-0.3271918,0.4645499,-2.146652,-0.357805,-0.01972011
501.2622,-0.1177495,-0.3271869,0.4643173,-2.147173,-0.3578796,-0.01972556
501.2768,-0.1177495,-0.3271869,0.4643173,-2.147173,-0.3578796,-0.01972556
501.2906,-0.1168146,-0.3271843,0.4642753,-2.147269,-0.3579556,-0.01973122
501.3059,-0.1162781,-0.3271831,0.464325,-2.147216,-0.3579774,-0.01973671
501.3205,-0.1159945,-0.3271824,0.4643979,-2.147126,-0.3579729,-0.01974204
501.3366,-0.1159945,-0.3271824,0.4643979,-2.147126,-0.3579729,-0.01974204
501.3492,-0.1165985,-0.3271835,0.4646364,-2.146658,-0.3579662,-0.01974754
501.3644,-0.1177584,-0.3271849,0.4649366,-2.146094,-0.3579115,-0.01975286
501.379,-0.1177584,-0.3271849,0.4649366,-2.146094,-0.3579115,-0.01975286
501.3935,-0.1192632,-0.3271862,0.465234,-2.145544,-0.3578382,-0.01975801
501.4085,-0.1209788,-0.3271871,0.4655065,-2.14504,-0.3577646,-0.01976304
501.4234,-0.1235481,-0.3271898,0.4659219,-2.1442,-0.3577021,-0.01976824
501.438,-0.1235481,-0.3271898,0.4659219,-2.1442,-0.3577021,-0.01976824
501.4524,-0.1266438,-0.3271928,0.4663875,-2.14329,-0.3575976,-0.01977327
501.4675,-0.1300577,-0.3271952,0.4668431,-2.14241,-0.3574778,-0.01977814
501.4818,-0.1336575,-0.3271969,0.4672688,-2.141589,-0.3573595,-0.01978287
501.4987,-0.1336575,-0.3271969,0.4672688,-2.141589,-0.3573595,-0.01978287
501.5127,-0.1380875,-0.3272001,0.467833,-2.140443,-0.3572523,-0.01978779
501.5262,-0.1430213,-0.3272029,0.4684426,-2.139237,-0.3571042,-0.01979253
501.5404,-0.1482514,-0.3272047,0.4690379,-2.13807,-0.3569418,-0.01979711
501.5555,-0.1482514,-0.3272047,0.4690379,-2.13807,-0.3569418,-0.01979711
501.5697,-0.1543743,-0.3272076,0.4697693,-2.136586,-0.3567846,-0.01980184
501.5847,-0.1610331,-0.3272094,0.4705373,-2.135058,-0.3565868,-0.0198064
501.5994,-0.1610331,-0.3272094,0.4705373,-2.135058,-0.3565868,-0.0198064
501.6137,-0.1680012,-0.3272099,0.4712814,-2.133586,-0.3563771,-0.01981079
501.6289,-0.1751348,-0.3272097,0.4719827,-2.132199,-0.356173,-0.01981506
501.6439,-0.1830707,-0.3272102,0.4728119,-2.13051,-0.3559797,-0.01981949
501.6584,-0.1830707,-0.3272102,0.4728119,-2.13051,-0.3559797,-0.01981949
501.6726,-0.1914783,-0.3272101,0.4736747,-2.128783,-0.3557486,-0.01982375
501.688,-0.2001472,-0.3272091,0.4745128,-2.127115,-0.3555071,-0.01982786
501.7027,-0.2089443,-0.3272076,0.4753075,-2.125533,-0.3552714,-0.01983185
501.7173,-0.2089443,-0.3272076,0.4753075,-2.125533,-0.3552714,-0.01983185
501.731,-0.2185134,-0.3272069,0.4762292,-2.123653,-0.3550442,-0.01983598
501.7465,-0.2285281,-0.3272054,0.4771816,-2.12174,-0.35478,-0.01983995
501.7633,-0.2387811,-0.3272031,0.4781064,-2.11989,-0.3545065,-0.01984377
501.7771,-0.2387811,-0.3272031,0.4781064,-2.11989,-0.3545065,-0.01984377
501.7902,-0.2498694,-0.3272013,0.4791563,-2.117748,-0.3542354,-0.01984772
501.8053,-0.2614366,-0.3271985,0.4802284,-2.115587,-0.3539283,-0.0198515
501.8202,-0.2732565,-0.3271936,0.4812641,-2.113504,-0.3536139,-0.01985513
501.8347,-0.2732565,-0.3271936,0.4812641,-2.113504,-0.3536139,-0.01985513
501.8489,-0.2851859,-0.3271868,0.4822462,-2.111528,-0.3533084,-0.01985864
501.8641,-0.2978624,-0.3271808,0.4833461,-2.109275,-0.3530103,-0.01986228
501.879,-0.2978624,-0.3271808,0.4833461,-2.109275,-0.3530103,-0.01986228
501.893,-0.3109557,-0.3271731,0.4844663,-2.107004,-0.3526786,-0.01986576
501.9086,-0.3242563,-0.3271632,0.48555,-2.104813,-0.3523411,-0.0198691
501.9233,-0.3376315,-0.3271512,0.4865801,-2.102729,-0.3520131,-0.01987233
501.9381,-0.3376315,-0.3271512,0.4865801,-2.102729,-0.3520131,-0.01987233
501.9521,-0.3517258,-0.3271401,0.487728,-2.10037,-0.3516898,-0.01987568
501.9674,-0.3662135,-0.3271273,0.4888938,-2.097996,-0.3513339,-0.01987887
501.9821,-0.3808877,-0.3271121,0.4900209,-2.095706,-0.3509738,-0.01988193
501.9967,-0.3808877,-0.3271121,0.4900209,-2.095706,-0.3509738,-0.01988193
502.0107,-0.396346,-0.3270973,0.491264,-2.093144,-0.3506125,-0.01988509
502.0274,-0.4122327,-0.3270801,0.4925168,-2.090581,-0.3502201,-0.01988809
502.0417,-0.4283221,-0.32706,0.4937226,-2.088116,-0.3498266,-0.01989096
502.0554,-0.4283221,-0.32706,0.4937226,-2.088116,-0.3498266,-0.01989096
502.0695,-0.4444716,-0.3270374,0.494866,-2.085775,-0.3494464,-0.01989372
502.0848,-0.4613194,-0.3270155,0.4961197,-2.083175,-0.3490686,-0.01989658
502.0994,-0.4613194,-0.3270155,0.4961197,-2.083175,-0.3490686,-0.01989658
502.1133,-0.4785357,-0.3269914,0.4973818,-2.080577,-0.3486625,-0.0198993
502.1287,-0.4959117,-0.3269648,0.4985978,-2.078075,-0.3482566,-0.01990189
502.1435,-0.5133151,-0.3269359,0.4997524,-2.075696,-0.3478646,-0.01990438
502.1582,-0.5133151,-0.3269359,0.4997524,-2.075696,-0.3478646,-0.01990438
502.1723,-0.5313911,-0.326908,0.5010179,-2.07306,-0.3474719,-0.01990697
502.1877,-0.5498144,-0.3268781,0.50229,-2.070425,-0.3470525,-0.01990941
502.2026,-0.5683787,-0.3268457,0.5035147,-2.06789,-0.3466348,-0.01991174
502.2173,-0.5683787,-0.3268457,0.5035147,-2.06789,-0.3466348,-0.01991174
502.231,-0.5876822,-0.3268136,0.5048482,-2.0651,-0.3462116,-0.01991414
502.2467,-0.6073697,-0.3267787,0.5061806,-2.062325,-0.3457639,-0.0199164
502.2612,-0.6272159,-0.3267407,0.5074581,-2.059661,-0.345321,-0.01991855
502.2758,-0.6272159,-0.3267407,0.5074581,-2.059661,-0.345321,-0.01991855
502.292,-0.6470786,-0.3267002,0.5086671,-2.057136,-0.3448959,-0.0199206
502.3063,-0.6675968,-0.3266605,0.5099805,-2.054368,-0.3444676,-0.01992274
502.3197,-0.6675968,-0.3266605,0.5099805,-2.054368,-0.3444676,-0.01992274
502.3338,-0.6884411,-0.3266186,0.5112924,-2.051615,-0.3440175,-0.01992473
502.3492,-0.709403,-0.3265739,0.512551,-2.048972,-0.3435735,-0.01992663
502.3639,-0.7303511,-0.3265271,0.513743,-2.046464,-0.3431476,-0.01992845
502.3787,-0.7303511,-0.3265271,0.513743,-2.046464,-0.3431476,-0.01992845
502.3925,-0.7514235,-0.3264798,0.5149216,-2.043978,-0.3427342,-0.01993025
502.4082,-0.772486,-0.3264317,0.5160582,-2.041583,-0.3423285,-0.01993196
502.4233,-0.7934539,-0.3263831,0.5171413,-2.039303,-0.3419378,-0.0199336
502.438,-0.7934539,-0.3263831,0.5171413,-2.039303,-0.3419378,-0.0199336
502.4518,-0.8142745,-0.3263344,0.5181704,-2.037138,-0.3415644,-0.01993518
502.4672,-0.8349154,-0.3262864,0.5191488,-2.035083,-0.341208,-0.01993671
502.4818,-0.8553569,-0.3262393,0.5200801,-2.033132,-0.3408675,-0.01993817
502.4965,-0.8553569,-0.3262393,0.5200801,-2.033132,-0.3408675,-0.01993817
502.5106,-0.8755875,-0.3261936,0.520968,-2.031277,-0.3405421,-0.01993959
502.5259,-0.8956009,-0.3261494,0.5218151,-2.029514,-0.3402307,-0.01994097
502.5405,-0.9153939,-0.3261068,0.5226237,-2.027838,-0.3399327,-0.0199423
502.5564,-0.9153939,-0.3261068,0.5226237,-2.027838,-0.3399327,-0.0199423
502.5705,-0.9349658,-0.326066,0.5233957,-2.026245,-0.3396473,-0.01994358
502.5846,-0.9543166,-0.3260269,0.5241325,-2.024733,-0.3393742,-0.01994481
502.5993,-0.9543166,-0.3260269,0.5241325,-2.024733,-0.3393742,-0.01994481
502.6133,-0.9734476,-0.3259896,0.5248355,-2.023299,-0.339113,-0.01994601
502.6289,-0.9923604,-0.3259541,0.525506,-2.02194,-0.3388632,-0.01994717
502.6435,-1.011057,-0.3259203,0.5261448,-2.020654,-0.3386247,-0.01994829
502.6582,-1.011057,-0.3259203,0.5261448,-2.020654,-0.3386247,-0.01994829
502.6724,-1.029539,-0.3258883,0.5267531,-2.019439,-0.338397,-0.01994938
502.6878,-1.047809,-0.3258579,0.5273317,-2.018295,-0.33818,-0.01995043
502.7025,-1.06587,-0.3258291,0.5278816,-2.017218,-0.3379734,-0.01995144
502.7173,-1.06587,-0.3258291,0.5278816,-2.017218,-0.3379734,-0.01995144
502.7312,-1.083723,-0.3258019,0.5284035,-2.016208,-0.3377769,-0.01995242
502.7466,-1.101371,-0.3257763,0.5288982,-2.015262,-0.3375903,-0.01995337
502.7613,-1.118817,-0.3257522,0.5293667,-2.01438,-0.3374133,-0.01995429
502.7762,-1.118817,-0.3257522,0.5293667,-2.01438,-0.3374133,-0.01995429
502.79,-1.136062,-0.3257295,0.5298095,-2.013558,-0.3372458,-0.01995518
502.8077,-1.153109,-0.3257082,0.5302275,-2.012797,-0.3370875,-0.01995604
502.8211,-1.16996,-0.3256882,0.5306213,-2.012095,-0.3369381,-0.01995688
502.8348,-1.16996,-0.3256882,0.5306213,-2.012095,-0.3369381,-0.01995688
502.8487,-1.186617,-0.3256696,0.5309917,-2.01145,-0.3367975,-0.01995769
502.8639,-1.203083,-0.3256523,0.5313392,-2.01086,-0.3366654,-0.01995847
502.8786,-1.203083,-0.3256523,0.5313392,-2.01086,-0.3366654,-0.01995847
502.8929,-1.21936,-0.3256362,0.5316646,-2.010325,-0.3365417,-0.01995924
502.9081,-1.23545,-0.3256214,0.5319684,-2.009843,-0.336426,-0.01995997
502.9226,-1.251354,-0.3256077,0.5322513,-2.009412,-0.3363183,-0.01996069
502.9375,-1.251354,-0.3256077,0.5322513,-2.009412,-0.3363183,-0.01996069
502.9515,-1.267076,-0.3255951,0.5325139,-2.009032,-0.3362184,-0.01996139
502.9671,-1.282397,-0.3255829,0.5327057,-2.008814,-0.3361368,-0.01996204
502.9816,-1.2974,-0.325572,0.532863,-2.008678,-0.3360726,-0.01996268
502.9962,-1.2974,-0.325572,0.532863,-2.008678,-0.3360726,-0.01996268
503.0103,-1.312142,-0.3255627,0.5330024,-2.00859,-0.3360176,-0.01996331
503.0258,-1.326657,-0.3255551,0.5331291,-2.008538,-0.3359683,-0.01996394
503.0405,-1.340242,-0.3255465,0.5330761,-2.008894,-0.3359598,-0.01996445
503.0552,-1.340242,-0.3255465,0.5330761,-2.008894,-0.3359598,-0.01996445
503.0691,-1.353184,-0.3255399,0.532961,-2.009392,-0.3359891,-0.019965
503.0854,-1.365667,-0.3255363,0.5328356,-2.009928,-0.3360298,-0.01996556
503.0989,-1.365667,-0.3255363,0.5328356,-2.009928,-0.3360298,-0.01996556
503.113,-1.377083,-0.325533,0.5325472,-2.010842,-0.3361071,-0.01996602
503.1282,-1.387779,-0.3255318,0.5322148,-2.011862,-0.336216,-0.01996651
503.1429,-1.397977,-0.3255322,0.5318884,-2.012885,-0.3363299,-0.01996701
503.1577,-1.397977,-0.3255322,0.5318884,-2.012885,-0.3363299,-0.01996701
503.1717,-1.40782,-0.3255337,0.5315802,-2.013881,-0.3364397,-0.0199675
503.1871,-1.41667,-0.3255348,0.5311204,-2.015223,-0.3365788,-0.01996789
503.2016,-1.424859,-0.3255368,0.5306224,-2.016654,-0.3367468,-0.01996831
503.2163,-1.424859,-0.3255368,0.5306224,-2.016654,-0.3367468,-0.01996831
503.2304,-1.432597,-0.3255399,0.5301344,-2.018075,-0.3369184,-0.01996874
503.2458,-1.440019,-0.3255448,0.5296682,-2.01946,-0.337085,-0.01996917
503.2606,-1.446484,-0.3255491,0.529054,-2.02118,-0.3372781,-0.01996949
503.2753,-1.446484,-0.3255491,0.529054,-2.02118,-0.3372781,-0.01996949
503.2893,-1.452319,-0.3255548,0.5284048,-2.022979,-0.3374996,-0.01996985
503.3047,-1.457734,-0.3255627,0.5277696,-2.024759,-0.3377239,-0.01997021
503.3198,-1.457734,-0.3255627,0.5277696,-2.024759,-0.3377239,-0.01997021
503.3334,-1.462134,-0.3255701,0.5269914,-2.026866,-0.3379734,-0.01997048
503.3506,-1.465876,-0.3255788,0.5261862,-2.029033,-0.3382494,-0.01997078
503.3643,-1.46919,-0.3255893,0.5254034,-2.031163,-0.3385254,-0.0199711
503.3779,-1.46919,-0.3255893,0.5254034,-2.031163,-0.3385254,-0.0199711
503.3919,-1.472219,-0.3256014,0.5246541,-2.033227,-0.3387921,-0.01997141
503.4073,-1.47433,-0.3256123,0.5237669,-2.035602,-0.3390776,-0.01997161
503.4232,-1.475853,-0.3256234,0.5228528,-2.03803,-0.3393892,-0.01997184
503.4367,-1.475853,-0.3256234,0.5228528,-2.03803,-0.3393892,-0.01997184
503.4505,-1.477,-0.3256352,0.5219609,-2.040415,-0.3397012,-0.01997209
503.4658,-1.477905,-0.3256476,0.5211035,-2.042731,-0.3400037,-0.01997233
503.4806,-1.477927,-0.3256582,0.5201094,-2.045351,-0.3403218,-0.01997245
503.4954,-1.477927,-0.3256582,0.5201094,-2.045351,-0.3403218,-0.01997245
503.5094,-1.477395,-0.3256681,0.5190893,-2.048018,-0.3406666,-0.01997261
503.5249,-1.476515,-0.3256778,0.5180936,-2.050636,-0.3410114,-0.01997278
503.5398,-1.476515,-0.3256778,0.5180936,-2.050636,-0.3410114,-0.01997278
503.5535,-1.474693,-0.3256852,0.5169649,-2.053553,-0.3413708,-0.01997282
503.5691,-1.472285,-0.3256913,0.5158164,-2.056503,-0.3417555,-0.01997291
503.5839,-1.469519,-0.3256967,0.5146994,-2.059386,-0.3421386,-0.01997301
503.5981,-1.469519,-0.3256967,0.5146994,-2.059386,-0.3421386,-0.01997301
503.6143,-1.46654,-0.3257016,0.513626,-2.062176,-0.342509,-0.01997311
503.6288,-1.46271,-0.3257038,0.5124241,-2.065252,-0.342886,-0.01997306
503.6423,-1.458361,-0.3257051,0.5112005,-2.068355,-0.3432889,-0.01997305
503.6566,-1.458361,-0.3257051,0.5112005,-2.068355,-0.3432889,-0.01997305
503.6709,-1.453704,-0.3257059,0.5100071,-2.07139,-0.3436912,-0.01997307
503.6862,-1.448872,-0.3257066,0.508857,-2.074331,-0.3440814,-0.01997309
503.701,-1.443223,-0.3257058,0.5075784,-2.077554,-0.3444747,-0.01997294
503.7154,-1.443223,-0.3257058,0.5075784,-2.077554,-0.3444747,-0.01997294
503.7293,-1.437083,-0.325704,0.5062777,-2.080802,-0.3448947,-0.01997283
503.7447,-1.43066,-0.3257014,0.5050077,-2.083977,-0.3453146,-0.01997276
503.7594,-1.43066,-0.3257014,0.5050077,-2.083977,-0.3453146,-0.01997276
503.7735,-1.423358,-0.3256959,0.5036124,-2.087431,-0.3457363,-0.0199725
503.7888,-1.415533,-0.3256882,0.5022003,-2.090895,-0.3461841,-0.01997229
503.8037,-1.407412,-0.3256788,0.5008255,-2.094272,-0.3466304,-0.01997211
503.8181,-1.407412,-0.3256788,0.5008255,-2.094272,-0.3466304,-0.01997211
503.8322,-1.399139,-0.3256684,0.4995019,-2.097533,-0.3470624,-0.01997194
503.8476,-1.390076,-0.3256549,0.4980572,-2.101062,-0.3474869,-0.01997157
503.8622,-1.380555,-0.3256389,0.496593,-2.104598,-0.3479378,-0.01997124
503.8769,-1.380555,-0.3256389,0.496593,-2.104598,-0.3479378,-0.01997124
503.893,-1.370786,-0.3256212,0.4951635,-2.108046,-0.3483886,-0.01997095
503.9073,-1.3609,-0.3256022,0.493784,-2.111379,-0.3488262,-0.01997068
503.921,-1.350256,-0.3255802,0.4922836,-2.114978,-0.3492517,-0.01997017
503.9359,-1.350256,-0.3255802,0.4922836,-2.114978,-0.3492517,-0.01997017
503.9494,-1.339178,-0.3255557,0.4907618,-2.118584,-0.3497048,-0.01996971
503.9646,-1.327874,-0.3255291,0.4892744,-2.122098,-0.3501591,-0.0199693
503.9793,-1.327874,-0.3255291,0.4892744,-2.122098,-0.3501591,-0.0199693
503.9934,-1.315747,-0.3254989,0.4876682,-2.125876,-0.3506013,-0.01996865
504.0088,-1.303154,-0.3254656,0.4860453,-2.129648,-0.3510711,-0.01996806
504.0237,-1.290319,-0.3254297,0.4844628,-2.133314,-0.3515413,-0.01996752
504.0385,-1.290319,-0.3254297,0.4844628,-2.133314,-0.3515413,-0.01996752
504.0523,-1.277386,-0.3253923,0.4829368,-2.13685,-0.351997,-0.01996699
504.0677,-1.263718,-0.3253516,0.4812976,-2.140638,-0.3524295,-0.0199662
504.0823,-1.249644,-0.325308,0.4796381,-2.144418,-0.3528895,-0.01996547
504.0971,-1.249644,-0.325308,0.4796381,-2.144418,-0.3528895,-0.01996547
504.1111,-1.235374,-0.3252621,0.4780155,-2.148095,-0.3533518,-0.01996478
504.1267,-1.221041,-0.3252149,0.4764474,-2.151643,-0.3538011,-0.01996412
504.1413,-1.205999,-0.3251646,0.4747663,-2.155443,-0.3542226,-0.01996317
504.1579,-1.205999,-0.3251646,0.4747663,-2.155443,-0.3542226,-0.01996317
504.1721,-1.190575,-0.3251114,0.4730623,-2.159236,-0.3546728,-0.01996228
504.1849,-1.174975,-0.3250561,0.471394,-2.162924,-0.3551271,-0.01996145
504.1996,-1.174975,-0.3250561,0.471394,-2.162924,-0.3551271,-0.01996145
504.2137,-1.158601,-0.3249971,0.4696134,-2.166864,-0.355555,-0.01996032
504.2289,-1.14181,-0.3249345,0.4678139,-2.170785,-0.3560123,-0.01995926
504.2436,-1.124825,-0.3248692,0.4660557,-2.174588,-0.3564734,-0.01995827
504.2582,-1.124825,-0.3248692,0.4660557,-2.174588,-0.3564734,-0.01995827
504.2724,-1.107791,-0.3248022,0.4643577,-2.178246,-0.3569216,-0.0199573
504.2879,-1.090069,-0.3247321,0.4625545,-2.182148,-0.357331,-0.01995602
504.3025,-1.071987,-0.3246589,0.4607275,-2.18599,-0.3577721,-0.01995475
504.3172,-1.071987,-0.3246589,0.4607275,-2.18599,-0.3577721,-0.01995475
504.3312,-1.053756,-0.3245834,0.4588849,-2.188311,-0.3583356,-0.01995203
504.3465,-1.035507,-0.3245065,0.4570844,-2.188998,-0.3589447,-0.01994895
504.3618,-1.016595,-0.324427,0.4551905,-2.189,-0.3595077,-0.01994582
504.3766,-1.016595,-0.324427,0.4551905,-2.189,-0.3595077,-0.01994582
504.39,-0.9973451,-0.3243446,0.4532875,-2.188575,-0.3600808,-0.01994314
504.4054,-0.9779634,-0.3242601,0.4514357,-2.188027,-0.36064,-0.01994093
504.4201,-0.9585797,-0.3241745,0.4496553,-2.187564,-0.3611729,-0.01993908
504.4359,-0.9585797,-0.3241745,0.4496553,-2.187564,-0.3611729,-0.01993908
504.4496,-0.9385481,-0.3240864,0.4477804,-2.187653,-0.3616598,-0.01993709
504.464,-0.9181929,-0.3239956,0.4458857,-2.187863,-0.3621889,-0.01993512
504.4785,-0.9181929,-0.3239956,0.4458857,-2.187863,-0.3621889,-0.01993512
504.4926,-0.8977193,-0.3239027,0.4440331,-2.187974,-0.3627397,-0.01993318
504.5082,-0.8765292,-0.3238065,0.4420825,-2.188325,-0.3632672,-0.01993095
504.5228,-0.854977,-0.3237067,0.4401199,-2.188544,-0.3638393,-0.01992873
504.5377,-0.854977,-0.3237067,0.4401199,-2.188544,-0.3638393,-0.01992873
504.5516,-0.8332873,-0.3236041,0.4382095,-2.188534,-0.3644258,-0.01992663
504.5674,-0.8116018,-0.3235001,0.4363757,-2.188354,-0.3650005,-0.01992469
504.5818,-0.789282,-0.3233934,0.4344548,-2.188498,-0.3655332,-0.01992259
504.5965,-0.789282,-0.3233934,0.4344548,-2.188498,-0.3655332,-0.01992259
504.6105,-0.7666566,-0.3232839,0.4325226,-2.188629,-0.3661024,-0.01992054
504.6259,-0.7439338,-0.3231722,0.4306397,-2.188624,-0.3666852,-0.0199186
504.6408,-0.7212447,-0.3230596,0.4288296,-2.188491,-0.3672588,-0.0199168
504.6556,-0.7212447,-0.3230596,0.4288296,-2.188491,-0.3672588,-0.0199168
504.6696,-0.6979441,-0.3229451,0.4269294,-2.188686,-0.3677951,-0.01991478
504.6849,-0.6743565,-0.3228279,0.4250167,-2.188852,-0.3683699,-0.0199128
504.7006,-0.650687,-0.322709,0.4231527,-2.188859,-0.368959,-0.01991092
504.7141,-0.650687,-0.322709,0.4231527,-2.188859,-0.368959,-0.01991092
504.7284,-0.6265095,-0.3225876,0.4212346,-2.189023,-0.3695261,-0.01990889
504.7437,-0.6021137,-0.3224637,0.4193291,-2.189095,-0.3701189,-0.01990694
504.7582,-0.6021137,-0.3224637,0.4193291,-2.189095,-0.3701189,-0.01990694
504.7722,-0.5776827,-0.3223383,0.4174832,-2.189018,-0.370715,-0.01990513
504.7876,-0.5533317,-0.3222126,0.4157131,-2.188835,-0.3712962,-0.01990348
504.8024,-0.5291329,-0.3220879,0.4140192,-2.188618,-0.3718551,-0.019902
504.8162,-0.5291329,-0.3220879,0.4140192,-2.188618,-0.3718551,-0.019902
504.8309,-0.5051312,-0.3219654,0.4123957,-2.18842,-0.3723917,-0.01990066
504.8466,-0.4813539,-0.3218459,0.410836,-2.188264,-0.3729087,-0.01989945
504.8612,-0.4578175,-0.32173,0.4093346,-2.188148,-0.3734092,-0.01989833
504.8762,-0.4578175,-0.32173,0.4093346,-2.188148,-0.3734092,-0.01989833
504.8903,-0.4345311,-0.3216182,0.4078872,-2.188059,-0.3738956,-0.01989728
504.9057,-0.4114996,-0.3215109,0.4064906,-2.187982,-0.3743693,-0.0198963
504.9203,-0.3887249,-0.3214082,0.4051425,-2.187907,-0.3748309,-0.0198954
504.9353,-0.3887249,-0.3214082,0.4051425,-2.187907,-0.3748309,-0.0198954
504.9516,-0.3662072,-0.3213101,0.4038412,-2.18783,-0.3752806,-0.01989455
504.9656,-0.3439456,-0.3212168,0.402585,-2.187749,-0.3757186,-0.01989377
504.9792,-0.3439456,-0.3212168,0.402585,-2.187749,-0.3757186,-0.01989377
504.9933,-0.3219382,-0.3211282,0.4013727,-2.187666,-0.3761448,-0.01989307
505.0088,-0.300183,-0.3210442,0.4002031,-2.187584,-0.3765595,-0.01989242
505.0234,-0.2850513,-0.3209853,0.4005374,-2.184026,-0.3770599,-0.01989504
505.0383,-0.2850513,-0.3209853,0.4005374,-2.184026,-0.3770599,-0.01989504
505.0522,-0.2741496,-0.32096,0.4016375,-2.180714,-0.377009,-0.01989881
505.0679,-0.2659554,-0.3209622,0.4028898,-2.178628,-0.3766908,-0.01990236
505.0825,-0.2594994,-0.3209824,0.404032,-2.177372,-0.3763506,-0.01990509
505.0974,-0.2594994,-0.3209824,0.404032,-2.177372,-0.3763506,-0.01990509
505.1114,-0.2541645,-0.3210155,0.4050224,-2.17667,-0.3760523,-0.01990743
505.127,-0.2495574,-0.3210573,0.4058828,-2.176333,-0.3758022,-0.01990956
505.1417,-0.2454276,-0.3211048,0.4066456,-2.17623,-0.3755916,-0.01991155
505.1565,-0.2454276,-0.3211048,0.4066456,-2.17623,-0.3755916,-0.01991155
505.171,-0.2416535,-0.3337604,0.4064029,-2.17938,-0.3792361,-0.01992227
505.186,-0.2382044,-0.354034,0.4068471,-2.18339,-0.3826236,-0.01993138
505.2016,-0.2350125,-0.3788692,0.4076795,-2.186891,-0.3854469,-0.01993799
505.2155,-0.2350125,-0.3788692,0.4076795,-2.186891,-0.3854469,-0.01993799
505.2296,-0.2320112,-0.4063861,0.4085887,-2.188617,-0.3879448,-0.01994206
505.245,-0.2291445,-0.4346697,0.4095695,-2.188529,-0.389941,-0.0199447
505.2598,-0.2291445,-0.4346697,0.4095695,-2.188529,-0.389941,-0.0199447
505.2739,-0.2263713,-0.4632986,0.4105091,-2.187557,-0.3917068,-0.01994757
505.2896,-0.2236658,-0.492011,0.4114118,-2.186482,-0.393302,-0.01995095
505.3044,-0.2210115,-0.5206444,0.412277,-2.185722,-0.3947687,-0.01995468
505.3193,-0.2210115,-0.5206444,0.412277,-2.185722,-0.3947687,-0.01995468
505.3333,-0.2183948,-0.5483367,0.4131607,-2.185171,-0.3959066,-0.01995792
505.3489,-0.2158074,-0.5753258,0.4139555,-2.184935,-0.396999,-0.01996126
505.3636,-0.2132458,-0.60176,0.4146818,-2.184936,-0.3980881,-0.01996458
505.3795,-0.2132458,-0.60176,0.4146818,-2.184936,-0.3980881,-0.01996458
505.3926,-0.2107043,-0.6269701,0.4154266,-2.18485,-0.3989301,-0.01996722
505.4082,-0.2081806,-0.6513147,0.4161028,-2.184783,-0.3997659,-0.01996989
505.4228,-0.2056748,-0.6750171,0.4167359,-2.184761,-0.4006116,-0.01997262
505.4387,-0.2056748,-0.6750171,0.4167359,-2.184761,-0.4006116,-0.01997262
505.4527,-0.2031884,-0.6982163,0.4173492,-2.184767,-0.4014523,-0.01997532
505.4672,-0.2007173,-0.7202384,0.418014,-2.184587,-0.4020354,-0.01997739
505.4819,-0.1982603,-0.7414393,0.4186291,-2.184415,-0.4026048,-0.01997958
505.4967,-0.1982603,-0.7414393,0.4186291,-2.184415,-0.4026048,-0.01997958
505.5109,-0.1958186,-0.7620401,0.419211,-2.184324,-0.4031821,-0.01998187
505.5296,-0.193394,-0.7821789,0.4197773,-2.184306,-0.4037578,-0.01998416
505.543,-0.1909823,-0.8011804,0.4203957,-2.184133,-0.4040833,-0.01998583
505.5563,-0.1909823,-0.8011804,0.4203957,-2.184133,-0.4040833,-0.01998583
505.5706,-0.1885821,-0.8194004,0.420964,-2.183984,-0.4044041,-0.01998762
505.5861,-0.1861948,-0.8370596,0.4214993,-2.183916,-0.4047416,-0.01998951
505.6009,-0.1838227,-0.854295,0.4220197,-2.183916,-0.4050856,-0.0199914
505.6158,-0.1838227,-0.854295,0.4220197,-2.183916,-0.4050856,-0.0199914
505.6299,-0.181461,-0.8704308,0.4225927,-2.183753,-0.4051873,-0.01999269
505.6452,-0.1791082,-0.8858228,0.4231162,-2.183609,-0.4052915,-0.0199941
505.6611,-0.1767659,-0.900691,0.4236075,-2.183544,-0.4054191,-0.01999563
505.6751,-0.1767659,-0.900691,0.4236075,-2.183544,-0.4054191,-0.01999563
505.6893,-0.1744297,-0.9144102,0.4241426,-2.183354,-0.4053212,-0.01999662
505.7046,-0.1720982,-0.9273678,0.4246246,-2.183217,-0.4052395,-0.01999778
505.7195,-0.1720982,-0.9273678,0.4246246,-2.183217,-0.4052395,-0.01999778
505.7335,-0.169774,-0.9398029,0.4250735,-2.183178,-0.4051923,-0.01999905
505.7489,-0.1674605,-0.9518633,0.4255093,-2.183209,-0.405167,-0.02000033
505.764,-0.1651531,-0.9628792,0.4259988,-2.183069,-0.4049141,-0.02000101
505.7789,-0.1651531,-0.9628792,0.4259988,-2.183069,-0.4049141,-0.02000101
505.7932,-0.1628501,-0.9732109,0.4264397,-2.182941,-0.4046768,-0.02000184
505.8088,-0.1605537,-0.9830803,0.4268498,-2.182888,-0.4044746,-0.0200028
505.8235,-0.1582676,-0.9926242,0.4272482,-2.1829,-0.4042958,-0.0200038
505.8385,-0.1582676,-0.9926242,0.4272482,-2.1829,-0.4042958,-0.0200038
505.8526,-0.1559872,-1.001166,0.4277005,-2.182746,-0.4038926,-0.02000421
505.8679,-0.1537098,-1.009061,0.4281039,-2.182612,-0.4035093,-0.02000478
505.8836,-0.1514383,-1.016528,0.4284762,-2.182562,-0.4031658,-0.02000549
505.8974,-0.1514383,-1.016528,0.4284762,-2.182562,-0.4031658,-0.02000549
505.9117,-0.1491683,-1.022942,0.4288928,-2.182385,-0.4026141,-0.0200057
505.927,-0.1468978,-1.028688,0.4292566,-2.182261,-0.4020949,-0.02000608
505.9419,-0.1446306,-1.034004,0.4295888,-2.182236,-0.4016254,-0.02000661
505.9566,-0.1446306,-1.034004,0.4295888,-2.182236,-0.4016254,-0.02000661
505.9706,-0.1423713,-1.039036,0.4299104,-2.182281,-0.4011917,-0.02000717
505.9861,-0.1401162,-1.043112,0.4302871,-2.182153,-0.4005452,-0.02000715
506.0009,-0.1378626,-1.046592,0.430616,-2.182035,-0.3999285,-0.0200073
506.0158,-0.1378626,-1.046592,0.430616,-2.182035,-0.3999285,-0.0200073
506.03,-0.1356138,-1.049696,0.4309156,-2.181992,-0.3993604,-0.02000759
506.0453,-0.1333746,-1.052559,0.4312053,-2.181996,-0.3988294,-0.02000792
506.0603,-0.131141,-1.054502,0.4315513,-2.181833,-0.3980863,-0.02000771
506.0751,-0.131141,-1.054502,0.4315513,-2.181833,-0.3980863,-0.02000771
506.0892,-0.1289098,-1.055881,0.4318472,-2.181639,-0.3973802,-0.02000761
506.1045,-0.1266845,-1.056913,0.4321131,-2.181459,-0.3967288,-0.02000763
506.1214,-0.1244698,-1.05773,0.4323706,-2.181303,-0.3961162,-0.0200077
506.1351,-0.1244698,-1.05773,0.4323706,-2.181303,-0.3961162,-0.0200077
506.148,-0.1222621,-1.057677,0.4326805,-2.180977,-0.3953061,-0.02000729
506.1635,-0.1200592,-1.057075,0.4329478,-2.180612,-0.394524,-0.02000697
506.1781,-0.1200592,-1.057075,0.4329478,-2.180612,-0.394524,-0.02000697
506.1922,-0.1178824,-1.056145,0.4331983,-2.180256,-0.3937945,-0.02000677
506.208,-0.1157307,-1.054259,0.4335055,-2.179724,-0.3928695,-0.02000609
506.2227,-0.1136242,-1.051805,0.4337833,-2.179158,-0.3919887,-0.02000555
506.2375,-0.1136242,-1.051805,0.4337833,-2.179158,-0.3919887,-0.02000555
506.2516,-0.1115661,-1.049018,0.4340485,-2.17861,-0.3911659,-0.02000514
506.267,-0.1095531,-1.046041,0.4343147,-2.178093,-0.3903856,-0.0200048
506.2819,-0.1075716,-1.042201,0.4346384,-2.177409,-0.3894053,-0.02000396
506.2965,-0.1075716,-1.042201,0.4346384,-2.177409,-0.3894053,-0.02000396
506.3106,-0.1056349,-1.037855,0.4349281,-2.176694,-0.3884682,-0.02000325
506.3262,-0.103743,-1.033221,0.4351994,-2.176001,-0.3875904,-0.02000267
506.3409,-0.1018914,-1.028433,0.4354669,-2.175341,-0.3867576,-0.02000217
506.357,-0.1018914,-1.028433,0.4354669,-2.175341,-0.3867576,-0.02000217
506.371,-0.1000668,-1.022809,0.435787,-2.174515,-0.3857307,-0.02000119
506.3853,-0.09828158,-1.016704,0.4360701,-2.173663,-0.3847505,-0.02000034
506.4,-0.09653584,-1.010332,0.436333,-2.172834,-0.3838325,-0.01999964
506.4152,-0.09653584,-1.010332,0.436333,-2.172834,-0.3838325,-0.01999964
506.429,-0.09481748,-1.003064,0.4366404,-2.171844,-0.3827376,-0.01999851
506.4444,-0.093138,-0.9952831,0.4369088,-2.170835,-0.3816997,-0.01999754
506.4592,-0.093138,-0.9952831,0.4369088,-2.170835,-0.3816997,-0.01999754
506.4733,-0.09149668,-0.9872242,0.4371566,-2.169859,-0.3807306,-0.01999672
506.4891,-0.08988903,-0.97903,0.4373993,-2.168928,-0.3798141,-0.01999599
506.504,-0.08830245,-0.9700264,0.4376903,-2.167841,-0.3787171,-0.01999483
506.5185,-0.08830245,-0.9700264,0.4376903,-2.167841,-0.3787171,-0.01999483
506.5326,-0.08674784,-0.9605699,0.437943,-2.166736,-0.3776742,-0.01999381
506.5481,-0.08522516,-0.9508781,0.4381745,-2.165664,-0.3766989,-0.01999295
506.5635,-0.08373094,-0.9410841,0.4383997,-2.164637,-0.3757763,-0.01999217
506.5778,-0.08373094,-0.9410841,0.4383997,-2.164637,-0.3757763,-0.01999217
506.5938,-0.08225385,-0.9305075,0.4386705,-2.163455,-0.3746787,-0.01999097
506.6083,-0.08080439,-0.9195004,0.4389021,-2.162257,-0.3736372,-0.01998993
506.6222,-0.07938289,-0.908278,0.4391122,-2.161093,-0.3726644,-0.01998903
506.6367,-0.07938289,-0.908278,0.4391122,-2.161093,-0.3726644,-0.01998903
506.6508,-0.07798643,-0.896972,0.4393157,-2.159977,-0.3717456,-0.01998824
506.6661,-0.0766117,-0.885663,0.4395187,-2.158908,-0.370869,-0.0199875
506.6809,-0.07525592,-0.8744004,0.4397225,-2.157881,-0.3700277,-0.01998681
506.6957,-0.07525592,-0.8744004,0.4397225,-2.157881,-0.3700277,-0.01998681
506.7098,-0.073917,-0.8632143,0.4399266,-2.156891,-0.3692172,-0.01998616
506.7254,-0.07260027,-0.8528844,0.440088,-2.156133,-0.3686429,-0.01998599
506.7405,-0.07129328,-0.8431208,0.4402881,-2.155461,-0.3680725,-0.01998575
506.7552,-0.07129328,-0.8431208,0.4402881,-2.155461,-0.3680725,-0.01998575
506.7694,-0.06999286,-0.8337448,0.4405082,-2.154814,-0.3674897,-0.01998544
506.7848,-0.06869927,-0.8246464,0.4407323,-2.154175,-0.3669052,-0.01998509
506.7997,-0.06869927,-0.8246464,0.4407323,-2.154175,-0.3669052,-0.01998509
506.8138,-0.06742027,-0.8165188,0.4409125,-2.153739,-0.3665327,-0.01998519
506.8311,-0.06614696,-0.8090192,0.441128,-2.153363,-0.3661498,-0.0199852
506.8448,-0.06487796,-0.801936,0.4413602,-2.152993,-0.3657441,-0.01998511
506.8585,-0.06487796,-0.801936,0.4413602,-2.152993,-0.3657441,-0.01998511
506.8727,-0.06362075,-0.7959001,0.4415534,-2.152816,-0.3655322,-0.01998543
506.8881,-0.0623677,-0.7905305,0.4417819,-2.152685,-0.3652982,-0.01998563
506.9028,-0.06111802,-0.7855918,0.4420262,-2.152548,-0.3650333,-0.01998573
506.9174,-0.06111802,-0.7855918,0.4420262,-2.152548,-0.3650333,-0.01998573
506.9315,-0.05987331,-0.7809385,0.4422711,-2.15239,-0.3647518,-0.01998578
506.9472,-0.05864179,-0.777242,0.4424704,-2.152416,-0.3646674,-0.01998626
506.9619,-0.05741655,-0.7741469,0.4427033,-2.152483,-0.3645616,-0.01998662
506.9768,-0.05741655,-0.7741469,0.4427033,-2.152483,-0.3645616,-0.01998662
506.9908,-0.05619658,-0.7714332,0.4429521,-2.152541,-0.3644232,-0.01998688
507.0066,-0.05498302,-0.7689651,0.4432021,-2.152576,-0.3642654,-0.01998708
507.0216,-0.05378352,-0.7674199,0.4434071,-2.152791,-0.3643014,-0.01998771
507.0359,-0.05378352,-0.7674199,0.4434071,-2.152791,-0.3643014,-0.01998771
507.0502,-0.05259139,-0.7664464,0.4436463,-2.153044,-0.3643128,-0.01998822
507.0652,-0.05140538,-0.7658269,0.4439016,-2.153284,-0.3642882,-0.01998862
507.0809,-0.0502263,-0.7654272,0.4441586,-2.153497,-0.3642405,-0.01998896
507.0949,-0.0502263,-0.7654272,0.4441586,-2.153497,-0.3642405,-0.01998896
507.109,-0.04906147,-0.7659209,0.4443707,-2.153884,-0.3643824,-0.01998971
507.1242,-0.04790985,-0.7669634,0.4446194,-2.154303,-0.3644975,-0.01999035
507.1392,-0.04790985,-0.7669634,0.4446194,-2.154303,-0.3644975,-0.01999035
507.1531,-0.04677346,-0.7683374,0.4448885,-2.154702,-0.364572,-0.01999087
507.1686,-0.04565854,-0.7706702,0.4451203,-2.155271,-0.3648244,-0.01999177
507.1833,-0.04456454,-0.7735801,0.4453928,-2.15586,-0.365039,-0.01999253
507.198,-0.04456454,-0.7735801,0.4453928,-2.15586,-0.365039,-0.01999253
507.2122,-0.04348965,-0.7768308,0.4456853,-2.15642,-0.3652065,-0.01999316
507.2279,-0.0424319,-0.7802761,0.4459806,-2.156939,-0.365342,-0.01999372
507.2425,-0.04139565,-0.7845872,0.4462288,-2.157622,-0.3656645,-0.01999468
507.2573,-0.04139565,-0.7845872,0.4462288,-2.157622,-0.3656645,-0.01999468
507.2715,-0.04037895,-0.7894101,0.4465142,-2.158327,-0.3659529,-0.01999553
507.287,-0.03937951,-0.7945256,0.4468189,-2.159003,-0.366195,-0.01999624
507.3016,-0.03839527,-0.7997978,0.4471265,-2.159639,-0.3664042,-0.01999688
507.3186,-0.03839527,-0.7997978,0.4471265,-2.159639,-0.3664042,-0.01999688
507.3314,-0.03743082,-0.8059044,0.4473861,-2.160438,-0.3668014,-0.01999794
507.3461,-0.03648396,-0.8124961,0.4476835,-2.161258,-0.3671631,-0.01999886
507.3607,-0.03555243,-0.819356,0.4480008,-2.162047,-0.3674762,-0.01999965
507.3755,-0.03555243,-0.819356,0.4480008,-2.162047,-0.3674762,-0.01999965
507.3895,-0.03464072,-0.8271119,0.4482762,-2.162996,-0.3679664,-0.02000083
507.405,-0.03374606,-0.8353834,0.4485915,-2.163958,-0.3684132,-0.02000186
507.4199,-0.03374606,-0.8353834,0.4485915,-2.163958,-0.3684132,-0.02000186
507.4339,-0.0328659,-0.8439345,0.4489267,-2.164881,-0.3688053,-0.02000274
507.4498,-0.03199826,-0.8526194,0.4492647,-2.165753,-0.369158,-0.02000354
507.4643,-0.03114839,-0.8621094,0.4495516,-2.166781,-0.3696988,-0.02000476
507.4793,-0.03114839,-0.8621094,0.4495516,-2.166781,-0.3696988,-0.02000476
507.4934,-0.03031345,-0.8720516,0.4498764,-2.167823,-0.3702004,-0.02000584
507.5088,-0.02949116,-0.8822273,0.4502216,-2.168826,-0.3706482,-0.02000678
507.5235,-0.0286798,-0.892501,0.4505706,-2.169779,-0.3710558,-0.02000763
507.54,-0.0286798,-0.892501,0.4505706,-2.169779,-0.3710558,-0.02000763
507.5547,-0.02788524,-0.9035507,0.4508676,-2.170889,-0.3716542,-0.02000891
507.5692,-0.02710435,-0.9150282,0.4512035,-2.17201,-0.3722126,-0.02001005
507.5828,-0.02633485,-0.9267172,0.4515609,-2.173093,-0.3727151,-0.02001105
507.5974,-0.02633485,-0.9267172,0.4515609,-2.173093,-0.3727151,-0.02001105
507.6116,-0.02558252,-0.9392458,0.4518727,-2.174329,-0.3733985,-0.02001244
507.627,-0.02484352,-0.9522347,0.4522258,-2.17557,-0.3740338,-0.02001367
507.6417,-0.02411528,-0.9654488,0.4526008,-2.176765,-0.3746075,-0.02001475
507.6565,-0.02411528,-0.9654488,0.4526008,-2.176765,-0.3746075,-0.02001475
507.6708,-0.0233962,-0.9787421,0.4529799,-2.177901,-0.3751347,-0.02001573
507.6867,-0.02269308,-0.9927863,0.4533034,-2.179187,-0.3758555,-0.02001715
507.7013,-0.02200181,-1.00723,0.4536661,-2.180479,-0.3765334,-0.02001842
507.7158,-0.02200181,-1.00723,0.4536661,-2.180479,-0.3765334,-0.02001842
507.7299,-0.02131999,-1.021855,0.4540512,-2.181727,-0.3771509,-0.02001954
507.7457,-0.02064621,-1.036525,0.4544415,-2.182917,-0.3777214,-0.02002056
507.7604,-0.019988,-1.05192,0.4547623,-2.18394,-0.3785172,-0.02002165
507.7751,-0.019988,-1.05192,0.4547623,-2.18394,-0.3785172,-0.02002165
507.7912,-0.01934067,-1.067692,0.4551167,-2.184453,-0.3792947,-0.02002227
507.8055,-0.01870173,-1.083626,0.4555032,-2.184497,-0.3800082,-0.02002267
507.8193,-0.01870173,-1.083626,0.4555032,-2.184497,-0.3800082,-0.02002267
507.8333,-0.01807863,-1.10035,0.4558553,-2.184485,-0.3808866,-0.0200236
507.8487,-0.01746575,-1.117486,0.4562608,-2.184391,-0.3816932,-0.02002443
507.8632,-0.01686042,-1.134799,0.4566963,-2.184253,-0.3824143,-0.02002516
507.8779,-0.01686042,-1.134799,0.4566963,-2.184253,-0.3824143,-0.02002516
507.8921,-0.01626145,-1.152144,0.4571403,-2.184117,-0.383068,-0.02002582
507.9076,-0.0156776,-1.170192,0.4575278,-2.184218,-0.3839047,-0.02002696
507.9222,-0.01510264,-1.188593,0.4579512,-2.18434,-0.3846928,-0.02002787
507.9373,-0.01510264,-1.188593,0.4579512,-2.18434,-0.3846928,-0.02002787
507.9513,-0.01453402,-1.20713,0.4583951,-2.184386,-0.3854137,-0.02002857
507.9667,-0.01397079,-1.225668,0.4588448,-2.184353,-0.3860772,-0.02002915
507.9815,-0.01342247,-1.244884,0.4592398,-2.184483,-0.386926,-0.02003019
507.9963,-0.01342247,-1.244884,0.4592398,-2.184483,-0.386926,-0.02003019
508.0105,-0.01288184,-1.264435,0.4596728,-2.184587,-0.387725,-0.02003102
508.0258,-0.01234638,-1.284103,0.4601282,-2.184601,-0.3884537,-0.02003164
508.0416,-0.01181537,-1.303757,0.4605907,-2.184539,-0.389122,-0.02003216
508.0563,-0.01181537,-1.303757,0.4605907,-2.184539,-0.389122,-0.02003216
508.0694,-0.01129891,-1.324068,0.4609997,-2.184653,-0.3899713,-0.02003315
508.0847,-0.01078881,-1.344695,0.461445,-2.184752,-0.3907704,-0.02003393
508.0994,-0.01078881,-1.344695,0.461445,-2.184752,-0.3907704,-0.02003393
508.1135,-0.01028267,-1.365424,0.4619113,-2.184769,-0.3914995,-0.02003451
508.1291,-0.00960424,-1.373519,0.4632671,-2.181221,-0.3883004,-0.0200264
508.1436,-0.008860067,-1.373785,0.4638693,-2.177653,-0.3852901,-0.02002137
508.1585,-0.008860067,-1.373785,0.4638693,-2.177653,-0.3852901,-0.02002137
508.1729,-0.008054671,-1.369258,0.4639169,-2.17454,-0.3829869,-0.02001805
508.1882,-0.00727651,-1.361825,0.4638087,-2.171931,-0.3811716,-0.02001571
508.2032,-0.006555554,-1.352652,0.4637185,-2.169744,-0.379637,-0.02001382
508.2179,-0.006555554,-1.352652,0.4637185,-2.169744,-0.379637,-0.02001382
508.2321,-0.005888757,-1.342456,0.4636877,-2.167874,-0.3782652,-0.02001211
508.2475,-0.005263606,-1.331677,0.4637091,-2.166231,-0.3769965,-0.02001049
508.2621,-0.004668037,-1.320587,0.4637658,-2.16475,-0.3758008,-0.02000893
508.2782,-0.004668037,-1.320587,0.4637658,-2.16475,-0.3758008,-0.02000893
508.2921,-0.00409303,-1.309353,0.4638511,-2.163385,-0.3746716,-0.02000744
508.3068,-0.003532487,-1.29808,0.4639561,-2.162104,-0.3735885,-0.020006
508.3214,-0.002982482,-1.286832,0.4640709,-2.160887,-0.3725449,-0.0200046
508.3359,-0.002982482,-1.286832,0.4640709,-2.160887,-0.3725449,-0.0200046
508.35,-0.002440524,-1.275647,0.4634688,-2.159637,-0.370636,-0.02000051
508.3654,-0.001905099,-1.264551,0.4620423,-2.158414,-0.3688942,-0.01999692
508.3801,-0.001375272,-1.253557,0.4601658,-2.157244,-0.3673956,-0.01999402
508.3948,-0.001375272,-1.253557,0.4601658,-2.157244,-0.3673956,-0.01999402
508.409,-0.0008504669,-1.242674,0.4580885,-2.156128,-0.3660569,-0.01999155
508.426,-0.0003303164,-1.231907,0.4552068,-2.154979,-0.3639131,-0.0199866
508.4394,-0.0003303164,-1.231907,0.4552068,-2.154979,-0.3639131,-0.0199866
508.4535,0.0001853665,-1.221257,0.4514797,-2.153859,-0.361975,-0.01998226
508.4689,0.0006966931,-1.210727,0.447314,-2.152792,-0.3602991,-0.01997868
508.4835,0.001203726,-1.200316,0.4429714,-2.151781,-0.3587942,-0.01997556
508.4987,0.001203726,-1.200316,0.4429714,-2.151781,-0.3587942,-0.01997556
508.5123,0.001706516,-1.190024,0.4378438,-2.150739,-0.356491,-0.01997001
508.5289,0.002205056,-1.17985,0.4318972,-2.149729,-0.3544069,-0.01996512
508.5437,0.002699337,-1.169793,0.4255435,-2.148775,-0.352593,-0.01996099
508.5575,0.002699337,-1.169793,0.4255435,-2.148775,-0.352593,-0.01996099
508.5717,0.003189369,-1.159852,0.4183009,-2.147799,-0.35005,-0.01995467
508.5869,0.003675123,-1.150026,0.4102088,-2.146864,-0.3477695,-0.01994914
508.6015,0.004156578,-1.140314,0.4017154,-2.145992,-0.345782,-0.01994443
508.6163,0.004156578,-1.140314,0.4017154,-2.145992,-0.345782,-0.01994443
508.6304,0.00463372,-1.130713,0.3930973,-2.145181,-0.3439851,-0.01994025
508.6459,0.005106554,-1.121224,0.3837374,-2.144347,-0.3414033,-0.01993374
508.6605,0.00557505,-1.111845,0.3736113,-2.143552,-0.3390644,-0.01992795
508.6756,0.00557505,-1.111845,0.3736113,-2.143552,-0.3390644,-0.01992795
508.6898,0.00603919,-1.102575,0.3631389,-2.142818,-0.3370103,-0.01992298
508.7054,0.006498963,-1.093413,0.3525824,-2.142143,-0.3351451,-0.01991851
508.72,0.006498963,-1.093413,0.3525824,-2.142143,-0.3351451,-0.01991851
508.734,0.006954379,-1.084356,0.3413109,-2.141446,-0.332496,-0.01991177
508.7496,0.007405416,-1.075405,0.3293007,-2.14079,-0.3300976,-0.01990577
508.7654,0.007852062,-1.066558,0.3169738,-2.140193,-0.3279887,-0.01990059
508.7802,0.008294312,-1.057814,0.3045917,-2.139657,-0.3260724,-0.01989593
508.7941,0.008294312,-1.057814,0.3045917,-2.139657,-0.3260724,-0.01989593
508.8083,0.008732184,-1.049172,0.2915167,-2.139099,-0.3233751,-0.01988904
508.8233,0.009165662,-1.04063,0.2777277,-2.138582,-0.3209364,-0.01988293
508.8382,0.009165662,-1.04063,0.2777277,-2.138582,-0.3209364,-0.01988293
508.8521,0.009594744,-1.032187,0.2636493,-2.138126,-0.3187914,-0.01987762
508.8677,0.01001945,-1.023843,0.2487752,-2.137655,-0.3159327,-0.01987033
508.8824,0.01043977,-1.015596,0.2331561,-2.137232,-0.3133713,-0.01986391
508.8973,0.01043977,-1.015596,0.2331561,-2.137232,-0.3133713,-0.01986391
508.9115,0.0108557,-1.007446,0.2172505,-2.136873,-0.3111236,-0.01985835
508.9269,0.01126726,-0.9993899,0.2013336,-2.136574,-0.3090833,-0.01985334
508.9419,0.01167447,-0.9914283,0.1847645,-2.136258,-0.306272,-0.01984626
508.9566,0.01167447,-0.9914283,0.1847645,-2.136258,-0.306272,-0.01984626
508.9708,0.01207733,-0.9835596,0.1675282,-2.135986,-0.3037344,-0.01983995
508.9861,0.01247585,-0.9757828,0.150054,-2.135773,-0.3015003,-0.01983447
509.0029,0.01287004,-0.9680969,0.132603,-2.135618,-0.2994702,-0.01982955
509.0168,0.01287004,-0.9680969,0.132603,-2.135618,-0.2994702,-0.01982955
509.0308,0.01325994,-0.9605009,0.1145247,-2.135444,-0.2966686,-0.01982258
509.0451,0.01364554,-0.9529937,0.09580277,-2.135312,-0.2941442,-0.01981641
509.0597,0.01364554,-0.9529937,0.09580277,-2.135312,-0.2941442,-0.01981641
509.0739,0.01402687,-0.9455743,0.07686672,-2.135238,-0.2919255,-0.01981105
509.0897,0.01440396,-0.9382418,0.05720067,-2.13515,-0.2890017,-0.01980386
509.1043,0.01477682,-0.9309952,0.03685854,-2.13511,-0.286391,-0.01979757
509.119,0.01477682,-0.9309952,0.03685854,-2.13511,-0.286391,-0.01979757
509.1334,0.01514546,-0.9238335,0.01630267,-2.135129,-0.2841045,-0.01979213
509.1489,0.01550992,-0.9167558,-0.004192716,-2.135203,-0.2820342,-0.01978726
509.1636,0.01587022,-0.909761,-0.02527647,-2.135259,-0.2792009,-0.01978048
509.1783,0.01587022,-0.909761,-0.02527647,-2.135259,-0.2792009,-0.01978048
509.1925,0.01622639,-0.9028483,-0.04696221,-2.135356,-0.2766543,-0.01977449
509.2082,0.01657845,-0.8960167,-0.06881788,-2.135508,-0.2744208,-0.01976932
509.2231,0.01692641,-0.8892654,-0.09058295,-2.13571,-0.2723994,-0.01976471
509.2379,0.01692641,-0.8892654,-0.09058295,-2.13571,-0.2723994,-0.01976471
509.2538,0.01727032,-0.8825933,-0.1121352,-2.135956,-0.2705248,-0.01976049
509.2673,0.0176102,-0.8759996,-0.1334222,-2.13624,-0.2687648,-0.01975657
509.2819,0.01794608,-0.8694835,-0.1544235,-2.136558,-0.2671033,-0.0197529
509.2967,0.01794608,-0.8694835,-0.1544235,-2.136558,-0.2671033,-0.0197529
509.3108,0.018278,-0.8630439,-0.1751323,-2.136906,-0.2655319,-0.01974948
509.3262,0.01860598,-0.8566801,-0.1955482,-2.137283,-0.2640453,-0.01974627
509.3411,0.01893005,-0.8503911,-0.215673,-2.137686,-0.2626401,-0.01974328
509.356,0.01893005,-0.8503911,-0.215673,-2.137686,-0.2626401,-0.01974328
509.3702,0.01925026,-0.8441762,-0.2355098,-2.138112,-0.2613133,-0.01974049
509.3859,0.01956663,-0.8380345,-0.2550621,-2.138561,-0.2600624,-0.01973789
509.4003,0.01987919,-0.8319651,-0.2743336,-2.13903,-0.258885,-0.01973548
509.4153,0.01987919,-0.8319651,-0.2743336,-2.13903,-0.258885,-0.01973548
509.4296,0.02018799,-0.8259672,-0.2933278,-2.139518,-0.2577789,-0.01973325
509.4452,0.02049305,-0.82004,-0.3120486,-2.140023,-0.256742,-0.01973119
509.4599,0.02049305,-0.82004,-0.3120486,-2.140023,-0.256742,-0.01973119
509.476,0.02079442,-0.8141826,-0.3304997,-2.140545,-0.2557721,-0.01972929
509.4896,0.02109212,-0.8083944,-0.3486846,-2.141081,-0.2548671,-0.01972754
509.5045,0.0213862,-0.8026744,-0.366607,-2.14163,-0.2540252,-0.01972596
509.5191,0.0213862,-0.8026744,-0.366607,-2.14163,-0.2540252,-0.01972596
509.5334,0.02167668,-0.7970218,-0.3842706,-2.142191,-0.2532444,-0.01972453
509.5487,0.02196361,-0.791436,-0.4016789,-2.142764,-0.2525228,-0.01972322
509.5636,0.02224701,-0.7859161,-0.4188353,-2.143345,-0.2518585,-0.01972206
509.5783,0.02224701,-0.7859161,-0.4188353,-2.143345,-0.2518585,-0.01972206
509.5926,0.02252694,-0.7804614,-0.4357436,-2.143936,-0.2512499,-0.01972103
509.6084,0.02280342,-0.7750711,-0.452407,-2.144533,-0.2506952,-0.01972011
509.6229,0.02307648,-0.7697445,-0.468829,-2.145138,-0.2501928,-0.01971932
509.6381,0.02307648,-0.7697445,-0.468829,-2.145138,-0.2501928,-0.01971932
509.652,0.02334618,-0.7644808,-0.485013,-2.145747,-0.2497409,-0.01971864
509.6677,0.02361253,-0.7592793,-0.5009624,-2.146361,-0.2493381,-0.01971808
509.6822,0.02387558,-0.7541394,-0.5166805,-2.146979,-0.2489827,-0.01971762
509.697,0.02387558,-0.7541394,-0.5166805,-2.146979,-0.2489827,-0.01971762
509.7122,0.02413537,-0.7490602,-0.5321705,-2.1476,-0.2486733,-0.01971726
509.7269,0.02439193,-0.744041,-0.5474356,-2.148223,-0.2484084,-0.019717
509.7414,0.0246453,-0.7390813,-0.5624792,-2.148847,-0.2481866,-0.01971683
509.7561,0.0246453,-0.7390813,-0.5624792,-2.148847,-0.2481866,-0.01971683
509.7704,0.02489551,-0.7341802,-0.5773042,-2.149472,-0.2480065,-0.01971675
509.7856,0.0251426,-0.7293372,-0.5919139,-2.150096,-0.2478667,-0.01971675
509.8004,0.02538661,-0.7245514,-0.6063114,-2.15072,-0.247766,-0.01971684
509.8152,0.02538661,-0.7245514,-0.6063114,-2.15072,-0.247766,-0.01971684
509.8296,0.02562756,-0.7198223,-0.6204996,-2.151343,-0.247703,-0.01971701
509.845,0.02586551,-0.7151492,-0.6344815,-2.151963,-0.2476765,-0.01971726
509.8598,0.02586551,-0.7151492,-0.6344815,-2.151963,-0.2476765,-0.01971726
509.8741,0.02610047,-0.7105314,-0.6482602,-2.152582,-0.2476853,-0.01971758
509.8896,0.02633249,-0.7059684,-0.6618385,-2.153197,-0.2477282,-0.01971796
509.9047,0.0265616,-0.7014593,-0.6752193,-2.153808,-0.247804,-0.01971841
509.9191,0.0265616,-0.7014593,-0.6752193,-2.153808,-0.247804,-0.01971841
509.9357,0.02678784,-0.6970038,-0.6884055,-2.154416,-0.2479117,-0.01971893
509.9496,0.02701123,-0.692601,-0.7013999,-2.15502,-0.2480501,-0.01971951
509.9633,0.02723183,-0.6882504,-0.7142053,-2.155618,-0.2482181,-0.01972015
509.9782,0.02723183,-0.6882504,-0.7142053,-2.155618,-0.2482181,-0.01972015
509.992,0.02744965,-0.6839514,-0.7268243,-2.156212,-0.2484148,-0.01972085
510.0077,0.02766473,-0.6797034,-0.7392597,-2.1568,-0.248639,-0.01972159
510.0226,0.0278771,-0.6755057,-0.7515141,-2.157382,-0.2488899,-0.01972239
510.0374,0.0278771,-0.6755057,-0.7515141,-2.157382,-0.2488899,-0.01972239
510.0513,0.02808681,-0.6713578,-0.7635902,-2.157958,-0.2491665,-0.01972324
510.067,0.02829387,-0.6672591,-0.7754905,-2.158527,-0.2494677,-0.01972414
510.0816,0.02849833,-0.663209,-0.7872176,-2.15909,-0.2497928,-0.01972508
510.0965,0.02849833,-0.663209,-0.7872176,-2.15909,-0.2497928,-0.01972508
510.1106,0.02870021,-0.659207,-0.7987739,-2.159646,-0.2501408,-0.01972607
510.126,0.02889955,-0.6552525,-0.8101621,-2.160195,-0.2505109,-0.01972709
510.1412,0.02909638,-0.6513448,-0.8213845,-2.160737,-0.2509022,-0.01972816
510.1559,0.02909638,-0.6513448,-0.8213845,-2.160737,-0.2509022,-0.01972816
510.1723,0.02929073,-0.6474836,-0.8324436,-2.161271,-0.2513138,-0.01972926
510.1864,0.02948263,-0.6436682,-0.8433416,-2.161798,-0.2517451,-0.0197304
510.2001,0.02967212,-0.6398981,-0.8540809,-2.162316,-0.2521951,-0.01973158
510.2148,0.02967212,-0.6398981,-0.8540809,-2.162316,-0.2521951,-0.01973158
510.2288,0.02985921,-0.6361727,-0.8646639,-2.162827,-0.2526633,-0.01973279
510.2444,0.03004395,-0.6324916,-0.8750928,-2.163329,-0.2531487,-0.01973402
510.2591,0.03004395,-0.6324916,-0.8750928,-2.163329,-0.2531487,-0.01973402
510.2733,0.03022636,-0.6288543,-0.8853698,-2.163824,-0.2536507,-0.01973529
510.2887,0.03040647,-0.6252601,-0.8954972,-2.16431,-0.2541686,-0.01973659
510.3036,0.03058431,-0.6217086,-0.9054771,-2.164787,-0.2547017,-0.01973791
510.3184,0.03058431,-0.6217086,-0.9054771,-2.164787,-0.2547017,-0.01973791
510.3323,0.0307599,-0.6181993,-0.9153117,-2.165256,-0.2552494,-0.01973926
510.3481,0.03093329,-0.6147317,-0.9250031,-2.165717,-0.2558109,-0.01974064
510.3626,0.03110449,-0.6113054,-0.9345533,-2.166169,-0.2563857,-0.01974204
510.3776,0.03110449,-0.6113054,-0.9345533,-2.166169,-0.2563857,-0.01974204
510.3915,0.03127353,-0.6079197,-0.9439644,-2.166612,-0.2569732,-0.01974346
510.4091,0.03144045,-0.6045743,-0.9532385,-2.167047,-0.2575727,-0.0197449
510.4229,0.03160526,-0.6012686,-0.9623775,-2.167473,-0.2581837,-0.01974637
510.4366,0.03160526,-0.6012686,-0.9623775,-2.167473,-0.2581837,-0.01974637
510.4507,0.03176799,-0.5980022,-0.9713834,-2.16789,-0.2588057,-0.01974785
510.4659,0.03192868,-0.5947746,-0.9802581,-2.168299,-0.2594379,-0.01974935
510.4808,0.03208734,-0.5915854,-0.9890035,-2.168699,-0.2600801,-0.01975087
510.497,0.03208734,-0.5915854,-0.9890035,-2.168699,-0.2600801,-0.01975087
510.5098,0.03224401,-0.5884341,-0.9976216,-2.16909,-0.2607315,-0.0197524
510.5251,0.03239871,-0.5853203,-1.006114,-2.169473,-0.2613917,-0.01975395
510.5401,0.03255146,-0.5822435,-1.014483,-2.169847,-0.2620602,-0.01975551
510.5551,0.03255146,-0.5822435,-1.014483,-2.169847,-0.2620602,-0.01975551
510.5696,0.03270229,-0.5792033,-1.02273,-2.170212,-0.2627366,-0.01975708
510.5845,0.03285122,-0.5761993,-1.030857,-2.170568,-0.2634203,-0.01975867
510.5993,0.03285122,-0.5761993,-1.030857,-2.170568,-0.2634203,-0.01975867
510.6134,0.03299829,-0.573231,-1.038865,-2.170917,-0.264111,-0.01976027
510.629,0.0331435,-0.570298,-1.046757,-2.171257,-0.2648081,-0.01976188
510.6435,0.03328689,-0.5673999,-1.054533,-2.171588,-0.2655113,-0.0197635
510.6591,0.03328689,-0.5673999,-1.054533,-2.171588,-0.2655113,-0.0197635
510.6733,0.03342848,-0.5645362,-1.062196,-2.171911,-0.2662202,-0.01976513
510.6878,0.03356829,-0.5617067,-1.069748,-2.172225,-0.2669343,-0.01976677
510.7025,0.03370634,-0.5589108,-1.07719,-2.172532,-0.2676532,-0.01976842
510.7171,0.03370634,-0.5589108,-1.07719,-2.172532,-0.2676532,-0.01976842
510.7311,0.03384266,-0.5561482,-1.084523,-2.17283,-0.2683766,-0.01977007
510.7467,0.03397728,-0.5534184,-1.091749,-2.17312,-0.2691042,-0.01977173
510.7615,0.0341102,-0.5507211,-1.09887,-2.173402,-0.2698355,-0.0197734
510.7762,0.0341102,-0.5507211,-1.09887,-2.173402,-0.2698355,-0.0197734
510.7905,0.03424146,-0.5480559,-1.105887,-2.173676,-0.2705702,-0.01977507
510.806,0.03437108,-0.5454225,-1.112802,-2.173942,-0.2713079,-0.01977675
510.8209,0.03449907,-0.5428204,-1.119615,-2.174201,-0.2720484,-0.01977844
510.8358,0.03449907,-0.5428204,-1.119615,-2.174201,-0.2720484,-0.01977844
510.8496,0.03462546,-0.5402492,-1.12633,-2.174451,-0.2727914,-0.01978012
510.8652,0.03475027,-0.5377087,-1.132946,-2.174694,-0.2735365,-0.01978181
510.8798,0.03475027,-0.5377087,-1.132946,-2.174694,-0.2735365,-0.01978181
510.8961,0.03487352,-0.5351984,-1.139467,-2.17493,-0.2742834,-0.01978351
510.9093,0.03499522,-0.532718,-1.145891,-2.175158,-0.2750319,-0.0197852
510.9241,0.0351154,-0.5302671,-1.152223,-2.175379,-0.2757816,-0.01978689
510.9389,0.0351154,-0.5302671,-1.152223,-2.175379,-0.2757816,-0.01978689
510.9529,0.03523408,-0.5278454,-1.158461,-2.175592,-0.2765324,-0.01978859
510.9685,0.03535128,-0.5254526,-1.164609,-2.175798,-0.2772839,-0.01979029
510.9832,0.03546701,-0.5230882,-1.170667,-2.175997,-0.2780358,-0.019792
510.9977,0.03546701,-0.5230882,-1.170667,-2.175997,-0.2780358,-0.019792
511.012,0.0355813,-0.520752,-1.176637,-2.176189,-0.2787881,-0.0197937
511.0275,0.03569417,-0.5184435,-1.182519,-2.176375,-0.2795403,-0.0197954
511.0423,0.03580562,-0.5161626,-1.188316,-2.176553,-0.2802924,-0.0197971
511.0574,0.03580562,-0.5161626,-1.188316,-2.176553,-0.2802924,-0.0197971
511.0713,0.03591569,-0.5139089,-1.194028,-2.176725,-0.281044,-0.0197988
511.087,0.03602438,-0.511682,-1.199656,-2.17689,-0.2817949,-0.0198005
511.1016,0.03613172,-0.5094816,-1.205202,-2.177049,-0.282545,-0.0198022
511.1162,0.03613172,-0.5094816,-1.205202,-2.177049,-0.282545,-0.0198022
511.1325,0.03623773,-0.5073074,-1.210667,-2.177202,-0.2832941,-0.01980389
511.1468,0.03634241,-0.5051591,-1.216053,-2.177348,-0.2840419,-0.01980558
511.1608,0.03644579,-0.5030364,-1.221359,-2.177488,-0.2847888,-0.01980728
511.1753,0.03644579,-0.5030364,-1.221359,-2.177488,-0.2847888,-0.01980728
511.1892,0.03654789,-0.500939,-1.226587,-2.177622,-0.2855341,-0.01980897
511.2048,0.03664871,-0.4988666,-1.231738,-2.17775,-0.2862775,-0.01981065
511.2198,0.03664871,-0.4988666,-1.231738,-2.17775,-0.2862775,-0.01981065
511.2337,0.03674829,-0.4968188,-1.23611,-2.177938,-0.2879161,-0.0198146
511.2491,0.03684662,-0.4947955,-1.239586,-2.178135,-0.2894296,-0.01981821
511.2637,0.03694372,-0.4927963,-1.242537,-2.17832,-0.2907299,-0.01982129
511.2787,0.03694372,-0.4927963,-1.242537,-2.17832,-0.2907299,-0.01982129
511.2931,0.03703962,-0.4908209,-1.245216,-2.178488,-0.2918966,-0.01982403
511.3084,0.03713433,-0.488869,-1.247049,-2.178708,-0.2938868,-0.0198289
511.3231,0.03722786,-0.4869404,-1.247978,-2.178933,-0.2957142,-0.01983332
511.3381,0.03722786,-0.4869404,-1.247978,-2.178933,-0.2957142,-0.01983332
511.3521,0.03732023,-0.4850347,-1.248398,-2.179142,-0.297305,-0.01983715
511.3676,0.03741146,-0.4831518,-1.248572,-2.17933,-0.298745,-0.0198406
511.3831,0.03750155,-0.4812913,-1.247934,-2.179569,-0.300994,-0.01984617
511.3967,0.03750155,-0.4812913,-1.247934,-2.179569,-0.300994,-0.01984617
511.4109,0.03759053,-0.4794529,-1.246426,-2.179813,-0.3030695,-0.01985128
511.4264,0.03767841,-0.4776365,-1.244442,-2.180038,-0.3048973,-0.01985576
511.441,0.0377652,-0.4758417,-1.242245,-2.180243,-0.3065635,-0.01985983
511.4557,0.0377652,-0.4758417,-1.242245,-2.180243,-0.3065635,-0.01985983
511.47,0.03785093,-0.4740683,-1.239271,-2.180497,-0.3090273,-0.01986604
511.4853,0.03793559,-0.4723161,-1.23546,-2.180757,-0.3113092,-0.01987177
511.5002,0.03801921,-0.4705847,-1.231205,-2.180997,-0.3133341,-0.01987682
511.5152,0.03801921,-0.4705847,-1.231205,-2.180997,-0.3133341,-0.01987682
511.5294,0.0381018,-0.4688739,-1.226074,-2.181286,-0.3160823,-0.01988386
511.5446,0.03818337,-0.4671835,-1.220076,-2.181576,-0.3186067,-0.01989029
511.5598,0.03818337,-0.4671835,-1.220076,-2.181576,-0.3186067,-0.01989029
511.5736,0.03826393,-0.4655133,-1.213639,-2.181843,-0.3208492,-0.01989599
511.5891,0.0383435,-0.4638629,-1.207038,-2.182084,-0.3229038,-0.01990121
511.6041,0.0384221,-0.4622323,-1.199721,-2.182358,-0.325734,-0.01990858
511.6198,0.0384221,-0.4622323,-1.199721,-2.182358,-0.325734,-0.01990858
511.6337,0.03849972,-0.460621,-1.191632,-2.182532,-0.328374,-0.01991533
511.6481,0.0385764,-0.459029,-1.183158,-2.182574,-0.3307434,-0.01992132
511.663,0.03865213,-0.457456,-1.174558,-2.182523,-0.3329228,-0.01992685
511.6777,0.03865213,-0.457456,-1.174558,-2.182523,-0.3329228,-0.01992685
511.6918,0.03872694,-0.4559017,-1.165273,-2.182513,-0.3358676,-0.01993461
511.7072,0.03880084,-0.4543659,-1.155241,-2.182508,-0.3386087,-0.01994182
511.722,0.03887382,-0.4528484,-1.14485,-2.182486,-0.341069,-0.01994828
511.7368,0.03887382,-0.4528484,-1.14485,-2.182486,-0.341069,-0.01994828
511.7509,0.03894592,-0.451349,-1.133671,-2.182524,-0.3442258,-0.01995678
511.7664,0.03901713,-0.4498675,-1.121713,-2.182558,-0.3471407,-0.0199646
511.7812,0.03908747,-0.4484036,-1.109396,-2.182553,-0.3497528,-0.01997158
511.796,0.03908747,-0.4484036,-1.109396,-2.182553,-0.3497528,-0.01997158
511.8102,0.03915696,-0.4469572,-1.096995,-2.182515,-0.3521544,-0.01997801
511.826,0.0392256,-0.445528,-1.08396,-2.182542,-0.3553057,-0.01998672
511.8404,0.03929341,-0.4441159,-1.070231,-2.182573,-0.3582425,-0.01999479
511.8564,0.03929341,-0.4441159,-1.070231,-2.182573,-0.3582425,-0.01999479
511.8702,0.03936039,-0.4427206,-1.056194,-2.18257,-0.3608869,-0.02000203
511.8847,0.03942655,-0.4413419,-1.042108,-2.182535,-0.3633228,-0.02000872
511.8995,0.03942655,-0.4413419,-1.042108,-2.182535,-0.3633228,-0.02000872
511.9132,0.03949192,-0.4399796,-1.027419,-2.182566,-0.3665061,-0.02001773
511.9288,0.03955649,-0.4386336,-1.012062,-2.1826,-0.3694727,-0.02002607
511.9435,0.03962027,-0.4373036,-0.9964204,-2.182596,-0.3721435,-0.02003357
511.9587,0.03962027,-0.4373036,-0.9964204,-2.182596,-0.3721435,-0.02003357
511.9726,0.03968329,-0.4359895,-0.9800683,-2.18264,-0.3754929,-0.0200432
511.988,0.03974554,-0.434691,-0.963012,-2.18267,-0.378587,-0.02005205
512.0028,0.03980703,-0.433408,-0.9456677,-2.182654,-0.3813632,-0.02005998
512.0178,0.03980703,-0.433408,-0.9456677,-2.182654,-0.3813632,-0.02005998
512.0317,0.03986779,-0.4321402,-0.928308,-2.182604,-0.3839129,-0.02006731
512.0472,0.03992781,-0.4308876,-0.9103878,-2.182625,-0.3871952,-0.02007699
512.062,0.03998711,-0.4296499,-0.8918453,-2.182654,-0.3902516,-0.02008596
512.0768,0.03998711,-0.4296499,-0.8918453,-2.182654,-0.3902516,-0.02008596
512.0908,0.04004569,-0.428427,-0.8730624,-2.182649,-0.393003,-0.02009404
512.1074,0.04010357,-0.4272186,-0.8542957,-2.18261,-0.3955323,-0.02010149
512.1212,0.04016076,-0.4260246,-0.8356829,-2.182554,-0.3978942,-0.02010851
512.1357,0.04016076,-0.4260246,-0.8356829,-2.182554,-0.3978942,-0.02010851
512.1497,0.04021725,-0.4248449,-0.8172846,-2.182502,-0.4001352,-0.02011523
512.1651,0.04027307,-0.4236792,-0.7991219,-2.182461,-0.4022751,-0.0201217
512.1797,0.04027307,-0.4236792,-0.7991219,-2.182461,-0.4022751,-0.0201217
512.194,0.04032822,-0.4225274,-0.7812015,-2.182432,-0.4043235,-0.02012794
512.2094,0.04038271,-0.4213894,-0.7635241,-2.182412,-0.4062857,-0.02013395
512.2241,0.04043655,-0.4202649,-0.7460883,-2.182396,-0.4081654,-0.02013974
512.2393,0.04043655,-0.4202649,-0.7460883,-2.182396,-0.4081654,-0.02013974
512.2532,0.04048974,-0.4191538,-0.7288914,-2.182381,-0.4099653,-0.02014532
512.2688,0.0405422,-0.418056,-0.7123694,-2.171711,-0.4126675,-0.02013602
512.2834,0.04059402,-0.4169714,-0.6958554,-2.155005,-0.4151706,-0.02013273
512.2983,0.04059402,-0.4169714,-0.6958554,-2.155005,-0.4151706,-0.02013273
512.3123,0.04064523,-0.4158996,-0.6793287,-2.135576,-0.4173454,-0.02013185
512.3278,0.04069585,-0.4148406,-0.6628486,-2.115007,-0.4192569,-0.020132
512.3436,0.0407459,-0.4137941,-0.646489,-2.092813,-0.421061,-0.02013102
512.3585,0.0407459,-0.4137941,-0.646489,-2.092813,-0.421061,-0.02013102
512.3713,0.04079539,-0.4127601,-0.6301966,-2.069891,-0.4226509,-0.02013086
512.3868,0.04084432,-0.4117384,-0.6139877,-2.046798,-0.4240338,-0.02013099
512.4012,0.0408927,-0.4107288,-0.5978803,-2.023795,-0.4252267,-0.02013119
512.4163,0.0408927,-0.4107288,-0.5978803,-2.023795,-0.4252267,-0.02013119
512.4302,0.04094053,-0.4097311,-0.5819167,-1.999766,-0.4263302,-0.02013001
512.4457,0.04098782,-0.4087454,-0.5660586,-1.975306,-0.4272308,-0.02012932
512.4605,0.04103459,-0.4077713,-0.5503262,-1.950828,-0.4279416,-0.02012879
512.4752,0.04103459,-0.4077713,-0.5503262,-1.950828,-0.4279416,-0.02012879
512.4896,0.04108082,-0.4068089,-0.5347541,-1.925284,-0.4285512,-0.02012704
512.505,0.04112653,-0.4058578,-0.5193189,-1.899306,-0.4289654,-0.02012574
512.5197,0.04112653,-0.4058578,-0.5193189,-1.899306,-0.4289654,-0.02012574
512.5338,0.04117174,-0.4049181,-0.5040385,-1.87332,-0.4292038,-0.02012462
512.5493,0.04121644,-0.4039895,-0.488925,-1.847529,-0.4292832,-0.02012354
512.5643,0.04126063,-0.4030719,-0.4739963,-1.820784,-0.4292644,-0.02012134
512.58,0.04130433,-0.4021653,-0.4592427,-1.79367,-0.4290841,-0.02011952
512.5947,0.04130433,-0.4021653,-0.4592427,-1.79367,-0.4290841,-0.02011952
512.6089,0.04134754,-0.4012694,-0.4446753,-1.766591,-0.4287616,-0.02011787
512.623,0.04139027,-0.4003842,-0.4303006,-1.739737,-0.4283116,-0.02011629
512.6379,0.04139027,-0.4003842,-0.4303006,-1.739737,-0.4283116,-0.02011629
512.652,0.04143252,-0.3995094,-0.4161238,-1.713051,-0.4277488,-0.02011463
512.6675,0.0414743,-0.3986451,-0.4021479,-1.686637,-0.4270787,-0.02011303
512.6821,0.0415156,-0.397791,-0.3883758,-1.660555,-0.4263109,-0.02011145
512.697,0.0415156,-0.397791,-0.3883758,-1.660555,-0.4263109,-0.02011145
512.7111,0.04155643,-0.3969471,-0.3748097,-1.634833,-0.4254541,-0.02010991
512.7269,0.04159678,-0.3961132,-0.361451,-1.609482,-0.4245157,-0.02010839
512.7416,0.04163667,-0.3952893,-0.3483006,-1.584504,-0.4235024,-0.02010693
512.7564,0.04163667,-0.3952893,-0.3483006,-1.584504,-0.4235024,-0.02010693
512.7705,0.04167609,-0.3944751,-0.3353589,-1.559896,-0.4224206,-0.02010555
512.7859,0.04171505,-0.3936707,-0.3226261,-1.535657,-0.4212758,-0.02010421
512.8004,0.04175354,-0.3928758,-0.310102,-1.511782,-0.4200731,-0.02010289
512.8154,0.04175354,-0.3928758,-0.310102,-1.511782,-0.4200731,-0.02010289
512.8305,0.04179157,-0.3920904,-0.2977861,-1.488267,-0.4188173,-0.02010155
512.8449,0.04182913,-0.3913144,-0.2856779,-1.465107,-0.4175125,-0.0201002
512.8596,0.04182913,-0.3913144,-0.2856779,-1.465107,-0.4175125,-0.0201002
512.8737,0.04186624,-0.3905477,-0.2737765,-1.442298,-0.4161626,-0.02009886
512.8897,0.04190289,-0.3897901,-0.2620811,-1.419835,-0.4147709,-0.02009756
512.9041,0.04193908,-0.3890416,-0.2505906,-1.397712,-0.4133406,-0.0200963
512.9188,0.04193908,-0.3890416,-0.2505906,-1.397712,-0.4133406,-0.0200963
512.9328,0.04197482,-0.388302,-0.2393041,-1.375927,-0.4118745,-0.02009508
512.9484,0.0420101,-0.3875712,-0.2282203,-1.354473,-0.4103754,-0.0200939
512.9632,0.04204494,-0.3868492,-0.2173384,-1.333346,-0.4088457,-0.02009276
512.9783,0.04204494,-0.3868492,-0.2173384,-1.333346,-0.4088457,-0.02009276
512.9923,0.04207934,-0.3861358,-0.2066569,-1.312543,-0.4072881,-0.02009166
513.0084,0.04211329,-0.385431,-0.1961746,-1.292057,-0.4057054,-0.0200906
513.0227,0.04214681,-0.3847346,-0.18589,-1.271885,-0.4041003,-0.02008957
513.0375,0.04214681,-0.3847346,-0.18589,-1.271885,-0.4041003,-0.02008957
513.0518,0.04217989,-0.3840466,-0.1758016,-1.252023,-0.4024762,-0.02008858
513.068,0.04221254,-0.3833667,-0.1659076,-1.232465,-0.4008365,-0.02008761
513.0817,0.04224477,-0.382695,-0.156206,-1.213209,-0.3991846,-0.02008668
513.0967,0.04224477,-0.382695,-0.156206,-1.213209,-0.3991846,-0.02008668
513.1105,0.04227657,-0.3820314,-0.1466947,-1.194248,-0.3975243,-0.02008576
513.1257,0.04230797,-0.3813757,-0.1373712,-1.17558,-0.3958592,-0.02008484
513.1408,0.04233894,-0.3807279,-0.1282333,-1.157199,-0.394193,-0.02008395
513.1557,0.04233894,-0.3807279,-0.1282333,-1.157199,-0.394193,-0.02008395
513.1698,0.04236952,-0.3800879,-0.1192782,-1.139102,-0.3925292,-0.02008305
513.185,0.04239969,-0.3794554,-0.1105033,-1.121285,-0.3908712,-0.02008217
513.2,0.04242947,-0.3788306,-0.1019059,-1.103744,-0.389222,-0.02008128
513.2148,0.04242947,-0.3788306,-0.1019059,-1.103744,-0.389222,-0.02008128
513.2292,0.04245885,-0.3782133,-0.09348305,-1.086474,-0.3875847,-0.02008039
513.2446,0.04248786,-0.3776034,-0.08523199,-1.069472,-0.385962,-0.0200795
513.2592,0.04248786,-0.3776034,-0.08523199,-1.069472,-0.385962,-0.0200795
513.2736,0.04251647,-0.3770007,-0.07714982,-1.052733,-0.3843564,-0.0200786
513.289,0.04254472,-0.3764054,-0.06923364,-1.036254,-0.3827701,-0.02007769
513.305,0.04257259,-0.3758171,-0.06148058,-1.020031,-0.3812052,-0.02007677
513.3184,0.04257259,-0.3758171,-0.06148058,-1.020031,-0.3812052,-0.02007677
513.3325,0.0426001,-0.3752359,-0.05388776,-1.00406,-0.3796636,-0.02007584
513.3478,0.04262724,-0.3746616,-0.0464523,-0.9883378,-0.378147,-0.02007491
513.3625,0.04265403,-0.3740942,-0.03917134,-0.9728599,-0.3766568,-0.02007395
513.3774,0.04265403,-0.3740942,-0.03917134,-0.9728599,-0.3766568,-0.02007395
513.3915,0.04268047,-0.3735337,-0.03204207,-0.9576231,-0.3751943,-0.02007299
513.4072,0.04270656,-0.3729798,-0.02506167,-0.9426237,-0.3737608,-0.02007202
513.4218,0.04273231,-0.3724326,-0.01822736,-0.9278581,-0.3723571,-0.02007103
513.437,0.04273231,-0.3724326,-0.01822736,-0.9278581,-0.3723571,-0.02007103
513.4509,0.04275772,-0.371892,-0.0115364,-0.9133227,-0.3709843,-0.02007003
513.4663,0.04278281,-0.3713578,-0.004986065,-0.8990142,-0.3696429,-0.02006901
513.481,0.04280756,-0.37083,0.001426334,-0.8849291,-0.3683338,-0.02006798
513.4962,0.04280756,-0.37083,0.001426334,-0.8849291,-0.3683338,-0.02006798
513.5102,0.04283199,-0.3703086,0.007703455,-0.8710639,-0.3670573,-0.02006693
513.5268,0.04285611,-0.3697934,0.01384792,-0.8574154,-0.365814,-0.02006587
513.5414,0.04287991,-0.3692843,0.01986231,-0.8439803,-0.3646041,-0.0200648
513.5552,0.04287991,-0.3692843,0.01986231,-0.8439803,-0.3646041,-0.0200648
513.5695,0.0429034,-0.3687814,0.02574919,-0.8307552,-0.3634279,-0.0200637
513.5846,0.04292659,-0.3682844,0.03151107,-0.8177369,-0.3622856,-0.02006259
513.5992,0.04292659,-0.3682844,0.03151107,-0.8177369,-0.3622856,-0.02006259
513.6135,0.04294948,-0.3677935,0.03715044,-0.8049224,-0.3611773,-0.02006146
513.629,0.04297207,-0.3673084,0.04266973,-0.7923084,-0.360103,-0.02006032
513.6437,0.04299437,-0.3668291,0.04807138,-0.779892,-0.3590626,-0.02005915
513.6586,0.04299437,-0.3668291,0.04807138,-0.779892,-0.3590626,-0.02005915
513.673,0.04301638,-0.3663556,0.05335776,-0.76767,-0.3580562,-0.02005797
513.6886,0.0430381,-0.3658877,0.05853121,-0.7556396,-0.3570835,-0.02005677
513.7036,0.04305955,-0.3654254,0.06359404,-0.7437976,-0.3561445,-0.02005555
513.7182,0.04305955,-0.3654254,0.06359404,-0.7437976,-0.3561445,-0.02005555
513.7326,0.04308072,-0.3649687,0.06854853,-0.7321413,-0.3552388,-0.02005431
513.748,0.04310162,-0.3645175,0.07339692,-0.7206677,-0.3543663,-0.02005305
513.7637,0.04312225,-0.3640716,0.07814142,-0.709374,-0.3535266,-0.02005177
513.7785,0.04312225,-0.3640716,0.07814142,-0.709374,-0.3535266,-0.02005177
513.7915,0.04314262,-0.363631,0.0827842,-0.6982574,-0.3527195,-0.02005046
513.807,0.04316272,-0.3631958,0.08732739,-0.6873152,-0.3519444,-0.02004913
513.8218,0.04318257,-0.3627657,0.09177311,-0.6765448,-0.3512012,-0.02004778
513.8368,0.04318257,-0.3627657,0.09177311,-0.6765448,-0.3512012,-0.02004778
513.8508,0.04320217,-0.3623408,0.09612341,-0.6659434,-0.3504894,-0.02004641
513.8662,0.04322151,-0.361921,0.1003803,-0.6555084,-0.3498085,-0.02004501
513.8811,0.04324061,-0.3615063,0.1045459,-0.6452372,-0.3491582,-0.02004358
513.8961,0.04324061,-0.3615063,0.1045459,-0.6452372,-0.3491582,-0.02004358
513.9105,0.04325947,-0.3610964,0.1086221,-0.6351273,-0.348538,-0.02004213
513.9257,0.04327809,-0.3606915,0.1126108,-0.6251762,-0.3479473,-0.02004066
513.9407,0.04329647,-0.3602915,0.116514,-0.6153814,-0.3473858,-0.02003915
513.9554,0.04329647,-0.3602915,0.116514,-0.6153814,-0.3473858,-0.02003915
513.9699,0.04331462,-0.3598962,0.1203335,-0.6057404,-0.346853,-0.02003762
513.985,0.04333254,-0.3595056,0.1240712,-0.5962508,-0.3463482,-0.02003606
514.0009,0.04335023,-0.3591197,0.1277289,-0.5869104,-0.3458712,-0.02003448
514.0151,0.04335023,-0.3591197,0.1277289,-0.5869104,-0.3458712,-0.02003448
514.0288,0.0433677,-0.3587385,0.1313084,-0.5777168,-0.3454212,-0.02003286
514.044,0.04338494,-0.3583618,0.1348114,-0.5686677,-0.3449979,-0.02003121
514.0588,0.04338494,-0.3583618,0.1348114,-0.5686677,-0.3449979,-0.02003121
514.0731,0.04340198,-0.3579895,0.1382397,-0.5597608,-0.3446006,-0.02002953
514.0887,0.04341879,-0.3576218,0.1415949,-0.5509939,-0.344229,-0.02002782
514.1033,0.04343539,-0.3572584,0.1448787,-0.5423648,-0.3438824,-0.02002607
514.118,0.04343539,-0.3572584,0.1448787,-0.5423648,-0.3438824,-0.02002607
514.1324,0.04345179,-0.3568994,0.1481078,-0.534016,-0.3435811,-0.02002462
514.1479,0.04346799,-0.3565447,0.1512676,-0.5258827,-0.3433049,-0.020023
514.1627,0.04348398,-0.3561943,0.1543566,-0.5179178,-0.3430476,-0.0200213
514.1776,0.04348398,-0.3561943,0.1543566,-0.5179178,-0.3430476,-0.0200213
514.1915,0.04349978,-0.355848,0.1575133,-0.5113257,-0.3429911,-0.0200226
514.2073,0.0435154,-0.3555059,0.1605962,-0.5055637,-0.3429638,-0.02002261
514.2231,0.04353082,-0.3551678,0.1635795,-0.5002414,-0.3429163,-0.02002209
514.2379,0.04353082,-0.3551678,0.1635795,-0.5002414,-0.3429163,-0.02002209
514.2507,0.04354605,-0.3548338,0.1664767,-0.495171,-0.3428501,-0.02002135
514.2661,0.0435611,-0.3545038,0.169448,-0.4914891,-0.3429643,-0.02002387
514.2809,0.04357598,-0.3541777,0.1723535,-0.4886213,-0.3430904,-0.02002496
514.2955,0.04357598,-0.3541777,0.1723535,-0.4886213,-0.3430904,-0.02002496
514.3098,0.04359067,-0.3538556,0.17517,-0.486162,-0.3431832,-0.02002545
514.325,0.04360518,-0.3535373,0.1779133,-0.4839162,-0.3432473,-0.02002569
514.3401,0.04361953,-0.3532228,0.1807484,-0.4830177,-0.3434866,-0.02002937
514.355,0.04361953,-0.3532228,0.1807484,-0.4830177,-0.3434866,-0.02002937
514.3694,0.0436337,-0.352912,0.183531,-0.4828911,-0.3437301,-0.0200315
514.3846,0.0436477,-0.352605,0.1862369,-0.4831304,-0.3439326,-0.02003298
514.3996,0.0436477,-0.352605,0.1862369,-0.4831304,-0.3439326,-0.02003298
514.4136,0.04366155,-0.3523016,0.1890293,-0.4847689,-0.3442909,-0.02003775
514.4294,0.04367523,-0.3520018,0.1917667,-0.4871832,-0.3446347,-0.02004084
514.4442,0.04368874,-0.3517056,0.1944304,-0.4899445,-0.3449236,-0.02004322
514.4598,0.04368874,-0.3517056,0.1944304,-0.4899445,-0.3449236,-0.02004322
514.4739,0.04370208,-0.351413,0.1970393,-0.4928477,-0.3451659,-0.02004527
514.4886,0.0437154,-0.3511239,0.2008727,-0.5064858,-0.3470291,-0.02007711
514.5033,0.04372859,-0.3508382,0.2045177,-0.5261984,-0.3488906,-0.02009518
514.5176,0.04372859,-0.3508382,0.2045177,-0.5261984,-0.3488906,-0.02009518
514.5319,0.04374162,-0.350556,0.2077327,-0.5486239,-0.3503312,-0.02010727
514.5474,0.04375446,-0.3502771,0.2106571,-0.5721519,-0.3513969,-0.02011644
514.5624,0.04376714,-0.3500016,0.2134449,-0.596011,-0.3522018,-0.02012394
514.577,0.04376714,-0.3500016,0.2134449,-0.596011,-0.3522018,-0.02012394
514.5911,0.04377966,-0.3497294,0.2161954,-0.6198324,-0.3528352,-0.0201303
514.6068,0.04379202,-0.3494603,0.2189604,-0.6434408,-0.3533546,-0.02013577
514.6216,0.04380425,-0.3491945,0.2217618,-0.6667548,-0.3537947,-0.0201405
514.6368,0.04380425,-0.3491945,0.2217618,-0.6667548,-0.3537947,-0.0201405
514.6506,0.04381633,-0.3489318,0.2271662,-0.6897188,-0.3580224,-0.02014893
514.6692,0.04382829,-0.3486723,0.23297,-0.7123122,-0.3636578,-0.02015338
514.683,0.04384012,-0.3484159,0.238419,-0.7345469,-0.3695868,-0.02015654
514.6968,0.04384012,-0.3484159,0.238419,-0.7345469,-0.3695868,-0.02015654
514.71,0.04385184,-0.3481624,0.2423352,-0.7564454,-0.3736753,-0.02015768
514.7253,0.04386343,-0.347912,0.2458128,-0.7780188,-0.3770222,-0.02015996
514.7401,0.04387492,-0.3476645,0.2492358,-0.7992663,-0.3801322,-0.02016226
514.7549,0.04387492,-0.3476645,0.2492358,-0.7992663,-0.3801322,-0.02016226
514.769,0.04388628,-0.34742,0.252672,-0.8201866,-0.3831553,-0.02016429
514.7845,0.04389754,-0.3471783,0.2550428,-0.84079,-0.3841545,-0.02016491
514.7996,0.04389754,-0.3471783,0.2550428,-0.84079,-0.3841545,-0.02016491
514.8134,0.04390869,-0.3469395,0.2574172,-0.8610843,-0.384564,-0.02016647
514.8292,0.04391972,-0.3467036,0.260003,-0.8810638,-0.3848964,-0.02016788
514.844,0.04393065,-0.3464704,0.2627435,-0.9007264,-0.3852503,-0.02016896
514.8589,0.04393065,-0.3464704,0.2627435,-0.9007264,-0.3852503,-0.02016896
514.8734,0.04394148,-0.3462399,0.2645401,-0.9200839,-0.3834665,-0.02016904
514.8889,0.04395221,-0.3460122,0.2664918,-0.939147,-0.3812521,-0.02016988
514.9039,0.04396283,-0.3457871,0.2687063,-0.9579087,-0.3790727,-0.0201705
514.9192,0.04396283,-0.3457871,0.2687063,-0.9579087,-0.3790727,-0.0201705
514.9335,0.04397335,-0.3455648,0.2701075,-0.9763758,-0.374685,-0.02017039
514.9481,0.04398378,-0.345345,0.2717841,-0.9945589,-0.3700247,-0.02017083
514.9626,0.0439941,-0.3451278,0.2737532,-1.012449,-0.3654883,-0.020171
514.9772,0.0439941,-0.3451278,0.2737532,-1.012449,-0.3654883,-0.020171
514.9915,0.04400432,-0.3449132,0.2758913,-1.030047,-0.3610854,-0.02017088
515.0072,0.04401446,-0.3447011,0.2772219,-1.047362,-0.3543448,-0.02017044
515.022,0.0440245,-0.3444916,0.2788574,-1.06441,-0.3475031,-0.02017035
515.0368,0.0440245,-0.3444916,0.2788574,-1.06441,-0.3475031,-0.02017035
515.0508,0.04403444,-0.3442845,0.2807484,-1.081181,-0.3408482,-0.02016997
515.0663,0.04404429,-0.3440798,0.2827789,-1.097675,-0.3343618,-0.02016936
515.0812,0.04405406,-0.3438776,0.2840887,-1.113902,-0.3254625,-0.02016872
515.0962,0.04405406,-0.3438776,0.2840887,-1.113902,-0.3254625,-0.02016872
515.1105,0.04406373,-0.3436777,0.2857302,-1.129877,-0.3166355,-0.02016818
515.126,0.04407331,-0.3434802,0.2875926,-1.14559,-0.3080425,-0.02016735
515.1407,0.0440828,-0.343285,0.289572,-1.161042,-0.2996522,-0.02016634
515.1566,0.0440828,-0.343285,0.289572,-1.161042,-0.2996522,-0.02016634
515.1707,0.0440922,-0.3430921,0.2909339,-1.176243,-0.2888256,-0.02016547
515.1849,0.04410152,-0.3429015,0.2926195,-1.191204,-0.2782066,-0.02016449
515.1996,0.04410152,-0.3429015,0.2926195,-1.191204,-0.2782066,-0.02016449
515.2137,0.04411075,-0.3427132,0.2944886,-1.20592,-0.2678533,-0.02016327
515.2294,0.0441199,-0.342527,0.2958581,-1.220392,-0.2551014,-0.0201622
515.2441,0.04412896,-0.3423431,0.2975453,-1.234635,-0.2426429,-0.02016092
515.259,0.04412896,-0.3423431,0.2975453,-1.234635,-0.2426429,-0.02016092
515.2731,0.04413793,-0.3421613,0.2993995,-1.248642,-0.230483,-0.02015942
515.2888,0.04414682,-0.3419817,0.3013425,-1.262417,-0.2185934,-0.02015777
515.3038,0.04415563,-0.3418042,0.3028537,-1.275963,-0.2043371,-0.02015628
515.3203,0.04416436,-0.3416288,0.3046231,-1.289294,-0.1904206,-0.02015458
515.3331,0.04416436,-0.3416288,0.3046231,-1.289294,-0.1904206,-0.02015458
515.3474,0.044173,-0.3414554,0.3065212,-1.302406,-0.1768202,-0.02015269
515.3629,0.04418156,-0.3412842,0.3084874,-1.315303,-0.163514,-0.02015069
515.379,0.04418156,-0.3412842,0.3084874,-1.315303,-0.163514,-0.02015069
515.3928,0.04419004,-0.3411149,0.3101091,-1.327985,-0.147896,-0.02014882
515.4075,0.04419844,-0.3409476,0.3119397,-1.340467,-0.132639,-0.02014675
515.4221,0.04420676,-0.3407823,0.3138709,-1.352746,-0.1177144,-0.02014456
515.4368,0.04420676,-0.3407823,0.3138709,-1.352746,-0.1177144,-0.02014456
515.4511,0.044215,-0.3406189,0.3155351,-1.36482,-0.1005338,-0.02014244
515.4663,0.04422317,-0.3404575,0.3173838,-1.376703,-0.08373594,-0.02014017
515.4813,0.04423125,-0.340298,0.3193202,-1.388395,-0.06729425,-0.02013781
515.496,0.04423125,-0.340298,0.3193202,-1.388395,-0.06729425,-0.02013781
515.5101,0.04423925,-0.3401404,0.3213014,-1.3999,-0.05119292,-0.02013541
515.5258,0.04424718,-0.3399846,0.3230639,-1.411213,-0.03287521,-0.02013304
515.5408,0.04425504,-0.3398307,0.324963,-1.422351,-0.01494637,-0.02013062
515.5557,0.04425504,-0.3398307,0.324963,-1.422351,-0.01494637,-0.02013062
515.5702,0.04426281,-0.3396786,0.3269257,-1.433312,0.002613274,-0.02012817
515.5853,0.0442705,-0.3395283,0.3289195,-1.444102,0.01981637,-0.02012572
515.6002,0.04427813,-0.3393797,0.3307514,-1.454716,0.03920108,-0.02012328
515.6159,0.04427813,-0.3393797,0.3307514,-1.454716,0.03920108,-0.02012328
515.6301,0.04428568,-0.339233,0.3326848,-1.465166,0.05818766,-0.02012086
515.6444,0.04429315,-0.3390879,0.334664,-1.475457,0.07679085,-0.02011847
515.6591,0.04429315,-0.3390879,0.334664,-1.475457,0.07679085,-0.02011847
515.6733,0.04430055,-0.3389446,0.3365304,-1.485581,0.09754112,-0.0201161
515.6889,0.04430787,-0.3388029,0.3384803,-1.495553,0.1178726,-0.02011379
515.7036,0.04431512,-0.338663,0.3404671,-1.505375,0.1377979,-0.02011155
515.7184,0.04431512,-0.338663,0.3404671,-1.505375,0.1377979,-0.02011155
515.7325,0.04432229,-0.3385247,0.34247,-1.51505,0.1573271,-0.02010938
515.7484,0.04432939,-0.338388,0.3443992,-1.524573,0.1789816,-0.02010726
515.763,0.04433642,-0.338253,0.3463803,-1.533957,0.2002061,-0.02010525
515.7781,0.04433642,-0.338253,0.3463803,-1.533957,0.2002061,-0.02010525
515.7921,0.04434338,-0.3381195,0.3483829,-1.543205,0.2210108,-0.02010335
515.8079,0.04435026,-0.3379877,0.3503933,-1.552319,0.241405,-0.02010156
515.8226,0.04435708,-0.3378573,0.3523746,-1.561295,0.2639069,-0.02009986
515.8385,0.04435708,-0.3378573,0.3523746,-1.561295,0.2639069,-0.02009986
515.8524,0.04436382,-0.3377286,0.3543827,-1.570144,0.2859662,-0.02009831
515.8668,0.04437049,-0.3376014,0.3564,-1.578869,0.3075921,-0.02009689
515.8814,0.04437708,-0.3374757,0.3584183,-1.587473,0.3287935,-0.0200956
515.8964,0.04437708,-0.3374757,0.3584183,-1.587473,0.3287935,-0.0200956
515.9106,0.04438362,-0.3373514,0.3604507,-1.595951,0.3520893,-0.02009446
515.9258,0.04439008,-0.3372287,0.3624869,-1.604313,0.3749293,-0.02009348
515.9406,0.04439647,-0.3371074,0.3645214,-1.612563,0.3973226,-0.02009265
515.9559,0.04439647,-0.3371074,0.3645214,-1.612563,0.3973226,-0.02009265
515.97,0.04440279,-0.3369875,0.366551,-1.620701,0.4192781,-0.02009196
515.9854,0.04440904,-0.3368691,0.368574,-1.628731,0.4408048,-0.02009142
516.0004,0.04441522,-0.3367521,0.3705888,-1.636654,0.4619113,-0.02009102
516.0154,0.04441522,-0.3367521,0.3705888,-1.636654,0.4619113,-0.02009102
516.0294,0.04442133,-0.3366365,0.3725945,-1.644472,0.4826061,-0.02009074
516.0449,0.04442737,-0.3365223,0.3744941,-1.652189,0.5003794,-0.02009048
516.0607,0.04443333,-0.3364094,0.3764054,-1.659803,0.5178082,-0.02009037
516.0749,0.04443333,-0.3364094,0.3764054,-1.659803,0.5178082,-0.02009037
516.0898,0.04443923,-0.3362979,0.3783141,-1.667315,0.5348985,-0.02009036
516.1042,0.04444507,-0.3361877,0.3802135,-1.674727,0.5516567,-0.02009046
516.1188,0.04444507,-0.3361877,0.3802135,-1.674727,0.5516567,-0.02009046
516.1329,0.04445083,-0.3360789,0.3819602,-1.682039,0.5655631,-0.02009048
516.1485,0.04445652,-0.3359713,0.3837329,-1.68925,0.5792036,-0.02009062
516.1632,0.04446215,-0.3358651,0.3855077,-1.696364,0.5925812,-0.02009085
516.1781,0.04446215,-0.3358651,0.3855077,-1.696364,0.5925812,-0.02009085
516.1923,0.04446771,-0.3357601,0.3871005,-1.703377,0.6031663,-0.02009093
516.2079,0.0444732,-0.3356563,0.3887329,-1.710292,0.6135531,-0.02009114
516.2228,0.04447863,-0.3355538,0.3903724,-1.71711,0.6237416,-0.02009141
516.2377,0.04447863,-0.3355538,0.3903724,-1.71711,0.6237416,-0.02009141
516.2519,0.044484,-0.3354525,0.3920047,-1.723833,0.633734,-0.02009174
516.2676,0.0444893,-0.3353525,0.3934068,-1.730456,0.6409884,-0.02009184
516.2822,0.04449453,-0.3352536,0.3948624,-1.736982,0.6481127,-0.02009206
516.2983,0.04449453,-0.3352536,0.3948624,-1.736982,0.6481127,-0.02009206
516.3114,0.04449971,-0.3351559,0.3963313,-1.743415,0.6551038,-0.02009234
516.3268,0.04450482,-0.3350593,0.3977955,-1.749755,0.6619617,-0.02009265
516.3415,0.04450987,-0.334964,0.3989878,-1.755997,0.6661301,-0.02009268
516.3563,0.04450987,-0.334964,0.3989878,-1.755997,0.6661301,-0.02009268
516.3706,0.04451485,-0.3348697,0.4002506,-1.762144,0.6702322,-0.02009282
516.3859,0.04451977,-0.3347766,0.4015348,-1.768201,0.6742618,-0.02009301
516.4005,0.04452464,-0.3346846,0.4028184,-1.774169,0.6782165,-0.02009323
516.4157,0.04452464,-0.3346846,0.4028184,-1.774169,0.6782165,-0.02009323
516.4299,0.04452944,-0.3345938,0.4037904,-1.780041,0.6795253,-0.0200931
516.4455,0.04453418,-0.334504,0.4048508,-1.78582,0.6808267,-0.0200931
516.4604,0.04453887,-0.3344153,0.4059416,-1.791512,0.6821122,-0.02009315
516.4753,0.04453887,-0.3344153,0.4059416,-1.791512,0.6821122,-0.02009315
516.4897,0.04454349,-0.3343276,0.4067053,-1.79711,0.6807975,-0.02009283
516.5051,0.04454805,-0.334241,0.4075767,-1.802617,0.6795293,-0.02009264
516.5209,0.04455256,-0.3341554,0.4084889,-1.80804,0.6782976,-0.02009251
516.5345,0.04455256,-0.3341554,0.4084889,-1.80804,0.6782976,-0.02009251
516.5488,0.04455702,-0.3340709,0.409411,-1.813381,0.6770952,-0.02009241
516.5643,0.04456141,-0.3339874,0.4099586,-1.818631,0.6733277,-0.02009188
516.579,0.04456141,-0.3339874,0.4099586,-1.818631,0.6733277,-0.02009188
516.5944,0.04456575,-0.3339049,0.410627,-1.823791,0.6696545,-0.02009148
516.6099,0.04457004,-0.3338233,0.4113442,-1.828871,0.666067,-0.02009114
516.6251,0.04457428,-0.3337428,0.4120769,-1.833874,0.6625557,-0.02009082
516.6403,0.04457845,-0.3336632,0.4124013,-1.838788,0.6565163,-0.02009007
516.6553,0.04457845,-0.3336632,0.4124013,-1.838788,0.6565163,-0.02009007
516.6698,0.04458257,-0.3335846,0.4128646,-1.843616,0.6506146,-0.02008942
516.6853,0.04458664,-0.3335069,0.4133877,-1.848367,0.6448455,-0.02008884
516.7004,0.04459066,-0.3334301,0.4139332,-1.853045,0.6391968,-0.0200883
516.7153,0.04459066,-0.3334301,0.4139332,-1.853045,0.6391968,-0.0200883
516.7296,0.04459462,-0.3333543,0.41404,-1.85764,0.6310566,-0.0200873
516.7449,0.04459853,-0.3332794,0.4143032,-1.86215,0.6230924,-0.0200864
516.7598,0.04459853,-0.3332794,0.4143032,-1.86215,0.6230924,-0.0200864
516.774,0.04460239,-0.3332053,0.4146379,-1.866588,0.6153047,-0.02008558
516.791,0.0446062,-0.3331322,0.4145328,-1.870946,0.6050708,-0.02008434
516.8047,0.04460996,-0.33306,0.4146065,-1.875223,0.5950531,-0.02008319
516.8196,0.04460996,-0.33306,0.4146065,-1.875223,0.5950531,-0.02008319
516.8337,0.04461367,-0.3329886,0.414765,-1.879431,0.5852564,-0.02008213
516.8491,0.04461734,-0.332918,0.4149615,-1.883574,0.5756631,-0.02008111
516.8641,0.04462095,-0.3328483,0.4146743,-1.887641,0.5636533,-0.02007966
516.879,0.04462095,-0.3328483,0.4146743,-1.887641,0.5636533,-0.02007966
516.8932,0.04462451,-0.3327795,0.4145738,-1.89163,0.5518864,-0.02007826
516.9088,0.04462803,-0.3327115,0.4145664,-1.895554,0.5403778,-0.02007697
516.9247,0.04463151,-0.3326443,0.4146028,-1.899417,0.5291081,-0.02007572
516.9389,0.04463151,-0.3326443,0.4146028,-1.899417,0.5291081,-0.02007572
516.9528,0.04463493,-0.3325779,0.4141318,-1.90321,0.5154564,-0.02007407
516.9683,0.04463832,-0.3325123,0.4138624,-1.906928,0.5020725,-0.02007244
516.983,0.04464165,-0.3324474,0.4136974,-1.910585,0.4889828,-0.02007093
516.9976,0.04464165,-0.3324474,0.4136974,-1.910585,0.4889828,-0.02007093
517.012,0.04464494,-0.3323834,0.4130342,-1.914177,0.4735571,-0.02006909
517.0275,0.04464819,-0.3323202,0.4125949,-1.917697,0.4584317,-0.02006726
517.0424,0.04465139,-0.3322577,0.4122744,-1.92116,0.4436394,-0.02006558
517.0573,0.04465139,-0.3322577,0.4122744,-1.92116,0.4436394,-0.02006558
517.0716,0.04465456,-0.3321959,0.412014,-1.924572,0.4291557,-0.02006396
517.0873,0.04465767,-0.3321349,0.411213,-1.927925,0.4123604,-0.02006203
517.1019,0.04466075,-0.3320746,0.410639,-1.931209,0.3958805,-0.02006009
517.1168,0.04466075,-0.3320746,0.410639,-1.931209,0.3958805,-0.02006009
517.1315,0.04466379,-0.3320151,0.4101901,-1.934441,0.3797628,-0.02005831
517.147,0.04466679,-0.3319562,0.4098063,-1.937625,0.3639817,-0.02005661
517.1619,0.04466975,-0.3318981,0.4088635,-1.940757,0.3459195,-0.02005466
517.1767,0.04466975,-0.3318981,0.4088635,-1.940757,0.3459195,-0.02005466
517.1907,0.04467266,-0.3318407,0.4081589,-1.943825,0.3281886,-0.02005269
517.2063,0.04467554,-0.331784,0.4075896,-1.946845,0.3108483,-0.02005089
517.2212,0.04467839,-0.3317279,0.4070918,-1.949822,0.293871,-0.0200492
517.2361,0.04467839,-0.3317279,0.4070918,-1.949822,0.293871,-0.0200492
517.25,0.04468119,-0.3316725,0.4060183,-1.952754,0.2746425,-0.02004733
517.2656,0.04468395,-0.3316178,0.4051935,-1.955627,0.2557588,-0.02004547
517.2807,0.04468668,-0.3315637,0.4045136,-1.958456,0.2372919,-0.02004378
517.2954,0.04468668,-0.3315637,0.4045136,-1.958456,0.2372919,-0.02004378
517.3098,0.0446894,-0.3315103,0.4053788,-1.961251,0.225218,-0.02004263
517.3253,0.04469208,-0.3314574,0.4057783,-1.96404,0.2135093,-0.02004175
517.3402,0.04469473,-0.3314053,0.4059257,-1.966794,0.2019444,-0.02004071
517.3565,0.04469473,-0.3314053,0.4059257,-1.966794,0.2019444,-0.02004071
517.3704,0.04469734,-0.3313537,0.4059702,-1.969506,0.1905668,-0.02003962
517.3846,0.04469991,-0.3313028,0.4059773,-1.972174,0.1793979,-0.02003853
517.3992,0.04469991,-0.3313028,0.4059773,-1.972174,0.1793979,-0.02003853
517.4133,0.04470246,-0.3312524,0.4059748,-1.974801,0.1684445,-0.02003747
517.429,0.04470496,-0.3312027,0.4059744,-1.977387,0.157707,-0.02003644
517.4438,0.04470744,-0.3311535,0.4059808,-1.979934,0.1471832,-0.02003544
517.4586,0.04470744,-0.3311535,0.4059808,-1.979934,0.1471832,-0.02003544
517.4727,0.04470992,-0.331105,0.4046162,-1.973259,0.136229,-0.03503406
517.4883,0.04471241,-0.3310571,0.4039929,-1.969754,0.125808,-0.04973875
517.5034,0.04471486,-0.3310097,0.4036926,-1.967833,0.1157466,-0.06415521
517.518,0.04471486,-0.3310097,0.4036926,-1.967833,0.1157466,-0.06415521
517.5322,0.04471729,-0.3309629,0.4037843,-1.968763,0.1060705,-0.07496358
517.548,0.04471967,-0.3309167,0.4038292,-1.969407,0.09657812,-0.08556006
517.5627,0.04472202,-0.330871,0.4038745,-1.969931,0.08728084,-0.09594879
517.5788,0.04472202,-0.330871,0.4038745,-1.969931,0.08728084,-0.09594879
517.5928,0.04472434,-0.3308258,0.4039393,-1.970418,0.07818338,-0.1061338
517.6075,0.04472662,-0.3307812,0.4041922,-1.972962,0.06935704,-0.1127859
517.6223,0.04472887,-0.3307371,0.4043754,-1.974805,0.06068445,-0.1193076
517.637,0.04472887,-0.3307371,0.4043754,-1.974805,0.06068445,-0.1193076
517.6511,0.04473108,-0.3306935,0.4045434,-1.976313,0.05218138,-0.1257015
517.6662,0.04473327,-0.3306504,0.4047174,-1.977663,0.04385409,-0.1319699
517.6812,0.04473542,-0.3306079,0.4049962,-1.981003,0.0357409,-0.1347822
517.696,0.04473542,-0.3306079,0.4049962,-1.981003,0.0357409,-0.1347822
517.7103,0.04473754,-0.3305659,0.4052256,-1.98359,0.0277726,-0.1375394
517.7258,0.04473963,-0.3305244,0.4054427,-1.985803,0.01995834,-0.1402425
517.7406,0.04474169,-0.3304833,0.4056616,-1.987827,0.01230128,-0.1428927
517.7559,0.04474169,-0.3304833,0.4056616,-1.987827,0.01230128,-0.1428927
517.77,0.04474372,-0.3304428,0.4059125,-1.991812,0.004806462,-0.1421575
517.7854,0.04474571,-0.3304027,0.4061364,-1.995017,-0.002549888,-0.1414368
517.8012,0.04474768,-0.3303632,0.4063534,-1.997822,-0.009764455,-0.1407303
517.815,0.04474768,-0.3303632,0.4063534,-1.997822,-0.009764455,-0.1407303
517.8294,0.04474961,-0.3303241,0.4065497,-2.002474,-0.01685488,-0.1367043
517.8447,0.04475151,-0.3302854,0.4067346,-2.006277,-0.02381113,-0.1327573
517.8594,0.04475151,-0.3302854,0.4067346,-2.006277,-0.02381113,-0.1327573
517.8736,0.04475338,-0.3302472,0.406917,-2.009636,-0.03063364,-0.1288877
517.8891,0.04475523,-0.3302095,0.4070996,-2.012746,-0.03732445,-0.125094
517.904,0.04475704,-0.3301723,0.4072028,-2.017767,-0.04393528,-0.1180414
517.9188,0.04475704,-0.3301723,0.4072028,-2.017767,-0.04393528,-0.1180414
517.9327,0.04475882,-0.3301355,0.4073189,-2.021959,-0.05041299,-0.1111271
517.9485,0.04476057,-0.3300991,0.4074416,-2.025705,-0.05676337,-0.1043484
517.9633,0.04476231,-0.3300632,0.407567,-2.029194,-0.06299151,-0.09770264
517.9783,0.04476231,-0.3300632,0.407567,-2.029194,-0.06299151,-0.09770264
517.9923,0.044764,-0.3300277,0.4075571,-2.034576,-0.06918168,-0.08785391
518.0079,0.04476567,-0.3299926,0.4075843,-2.039114,-0.07523704,-0.07819831
518.0237,0.04476731,-0.3299579,0.4076281,-2.04319,-0.08116876,-0.06873206
518.0387,0.04476731,-0.3299579,0.4076281,-2.04319,-0.08116876,-0.06873206
518.0516,0.04476891,-0.3299237,0.407502,-2.049047,-0.08708963,-0.05611816
518.0673,0.04477049,-0.3298899,0.4074332,-2.053998,-0.09287152,-0.04375162
518.0819,0.04477205,-0.3298565,0.4073898,-2.058449,-0.09853073,-0.03162756
518.0966,0.04477205,-0.3298565,0.4073898,-2.058449,-0.09853073,-0.03162756
518.1105,0.04477358,-0.3298234,0.407357,-2.062597,-0.1040781,-0.01974124
518.1261,0.04477508,-0.3297908,0.4070994,-2.068592,-0.1096565,-0.004754758
518.1411,0.04477654,-0.3297586,0.4069217,-2.07371,-0.115091,0.009937867
518.1558,0.04477654,-0.3297586,0.4069217,-2.07371,-0.115091,0.009937867
518.17,0.04477799,-0.3297268,0.4067802,-2.078334,-0.1204033,0.0243424
518.1855,0.04477941,-0.3296953,0.4066549,-2.082651,-0.1256069,0.03846449
518.2002,0.04478081,-0.3296643,0.4064709,-2.087242,-0.130749,0.05310177
518.215,0.04478081,-0.3296643,0.4064709,-2.087242,-0.130749,0.05310177
518.2292,0.04478219,-0.3296336,0.4063156,-2.091496,-0.13578,0.06745204
518.2449,0.04478355,-0.3296033,0.4061747,-2.095522,-0.1407082,0.08152092
518.2608,0.04478488,-0.3295733,0.4060422,-2.099375,-0.1455388,0.09531396
518.2745,0.04478488,-0.3295733,0.4060422,-2.099375,-0.1455388,0.09531396
518.2889,0.0447862,-0.3295438,0.4059158,-2.103084,-0.1502748,0.1088365
518.3041,0.04478749,-0.3295146,0.4057951,-2.106663,-0.1549179,0.122094
518.3186,0.04478749,-0.3295146,0.4057951,-2.106663,-0.1549179,0.122094
518.3327,0.04478876,-0.3294857,0.4056802,-2.110121,-0.1594696,0.1350915
518.3483,0.04479002,-0.3294572,0.405657,-2.112981,-0.1638779,0.147042
518.3629,0.04479126,-0.329429,0.4056079,-2.1159,-0.1682155,0.1587582
518.3778,0.04479126,-0.329429,0.4056079,-2.1159,-0.1682155,0.1587582
518.392,0.04479247,-0.3294012,0.4055515,-2.118799,-0.1724743,0.1702447
518.4076,0.04479367,-0.3293737,0.4054962,-2.121639,-0.1766507,0.1815059
518.4225,0.04479486,-0.3293465,0.4058475,-2.122371,-0.180492,0.1892131
518.4373,0.04479486,-0.3293465,0.4058475,-2.122371,-0.180492,0.1892131
518.4514,0.04479605,-0.3293197,0.4060501,-2.123734,-0.1843394,0.1967692
518.467,0.04479721,-0.3292932,0.4061918,-2.125373,-0.1881482,0.2041771
518.4838,0.04479836,-0.3292671,0.4063115,-2.127113,-0.1918966,0.2114397
518.4982,0.04479836,-0.3292671,0.4063115,-2.127113,-0.1918966,0.2114397
518.5112,0.0447995,-0.3292412,0.406863,-2.126845,-0.1953013,0.2152267
518.5264,0.04480064,-0.3292156,0.4072444,-2.12727,-0.1987325,0.2189394
518.541,0.04480175,-0.3291904,0.4075549,-2.128014,-0.2021381,0.2225793
518.5558,0.04480175,-0.3291904,0.4075549,-2.128014,-0.2021381,0.2225793
518.5704,0.04480287,-0.3291655,0.408298,-2.126876,-0.2052056,0.2228146
518.5854,0.04480397,-0.3291409,0.4088493,-2.1265,-0.2083186,0.2230452
518.5999,0.04480397,-0.3291409,0.4088493,-2.1265,-0.2083186,0.2230452
518.6143,0.04480506,-0.3291165,0.4093188,-2.126492,-0.2114185,0.2232713
518.6298,0.04480614,-0.3290925,0.4097544,-2.12666,-0.214478,0.223493
518.6448,0.04480721,-0.3290687,0.4106641,-2.124894,-0.217181,0.220377
518.6597,0.04480721,-0.3290687,0.4106641,-2.124894,-0.217181,0.220377
518.6739,0.04480828,-0.3290453,0.4113734,-2.123873,-0.2199396,0.2173222
518.6896,0.04480933,-0.3290221,0.4119948,-2.123225,-0.2226945,0.2143272
518.7043,0.04481037,-0.3289992,0.4125775,-2.122768,-0.2254176,0.211391
518.72,0.04481037,-0.3289992,0.4125775,-2.122768,-0.2254176,0.211391
518.7341,0.04481141,-0.3289765,0.4136535,-2.120399,-0.2277798,0.2051791
518.7485,0.04481245,-0.3289541,0.4145138,-2.118795,-0.2302117,0.199089
518.7633,0.04481347,-0.328932,0.4152773,-2.117585,-0.2326507,0.1931182
518.7781,0.04481347,-0.328932,0.4152773,-2.117585,-0.2326507,0.1931182
518.7923,0.0448145,-0.3289102,0.4165214,-2.114576,-0.2347433,0.1839314
518.8079,0.04481551,-0.3288886,0.4175288,-2.112396,-0.2369227,0.1749246
518.8227,0.04481652,-0.3288673,0.4184279,-2.110649,-0.2391206,0.1660944
518.8376,0.04481652,-0.3288673,0.4184279,-2.110649,-0.2391206,0.1660944
518.8516,0.04481752,-0.3288462,0.4192748,-2.109144,-0.2413044,0.1574374
518.8671,0.04481852,-0.3288254,0.4206358,-2.105781,-0.2431288,0.1456169
518.8827,0.04481952,-0.3288048,0.4217565,-2.103221,-0.2450445,0.1340282
518.897,0.04481952,-0.3288048,0.4217565,-2.103221,-0.2450445,0.1340282
518.9109,0.0448205,-0.3287845,0.4227645,-2.101093,-0.246985,0.1226667
518.9265,0.04482148,-0.3287644,0.4237157,-2.099214,-0.2489177,0.1115279
518.9415,0.04482246,-0.3287445,0.4251906,-2.095493,-0.2504926,0.09727442
518.9573,0.04482246,-0.3287445,0.4251906,-2.095493,-0.2504926,0.09727442
518.9715,0.04482343,-0.3287249,0.426414,-2.092588,-0.2521675,0.08330035
518.9857,0.0448244,-0.3287055,0.4275171,-2.090128,-0.253875,0.06960028
519.0034,0.04482536,-0.3286864,0.4285576,-2.087933,-0.2555815,0.05616883
519.0184,0.04482536,-0.3286864,0.4285576,-2.087933,-0.2555815,0.05616883
519.0297,0.04409839,-0.3286698,0.4277511,-2.092511,-0.2584054,0.05467465
519.0447,0.04291652,-0.3286545,0.427776,-2.094643,-0.260737,0.05320997
519.0594,0.04291652,-0.3286545,0.427776,-2.094643,-0.260737,0.05320997
519.0735,0.04145342,-0.3286397,0.4281406,-2.095634,-0.2628114,0.0517741
519.0891,0.03981954,-0.3286251,0.4286301,-2.096104,-0.2647552,0.05036641
519.1041,0.03808505,-0.3286104,0.4291579,-2.096344,-0.2666245,0.04898631
519.1187,0.03808505,-0.3286104,0.4291579,-2.096344,-0.2666245,0.04898631
519.1334,0.03629455,-0.3285958,0.4296914,-2.09649,-0.2684435,0.04763326
519.1484,0.0344763,-0.3285811,0.4302193,-2.096602,-0.2702219,0.04630674
519.1633,0.03264822,-0.3285664,0.4307385,-2.096707,-0.2719641,0.04500622
519.1782,0.03264822,-0.3285664,0.4307385,-2.096707,-0.2719641,0.04500622
519.1932,0.0308216,-0.3285517,0.4312488,-2.096817,-0.2736718,0.0437312
519.2083,0.02900355,-0.3285371,0.4317509,-2.096934,-0.2753458,0.04248118
519.2225,0.02719851,-0.3285226,0.4322454,-2.097061,-0.2769869,0.04125567
519.2374,0.02719851,-0.3285226,0.4322454,-2.097061,-0.2769869,0.04125567
519.2514,0.02540921,-0.3285082,0.4327329,-2.097198,-0.2785955,0.04005419
519.267,0.02363731,-0.3284939,0.4332137,-2.097343,-0.2801722,0.03887626
519.2817,0.02188377,-0.3284798,0.4336883,-2.097496,-0.2817176,0.03772143
519.2971,0.02188377,-0.3284798,0.4336883,-2.097496,-0.2817176,0.03772143
519.3107,0.02014912,-0.3284657,0.4341568,-2.097657,-0.2832321,0.03658925
519.3265,0.01843363,-0.3284518,0.4346194,-2.097826,-0.2847165,0.03547927
