JMolnar6/NonAnthroHands_User_Study/HandsLoggerWithURDF/tempdata/PID 0 (test)/files/Reachy_PID0_JointMotion_gesture_2_7.csv
Time,r_shoulder,r_shoulder_x,r_upper_arm,r_forearm,r_wrist,r_wrist2hand,
99.4355,0.04416239,-1.893818,0.485663,-2.178248,-0.3515983,-0.01996454
99.45177,0.04416148,-1.894943,0.4856029,-2.178447,-0.3517974,-0.01996497
99.46509,0.04415825,-1.89653,0.4855867,-2.178706,-0.3519797,-0.0199653
99.47991,0.04415825,-1.89653,0.4855867,-2.178706,-0.3519797,-0.0199653
99.49406,0.04415508,-1.898395,0.485597,-2.178963,-0.3521239,-0.01996552
99.50975,0.04415287,-1.900424,0.4856161,-2.1792,-0.3522408,-0.01996567
99.52476,0.04415873,-1.901782,0.485687,-2.179191,-0.3521166,-0.01996533
99.53957,0.04415873,-1.901782,0.485687,-2.179191,-0.3521166,-0.01996533
99.55396,0.04416789,-1.90272,0.4857112,-2.179102,-0.3519988,-0.01996506
99.56908,0.04417801,-1.903396,0.4857054,-2.178998,-0.3519125,-0.0199649
99.58406,0.04418803,-1.903907,0.4856881,-2.178904,-0.3518487,-0.01996479
99.59915,0.04418803,-1.903907,0.4856881,-2.178904,-0.3518487,-0.01996479
99.61314,0.04420745,-1.903552,0.4857176,-2.178599,-0.3515757,-0.01996425
99.62871,0.04422981,-1.902666,0.4857037,-2.178246,-0.3513278,-0.01996381
99.64358,0.04425215,-1.901456,0.4856648,-2.177905,-0.3511235,-0.01996349
99.65836,0.04425215,-1.901456,0.4856648,-2.177905,-0.3511235,-0.01996349
99.67276,0.04428327,-1.899289,0.4856675,-2.177367,-0.3507279,-0.01996277
99.68836,0.0443159,-1.896542,0.4856268,-2.176797,-0.3503699,-0.01996218
99.70291,0.04434711,-1.89345,0.4855631,-2.176252,-0.3500638,-0.01996172
99.71801,0.04434711,-1.89345,0.4855631,-2.176252,-0.3500638,-0.01996172
99.73231,0.04437604,-1.890159,0.4854943,-2.175746,-0.3497944,-0.01996134
99.74784,0.04441271,-1.885998,0.4854758,-2.175054,-0.3493296,-0.01996053
99.7627,0.04444982,-1.88132,0.485418,-2.174332,-0.3489003,-0.01995985
99.77771,0.04444982,-1.88132,0.485418,-2.174332,-0.3489003,-0.01995985
99.7919,0.04448468,-1.876345,0.4853384,-2.173636,-0.3485227,-0.0199593
99.80742,0.04451675,-1.871208,0.4852543,-2.172981,-0.348183,-0.01995883
99.82234,0.04455639,-1.865234,0.4852185,-2.172141,-0.3476527,-0.01995795
99.83701,0.04455639,-1.865234,0.4852185,-2.172141,-0.3476527,-0.01995795
99.85107,0.04459576,-1.85877,0.4851438,-2.171274,-0.3471609,-0.01995719
99.8663,0.04463223,-1.852035,0.485048,-2.170436,-0.3467232,-0.01995657
99.8811,0.04466549,-1.845162,0.4849479,-2.169641,-0.3463258,-0.01995603
99.89612,0.04466549,-1.845162,0.4849479,-2.169641,-0.3463258,-0.01995603
99.91035,0.04470621,-1.837473,0.4848944,-2.168665,-0.3457437,-0.01995509
99.92607,0.04474598,-1.829316,0.4848029,-2.167665,-0.3452034,-0.01995429
99.94066,0.04478227,-1.820909,0.4846913,-2.166698,-0.3447194,-0.01995362
99.95571,0.04478227,-1.820909,0.4846913,-2.166698,-0.3447194,-0.01995362
99.96988,0.04482535,-1.811623,0.4846181,-2.165555,-0.3440674,-0.0199526
99.98547,0.04486611,-1.801839,0.4845061,-2.164396,-0.3434671,-0.01995174
100.0001,0.04490224,-1.791792,0.4843753,-2.16328,-0.3429292,-0.01995102
100.0152,0.04490224,-1.791792,0.4843753,-2.16328,-0.3429292,-0.01995102
100.0292,0.04493401,-1.781628,0.4842423,-2.162217,-0.3424382,-0.01995039
100.045,0.04497296,-1.770676,0.4841531,-2.160983,-0.3417759,-0.01994939
100.0597,0.04497296,-1.770676,0.4841531,-2.160983,-0.3417759,-0.01994939
100.0738,0.04500949,-1.759289,0.4840287,-2.159734,-0.3411621,-0.01994853
100.0892,0.0450414,-1.747685,0.483887,-2.158526,-0.340609,-0.01994782
100.1041,0.04506908,-1.736,0.4837435,-2.157372,-0.3401024,-0.0199472
100.119,0.04506908,-1.736,0.4837435,-2.157372,-0.3401024,-0.0199472
100.1339,0.04510434,-1.723556,0.4836407,-2.156046,-0.3394299,-0.01994623
100.1486,0.04513681,-1.710701,0.4835036,-2.154707,-0.3388077,-0.01994539
100.1635,0.04516439,-1.697651,0.4833504,-2.153409,-0.3382471,-0.01994471
100.1785,0.04516439,-1.697651,0.4833504,-2.153409,-0.3382471,-0.01994471
100.1927,0.04519861,-1.683778,0.4832302,-2.151945,-0.3375365,-0.0199437
100.2082,0.04522856,-1.669462,0.4830756,-2.150476,-0.3368852,-0.01994286
100.2232,0.0452553,-1.654938,0.4829037,-2.149056,-0.3363008,-0.01994217
100.238,0.0452553,-1.654938,0.4829037,-2.149056,-0.3363008,-0.01994217
100.2522,0.04527995,-1.640351,0.4827294,-2.147697,-0.3357677,-0.01994158
100.2677,0.04530862,-1.625028,0.4825959,-2.146177,-0.3350815,-0.01994066
100.2824,0.04533716,-1.609324,0.4824272,-2.144651,-0.3344512,-0.01993989
100.2974,0.04533716,-1.609324,0.4824272,-2.144651,-0.3344512,-0.01993989
100.3113,0.04536403,-1.593455,0.4822415,-2.143172,-0.3338852,-0.01993927
100.3269,0.0453898,-1.577556,0.4820533,-2.141754,-0.3333696,-0.01993875
100.3418,0.04541992,-1.560948,0.4819033,-2.140174,-0.3327063,-0.01993791
100.3567,0.04541992,-1.560948,0.4819033,-2.140174,-0.3327063,-0.01993791
100.3709,0.04544935,-1.543979,0.4817193,-2.138588,-0.3320991,-0.01993722
100.3866,0.04547754,-1.526866,0.4815188,-2.137051,-0.3315561,-0.01993667
100.4013,0.04550466,-1.50974,0.4813163,-2.135575,-0.3310632,-0.01993622
100.416,0.04550466,-1.50974,0.4813163,-2.135575,-0.3310632,-0.01993622
100.4304,0.04553607,-1.491921,0.4811494,-2.13394,-0.3304287,-0.01993547
100.4458,0.04556671,-1.473758,0.4809494,-2.1323,-0.3298512,-0.01993487
100.4606,0.04559605,-1.455464,0.480734,-2.130711,-0.3293373,-0.01993441
100.4754,0.04559605,-1.455464,0.480734,-2.130711,-0.3293373,-0.01993441
100.4909,0.04562425,-1.437172,0.480517,-2.129185,-0.3288733,-0.01993405
100.5055,0.04565151,-1.418963,0.4803041,-2.127721,-0.3284485,-0.01993375
100.5199,0.04565151,-1.418963,0.4803041,-2.127721,-0.3284485,-0.01993375
100.5351,0.04567798,-1.400885,0.4800966,-2.126312,-0.3280567,-0.01993349
100.5516,0.04570374,-1.382969,0.4798941,-2.124954,-0.3276938,-0.01993329
100.5646,0.04572381,-1.365994,0.4796688,-2.12386,-0.3275281,-0.01993346
100.5796,0.04572381,-1.365994,0.4796688,-2.12386,-0.3275281,-0.01993346
100.5938,0.04574331,-1.349671,0.4794833,-2.122866,-0.3273631,-0.01993358
100.6093,0.0457629,-1.333821,0.4793192,-2.121908,-0.3271889,-0.01993364
100.6243,0.04578249,-1.318332,0.4791623,-2.120966,-0.3270151,-0.01993369
100.6391,0.04578249,-1.318332,0.4791623,-2.120966,-0.3270151,-0.01993369
100.6536,0.04579698,-1.303896,0.4789812,-2.120255,-0.3270158,-0.01993409
100.6691,0.04581122,-1.290171,0.4788347,-2.119616,-0.3270043,-0.0199344
100.6837,0.0458258,-1.276943,0.4787051,-2.118993,-0.3269745,-0.01993466
100.6993,0.0458258,-1.276943,0.4787051,-2.118993,-0.3269745,-0.01993466
100.714,0.04583568,-1.264843,0.4785548,-2.118588,-0.3271029,-0.01993522
100.7284,0.04584556,-1.253489,0.4784381,-2.118241,-0.3272091,-0.01993569
100.7431,0.04585595,-1.242645,0.4783366,-2.117895,-0.3272897,-0.01993608
100.758,0.04585595,-1.242645,0.4783366,-2.117895,-0.3272897,-0.01993608
100.7722,0.04586668,-1.232163,0.4782375,-2.117537,-0.3273572,-0.01993644
100.7878,0.04587274,-1.222712,0.4781121,-2.117387,-0.327584,-0.01993713
100.8025,0.04587875,-1.213938,0.4780181,-2.11729,-0.3277885,-0.01993772
100.8174,0.04587875,-1.213938,0.4780181,-2.11729,-0.3277885,-0.01993772
100.8318,0.04588527,-1.20562,0.4779385,-2.117191,-0.3279657,-0.01993824
100.8473,0.04589215,-1.19762,0.4778614,-2.117078,-0.3281269,-0.01993873
100.8623,0.0458945,-1.190613,0.4777585,-2.117167,-0.3284438,-0.01993952
100.8774,0.0458945,-1.190613,0.4777585,-2.117167,-0.3284438,-0.01993952
100.8914,0.04589683,-1.184248,0.477687,-2.117306,-0.3287352,-0.01994022
100.9066,0.04589971,-1.178309,0.4776298,-2.11744,-0.3289962,-0.01994083
100.9229,0.04590301,-1.172657,0.4775753,-2.117553,-0.3292378,-0.01994141
100.9367,0.04590301,-1.172657,0.4775753,-2.117553,-0.3292378,-0.01994141
100.9508,0.04590191,-1.16797,0.4774948,-2.117865,-0.3296324,-0.01994229
100.9662,0.04590083,-1.163899,0.4774456,-2.11822,-0.3299987,-0.01994308
100.9809,0.04590035,-1.160225,0.4774108,-2.118566,-0.3303316,-0.01994377
100.9961,0.04590035,-1.160225,0.4774108,-2.118566,-0.3303316,-0.01994377
101.0103,0.04589326,-1.157575,0.4773557,-2.119102,-0.3308075,-0.01994475
101.026,0.0458838,-1.155567,0.4773343,-2.119673,-0.3312476,-0.01994561
101.0409,0.04587409,-1.153965,0.4773267,-2.120223,-0.3316491,-0.01994637
101.0561,0.04587409,-1.153965,0.4773267,-2.120223,-0.3316491,-0.01994637
101.0703,0.04586498,-1.15262,0.4773204,-2.120739,-0.3320245,-0.01994709
101.0864,0.04584745,-1.152201,0.4772891,-2.121439,-0.3325495,-0.01994811
101.1008,0.04582724,-1.152356,0.47729,-2.122171,-0.3330404,-0.01994902
101.1158,0.04582724,-1.152356,0.47729,-2.122171,-0.3330404,-0.01994902
101.1307,0.04580697,-1.152863,0.4773045,-2.122882,-0.3334928,-0.01994983
101.1454,0.04578767,-1.153586,0.4773207,-2.123558,-0.333918,-0.01995059
101.1605,0.04576034,-1.155201,0.477311,-2.124415,-0.3344941,-0.01995166
101.1754,0.04576034,-1.155201,0.477311,-2.124415,-0.3344941,-0.01995166
101.1894,0.04573118,-1.157358,0.4773336,-2.125303,-0.3350352,-0.01995262
101.2052,0.04570286,-1.159839,0.4773702,-2.126166,-0.3355356,-0.01995347
101.22,0.04567624,-1.16251,0.4774087,-2.126991,-0.3360071,-0.01995428
101.2348,0.04567624,-1.16251,0.4774087,-2.126991,-0.3360071,-0.01995428
101.249,0.04564207,-1.166048,0.4774201,-2.127994,-0.3366307,-0.01995539
101.2643,0.04560697,-1.170104,0.477464,-2.129024,-0.3372179,-0.01995638
101.2793,0.04560697,-1.170104,0.477464,-2.129024,-0.3372179,-0.01995638
101.2937,0.04557352,-1.17446,0.4775222,-2.130026,-0.3377625,-0.01995728
101.3093,0.04553297,-1.179745,0.4775563,-2.131202,-0.3384521,-0.01995848
101.324,0.04549261,-1.185577,0.4776233,-2.132397,-0.3390992,-0.01995953
101.339,0.04549261,-1.185577,0.4776233,-2.132397,-0.3390992,-0.01995953
101.3542,0.04545498,-1.191721,0.477704,-2.133554,-0.3396992,-0.01996048
101.3685,0.04542052,-1.198028,0.477786,-2.134661,-0.3402649,-0.01996137
101.3836,0.04537924,-1.205171,0.4778373,-2.135937,-0.340986,-0.01996258
101.3981,0.04537924,-1.205171,0.4778373,-2.135937,-0.340986,-0.01996258
101.4124,0.04533867,-1.212795,0.4779209,-2.13723,-0.3416675,-0.01996366
101.4277,0.0453012,-1.220681,0.4780189,-2.138486,-0.3423023,-0.01996464
101.4426,0.04526707,-1.228693,0.4781191,-2.139693,-0.3429023,-0.01996555
101.4587,0.04526707,-1.228693,0.4781191,-2.139693,-0.3429023,-0.01996555
101.4719,0.0452358,-1.236748,0.4782172,-2.14085,-0.3434762,-0.01996641
101.4889,0.04520675,-1.244792,0.4783128,-2.141965,-0.3440291,-0.01996725
101.5024,0.04517936,-1.252794,0.4784066,-2.143042,-0.3445638,-0.01996805
101.5173,0.04517936,-1.252794,0.4784066,-2.143042,-0.3445638,-0.01996805
101.5314,0.04515321,-1.260735,0.4784995,-2.144086,-0.3450823,-0.01996883
101.5471,0.04512801,-1.268601,0.478592,-2.145101,-0.3455854,-0.01996958
101.5618,0.04510355,-1.276387,0.4786848,-2.146089,-0.3460741,-0.01997031
101.5768,0.04510355,-1.276387,0.4786848,-2.146089,-0.3460741,-0.01997031
101.591,0.04507969,-1.284089,0.4787779,-2.147053,-0.3465489,-0.01997102
101.6066,0.04505634,-1.291704,0.4788715,-2.147994,-0.3470103,-0.0199717
101.6211,0.04503345,-1.299232,0.4789658,-2.148912,-0.3474585,-0.01997237
101.6359,0.04503345,-1.299232,0.4789658,-2.148912,-0.3474585,-0.01997237
101.6502,0.04501097,-1.306672,0.4790607,-2.14981,-0.3478941,-0.019973
101.6659,0.04498888,-1.314025,0.4791563,-2.150686,-0.3483172,-0.01997362
101.6807,0.04496717,-1.321291,0.4792524,-2.151543,-0.3487281,-0.01997422
101.6957,0.04496717,-1.321291,0.4792524,-2.151543,-0.3487281,-0.01997422
101.71,0.04494582,-1.328472,0.4793491,-2.15238,-0.3491271,-0.01997479
101.7255,0.04492483,-1.335567,0.4794462,-2.153198,-0.3495144,-0.01997535
101.7403,0.04490419,-1.342578,0.4795438,-2.153997,-0.3498904,-0.01997588
101.7553,0.04490419,-1.342578,0.4795438,-2.153997,-0.3498904,-0.01997588
101.7693,0.0448839,-1.349506,0.4796417,-2.154778,-0.3502551,-0.01997639
101.7859,0.04486395,-1.356352,0.47974,-2.155542,-0.3506088,-0.01997688
101.7995,0.04486395,-1.356352,0.47974,-2.155542,-0.3506088,-0.01997688
101.8139,0.04484434,-1.363116,0.4798384,-2.156287,-0.3509519,-0.01997735
101.8293,0.04482507,-1.3698,0.4799371,-2.157016,-0.3512844,-0.01997781
101.8441,0.04480614,-1.376404,0.4800359,-2.157728,-0.3516066,-0.01997824
101.8588,0.04480614,-1.376404,0.4800359,-2.157728,-0.3516066,-0.01997824
101.8732,0.04478754,-1.38293,0.4801348,-2.158423,-0.3519188,-0.01997866
101.8891,0.04476927,-1.389378,0.4802337,-2.159102,-0.352221,-0.01997906
101.904,0.04475133,-1.395749,0.4803325,-2.159765,-0.3525137,-0.01997944
101.9186,0.04475133,-1.395749,0.4803325,-2.159765,-0.3525137,-0.01997944
101.9329,0.04473371,-1.402045,0.4804313,-2.160413,-0.3527969,-0.0199798
101.9487,0.04471643,-1.408266,0.48053,-2.161046,-0.3530708,-0.01998015
101.9635,0.04469946,-1.414413,0.4806284,-2.161663,-0.3533356,-0.01998048
101.9786,0.04469946,-1.414413,0.4806284,-2.161663,-0.3533356,-0.01998048
101.9929,0.04468282,-1.420487,0.4807267,-2.162266,-0.3535917,-0.0199808
102.0084,0.0446665,-1.426488,0.4808247,-2.162855,-0.353839,-0.0199811
102.0234,0.04465049,-1.432419,0.4809224,-2.163429,-0.3540779,-0.01998138
102.0382,0.04465049,-1.432419,0.4809224,-2.163429,-0.3540779,-0.01998138
102.0522,0.0446348,-1.438278,0.4810197,-2.16399,-0.3543085,-0.01998165
102.0678,0.04461943,-1.444068,0.4811167,-2.164538,-0.3545309,-0.01998191
102.0828,0.04460436,-1.44979,0.4812133,-2.165072,-0.3547455,-0.01998215
102.0975,0.04460436,-1.44979,0.4812133,-2.165072,-0.3547455,-0.01998215
102.1119,0.04458961,-1.455443,0.4813094,-2.165593,-0.3549523,-0.01998238
102.1277,0.04457516,-1.461029,0.481405,-2.166102,-0.3551515,-0.01998259
102.1425,0.04456102,-1.466548,0.4815001,-2.166599,-0.3553433,-0.01998279
102.1577,0.04456102,-1.466548,0.4815001,-2.166599,-0.3553433,-0.01998279
102.1721,0.04454718,-1.472002,0.4815946,-2.167083,-0.3555279,-0.01998298
102.1875,0.04453364,-1.477391,0.4816886,-2.167555,-0.3557054,-0.01998316
102.202,0.0445204,-1.482716,0.4817819,-2.168016,-0.355876,-0.01998333
102.2175,0.0445204,-1.482716,0.4817819,-2.168016,-0.355876,-0.01998333
102.2314,0.04450746,-1.487977,0.4818746,-2.168465,-0.3560399,-0.01998348
102.2469,0.04449481,-1.493176,0.4819667,-2.168903,-0.3561971,-0.01998363
102.2616,0.04448245,-1.498313,0.482058,-2.16933,-0.3563479,-0.01998376
102.2765,0.04448245,-1.498313,0.482058,-2.16933,-0.3563479,-0.01998376
102.2908,0.04447039,-1.503389,0.4821486,-2.169746,-0.3564925,-0.01998388
102.3065,0.04445861,-1.508405,0.4822386,-2.170152,-0.356631,-0.01998399
102.3216,0.04444711,-1.513361,0.4823277,-2.170547,-0.3567634,-0.01998409
102.3363,0.04444711,-1.513361,0.4823277,-2.170547,-0.3567634,-0.01998409
102.3506,0.0444359,-1.518258,0.4824161,-2.170933,-0.35689,-0.01998418
102.3664,0.04442497,-1.523096,0.4825036,-2.171308,-0.3570109,-0.01998426
102.3813,0.04441431,-1.527877,0.4825904,-2.171674,-0.3571262,-0.01998433
102.3962,0.04441431,-1.527877,0.4825904,-2.171674,-0.3571262,-0.01998433
102.4103,0.04440393,-1.532602,0.4826763,-2.17203,-0.3572361,-0.0199844
102.4265,0.04439383,-1.53727,0.4827614,-2.172377,-0.3573408,-0.01998445
102.4409,0.04438399,-1.541882,0.4828455,-2.172715,-0.3574402,-0.0199845
102.456,0.04438399,-1.541882,0.4828455,-2.172715,-0.3574402,-0.0199845
102.4699,0.04437442,-1.54644,0.4829289,-2.173044,-0.3575347,-0.01998453
102.4854,0.04436511,-1.550943,0.4830113,-2.173364,-0.3576242,-0.01998456
102.5004,0.04435607,-1.555393,0.4830928,-2.173676,-0.357709,-0.01998459
102.5154,0.04435607,-1.555393,0.4830928,-2.173676,-0.357709,-0.01998459
102.5295,0.04434729,-1.55979,0.4831734,-2.173979,-0.357789,-0.0199846
102.5453,0.04433876,-1.564134,0.4832531,-2.174274,-0.3578646,-0.01998461
102.5602,0.04433049,-1.568427,0.4833318,-2.174561,-0.3579357,-0.01998461
102.5753,0.04433049,-1.568427,0.4833318,-2.174561,-0.3579357,-0.01998461
102.5898,0.04432247,-1.572669,0.4834096,-2.17484,-0.3580025,-0.0199846
102.6053,0.0443147,-1.57686,0.4834864,-2.175112,-0.3580652,-0.01998459
102.62,0.0443147,-1.57686,0.4834864,-2.175112,-0.3580652,-0.01998459
102.6353,0.04430718,-1.581002,0.4835622,-2.175376,-0.3581237,-0.01998457
102.6496,0.0442999,-1.585094,0.4836371,-2.175633,-0.3581783,-0.01998454
102.6645,0.04429286,-1.589137,0.4837109,-2.175882,-0.3582291,-0.01998451
102.6792,0.04429286,-1.589137,0.4837109,-2.175882,-0.3582291,-0.01998451
102.6935,0.04428606,-1.593132,0.4837838,-2.176125,-0.358276,-0.01998447
102.709,0.0442795,-1.59708,0.4838558,-2.17636,-0.3583193,-0.01998442
102.7241,0.04427317,-1.600981,0.4839267,-2.176589,-0.358359,-0.01998438
102.739,0.04427317,-1.600981,0.4839267,-2.176589,-0.358359,-0.01998438
102.7531,0.04426707,-1.604835,0.4839966,-2.176811,-0.3583953,-0.01998432
102.769,0.04426119,-1.608643,0.4840655,-2.177027,-0.3584282,-0.01998426
102.7836,0.04425554,-1.612406,0.4841334,-2.177236,-0.3584578,-0.0199842
102.7986,0.04425554,-1.612406,0.4841334,-2.177236,-0.3584578,-0.0199842
102.8129,0.04425011,-1.616125,0.4842003,-2.177439,-0.3584843,-0.01998413
102.8283,0.0442449,-1.619799,0.4842661,-2.177637,-0.3585077,-0.01998406
102.8441,0.04423991,-1.623429,0.484331,-2.177828,-0.358528,-0.01998398
102.8579,0.04423991,-1.623429,0.484331,-2.177828,-0.358528,-0.01998398
102.8725,0.04423513,-1.627016,0.4843948,-2.178013,-0.3585455,-0.0199839
102.8877,0.04423056,-1.63056,0.4844576,-2.178193,-0.3585601,-0.01998381
102.9023,0.0442262,-1.634062,0.4845195,-2.178367,-0.3585719,-0.01998372
102.9173,0.0442262,-1.634062,0.4845195,-2.178367,-0.3585719,-0.01998372
102.9316,0.04422204,-1.637523,0.4845802,-2.178535,-0.3585811,-0.01998363
102.9468,0.04421809,-1.640942,0.48464,-2.178699,-0.3585877,-0.01998353
102.9619,0.04421433,-1.64432,0.4846988,-2.178857,-0.3585919,-0.01998343
102.9771,0.04421433,-1.64432,0.4846988,-2.178857,-0.3585919,-0.01998343
102.9914,0.04421077,-1.647659,0.4847566,-2.17901,-0.3585935,-0.01998333
103.0071,0.0442074,-1.650957,0.4848134,-2.179158,-0.3585928,-0.01998322
103.022,0.04420422,-1.654216,0.4848691,-2.179301,-0.3585899,-0.01998311
103.0369,0.04420422,-1.654216,0.4848691,-2.179301,-0.3585899,-0.01998311
103.051,0.04420123,-1.657437,0.4849239,-2.17944,-0.3585847,-0.01998299
103.0665,0.04419842,-1.660619,0.4849777,-2.179574,-0.3585774,-0.01998288
103.0813,0.0441958,-1.663763,0.4850304,-2.179703,-0.358568,-0.01998276
103.0962,0.0441958,-1.663763,0.4850304,-2.179703,-0.358568,-0.01998276
103.1104,0.04419335,-1.66687,0.4850822,-2.179827,-0.3585566,-0.01998264
103.1258,0.04419108,-1.669939,0.485133,-2.179948,-0.3585432,-0.01998251
103.1407,0.04418898,-1.672972,0.4851828,-2.180064,-0.358528,-0.01998239
103.1558,0.04418898,-1.672972,0.4851828,-2.180064,-0.358528,-0.01998239
103.1698,0.04418706,-1.675969,0.4852316,-2.180176,-0.3585109,-0.01998226
103.1854,0.0441853,-1.678931,0.4852794,-2.180284,-0.3584921,-0.01998213
103.2004,0.04418371,-1.681857,0.4853263,-2.180388,-0.3584716,-0.019982
103.2154,0.04418371,-1.681857,0.4853263,-2.180388,-0.3584716,-0.019982
103.2297,0.04418226,-1.684748,0.4853722,-2.180488,-0.3584495,-0.01998186
103.2452,0.0441809,-1.687605,0.4854173,-2.180584,-0.3584257,-0.01998172
103.26,0.0441809,-1.687605,0.4854173,-2.180584,-0.3584257,-0.01998172
103.2752,0.04417963,-1.690427,0.4854614,-2.180677,-0.3584005,-0.01998159
103.2908,0.04417843,-1.693216,0.4855047,-2.180766,-0.3583737,-0.01998145
103.3045,0.0441773,-1.695972,0.4855471,-2.180852,-0.3583455,-0.01998131
103.3192,0.0441773,-1.695972,0.4855471,-2.180852,-0.3583455,-0.01998131
103.3334,0.04417624,-1.698695,0.4855886,-2.180934,-0.3583159,-0.01998117
103.3488,0.04417522,-1.701385,0.4856293,-2.181012,-0.358285,-0.01998102
103.3638,0.04417427,-1.704044,0.485669,-2.181088,-0.3582528,-0.01998088
103.3788,0.04417427,-1.704044,0.485669,-2.181088,-0.3582528,-0.01998088
103.3932,0.04417337,-1.706671,0.485708,-2.18116,-0.3582194,-0.01998073
103.4087,0.04417252,-1.709266,0.4857461,-2.181229,-0.3581848,-0.01998059
103.4238,0.04417173,-1.711831,0.4857833,-2.181295,-0.3581491,-0.01998044
103.4388,0.04417173,-1.711831,0.4857833,-2.181295,-0.3581491,-0.01998044
103.4531,0.04417099,-1.714365,0.4858197,-2.181358,-0.3581122,-0.01998029
103.4688,0.04417031,-1.716868,0.4858552,-2.181418,-0.3580744,-0.01998015
103.4835,0.04416967,-1.719342,0.4858899,-2.181475,-0.3580355,-0.01997999
103.4983,0.04416967,-1.719342,0.4858899,-2.181475,-0.3580355,-0.01997999
103.5127,0.04416908,-1.721787,0.4859238,-2.18153,-0.3579956,-0.01997984
103.528,0.04416855,-1.724202,0.4859569,-2.181581,-0.3579549,-0.01997969
103.5428,0.04416806,-1.726588,0.4859892,-2.181631,-0.3579132,-0.01997954
103.5578,0.04416806,-1.726588,0.4859892,-2.181631,-0.3579132,-0.01997954
103.5722,0.04416762,-1.728947,0.4860207,-2.181677,-0.3578707,-0.01997938
103.5877,0.04416723,-1.731277,0.4860514,-2.181721,-0.3578274,-0.01997923
103.6026,0.04416689,-1.733579,0.4860812,-2.181762,-0.3577833,-0.01997908
103.6174,0.04416689,-1.733579,0.4860812,-2.181762,-0.3577833,-0.01997908
103.6319,0.04416659,-1.735853,0.4861104,-2.181802,-0.3577385,-0.01997893
103.6474,0.04416633,-1.738101,0.4861387,-2.181838,-0.357693,-0.01997877
103.6623,0.04416613,-1.740322,0.4861663,-2.181873,-0.3576469,-0.01997862
103.6772,0.04416613,-1.740322,0.4861663,-2.181873,-0.3576469,-0.01997862
103.6911,0.04416596,-1.742516,0.4861932,-2.181905,-0.3576001,-0.01997847
103.7067,0.04416584,-1.744684,0.4862192,-2.181935,-0.3575527,-0.01997831
103.7219,0.04416576,-1.746827,0.4862446,-2.181963,-0.3575047,-0.01997816
103.7364,0.04416576,-1.746827,0.4862446,-2.181963,-0.3575047,-0.01997816
103.7505,0.04416572,-1.748943,0.4862692,-2.181989,-0.3574562,-0.019978
103.766,0.04416573,-1.751035,0.4862931,-2.182013,-0.3574072,-0.01997785
103.7808,0.04416577,-1.753101,0.4863163,-2.182035,-0.3573578,-0.01997769
103.7961,0.04416577,-1.753101,0.4863163,-2.182035,-0.3573578,-0.01997769
103.8114,0.04416585,-1.755143,0.4863388,-2.182055,-0.3573079,-0.01997754
103.8257,0.04416598,-1.757161,0.4863604,-2.182068,-0.357258,-0.01997738
103.8406,0.04416614,-1.759155,0.4863812,-2.182073,-0.357208,-0.01997722
103.856,0.04416614,-1.759155,0.4863812,-2.182073,-0.357208,-0.01997722
103.8699,0.04416633,-1.761124,0.4864013,-2.182072,-0.3571576,-0.01997705
103.8856,0.04416657,-1.763071,0.4864209,-2.182068,-0.3571068,-0.01997689
103.9004,0.04416684,-1.764994,0.4864399,-2.182063,-0.3570554,-0.01997674
103.9165,0.04416684,-1.764994,0.4864399,-2.182063,-0.3570554,-0.01997674
103.9298,0.04416715,-1.766894,0.4864584,-2.182059,-0.3570035,-0.01997658
103.9451,0.04416749,-1.768771,0.4864762,-2.182055,-0.3569512,-0.01997642
103.9597,0.04416749,-1.768771,0.4864762,-2.182055,-0.3569512,-0.01997642
103.9741,0.04416787,-1.770626,0.4864933,-2.182053,-0.3568987,-0.01997627
103.9897,0.04416829,-1.772459,0.4865098,-2.182052,-0.356846,-0.01997612
104.0046,0.04416873,-1.774271,0.4865256,-2.18205,-0.356793,-0.01997597
104.0196,0.04416873,-1.774271,0.4865256,-2.18205,-0.356793,-0.01997597
104.0339,0.04416921,-1.77606,0.4865409,-2.182049,-0.3567399,-0.01997582
104.0494,0.04416972,-1.777828,0.4865555,-2.182047,-0.3566866,-0.01997567
104.0642,0.04417027,-1.779575,0.4865696,-2.182045,-0.3566331,-0.01997552
104.0791,0.04417027,-1.779575,0.4865696,-2.182045,-0.3566331,-0.01997552
104.0934,0.04417084,-1.781301,0.486583,-2.182043,-0.3565794,-0.01997537
104.109,0.04417145,-1.783007,0.486596,-2.182041,-0.3565257,-0.01997522
104.1237,0.04417208,-1.784692,0.4866084,-2.182038,-0.3564717,-0.01997507
104.1389,0.04417208,-1.784692,0.4866084,-2.182038,-0.3564717,-0.01997507
104.1528,0.04417275,-1.786358,0.4866202,-2.182034,-0.3564178,-0.01997493
104.1683,0.04417344,-1.788003,0.4866315,-2.182029,-0.3563637,-0.01997478
104.183,0.04417416,-1.789629,0.4866422,-2.182023,-0.3563097,-0.01997464
104.1977,0.04417416,-1.789629,0.4866422,-2.182023,-0.3563097,-0.01997464
104.212,0.04417492,-1.791235,0.4866525,-2.182016,-0.3562556,-0.0199745
104.2276,0.0441757,-1.792822,0.4866621,-2.182008,-0.3562015,-0.01997436
104.2423,0.0441765,-1.79439,0.4866713,-2.181998,-0.3561474,-0.01997422
104.2577,0.0441765,-1.79439,0.4866713,-2.181998,-0.3561474,-0.01997422
104.2716,0.04417733,-1.79594,0.48668,-2.181988,-0.3560933,-0.01997408
104.2874,0.0441782,-1.797471,0.4866882,-2.181976,-0.3560393,-0.01997394
104.3023,0.04417908,-1.798984,0.4866958,-2.181964,-0.3559853,-0.0199738
104.317,0.04417908,-1.798984,0.4866958,-2.181964,-0.3559853,-0.0199738
104.3312,0.04417999,-1.800479,0.486703,-2.18195,-0.3559313,-0.01997366
104.3481,0.04418093,-1.801955,0.4867097,-2.181936,-0.3558775,-0.01997353
104.3617,0.04418189,-1.803415,0.4867159,-2.181921,-0.3558237,-0.01997339
104.3765,0.04418189,-1.803415,0.4867159,-2.181921,-0.3558237,-0.01997339
104.3906,0.04418287,-1.804857,0.4867217,-2.181905,-0.35577,-0.01997326
104.406,0.04418388,-1.806281,0.4867271,-2.181888,-0.3557165,-0.01997313
104.4208,0.04418491,-1.807689,0.4867319,-2.18187,-0.355663,-0.01997299
104.4356,0.04418491,-1.807689,0.4867319,-2.18187,-0.355663,-0.01997299
104.4498,0.04418596,-1.80908,0.4867364,-2.181852,-0.3556097,-0.01997286
104.4654,0.04418704,-1.810454,0.4867404,-2.181833,-0.3555565,-0.01997273
104.4804,0.04418814,-1.811812,0.486744,-2.181813,-0.3555035,-0.0199726
104.4951,0.04418814,-1.811812,0.486744,-2.181813,-0.3555035,-0.0199726
104.5094,0.04418926,-1.813154,0.4867471,-2.181792,-0.3554507,-0.01997247
104.5251,0.0441904,-1.81448,0.4867499,-2.181771,-0.355398,-0.01997234
104.5399,0.0441904,-1.81448,0.4867499,-2.181771,-0.355398,-0.01997234
104.5541,0.04419155,-1.81579,0.4867523,-2.181749,-0.3553455,-0.01997222
104.5704,0.04419274,-1.817084,0.4867542,-2.181726,-0.3552931,-0.01997209
104.5843,0.04419394,-1.818363,0.4867558,-2.181703,-0.355241,-0.01997196
104.5991,0.04419394,-1.818363,0.4867558,-2.181703,-0.355241,-0.01997196
104.6133,0.04419517,-1.819626,0.486757,-2.181679,-0.3551891,-0.01997184
104.6286,0.04419644,-1.820875,0.4867579,-2.181655,-0.3551374,-0.01997172
104.6435,0.04419778,-1.822109,0.4867583,-2.18163,-0.3550859,-0.01997159
104.6593,0.04419778,-1.822109,0.4867583,-2.18163,-0.3550859,-0.01997159
104.6726,0.04419919,-1.823327,0.4867584,-2.181604,-0.3550346,-0.01997147
104.6881,0.04420068,-1.824532,0.486758,-2.181578,-0.3549836,-0.01997135
104.7031,0.04420226,-1.825722,0.4867572,-2.181552,-0.3549328,-0.01997123
104.7179,0.04420226,-1.825722,0.4867572,-2.181552,-0.3549328,-0.01997123
104.7322,0.0442039,-1.826898,0.4867561,-2.181525,-0.3548823,-0.01997112
104.748,0.04420562,-1.828059,0.4867547,-2.181498,-0.354832,-0.019971
104.7629,0.04420741,-1.829207,0.4867529,-2.18147,-0.354782,-0.01997088
104.7778,0.04420741,-1.829207,0.4867529,-2.18147,-0.354782,-0.01997088
104.7932,0.04420926,-1.830341,0.4867507,-2.181442,-0.3547323,-0.01997077
104.8077,0.04421119,-1.831462,0.4867482,-2.181413,-0.3546828,-0.01997066
104.8226,0.04421317,-1.832569,0.4867454,-2.181384,-0.3546336,-0.01997054
104.8374,0.04421317,-1.832569,0.4867454,-2.181384,-0.3546336,-0.01997054
104.8515,0.04421522,-1.833664,0.4867423,-2.181355,-0.3545847,-0.01997043
104.8668,0.04421733,-1.834745,0.4867389,-2.181325,-0.3545361,-0.01997032
104.882,0.04421949,-1.835813,0.4867351,-2.181295,-0.3544877,-0.01997021
104.8965,0.04421949,-1.835813,0.4867351,-2.181295,-0.3544877,-0.01997021
104.9111,0.04422171,-1.836868,0.4867311,-2.181264,-0.3544397,-0.0199701
104.9265,0.04422398,-1.837911,0.4867268,-2.181233,-0.3543919,-0.01996999
104.9416,0.0442263,-1.838941,0.4867222,-2.181202,-0.3543444,-0.01996989
104.9566,0.0442263,-1.838941,0.4867222,-2.181202,-0.3543444,-0.01996989
104.9708,0.04422868,-1.839959,0.4867173,-2.181171,-0.3542973,-0.01996978
104.9863,0.04423109,-1.840965,0.4867122,-2.18114,-0.3542504,-0.01996968
105.0007,0.04423356,-1.841959,0.4867068,-2.181108,-0.3542039,-0.01996957
105.0158,0.04423356,-1.841959,0.4867068,-2.181108,-0.3542039,-0.01996957
105.0299,0.04423607,-1.842941,0.4867012,-2.181076,-0.3541576,-0.01996947
105.0454,0.04423862,-1.843912,0.4866953,-2.181044,-0.3541117,-0.01996937
105.0601,0.0442412,-1.84487,0.4866892,-2.181011,-0.354066,-0.01996927
105.075,0.0442412,-1.84487,0.4866892,-2.181011,-0.354066,-0.01996927
105.0893,0.04424383,-1.845818,0.4866828,-2.180979,-0.3540207,-0.01996917
105.1046,0.0442465,-1.846754,0.4866762,-2.180946,-0.3539757,-0.01996907
105.1194,0.0442465,-1.846754,0.4866762,-2.180946,-0.3539757,-0.01996907
105.1334,0.0442492,-1.847679,0.4866694,-2.180913,-0.3539311,-0.01996898
105.1491,0.04425194,-1.848593,0.4866624,-2.18088,-0.3538867,-0.01996888
105.1638,0.04425471,-1.849495,0.4866552,-2.180846,-0.3538427,-0.01996878
105.1789,0.04425471,-1.849495,0.4866552,-2.180846,-0.3538427,-0.01996878
105.1933,0.0442575,-1.850388,0.4866478,-2.180813,-0.353799,-0.01996869
105.2087,0.04426033,-1.851269,0.4866401,-2.180779,-0.3537556,-0.0199686
105.2237,0.04426319,-1.85214,0.4866323,-2.180745,-0.3537125,-0.0199685
105.2387,0.04426319,-1.85214,0.4866323,-2.180745,-0.3537125,-0.0199685
105.2529,0.04426607,-1.853001,0.4866243,-2.180711,-0.3536698,-0.01996841
105.2684,0.04426898,-1.853851,0.4866162,-2.180677,-0.3536274,-0.01996832
105.283,0.04427191,-1.854691,0.4866078,-2.180643,-0.3535853,-0.01996823
105.2979,0.04427191,-1.854691,0.4866078,-2.180643,-0.3535853,-0.01996823
105.3122,0.04427487,-1.855521,0.4865993,-2.180609,-0.3535435,-0.01996814
105.3281,0.04427785,-1.856342,0.4865906,-2.180575,-0.3535021,-0.01996806
105.3429,0.04428085,-1.857152,0.4865818,-2.180541,-0.353461,-0.01996797
105.3577,0.04428085,-1.857152,0.4865818,-2.180541,-0.353461,-0.01996797
105.3719,0.04428387,-1.857953,0.4865728,-2.180506,-0.3534203,-0.01996788
105.3876,0.0442869,-1.858744,0.4865636,-2.180472,-0.3533798,-0.0199678
105.4025,0.04428996,-1.859526,0.4865543,-2.180438,-0.3533397,-0.01996772
105.4174,0.04428996,-1.859526,0.4865543,-2.180438,-0.3533397,-0.01996772
105.4314,0.04429303,-1.860298,0.4865449,-2.180403,-0.3532999,-0.01996763
105.447,0.04429611,-1.861062,0.4865353,-2.180368,-0.3532605,-0.01996755
105.4619,0.04429921,-1.861816,0.4865257,-2.180334,-0.3532214,-0.01996747
105.4769,0.04429921,-1.861816,0.4865257,-2.180334,-0.3532214,-0.01996747
105.491,0.04430233,-1.862561,0.4865158,-2.180299,-0.3531826,-0.01996739
105.5065,0.04430545,-1.863297,0.4865059,-2.180265,-0.3531441,-0.01996731
105.5213,0.04430859,-1.864025,0.4864959,-2.18023,-0.353106,-0.01996723
105.536,0.04430859,-1.864025,0.4864959,-2.18023,-0.353106,-0.01996723
105.5503,0.04431174,-1.864743,0.4864857,-2.180196,-0.3530682,-0.01996716
105.5659,0.04431489,-1.865454,0.4864754,-2.180161,-0.3530307,-0.01996708
105.5807,0.04431806,-1.866155,0.4864651,-2.180126,-0.3529936,-0.019967
105.5955,0.04431806,-1.866155,0.4864651,-2.180126,-0.3529936,-0.019967
105.61,0.04432124,-1.866849,0.4864546,-2.180092,-0.3529568,-0.01996693
105.6256,0.04432442,-1.867534,0.486444,-2.180058,-0.3529203,-0.01996686
105.6405,0.04432761,-1.868211,0.4864333,-2.180023,-0.3528841,-0.01996678
105.6554,0.04432761,-1.868211,0.4864333,-2.180023,-0.3528841,-0.01996678
105.6709,0.0443308,-1.868879,0.4864226,-2.179989,-0.3528482,-0.01996671
105.6852,0.044334,-1.86954,0.4864117,-2.179955,-0.3528127,-0.01996664
105.6999,0.044334,-1.86954,0.4864117,-2.179955,-0.3528127,-0.01996664
105.7141,0.0443372,-1.870193,0.4864008,-2.17992,-0.3527775,-0.01996657
105.7297,0.04434041,-1.870838,0.4863898,-2.179886,-0.3527426,-0.0199665
105.7448,0.04434362,-1.871476,0.4863787,-2.179852,-0.352708,-0.01996643
105.7594,0.04434362,-1.871476,0.4863787,-2.179852,-0.352708,-0.01996643
105.7737,0.04434683,-1.872106,0.4863676,-2.179818,-0.3526738,-0.01996637
105.7896,0.04435005,-1.872728,0.4863564,-2.179784,-0.3526399,-0.0199663
105.8042,0.04435326,-1.873343,0.4863451,-2.17975,-0.3526063,-0.01996624
105.8192,0.04435326,-1.873343,0.4863451,-2.17975,-0.3526063,-0.01996624
105.8334,0.04435648,-1.87395,0.4863338,-2.179716,-0.352573,-0.01996617
105.8491,0.04435969,-1.874551,0.4863223,-2.179683,-0.35254,-0.01996611
105.864,0.0443629,-1.875144,0.4863109,-2.179649,-0.3525073,-0.01996604
105.8789,0.0443629,-1.875144,0.4863109,-2.179649,-0.3525073,-0.01996604
105.8931,0.04436611,-1.87573,0.4862994,-2.179615,-0.352475,-0.01996598
105.9088,0.04436933,-1.876309,0.4862878,-2.179582,-0.3524429,-0.01996592
105.9231,0.04437253,-1.876881,0.4862762,-2.179549,-0.3524112,-0.01996586
105.938,0.04437253,-1.876881,0.4862762,-2.179549,-0.3524112,-0.01996586
105.9524,0.04437574,-1.877447,0.4862646,-2.179516,-0.3523797,-0.01996579
105.9679,0.04437894,-1.878005,0.4862529,-2.179482,-0.3523486,-0.01996573
105.9829,0.04438213,-1.878557,0.4862412,-2.17945,-0.3523177,-0.01996568
105.9992,0.04438213,-1.878557,0.4862412,-2.17945,-0.3523177,-0.01996568
106.012,0.04438533,-1.879102,0.4862294,-2.179417,-0.3522872,-0.01996562
106.0274,0.04438851,-1.879641,0.4862176,-2.179384,-0.352257,-0.01996556
106.0424,0.0443917,-1.880174,0.4862058,-2.179351,-0.352227,-0.01996551
106.0574,0.0443917,-1.880174,0.4862058,-2.179351,-0.352227,-0.01996551
106.0715,0.04439487,-1.8807,0.486194,-2.179319,-0.3521974,-0.01996545
106.0869,0.04439804,-1.88122,0.4861821,-2.179286,-0.352168,-0.0199654
106.1019,0.04440121,-1.881733,0.4861702,-2.179254,-0.352139,-0.01996534
106.1167,0.04440121,-1.881733,0.4861702,-2.179254,-0.352139,-0.01996534
106.1309,0.04440436,-1.882241,0.4861583,-2.179222,-0.3521102,-0.01996529
106.1463,0.04440751,-1.882742,0.4861464,-2.17919,-0.3520817,-0.01996523
106.1614,0.04441065,-1.883237,0.4861344,-2.179158,-0.3520536,-0.01996518
106.1761,0.04441065,-1.883237,0.4861344,-2.179158,-0.3520536,-0.01996518
106.1904,0.04441378,-1.883727,0.4861225,-2.179127,-0.3520257,-0.01996513
106.2062,0.04441691,-1.88421,0.4861105,-2.179095,-0.351998,-0.01996508
106.2209,0.04442002,-1.884688,0.4860985,-2.179064,-0.3519707,-0.01996503
106.2358,0.04442002,-1.884688,0.4860985,-2.179064,-0.3519707,-0.01996503
106.25,0.04442313,-1.885161,0.4860865,-2.179033,-0.3519436,-0.01996498
106.2658,0.04442623,-1.885627,0.4860745,-2.179002,-0.3519168,-0.01996493
106.2805,0.04442931,-1.886088,0.4860625,-2.178971,-0.3518904,-0.01996488
106.2953,0.04442931,-1.886088,0.4860625,-2.178971,-0.3518904,-0.01996488
106.3105,0.04443239,-1.886544,0.4860505,-2.17894,-0.3518641,-0.01996483
