JMolnar6/NonAnthroHands_User_Study/HandsLoggerWithURDF/tempdata/PID 0 (test)/files/Reachy_PID0_JointMotion_gesture_8_2.csv
Time,r_shoulder,r_shoulder_x,r_upper_arm,r_forearm,r_wrist,r_wrist2hand,
667.3143,0.04492183,-0.3280267,0.4159025,-0.5179112,-0.369785,-0.02000741
667.3294,0.04492214,-0.3280168,0.4164937,-0.5179052,-0.3699192,-0.02000706
667.3443,0.04492244,-0.328007,0.4170786,-0.5178993,-0.3700522,-0.02000671
667.3591,0.04492244,-0.328007,0.4170786,-0.5178993,-0.3700522,-0.02000671
667.373,0.04492275,-0.3279973,0.4176574,-0.5178933,-0.370184,-0.02000637
667.3887,0.04492305,-0.3279878,0.4182301,-0.5178874,-0.3703146,-0.02000602
667.4035,0.04492335,-0.3279783,0.4187968,-0.5178815,-0.3704441,-0.02000568
667.4185,0.04492335,-0.3279783,0.4187968,-0.5178815,-0.3704441,-0.02000568
667.4324,0.04492365,-0.3279689,0.4193576,-0.5178756,-0.3705724,-0.02000534
667.4479,0.04492395,-0.3279597,0.4199125,-0.5178698,-0.3706995,-0.02000501
667.4628,0.04492424,-0.3279506,0.4204615,-0.5178639,-0.3708256,-0.02000467
667.4774,0.04492424,-0.3279506,0.4204615,-0.5178639,-0.3708256,-0.02000467
667.4918,0.04492454,-0.3279415,0.4210048,-0.5178581,-0.3709505,-0.02000434
667.5083,0.04492483,-0.3279326,0.4215424,-0.5178523,-0.3710742,-0.02000402
667.522,0.04492513,-0.3279238,0.4220743,-0.5178465,-0.3711969,-0.02000369
667.5367,0.04492513,-0.3279238,0.4220743,-0.5178465,-0.3711969,-0.02000369
667.5505,0.04492542,-0.3279151,0.4226007,-0.5178408,-0.3713185,-0.02000337
667.566,0.04492571,-0.3279065,0.4231215,-0.5178351,-0.3714389,-0.02000305
667.5809,0.044926,-0.3278981,0.4236368,-0.5178294,-0.3715583,-0.02000273
667.5958,0.044926,-0.3278981,0.4236368,-0.5178294,-0.3715583,-0.02000273
667.6099,0.04492629,-0.3278897,0.4241467,-0.5178237,-0.3716766,-0.02000242
667.6254,0.04492657,-0.3278814,0.4246513,-0.517818,-0.3717939,-0.02000211
667.6406,0.04492686,-0.3278732,0.4251505,-0.5178124,-0.37191,-0.0200018
667.6553,0.04492686,-0.3278732,0.4251505,-0.5178124,-0.37191,-0.0200018
667.6693,0.04492715,-0.3278651,0.4256445,-0.5178068,-0.3720251,-0.0200015
667.6848,0.04492743,-0.3278571,0.4261333,-0.5178012,-0.3721392,-0.0200012
667.6998,0.04492743,-0.3278571,0.4261333,-0.5178012,-0.3721392,-0.0200012
667.7136,0.04492771,-0.3278492,0.4266169,-0.5177957,-0.3722523,-0.0200009
667.729,0.044928,-0.3278414,0.4270954,-0.5177901,-0.3723643,-0.0200006
667.7449,0.04492828,-0.3278337,0.4275689,-0.5177847,-0.3724752,-0.0200003
667.7587,0.04492828,-0.3278337,0.4275689,-0.5177847,-0.3724752,-0.0200003
667.7728,0.04492855,-0.327826,0.4280374,-0.5177792,-0.3725852,-0.02000001
667.7881,0.04492883,-0.3278185,0.428501,-0.5177737,-0.3726941,-0.01999972
667.8028,0.04492911,-0.327811,0.4289597,-0.5177683,-0.3728021,-0.01999943
667.8176,0.04492911,-0.327811,0.4289597,-0.5177683,-0.3728021,-0.01999943
667.8318,0.04492939,-0.3278037,0.4294135,-0.517763,-0.372909,-0.01999914
667.8472,0.04492966,-0.3277964,0.4298626,-0.5177576,-0.373015,-0.01999885
667.8623,0.04492994,-0.3277892,0.4303069,-0.5177522,-0.37312,-0.01999857
667.877,0.04492994,-0.3277892,0.4303069,-0.5177522,-0.37312,-0.01999857
667.8912,0.04493021,-0.3277821,0.4307465,-0.5177469,-0.373224,-0.01999829
667.9069,0.04493048,-0.3277751,0.4311815,-0.5177416,-0.3733271,-0.01999802
667.9214,0.04493075,-0.3277682,0.4316119,-0.5177364,-0.3734292,-0.01999774
667.9362,0.04493075,-0.3277682,0.4316119,-0.5177364,-0.3734292,-0.01999774
667.9504,0.04493102,-0.3277614,0.4320377,-0.5177311,-0.3735303,-0.01999747
667.9678,0.04493129,-0.3277546,0.4324591,-0.5177259,-0.3736306,-0.0199972
667.9815,0.04493156,-0.3277479,0.4328759,-0.5177208,-0.3737299,-0.01999693
667.9953,0.04493156,-0.3277479,0.4328759,-0.5177208,-0.3737299,-0.01999693
668.0095,0.04493183,-0.3277414,0.4332884,-0.5177156,-0.3738282,-0.01999666
668.0248,0.04493209,-0.3277348,0.4336965,-0.5177105,-0.3739257,-0.0199964
668.0397,0.04493209,-0.3277348,0.4336965,-0.5177105,-0.3739257,-0.0199964
668.0536,0.04493235,-0.3277284,0.4341003,-0.5177054,-0.3740222,-0.01999614
668.0693,0.04493262,-0.327722,0.4344998,-0.5177004,-0.3741179,-0.01999588
668.084,0.04493288,-0.3277157,0.4348951,-0.5176954,-0.3742126,-0.01999563
668.0992,0.04493288,-0.3277157,0.4348951,-0.5176954,-0.3742126,-0.01999563
668.1133,0.04493314,-0.3277095,0.4352863,-0.5176904,-0.3743064,-0.01999537
668.1287,0.0449334,-0.3277034,0.4356732,-0.5176854,-0.3743994,-0.01999512
668.1436,0.04493367,-0.3276973,0.4360561,-0.5176805,-0.3744915,-0.01999488
668.1583,0.04493367,-0.3276973,0.4360561,-0.5176805,-0.3744915,-0.01999488
668.1729,0.04493392,-0.3276913,0.4364349,-0.5176755,-0.3745828,-0.01999463
668.1878,0.04493418,-0.3276854,0.4368097,-0.5176706,-0.3746732,-0.01999438
668.2048,0.04493444,-0.3276796,0.4371806,-0.5176657,-0.3747627,-0.01999414
668.2183,0.04493444,-0.3276796,0.4371806,-0.5176657,-0.3747627,-0.01999414
668.2314,0.04493469,-0.3276738,0.4375475,-0.5176609,-0.3748514,-0.0199939
668.2468,0.04493495,-0.3276681,0.4379105,-0.5176561,-0.3749392,-0.01999366
668.2614,0.0449352,-0.3276624,0.4382697,-0.5176513,-0.3750263,-0.01999342
668.2764,0.0449352,-0.3276624,0.4382697,-0.5176513,-0.3750263,-0.01999342
668.2905,0.04493545,-0.3276569,0.4386251,-0.5176466,-0.3751124,-0.01999319
668.3061,0.04493571,-0.3276514,0.4389767,-0.5176418,-0.3751978,-0.01999296
668.3216,0.04493597,-0.3276459,0.4394714,-0.5188692,-0.3754791,-0.01999632
668.3357,0.04493597,-0.3276459,0.4394714,-0.5188692,-0.3754791,-0.01999632
668.3499,0.04493623,-0.3276406,0.4399506,-0.5207947,-0.3757726,-0.01999813
668.3677,0.04493649,-0.3276353,0.4403819,-0.5230339,-0.3760262,-0.0199993
668.3801,0.04493674,-0.32763,0.4407755,-0.5254029,-0.3762408,-0.02000019
668.395,0.04493674,-0.32763,0.4407755,-0.5254029,-0.3762408,-0.02000019
668.4091,0.04493698,-0.3276248,0.4410009,-0.5265817,-0.3762324,-0.01999744
668.4244,0.04493722,-0.3276197,0.4412251,-0.5270624,-0.376193,-0.01999614
668.4404,0.04493746,-0.3276146,0.4414845,-0.5272098,-0.3761799,-0.01999542
668.455,0.04493746,-0.3276146,0.4414845,-0.5272098,-0.3761799,-0.01999542
668.468,0.04493769,-0.3276096,0.4416279,-0.5259662,-0.3760011,-0.01999146
668.4835,0.04493792,-0.3276047,0.4417971,-0.5239492,-0.3758286,-0.01998908
668.4981,0.04493792,-0.3276047,0.4417971,-0.5239492,-0.3758286,-0.01998908
668.5123,0.04493815,-0.3275998,0.4420142,-0.5215838,-0.3757055,-0.01998735
668.5278,0.04493839,-0.327595,0.4422644,-0.519073,-0.3756258,-0.0199859
668.5427,0.04493861,-0.3275902,0.442385,-0.5152819,-0.3753791,-0.01998099
668.5575,0.04493861,-0.3275902,0.442385,-0.5152819,-0.3753791,-0.01998099
668.5716,0.04493884,-0.3275854,0.4425203,-0.5107909,-0.3751349,-0.01997765
668.5872,0.04493906,-0.3275807,0.4426976,-0.5060067,-0.3749389,-0.01997497
668.6021,0.04493928,-0.3275761,0.4429058,-0.5011232,-0.3747871,-0.01997256
668.6166,0.04493928,-0.3275761,0.4429058,-0.5011232,-0.3747871,-0.01997256
668.6307,0.0449395,-0.3275716,0.442978,-0.495001,-0.374466,-0.01996643
668.6464,0.04493972,-0.3275671,0.4430624,-0.4882178,-0.3741473,-0.01996196
668.6609,0.04493993,-0.3275626,0.4431893,-0.4811786,-0.3738789,-0.01995817
668.6779,0.04493993,-0.3275626,0.4431893,-0.4811786,-0.3738789,-0.01995817
668.6914,0.04494015,-0.3275582,0.4433299,-0.4739315,-0.3736334,-0.01995415
668.7057,0.04494036,-0.3275539,0.4434892,-0.4666308,-0.3734203,-0.01995044
668.7202,0.04494058,-0.3275497,0.4436619,-0.4593651,-0.3732356,-0.01994684
668.7347,0.04494058,-0.3275497,0.4436619,-0.4593651,-0.3732356,-0.01994684
668.749,0.0449408,-0.3275455,0.4438418,-0.4521758,-0.3730727,-0.01994327
668.7644,0.04494101,-0.3275413,0.4440247,-0.4450818,-0.3729261,-0.0199397
668.7793,0.04494101,-0.3275413,0.4440247,-0.4450818,-0.3729261,-0.0199397
668.7932,0.04494123,-0.3275372,0.4442085,-0.4380915,-0.3727924,-0.01993612
668.8091,0.04494144,-0.3275331,0.4443924,-0.4312077,-0.3726698,-0.0199325
668.8239,0.04494166,-0.3275291,0.4445764,-0.4244311,-0.372557,-0.01992887
668.8389,0.04494166,-0.3275291,0.4445764,-0.4244311,-0.372557,-0.01992887
668.8527,0.04494187,-0.3275252,0.4447607,-0.4177611,-0.3724534,-0.01992519
668.8681,0.04494208,-0.3275213,0.4449454,-0.4111966,-0.3723587,-0.01992148
668.8832,0.04494229,-0.3275174,0.445131,-0.4047359,-0.3722728,-0.01991773
668.8981,0.04494229,-0.3275174,0.445131,-0.4047359,-0.3722728,-0.01991773
668.914,0.04494251,-0.3275136,0.4453177,-0.3983777,-0.3721955,-0.01991394
668.9283,0.04494271,-0.3275099,0.4455057,-0.3921204,-0.3721265,-0.01991011
668.9423,0.04494292,-0.3275062,0.4456953,-0.3859624,-0.3720659,-0.01990623
668.957,0.04494292,-0.3275062,0.4456953,-0.3859624,-0.3720659,-0.01990623
668.971,0.04494313,-0.3275025,0.4458866,-0.3799021,-0.3720136,-0.01990231
668.9866,0.04494334,-0.3274989,0.4460799,-0.373938,-0.3719694,-0.01989834
669.0012,0.04494355,-0.3274953,0.4462751,-0.3680685,-0.3719333,-0.01989432
669.0162,0.04494355,-0.3274953,0.4462751,-0.3680685,-0.3719333,-0.01989432
669.0302,0.04494375,-0.3274918,0.4464724,-0.3622923,-0.3719051,-0.01989025
669.0461,0.04494396,-0.3274883,0.4466719,-0.3566077,-0.3718849,-0.01988612
669.0607,0.04494416,-0.3274849,0.4468738,-0.3510133,-0.3718723,-0.01988194
669.0756,0.04494416,-0.3274849,0.4468738,-0.3510133,-0.3718723,-0.01988194
669.0898,0.04494437,-0.3274815,0.447078,-0.3455077,-0.3718675,-0.0198777
669.1055,0.04494457,-0.3274781,0.4472847,-0.3400896,-0.3718703,-0.0198734
669.1201,0.04494478,-0.3274748,0.4474939,-0.3347574,-0.3718806,-0.01986904
669.1347,0.04494478,-0.3274748,0.4474939,-0.3347574,-0.3718806,-0.01986904
669.1512,0.04494498,-0.3274716,0.4477058,-0.3295099,-0.3718983,-0.01986461
669.1653,0.04494518,-0.3274683,0.4479203,-0.3243457,-0.3719234,-0.01986012
669.1791,0.04494518,-0.3274683,0.4479203,-0.3243457,-0.3719234,-0.01986012
669.193,0.04494538,-0.3274651,0.4481376,-0.3192635,-0.3719557,-0.01985556
669.2087,0.04494558,-0.327462,0.4483577,-0.3142619,-0.3719952,-0.01985092
669.2233,0.04494578,-0.3274589,0.4485807,-0.3093398,-0.3720419,-0.01984622
669.2382,0.04494578,-0.3274589,0.4485807,-0.3093398,-0.3720419,-0.01984622
669.2522,0.04494598,-0.3274558,0.4488067,-0.3044958,-0.3720956,-0.01984144
669.2675,0.04494618,-0.3274528,0.4490357,-0.2997287,-0.3721563,-0.01983658
669.2827,0.04494638,-0.3274498,0.4492677,-0.2950373,-0.3722239,-0.01983164
669.2978,0.04494638,-0.3274498,0.4492677,-0.2950373,-0.3722239,-0.01983164
669.3116,0.04494657,-0.3274468,0.4495029,-0.2904204,-0.3722983,-0.01982662
669.327,0.04494677,-0.3274439,0.4497412,-0.2858767,-0.3723795,-0.01982152
669.3418,0.04494696,-0.327441,0.4499828,-0.2814052,-0.3724675,-0.01981633
669.3569,0.04494696,-0.327441,0.4499828,-0.2814052,-0.3724675,-0.01981633
669.3708,0.04494716,-0.3274382,0.4502277,-0.2770047,-0.3725621,-0.01981105
669.3872,0.04494735,-0.3274353,0.4504759,-0.2726741,-0.3726633,-0.01980568
669.4009,0.04494755,-0.3274326,0.4507276,-0.2684123,-0.372771,-0.01980021
669.4158,0.04494755,-0.3274326,0.4507276,-0.2684123,-0.372771,-0.01980021
669.4299,0.04494774,-0.3274298,0.4509826,-0.2642181,-0.3728852,-0.01979465
669.4452,0.04494793,-0.3274271,0.4512411,-0.2600906,-0.3730058,-0.01978899
669.46,0.04494812,-0.3274244,0.4515032,-0.2560285,-0.3731329,-0.01978322
669.4749,0.04494812,-0.3274244,0.4515032,-0.2560285,-0.3731329,-0.01978322
669.4891,0.04494831,-0.3274218,0.4517688,-0.252031,-0.3732662,-0.01977736
669.5046,0.0449485,-0.3274192,0.452038,-0.2480969,-0.3734058,-0.01977138
669.5194,0.0449485,-0.3274192,0.452038,-0.2480969,-0.3734058,-0.01977138
669.5334,0.04494869,-0.3274166,0.4523109,-0.2442254,-0.3735516,-0.0197653
669.549,0.04494888,-0.327414,0.4525875,-0.2404153,-0.3737035,-0.0197591
669.5637,0.04494907,-0.3274115,0.4528678,-0.2366657,-0.3738616,-0.01975278
669.5787,0.04494907,-0.3274115,0.4528678,-0.2366657,-0.3738616,-0.01975278
669.5927,0.04494926,-0.327409,0.4531519,-0.2329757,-0.3740257,-0.01974635
669.6083,0.04494944,-0.3274065,0.4534397,-0.2293442,-0.3741959,-0.0197398
669.624,0.04494963,-0.3274041,0.4537313,-0.2257705,-0.374372,-0.01973312
669.6387,0.04494963,-0.3274041,0.4537313,-0.2257705,-0.374372,-0.01973312
669.6518,0.04494981,-0.3274016,0.4540267,-0.2222535,-0.374554,-0.01972631
669.6672,0.04495,-0.3273993,0.454326,-0.2187923,-0.3747419,-0.01971938
669.6818,0.04495018,-0.3273969,0.4546292,-0.2153862,-0.3749355,-0.01971231
669.6974,0.04495018,-0.3273969,0.4546292,-0.2153862,-0.3749355,-0.01971231
669.7108,0.04495037,-0.3273946,0.4549363,-0.2120341,-0.375135,-0.01970511
669.7262,0.04495055,-0.3273923,0.4552473,-0.2087353,-0.3753401,-0.01969776
669.7409,0.04495073,-0.32739,0.4555622,-0.2054889,-0.375551,-0.01969028
669.756,0.04495073,-0.32739,0.4555622,-0.2054889,-0.375551,-0.01969028
669.7702,0.04495091,-0.3273878,0.455881,-0.202294,-0.3757674,-0.01968265
669.7855,0.04495109,-0.3273856,0.4562038,-0.1991499,-0.3759894,-0.01967488
669.8001,0.04495127,-0.3273834,0.4565305,-0.1960558,-0.3762169,-0.01966695
669.8151,0.04495127,-0.3273834,0.4565305,-0.1960558,-0.3762169,-0.01966695
669.8293,0.04495145,-0.3273813,0.4568612,-0.1930107,-0.3764498,-0.01965886
669.8447,0.04495163,-0.3273791,0.4571958,-0.1900141,-0.3766881,-0.01965062
669.8604,0.04495181,-0.327377,0.4575344,-0.1870651,-0.3769318,-0.01964222
669.8754,0.04495181,-0.327377,0.4575344,-0.1870651,-0.3769318,-0.01964222
669.8886,0.04495199,-0.3273749,0.4578769,-0.1841629,-0.3771807,-0.01963366
669.9038,0.04495216,-0.3273729,0.4582234,-0.1813069,-0.3774349,-0.01962493
669.9185,0.04495216,-0.3273729,0.4582234,-0.1813069,-0.3774349,-0.01962493
669.933,0.04495234,-0.3273709,0.4585738,-0.1784962,-0.3776943,-0.01961603
669.9482,0.04495251,-0.3273689,0.4589281,-0.1757302,-0.3779587,-0.01960696
669.963,0.04495269,-0.3273669,0.4592863,-0.1730081,-0.3782282,-0.01959771
669.9778,0.04495269,-0.3273669,0.4592863,-0.1730081,-0.3782282,-0.01959771
669.9919,0.04495286,-0.3273649,0.4596483,-0.1703293,-0.3785027,-0.01958828
670.0079,0.04495304,-0.327363,0.4600142,-0.167693,-0.3787821,-0.01957867
670.0225,0.04495321,-0.327361,0.4603839,-0.1650986,-0.3790663,-0.01956887
670.0373,0.04495321,-0.327361,0.4603839,-0.1650986,-0.3790663,-0.01956887
670.0514,0.04495338,-0.3273592,0.4607573,-0.1625455,-0.3793553,-0.01955888
670.0669,0.04495355,-0.3273573,0.4611345,-0.1600329,-0.379649,-0.0195487
670.0814,0.04495372,-0.3273554,0.4615154,-0.1575603,-0.3799473,-0.01953833
670.0975,0.04495372,-0.3273554,0.4615154,-0.1575603,-0.3799473,-0.01953833
670.1118,0.04495389,-0.3273536,0.4619,-0.155127,-0.3802501,-0.01952776
670.1257,0.04495407,-0.3273518,0.4622881,-0.1527323,-0.3805574,-0.01951698
670.1405,0.04495423,-0.3273501,0.4626798,-0.1503757,-0.380869,-0.01950601
670.1554,0.04495423,-0.3273501,0.4626798,-0.1503757,-0.380869,-0.01950601
670.1696,0.0449544,-0.3273483,0.4631417,-0.1481994,-0.381254,-0.01949983
670.1848,0.04495457,-0.3273466,0.4636072,-0.1461441,-0.3816447,-0.01949144
670.1996,0.04495457,-0.3273466,0.4636072,-0.1461441,-0.3816447,-0.01949144
670.2137,0.04495474,-0.3273448,0.4640637,-0.1441623,-0.3820277,-0.01948202
670.2296,0.04495491,-0.3273431,0.4645122,-0.1422314,-0.3824034,-0.01947207
670.2443,0.04495509,-0.3273415,0.4655594,-0.1415529,-0.3833974,-0.0195089
670.259,0.04495509,-0.3273415,0.4655594,-0.1415529,-0.3833974,-0.0195089
670.2732,0.04495526,-0.3273398,0.4665891,-0.1416257,-0.3843865,-0.01952633
670.2888,0.04495544,-0.3273382,0.4674996,-0.1420477,-0.3852611,-0.01953548
670.3035,0.04495561,-0.3273366,0.4683067,-0.1426292,-0.3860336,-0.01954106
670.3184,0.04495561,-0.3273366,0.4683067,-0.1426292,-0.3860336,-0.01954106
670.3346,0.04495579,-0.327335,0.4696499,-0.1444932,-0.3873608,-0.01959272
670.3488,0.04495597,-0.3273335,0.4709121,-0.1471023,-0.3886184,-0.0196233
670.3625,0.04495615,-0.3273319,0.4720149,-0.1500364,-0.3897204,-0.01964467
670.3773,0.04495615,-0.3273319,0.4720149,-0.1500364,-0.3897204,-0.01964467
670.3912,0.04495633,-0.3273304,0.4735689,-0.1543125,-0.3912936,-0.01970616
670.407,0.04495652,-0.3273289,0.4749865,-0.1593396,-0.3927425,-0.01974566
670.4218,0.0449567,-0.3273274,0.4762093,-0.1646744,-0.3940008,-0.01977509
670.4364,0.0449567,-0.3273274,0.4762093,-0.1646744,-0.3940008,-0.01977509
670.4504,0.04495687,-0.3273259,0.4772764,-0.1701084,-0.3951038,-0.01979932
670.4661,0.04495706,-0.3273245,0.4787462,-0.1767632,-0.39663,-0.01985686
670.4808,0.04495725,-0.3273231,0.4800935,-0.184087,-0.3980471,-0.01989554
670.4957,0.04495725,-0.3273231,0.4800935,-0.184087,-0.3980471,-0.01989554
670.5098,0.04495743,-0.3273217,0.4812551,-0.1916617,-0.3992839,-0.01992511
670.5257,0.04495761,-0.3273203,0.4822616,-0.1992906,-0.4003675,-0.0199496
670.5402,0.04495777,-0.327319,0.4826301,-0.2054415,-0.4007849,-0.01993803
670.5582,0.04495777,-0.327319,0.4826301,-0.2054415,-0.4007849,-0.01993803
670.5728,0.04495794,-0.3273176,0.4829296,-0.210677,-0.4011136,-0.01993897
670.5844,0.0449581,-0.3273163,0.4832695,-0.2154415,-0.4014736,-0.01994444
670.5992,0.0449581,-0.3273163,0.4832695,-0.2154415,-0.4014736,-0.01994444
670.6134,0.04495826,-0.3273149,0.4836457,-0.2199457,-0.4018668,-0.01995135
670.6286,0.04495843,-0.3273136,0.4840362,-0.2242902,-0.4022736,-0.0199585
670.6434,0.04495859,-0.3273123,0.484423,-0.2285235,-0.4026776,-0.01996545
670.6582,0.04495859,-0.3273123,0.484423,-0.2285235,-0.4026776,-0.01996545
670.6725,0.04495876,-0.327311,0.4847954,-0.2326693,-0.4030684,-0.01997202
670.688,0.04495881,-0.3273097,0.4851478,-0.2367396,-0.4034406,-0.01997817
670.7029,0.04495883,-0.3273085,0.4854778,-0.2407406,-0.4037915,-0.01998389
670.7176,0.04495883,-0.3273085,0.4854778,-0.2407406,-0.4037915,-0.01998389
670.7319,0.04495884,-0.3273072,0.4857846,-0.2446758,-0.4041204,-0.01998919
670.7474,0.04495885,-0.327306,0.4860686,-0.2485475,-0.4044273,-0.01999411
670.7623,0.04423146,-0.327306,0.4873181,-0.2519526,-0.4055396,-0.01999745
670.7771,0.04423146,-0.327306,0.4873181,-0.2519526,-0.4055396,-0.01999745
670.7909,0.0430494,-0.3273062,0.4888346,-0.2551802,-0.4068388,-0.02000031
670.808,0.04158621,-0.3273063,0.4903579,-0.258345,-0.4081075,-0.02000296
670.8212,0.03995224,-0.3273062,0.4918027,-0.2614861,-0.4092828,-0.02000547
670.8361,0.03995224,-0.3273062,0.4918027,-0.2614861,-0.4092828,-0.02000547
670.85,0.03748935,-0.3273073,0.4941069,-0.2642072,-0.4111581,-0.02000669
670.8654,0.03451522,-0.3273083,0.4966023,-0.2667931,-0.4131512,-0.02000759
670.8802,0.03123188,-0.3273089,0.499047,-0.2693517,-0.4150652,-0.02000842
670.895,0.03123188,-0.3273089,0.499047,-0.2693517,-0.4150652,-0.02000842
670.9093,0.02703944,-0.3273108,0.5023112,-0.271513,-0.4176399,-0.0200081
670.9246,0.02229259,-0.3273123,0.5057233,-0.2735665,-0.4202952,-0.02000756
670.9397,0.02229259,-0.3273123,0.5057233,-0.2735665,-0.4202952,-0.02000756
670.9536,0.01721684,-0.3273129,0.5090455,-0.2756187,-0.42284,-0.02000702
670.97,0.01195542,-0.327313,0.5122097,-0.2776988,-0.4252306,-0.02000649
670.9839,0.005870917,-0.327314,0.5161443,-0.2794067,-0.4282579,-0.02000486
670.999,0.005870917,-0.327314,0.5161443,-0.2794067,-0.4282579,-0.02000486
671.0131,-0.0007059081,-0.3273144,0.5202098,-0.2810177,-0.4313664,-0.02000303
671.0284,-0.007564894,-0.3273142,0.5241784,-0.2826341,-0.4343708,-0.02000123
671.0442,-0.01457266,-0.3273135,0.5279832,-0.2842845,-0.4372258,-0.01999946
671.058,-0.01457266,-0.3273135,0.5279832,-0.2842845,-0.4372258,-0.01999946
671.0721,-0.02237299,-0.3273136,0.5325524,-0.2855727,-0.4407237,-0.01999661
671.0876,-0.03063922,-0.3273131,0.5372447,-0.2867726,-0.4443056,-0.0199936
671.1021,-0.03916391,-0.3273119,0.541832,-0.2879865,-0.4477838,-0.01999063
671.1169,-0.03916391,-0.3273119,0.541832,-0.2879865,-0.4477838,-0.01999063
671.131,-0.04854379,-0.3273113,0.5471886,-0.2888499,-0.4519094,-0.0199866
671.1466,-0.05842232,-0.3273098,0.5526509,-0.289644,-0.4561048,-0.01998245
671.1616,-0.06857311,-0.3273073,0.5579861,-0.2904719,-0.4601795,-0.01997838
671.1764,-0.06857311,-0.3273073,0.5579861,-0.2904719,-0.4601795,-0.01997838
671.1903,-0.07885265,-0.3273038,0.5631278,-0.2913607,-0.4640876,-0.01997441
671.2062,-0.08989842,-0.3273013,0.5690281,-0.2919204,-0.468651,-0.01996931
671.2208,-0.1013799,-0.3272978,0.5750325,-0.2924177,-0.4732946,-0.01996408
671.2355,-0.1013799,-0.3272978,0.5750325,-0.2924177,-0.4732946,-0.01996408
671.25,-0.1130873,-0.3272924,0.5809088,-0.2929513,-0.4778248,-0.01995895
671.2653,-0.1248878,-0.3272852,0.5865909,-0.2935486,-0.4821936,-0.01995393
671.2811,-0.1374256,-0.327279,0.5930521,-0.2938265,-0.4872462,-0.01994774
671.2951,-0.1374256,-0.327279,0.5930521,-0.2938265,-0.4872462,-0.01994774
671.309,-0.1503748,-0.3272712,0.5996191,-0.2940485,-0.4923869,-0.01994143
671.3242,-0.1635283,-0.3272612,0.6060553,-0.2943133,-0.4974162,-0.01993524
671.3392,-0.1635283,-0.3272612,0.6060553,-0.2943133,-0.4974162,-0.01993524
671.3532,-0.1774836,-0.3272517,0.6132917,-0.2942708,-0.5031483,-0.01992786
671.369,-0.1918846,-0.32724,0.6206225,-0.2941903,-0.5089586,-0.01992039
671.3835,-0.2065056,-0.3272254,0.627804,-0.2941711,-0.5146418,-0.01991307
671.3983,-0.2065056,-0.3272254,0.627804,-0.2941711,-0.5146418,-0.01991307
671.4125,-0.2212036,-0.3272085,0.634769,-0.2942392,-0.5201485,-0.01990589
671.4282,-0.2366168,-0.3271922,0.6425435,-0.2940219,-0.5263816,-0.01989738
671.443,-0.2524152,-0.3271738,0.6504185,-0.2937728,-0.5327077,-0.01988878
671.4576,-0.2524152,-0.3271738,0.6504185,-0.2937728,-0.5327077,-0.01988878
671.472,-0.2683895,-0.3271529,0.6581483,-0.2935865,-0.5389162,-0.01988033
671.4874,-0.2844075,-0.3271298,0.665664,-0.293489,-0.5449542,-0.01987204
671.5035,-0.3011142,-0.3271076,0.6740251,-0.2931167,-0.55176,-0.01986232
671.5171,-0.3011142,-0.3271076,0.6740251,-0.2931167,-0.55176,-0.01986232
671.5314,-0.318184,-0.3270834,0.6824939,-0.2927186,-0.5586697,-0.01985252
671.5468,-0.3354105,-0.3270568,0.6908152,-0.2923886,-0.5654624,-0.0198429
671.5613,-0.3526634,-0.327028,0.698917,-0.2921526,-0.5720813,-0.01983345
671.5764,-0.3526634,-0.327028,0.698917,-0.2921526,-0.5720813,-0.01983345
671.5905,-0.3705889,-0.3270003,0.7078977,-0.2916569,-0.579506,-0.0198225
671.6061,-0.3888621,-0.3269705,0.7169894,-0.2911441,-0.5870413,-0.01981149
671.6209,-0.4072775,-0.3269383,0.7259275,-0.2907062,-0.5944557,-0.01980069
671.6359,-0.4072775,-0.3269383,0.7259275,-0.2907062,-0.5944557,-0.01980069
671.6503,-0.4264334,-0.3269063,0.7357768,-0.2900232,-0.6027054,-0.01978837
671.6655,-0.4459745,-0.3268717,0.7457261,-0.2893414,-0.6110549,-0.01977603
671.6805,-0.465676,-0.3268338,0.7555008,-0.2887521,-0.6192639,-0.01976395
671.6956,-0.465676,-0.3268338,0.7555008,-0.2887521,-0.6192639,-0.01976395
671.7096,-0.4853956,-0.3267935,0.7650269,-0.2882794,-0.6272737,-0.0197521
671.7265,-0.5057723,-0.3267539,0.7754872,-0.2875865,-0.6361529,-0.01973854
671.7401,-0.5264767,-0.326712,0.7860555,-0.2869009,-0.6451461,-0.01972497
671.7548,-0.5264767,-0.326712,0.7860555,-0.2869009,-0.6451461,-0.01972497
671.7693,-0.5473003,-0.3266674,0.7964504,-0.2863087,-0.6540033,-0.01971171
671.7845,-0.5681117,-0.3266207,0.806594,-0.2858332,-0.6626605,-0.01969872
671.7994,-0.5681117,-0.3266207,0.806594,-0.2858332,-0.6626605,-0.01969872
671.8135,-0.5895562,-0.3265751,0.817717,-0.2851518,-0.6722361,-0.01968395
671.829,-0.6113091,-0.3265274,0.8289524,-0.2844838,-0.6819326,-0.01966922
671.8442,-0.6331647,-0.3264772,0.8400045,-0.2839133,-0.6914849,-0.01965486
671.8588,-0.6331647,-0.3264772,0.8400045,-0.2839133,-0.6914849,-0.01965486
671.8734,-0.6552142,-0.3264257,0.8511791,-0.2833695,-0.7011768,-0.01964023
671.8889,-0.6772932,-0.3263726,0.8621904,-0.2829181,-0.7107482,-0.01962584
671.9037,-0.6992983,-0.3263184,0.8729523,-0.2825773,-0.720124,-0.01961177
671.9185,-0.6992983,-0.3263184,0.8729523,-0.2825773,-0.720124,-0.01961177
671.9326,-0.7211647,-0.3262638,0.8834492,-0.282346,-0.7292928,-0.019598
671.9496,-0.7428523,-0.3262095,0.8936865,-0.2822161,-0.7382612,-0.01958456
671.9629,-0.7643368,-0.3261561,0.9036734,-0.2821786,-0.7470381,-0.01957141
671.9777,-0.7643368,-0.3261561,0.9036734,-0.2821786,-0.7470381,-0.01957141
671.9917,-0.7856038,-0.326104,0.9134172,-0.2822251,-0.7556301,-0.01955862
672.0076,-0.8066449,-0.3260534,0.9229227,-0.2823487,-0.7640408,-0.01954618
672.0223,-0.8274561,-0.3260046,0.9321923,-0.2825436,-0.7722715,-0.01953412
672.0371,-0.8274561,-0.3260046,0.9321923,-0.2825436,-0.7722715,-0.01953412
672.0511,-0.8480358,-0.3259577,0.9412269,-0.2828052,-0.7803215,-0.01952247
672.0667,-0.8683838,-0.3259126,0.950026,-0.2831295,-0.7881895,-0.01951124
672.0817,-0.888501,-0.3258695,0.958589,-0.2835132,-0.7958734,-0.01950044
672.0968,-0.888501,-0.3258695,0.958589,-0.2835132,-0.7958734,-0.01950044
672.111,-0.9083892,-0.3258284,0.9669143,-0.2839531,-0.8033705,-0.01949007
672.1267,-0.92805,-0.3257891,0.9750007,-0.2844464,-0.8106785,-0.01948015
672.1414,-0.9474859,-0.3257518,0.9828469,-0.2849906,-0.817795,-0.01947066
672.1564,-0.9474859,-0.3257518,0.9828469,-0.2849906,-0.817795,-0.01947066
672.1726,-0.9666989,-0.3257162,0.9904516,-0.2855831,-0.8247177,-0.01946161
672.1859,-0.9856916,-0.3256825,0.9978139,-0.2862216,-0.8314446,-0.01945302
672.2003,-1.004466,-0.3256505,1.004933,-0.2869038,-0.837974,-0.01944486
672.2152,-1.004466,-0.3256505,1.004933,-0.2869038,-0.837974,-0.01944486
672.2296,-1.023025,-0.3256202,1.011809,-0.2876274,-0.8443046,-0.01943714
672.2451,-1.041371,-0.3255916,1.018441,-0.2883902,-0.8504353,-0.01942984
672.2598,-1.041371,-0.3255916,1.018441,-0.2883902,-0.8504353,-0.01942984
672.2741,-1.059507,-0.3255646,1.02483,-0.2891903,-0.8563652,-0.01942298
672.29,-1.077434,-0.3255391,1.030976,-0.2900254,-0.8620937,-0.01941653
672.3047,-1.095155,-0.3255151,1.03688,-0.2908936,-0.8676208,-0.0194105
672.3195,-1.095155,-0.3255151,1.03688,-0.2908936,-0.8676208,-0.0194105
672.334,-1.112672,-0.3254926,1.042543,-0.291793,-0.8729463,-0.01940485
672.3495,-1.129989,-0.3254716,1.047965,-0.2927215,-0.8780706,-0.01939961
672.3643,-1.147106,-0.3254519,1.053149,-0.2936774,-0.8829942,-0.01939473
672.379,-1.147106,-0.3254519,1.053149,-0.2936774,-0.8829942,-0.01939473
672.3941,-1.164026,-0.3254335,1.058096,-0.2946589,-0.8877181,-0.01939023
672.409,-1.180753,-0.3254164,1.062808,-0.2956642,-0.892243,-0.0193861
672.4235,-1.197286,-0.3254006,1.067287,-0.2966916,-0.8965704,-0.01938232
672.4382,-1.197286,-0.3254006,1.067287,-0.2966916,-0.8965704,-0.01938232
672.4523,-1.21363,-0.325386,1.071535,-0.2977396,-0.9007015,-0.01937888
672.4678,-1.229566,-0.3253718,1.075128,-0.2988749,-0.9042394,-0.0193764
672.4826,-1.245177,-0.3253591,1.078381,-0.3000481,-0.9074799,-0.01937428
672.4976,-1.245177,-0.3253591,1.078381,-0.3000481,-0.9074799,-0.01937428
672.5116,-1.26052,-0.3253482,1.081408,-0.3012367,-0.910529,-0.01937239
672.5271,-1.275629,-0.3253389,1.084245,-0.3024315,-0.9134188,-0.01937073
672.5422,-1.289801,-0.3253288,1.085503,-0.3038499,-0.9148513,-0.01937129
672.5571,-1.289801,-0.3253288,1.085503,-0.3038499,-0.9148513,-0.01937129
672.5713,-1.303324,-0.3253209,1.086208,-0.3053382,-0.9157889,-0.01937225
672.5869,-1.316382,-0.325316,1.086722,-0.3068287,-0.9165699,-0.01937323
672.6013,-1.329093,-0.325314,1.087154,-0.3082967,-0.9172918,-0.01937423
672.6174,-1.329093,-0.325314,1.087154,-0.3082967,-0.9172918,-0.01937423
672.6316,-1.340804,-0.3253122,1.086145,-0.3099562,-0.9166825,-0.01937719
672.6459,-1.351839,-0.3253118,1.084692,-0.3116571,-0.9156776,-0.01938045
672.6618,-1.362401,-0.3253129,1.083141,-0.3133364,-0.9145972,-0.01938366
672.6755,-1.362401,-0.3253129,1.083141,-0.3133364,-0.9145972,-0.01938366
672.6898,-1.371894,-0.3253137,1.080236,-0.3151952,-0.9122654,-0.01938863
672.7052,-1.380674,-0.3253159,1.076978,-0.3170789,-0.9096202,-0.01939376
672.7199,-1.380674,-0.3253159,1.076978,-0.3170789,-0.9096202,-0.01939376
672.7338,-1.38897,-0.3253196,1.073705,-0.3189254,-0.9069752,-0.01939871
672.7496,-1.396926,-0.3253255,1.070503,-0.3207163,-0.9044069,-0.01940348
672.7648,-1.403907,-0.3253312,1.066054,-0.3226774,-0.9006833,-0.01940985
672.7792,-1.403907,-0.3253312,1.066054,-0.3226774,-0.9006833,-0.01940985
672.7933,-1.410246,-0.3253388,1.061303,-0.3246599,-0.8966883,-0.01941633
672.8093,-1.416154,-0.3253489,1.056573,-0.3266033,-0.8927215,-0.01942258
672.824,-1.421767,-0.3253611,1.051944,-0.3284892,-0.8888579,-0.01942856
672.8386,-1.421767,-0.3253611,1.051944,-0.3284892,-0.8888579,-0.01942856
672.8547,-1.426441,-0.3253728,1.046145,-0.33055,-0.8839073,-0.01943602
672.8678,-1.430507,-0.3253856,1.040093,-0.3326315,-0.8787276,-0.01944353
672.8826,-1.434172,-0.3253999,1.034102,-0.3346716,-0.873612,-0.01945076
672.8975,-1.434172,-0.3253999,1.034102,-0.3346716,-0.873612,-0.01945076
672.9113,-1.436842,-0.3254133,1.027018,-0.3368912,-0.8674802,-0.01945929
672.9266,-1.438874,-0.3254272,1.019756,-0.3391252,-0.8611888,-0.0194678
672.9414,-1.440497,-0.3254421,1.012625,-0.3413087,-0.8550248,-0.01947594
672.9564,-1.440497,-0.3254421,1.012625,-0.3413087,-0.8550248,-0.01947594
672.9703,-1.441855,-0.3254578,1.005698,-0.3434229,-0.8490553,-0.0194837
672.9857,-1.442313,-0.3254718,0.9977792,-0.3457189,-0.8421638,-0.01949267
673.0006,-1.442203,-0.3254854,0.989722,-0.3480314,-0.8351471,-0.01950159
673.0154,-1.442203,-0.3254854,0.989722,-0.3480314,-0.8351471,-0.01950159
673.0295,-1.441736,-0.3254989,0.9818167,-0.3502953,-0.8282753,-0.01951015
673.045,-1.441047,-0.3255126,0.9741347,-0.3524914,-0.8216141,-0.01951832
673.06,-1.441047,-0.3255126,0.9741347,-0.3524914,-0.8216141,-0.01951832
673.074,-1.439493,-0.3255239,0.9655319,-0.3548819,-0.8140986,-0.01952758
673.0916,-1.437401,-0.3255341,0.9568287,-0.3572924,-0.8064918,-0.01953677
673.1051,-1.434979,-0.3255436,0.9483064,-0.3596543,-0.7990553,-0.0195456
673.1188,-1.434979,-0.3255436,0.9483064,-0.3596543,-0.7990553,-0.0195456
673.1328,-1.431632,-0.3255502,0.9389357,-0.3622192,-0.7908326,-0.0195554
673.1481,-1.427716,-0.325555,0.929531,-0.3647991,-0.78258,-0.01956506
673.1627,-1.423459,-0.3255586,0.9203653,-0.3673217,-0.774551,-0.01957431
673.1775,-1.423459,-0.3255586,0.9203653,-0.3673217,-0.774551,-0.01957431
673.1915,-1.419006,-0.3255613,0.9115003,-0.3697666,-0.7668031,-0.0195831
673.2073,-1.413719,-0.3255621,0.9018791,-0.3724199,-0.7583576,-0.01959275
673.2218,-1.40793,-0.3255619,0.8922504,-0.3750918,-0.749907,-0.01960227
673.2368,-1.40793,-0.3255619,0.8922504,-0.3750918,-0.749907,-0.01960227
673.2507,-1.401849,-0.325561,0.8828684,-0.3777088,-0.7416866,-0.01961139
673.2662,-1.395611,-0.3255598,0.8737922,-0.3802495,-0.7337519,-0.01962006
673.2811,-1.388571,-0.3255558,0.8640205,-0.3830116,-0.7251783,-0.01962953
673.2959,-1.388571,-0.3255558,0.8640205,-0.3830116,-0.7251783,-0.01962953
673.3099,-1.381056,-0.3255499,0.8542662,-0.3857949,-0.7166225,-0.01963886
673.3253,-1.373274,-0.3255426,0.8447732,-0.3885224,-0.7083097,-0.0196478
673.3411,-1.365356,-0.3255343,0.8355986,-0.3911712,-0.7002934,-0.0196563
673.3561,-1.365356,-0.3255343,0.8355986,-0.3911712,-0.7002934,-0.0196563
673.3689,-1.356659,-0.325523,0.8257946,-0.3940516,-0.6917024,-0.0196655
673.3842,-1.347507,-0.3255094,0.8160361,-0.3969536,-0.6831551,-0.01967458
673.3987,-1.347507,-0.3255094,0.8160361,-0.3969536,-0.6831551,-0.01967458
673.4129,-1.338107,-0.3254941,0.8065538,-0.399797,-0.6748641,-0.01968326
673.4286,-1.327863,-0.3254752,0.796503,-0.4028786,-0.666056,-0.01969257
673.4434,-1.31713,-0.3254534,0.7865478,-0.4059741,-0.6573375,-0.0197017
673.4581,-1.31713,-0.3254534,0.7865478,-0.4059741,-0.6573375,-0.0197017
673.4721,-1.306135,-0.3254294,0.7769098,-0.4089997,-0.6489125,-0.01971042
673.4881,-1.295021,-0.3254039,0.7676352,-0.4119317,-0.6408241,-0.01971867
673.5026,-1.283151,-0.3253751,0.7578617,-0.4151035,-0.6322874,-0.01972746
673.5174,-1.283151,-0.3253751,0.7578617,-0.4151035,-0.6322874,-0.01972746
673.5314,-1.270855,-0.3253436,0.7481919,-0.4182906,-0.6238489,-0.01973609
673.5472,-1.258342,-0.3253099,0.73883,-0.4214084,-0.6156946,-0.01974432
673.5617,-1.245745,-0.3252748,0.7298201,-0.4244328,-0.6078659,-0.01975213
673.5768,-1.245745,-0.3252748,0.7298201,-0.4244328,-0.6078659,-0.01975213
673.5916,-1.232419,-0.3252366,0.7203532,-0.4277072,-0.5996307,-0.01976042
673.6063,-1.218692,-0.3251957,0.7109981,-0.4309981,-0.5915006,-0.01976856
673.6207,-1.204769,-0.3251526,0.7019484,-0.4342172,-0.5836515,-0.01977633
673.6355,-1.204769,-0.3251526,0.7019484,-0.4342172,-0.5836515,-0.01977633
673.6495,-1.190054,-0.3251058,0.6924877,-0.4376912,-0.5754392,-0.01978452
673.6647,-1.174901,-0.3250555,0.6831744,-0.4411722,-0.5673636,-0.01979253
673.6797,-1.174901,-0.3250555,0.6831744,-0.4411722,-0.5673636,-0.01979253
673.6937,-1.159537,-0.3250026,0.6741945,-0.4445687,-0.5595931,-0.01980016
673.7094,-1.144104,-0.324948,0.6655839,-0.4478554,-0.5521613,-0.01980737
673.7241,-1.127964,-0.3248901,0.6566135,-0.4513956,-0.5444173,-0.01981492
673.7393,-1.127964,-0.3248901,0.6566135,-0.4513956,-0.5444173,-0.01981492
673.7531,-1.111447,-0.3248293,0.6477872,-0.4549434,-0.5368077,-0.01982231
673.7689,-1.094762,-0.324766,0.6392754,-0.4584071,-0.5294849,-0.01982936
673.7835,-1.078042,-0.3247015,0.6311131,-0.4617609,-0.5224812,-0.01983602
673.7983,-1.078042,-0.3247015,0.6311131,-0.4617609,-0.5224812,-0.01983602
673.8181,-1.060641,-0.324634,0.622618,-0.4653763,-0.5151924,-0.019843
673.8288,-1.042884,-0.3245637,0.6142644,-0.4689995,-0.5080348,-0.01984982
673.8427,-1.024979,-0.3244913,0.6062143,-0.4725358,-0.501152,-0.01985634
673.8575,-1.024979,-0.3244913,0.6062143,-0.4725358,-0.501152,-0.01985634
673.8716,-1.006327,-0.3244152,0.5978646,-0.4763362,-0.4940145,-0.01986312
673.887,-0.9872828,-0.3243355,0.5896811,-0.4801335,-0.4870287,-0.01986973
673.9017,-0.9680723,-0.324253,0.5818191,-0.4838302,-0.4803319,-0.01987601
673.9166,-0.9680723,-0.324253,0.5818191,-0.4838302,-0.4803319,-0.01987601
673.9305,-0.9488373,-0.3241689,0.5743072,-0.4874003,-0.4739504,-0.01988194
673.9462,-0.9289396,-0.3240819,0.566531,-0.4912305,-0.4673496,-0.01988809
673.9611,-0.9087083,-0.3239919,0.5589104,-0.4950582,-0.4608908,-0.01989407
673.9759,-0.9087083,-0.3239919,0.5589104,-0.4950582,-0.4608908,-0.01989407
673.99,-0.8883519,-0.3238997,0.5515878,-0.4987865,-0.454698,-0.01989979
674.0056,-0.868002,-0.3238063,0.5445912,-0.5023888,-0.4487966,-0.01990518
674.0205,-0.8470135,-0.3237105,0.5373453,-0.5062578,-0.4426911,-0.01991077
674.0349,-0.8470135,-0.3237105,0.5373453,-0.5062578,-0.4426911,-0.01991077
674.049,-0.8257113,-0.323612,0.5302462,-0.5101247,-0.4367181,-0.01991622
674.0654,-0.8043008,-0.3235115,0.5234294,-0.51389,-0.4309945,-0.01992142
674.0792,-0.8043008,-0.3235115,0.5234294,-0.51389,-0.4309945,-0.01992142
674.0935,-0.7821842,-0.3234077,0.5163863,-0.5179232,-0.4250869,-0.01992678
674.1088,-0.7597161,-0.3233004,0.5095068,-0.5219427,-0.4193244,-0.01993199
674.1237,-0.7371208,-0.3231904,0.5029213,-0.525847,-0.4138189,-0.01993694
674.1385,-0.7371208,-0.3231904,0.5029213,-0.525847,-0.4138189,-0.01993694
674.1525,-0.7145401,-0.323079,0.4966532,-0.5296092,-0.4085917,-0.0199416
674.1682,-0.6913354,-0.3229653,0.4901822,-0.533634,-0.403204,-0.01994641
674.183,-0.6678354,-0.3228487,0.4838606,-0.5376465,-0.3979482,-0.01995107
674.1976,-0.6678354,-0.3228487,0.4838606,-0.5376465,-0.3979482,-0.01995107
674.2118,-0.6442479,-0.3227301,0.4778085,-0.5415462,-0.3929258,-0.0199555
674.2273,-0.6207043,-0.3226108,0.4720491,-0.545306,-0.3881571,-0.01995969
674.2421,-0.5967311,-0.3224902,0.4662061,-0.5492379,-0.3833289,-0.01996391
674.2571,-0.5967311,-0.3224902,0.4662061,-0.5492379,-0.3833289,-0.01996391
674.2712,-0.5725881,-0.3223681,0.4605289,-0.5531307,-0.3786447,-0.019968
674.2864,-0.5484394,-0.3222455,0.4551001,-0.5569088,-0.3741734,-0.01997188
674.3024,-0.5243882,-0.3221233,0.4499326,-0.5605531,-0.3699263,-0.01997554
674.3161,-0.5243882,-0.3221233,0.4499326,-0.5605531,-0.3699263,-0.01997554
674.3301,-0.500499,-0.3220026,0.4450142,-0.5640659,-0.365893,-0.01997899
674.3454,-0.4768118,-0.3218845,0.4403257,-0.5674561,-0.3620571,-0.01998225
674.3604,-0.4533508,-0.3217696,0.4358485,-0.5707332,-0.3584022,-0.01998534
674.375,-0.4533508,-0.3217696,0.4358485,-0.5707332,-0.3584022,-0.01998534
674.3892,-0.4301304,-0.3216586,0.4315666,-0.5739055,-0.354914,-0.01998828
674.4045,-0.4071586,-0.3215517,0.4274668,-0.5769796,-0.3515806,-0.01999107
674.4194,-0.4071586,-0.3215517,0.4274668,-0.5769796,-0.3515806,-0.01999107
674.4335,-0.3844395,-0.3214492,0.4235383,-0.5799605,-0.3483919,-0.01999373
674.4492,-0.3619746,-0.3213514,0.4197721,-0.5828522,-0.3453395,-0.01999629
674.4638,-0.3397637,-0.3212582,0.4161603,-0.585658,-0.3424162,-0.01999871
674.4789,-0.3397637,-0.3212582,0.4161603,-0.585658,-0.3424162,-0.01999871
674.493,-0.3178057,-0.3211697,0.4126963,-0.5883804,-0.3396157,-0.02000104
674.5084,-0.2960988,-0.3210857,0.4093739,-0.5910215,-0.3369323,-0.02000325
674.5232,-0.2746407,-0.3210063,0.4061876,-0.5935835,-0.3343609,-0.02000538
674.5389,-0.2746407,-0.3210063,0.4061876,-0.5935835,-0.3343609,-0.02000538
674.553,-0.2598028,-0.3209519,0.4066713,-0.5923959,-0.3347266,-0.02000502
674.5674,-0.2491916,-0.3209308,0.4082299,-0.5900816,-0.3360033,-0.02000384
674.5821,-0.2412846,-0.320935,0.4098462,-0.587666,-0.3373602,-0.02000262
674.597,-0.2412846,-0.320935,0.4098462,-0.587666,-0.3373602,-0.02000262
674.6111,-0.2351125,-0.3209571,0.4111993,-0.5854892,-0.3385175,-0.02000161
674.6267,-0.2300582,-0.320992,0.4122462,-0.5836149,-0.3394255,-0.02000084
674.6414,-0.2257285,-0.3210354,0.4130363,-0.5820084,-0.3401163,-0.02000028
674.6564,-0.2257285,-0.3210354,0.4130363,-0.5820084,-0.3401163,-0.02000028
674.6706,-0.2218729,-0.3210844,0.4136371,-0.5806109,-0.3406419,-0.01999988
674.6862,-0.2183318,-0.3211368,0.4166824,-0.5793492,-0.3445608,-0.02000506
674.7007,-0.2150035,-0.3211913,0.4203619,-0.578171,-0.3499351,-0.0200063
674.7159,-0.2150035,-0.3211913,0.4203619,-0.578171,-0.3499351,-0.0200063
674.73,-0.2118229,-0.3212468,0.423883,-0.5770533,-0.3557009,-0.02000622
674.7454,-0.2087486,-0.3213028,0.4270674,-0.5759835,-0.3614748,-0.02000581
674.7617,-0.205754,-0.3213589,0.4288248,-0.57496,-0.3656298,-0.02000288
674.7753,-0.205754,-0.3213589,0.4288248,-0.57496,-0.3656298,-0.02000288
674.7893,-0.2028221,-0.321415,0.4300152,-0.5739779,-0.3689827,-0.02000182
674.8047,-0.199942,-0.3214708,0.4310563,-0.5730278,-0.372005,-0.02000144
674.8196,-0.199942,-0.3214708,0.4310563,-0.5730278,-0.372005,-0.02000144
674.8337,-0.1971063,-0.3215262,0.4309747,-0.5721087,-0.3733833,-0.01999872
674.8491,-0.1943106,-0.3215812,0.4305933,-0.5712191,-0.3740248,-0.01999789
674.864,-0.1915516,-0.3216357,0.4302663,-0.5703512,-0.3744196,-0.01999767
674.8789,-0.1915516,-0.3216357,0.4302663,-0.5703512,-0.3744196,-0.01999767
674.8934,-0.1888273,-0.3216898,0.4300725,-0.5694972,-0.374749,-0.0199976
674.909,-0.1861362,-0.3217433,0.4288947,-0.5686607,-0.3735817,-0.01999494
674.9234,-0.1834773,-0.3217963,0.4274901,-0.5678465,-0.3717653,-0.01999409
674.9384,-0.1834773,-0.3217963,0.4274901,-0.5678465,-0.3717653,-0.01999409
674.9523,-0.1808496,-0.3218489,0.4261858,-0.5670489,-0.3697642,-0.01999383
674.968,-0.1782526,-0.3219009,0.4250498,-0.5662615,-0.367749,-0.01999372
674.9837,-0.1756858,-0.3219524,0.422959,-0.5654889,-0.364287,-0.01999102
674.9984,-0.1756858,-0.3219524,0.422959,-0.5654889,-0.364287,-0.01999102
675.0125,-0.1731487,-0.3220035,0.420667,-0.5647373,-0.3602196,-0.01999014
675.0271,-0.1706409,-0.322054,0.4185001,-0.5640011,-0.3560089,-0.01998986
675.0416,-0.168162,-0.322104,0.4165264,-0.5632737,-0.3518241,-0.01998974
675.0566,-0.168162,-0.322104,0.4165264,-0.5632737,-0.3518241,-0.01998974
675.0706,-0.1657117,-0.3221535,0.4136207,-0.562559,-0.3462333,-0.01998708
675.0862,-0.1632895,-0.3222026,0.4105364,-0.5618644,-0.3400761,-0.01998623
675.1009,-0.1608952,-0.3222512,0.4076004,-0.5611839,-0.3338133,-0.01998597
675.1159,-0.1608952,-0.3222512,0.4076004,-0.5611839,-0.3338133,-0.01998597
675.1303,-0.1585284,-0.3222992,0.403768,-0.5605181,-0.3261259,-0.0199834
675.1457,-0.1561889,-0.3223468,0.3998121,-0.5598726,-0.3178955,-0.01998262
675.1606,-0.1538762,-0.322394,0.3960578,-0.55924,-0.3095962,-0.01998242
675.1755,-0.1538762,-0.322394,0.3960578,-0.55924,-0.3095962,-0.01998242
675.1896,-0.1515902,-0.3224407,0.3925657,-0.5586123,-0.3013998,-0.01998238
675.205,-0.1493304,-0.3224868,0.3881976,-0.5579918,-0.2918714,-0.01998005
675.2208,-0.1470966,-0.3225326,0.3837051,-0.5573872,-0.2818508,-0.01997937
675.2346,-0.1470966,-0.3225326,0.3837051,-0.5573872,-0.2818508,-0.01997937
675.2487,-0.1448885,-0.3225779,0.3794124,-0.5567924,-0.2717969,-0.01997924
675.264,-0.1427058,-0.3226227,0.3753843,-0.5562003,-0.261876,-0.01997927
675.2789,-0.1427058,-0.3226227,0.3753843,-0.5562003,-0.261876,-0.01997927
675.2932,-0.1405482,-0.3226671,0.3704832,-0.5556124,-0.2506495,-0.01997724
675.3087,-0.1384153,-0.3227111,0.3654681,-0.5550379,-0.2389596,-0.01997672
675.3236,-0.136307,-0.3227546,0.3606667,-0.5544707,-0.2272658,-0.01997671
675.3387,-0.136307,-0.3227546,0.3606667,-0.5544707,-0.2272658,-0.01997671
675.3527,-0.134223,-0.3227977,0.3550219,-0.5539085,-0.2142408,-0.01997497
675.3683,-0.1321629,-0.3228403,0.3493142,-0.5533584,-0.2007705,-0.01997462
675.3828,-0.1301265,-0.3228825,0.3438697,-0.5528132,-0.1873286,-0.01997472
675.3979,-0.1301265,-0.3228825,0.3438697,-0.5528132,-0.1873286,-0.01997472
675.4121,-0.1281135,-0.3229243,0.3387475,-0.5522652,-0.1740842,-0.01997496
675.4275,-0.1261236,-0.3229657,0.332796,-0.5517136,-0.1595929,-0.01997373
675.4434,-0.1241566,-0.3230066,0.3267753,-0.551168,-0.1447007,-0.0199736
675.4577,-0.1241566,-0.3230066,0.3267753,-0.551168,-0.1447007,-0.0199736
675.4711,-0.1222123,-0.3230471,0.3210106,-0.5506231,-0.1298667,-0.01997383
675.4865,-0.1202903,-0.3230873,0.3155648,-0.5500726,-0.1152548,-0.01997418
675.5012,-0.1183904,-0.323127,0.3092881,-0.5495146,-0.09941751,-0.0199735
675.5161,-0.1183904,-0.323127,0.3092881,-0.5495146,-0.09941751,-0.0199735
675.5303,-0.1165123,-0.3231663,0.3029466,-0.5489587,-0.08320299,-0.01997362
675.5455,-0.1146559,-0.3232052,0.2968689,-0.5484001,-0.06707083,-0.01997398
675.5603,-0.1128208,-0.3232438,0.2911194,-0.5478335,-0.05118478,-0.01997442
675.5754,-0.1128208,-0.3232438,0.2911194,-0.5478335,-0.05118478,-0.01997442
675.5896,-0.1110068,-0.3232819,0.2845469,-0.5472556,-0.03409741,-0.01997436
675.6052,-0.1092136,-0.3233196,0.2779188,-0.5466755,-0.01665695,-0.01997471
675.62,-0.1074411,-0.323357,0.2715643,-0.5460895,0.0006773286,-0.01997518
675.6346,-0.1074411,-0.323357,0.2715643,-0.5460895,0.0006773286,-0.01997518
675.6491,-0.1056889,-0.323394,0.2644149,-0.5454911,0.01923779,-0.0199756
675.6642,-0.103957,-0.3234306,0.2572554,-0.544888,0.0381364,-0.01997612
675.6802,-0.1022449,-0.3234668,0.250412,-0.5442762,0.05690113,-0.01997662
675.694,-0.1022449,-0.3234668,0.250412,-0.5442762,0.05690113,-0.01997662
675.7084,-0.1005525,-0.3235027,0.2439418,-0.5436515,0.07536583,-0.01997711
675.7235,-0.09887958,-0.3235382,0.2366869,-0.5430077,0.09497151,-0.01997818
675.7383,-0.09887958,-0.3235382,0.2366869,-0.5430077,0.09497151,-0.01997818
675.7524,-0.0972259,-0.3235733,0.2294048,-0.542354,0.114877,-0.01997888
675.7678,-0.09559123,-0.3236081,0.22242,-0.5416886,0.1346266,-0.0199794
675.7825,-0.09397537,-0.3236425,0.2157946,-0.5410091,0.1540587,-0.01997984
675.7974,-0.09397537,-0.3236425,0.2157946,-0.5410091,0.1540587,-0.01997984
675.8116,-0.09237809,-0.3236766,0.2083804,-0.5403082,0.174606,-0.01998151
675.8274,-0.09079919,-0.3237103,0.2009319,-0.5395948,0.1954347,-0.01998234
675.842,-0.08923844,-0.3237436,0.1937758,-0.5388682,0.2160915,-0.01998281
675.8569,-0.08923844,-0.3237436,0.1937758,-0.5388682,0.2160915,-0.01998281
675.8712,-0.08769564,-0.3237766,0.1858539,-0.5381194,0.2378861,-0.0199849
675.8865,-0.08617059,-0.3238093,0.1779333,-0.5373566,0.2599515,-0.01998577
675.9014,-0.08466309,-0.3238416,0.1703383,-0.5365798,0.281823,-0.01998615
675.9171,-0.08466309,-0.3238416,0.1703383,-0.5365798,0.281823,-0.01998615
675.9304,-0.08317292,-0.3238736,0.1631285,-0.5357891,0.3033352,-0.01998635
675.9458,-0.08169989,-0.3239053,0.1551654,-0.5349748,0.3258932,-0.01998885
675.9601,-0.0802438,-0.3239367,0.1471792,-0.5341455,0.3486875,-0.01998974
675.9752,-0.0802438,-0.3239367,0.1471792,-0.5341455,0.3486875,-0.01998974
675.9894,-0.07880446,-0.3239677,0.1394904,-0.533303,0.3712728,-0.01999
676.0054,-0.07738168,-0.3239984,0.1321657,-0.5324488,0.3934882,-0.01999003
676.0198,-0.07738168,-0.3239984,0.1321657,-0.5324488,0.3934882,-0.01999003
676.0339,-0.07597526,-0.3240288,0.1251886,-0.5315849,0.4152838,-0.01998997
676.0497,-0.07458502,-0.3240589,0.1185236,-0.5307129,0.4366517,-0.01998987
676.0645,-0.07321078,-0.3240886,0.1121361,-0.5298348,0.4575981,-0.01998975
676.0793,-0.07321078,-0.3240886,0.1121361,-0.5298348,0.4575981,-0.01998975
676.0936,-0.07185234,-0.3241181,0.1070932,-0.5289652,0.4767161,-0.01998649
676.1092,-0.07050953,-0.3241473,0.1026341,-0.5281019,0.4947836,-0.01998527
676.1238,-0.06918216,-0.3241761,0.09838855,-0.5272442,0.5122521,-0.01998477
676.1396,-0.06918216,-0.3241761,0.09838855,-0.5272442,0.5122521,-0.01998477
676.1539,-0.06787007,-0.3242047,0.09424298,-0.5263904,0.5293035,-0.01998447
676.1686,-0.06657306,-0.3242329,0.09125993,-0.5255535,0.5446128,-0.01998089
676.1829,-0.06529098,-0.3242609,0.08872505,-0.5247328,0.558956,-0.01997945
676.1978,-0.06529098,-0.3242609,0.08872505,-0.5247328,0.558956,-0.01997945
676.2119,-0.06402364,-0.3242886,0.08629978,-0.5239253,0.5727802,-0.01997875
676.2274,-0.06277089,-0.324316,0.08389133,-0.5231271,0.5862643,-0.01997824
676.2423,-0.06153255,-0.3243431,0.08256753,-0.5223502,0.598098,-0.01997439
676.2574,-0.06153255,-0.3243431,0.08256753,-0.5223502,0.598098,-0.01997439
676.2712,-0.06030845,-0.3243699,0.08163925,-0.5215955,0.6090378,-0.01997271
676.287,-0.05909844,-0.3243965,0.08077741,-0.5208585,0.6195229,-0.01997179
676.3016,-0.05790235,-0.3244227,0.0798924,-0.520134,0.6297303,-0.01997109
676.3165,-0.05790235,-0.3244227,0.0798924,-0.520134,0.6297303,-0.01997109
676.3306,-0.05672002,-0.3244487,0.08004619,-0.5194327,0.6383632,-0.01996705
676.3461,-0.0555513,-0.3244744,0.08056283,-0.5187573,0.6461632,-0.01996519
676.3609,-0.05439602,-0.3244999,0.08111599,-0.5181022,0.6535648,-0.01996411
676.3769,-0.05439602,-0.3244999,0.08111599,-0.5181022,0.6535648,-0.01996411
676.39,-0.05325403,-0.3245251,0.08267819,-0.5174748,0.6593866,-0.01995991
676.4053,-0.05212519,-0.32455,0.08455492,-0.5168769,0.6644056,-0.01995794
676.42,-0.05100933,-0.3245746,0.08641749,-0.5163006,0.6690699,-0.01995676
676.4349,-0.05100933,-0.3245746,0.08641749,-0.5163006,0.6690699,-0.01995676
676.449,-0.04990631,-0.324599,0.08817845,-0.5157378,0.6735605,-0.01995583
676.4645,-0.04881599,-0.3246232,0.09089568,-0.515198,0.6765978,-0.01995161
676.4793,-0.04881599,-0.3246232,0.09089568,-0.515198,0.6765978,-0.01995161
676.4938,-0.04773821,-0.3246471,0.09390998,-0.5146862,0.6789072,-0.01994956
676.5093,-0.04667283,-0.3246707,0.09690003,-0.5141953,0.6809164,-0.01994828
676.524,-0.04561972,-0.3246941,0.09977637,-0.5137175,0.6827994,-0.01994727
676.5393,-0.04561972,-0.3246941,0.09977637,-0.5137175,0.6827994,-0.01994727
676.5532,-0.04457872,-0.3247172,0.1035913,-0.5132617,0.6832789,-0.01994298
676.5688,-0.0435497,-0.3247401,0.1076857,-0.5128343,0.6830748,-0.01994085
676.5836,-0.04253253,-0.3247627,0.1117358,-0.5124278,0.6826133,-0.01993953
676.5994,-0.04253253,-0.3247627,0.1117358,-0.5124278,0.6826133,-0.01993953
676.6135,-0.04152706,-0.3247851,0.1167076,-0.5120475,0.6807246,-0.01993511
676.6281,-0.04053316,-0.3248073,0.1219156,-0.5116979,0.6781706,-0.01993292
676.6426,-0.03955071,-0.3248293,0.1270314,-0.5113695,0.6753935,-0.01993155
676.6575,-0.03955071,-0.3248293,0.1270314,-0.5113695,0.6753935,-0.01993155
676.6718,-0.03857956,-0.3248509,0.131966,-0.5110521,0.6725722,-0.01993047
676.6875,-0.03761958,-0.3248724,0.1377759,-0.5107538,0.6684315,-0.01992608
676.7021,-0.03667066,-0.3248937,0.143805,-0.5104826,0.6636899,-0.01992388
676.7169,-0.03667066,-0.3248937,0.143805,-0.5104826,0.6636899,-0.01992388
676.7313,-0.03573266,-0.3249147,0.1497318,-0.5102305,0.6587711,-0.01992249
676.7469,-0.03480545,-0.3249354,0.1554666,-0.5099879,0.6538469,-0.0199214
676.7617,-0.03388892,-0.324956,0.1620666,-0.5097628,0.6476359,-0.01991698
676.7768,-0.03388892,-0.324956,0.1620666,-0.5097628,0.6476359,-0.01991698
676.7908,-0.03298293,-0.3249764,0.1688696,-0.5095644,0.6408583,-0.01991479
676.8065,-0.03208738,-0.3249965,0.175551,-0.5093842,0.6339383,-0.01991343
676.8221,-0.03120214,-0.3250164,0.1820198,-0.5092122,0.6270469,-0.01991239
676.8361,-0.03120214,-0.3250164,0.1820198,-0.5092122,0.6270469,-0.01991239
676.8514,-0.03032708,-0.3250361,0.189337,-0.5090562,0.6188971,-0.01990799
676.8654,-0.0294621,-0.3250556,0.1968347,-0.5089257,0.6102134,-0.01990585
676.8801,-0.02860708,-0.3250749,0.204187,-0.5088121,0.6014209,-0.01990457
676.8953,-0.02860708,-0.3250749,0.204187,-0.5088121,0.6014209,-0.01990457
676.9095,-0.0277619,-0.3250939,0.2123746,-0.5087188,0.5913324,-0.01990012
676.925,-0.02692645,-0.3251128,0.2206986,-0.5086529,0.5807205,-0.01989802
676.9401,-0.02610062,-0.3251314,0.2288283,-0.5086032,0.5700279,-0.0198968
676.9549,-0.02610062,-0.3251314,0.2288283,-0.5086032,0.5700279,-0.0198968
676.9695,-0.02528429,-0.3251499,0.2366771,-0.508558,0.5594304,-0.01989592
676.9846,-0.02447737,-0.3251682,0.2453237,-0.5085239,0.5476257,-0.0198917
676.9995,-0.02447737,-0.3251682,0.2453237,-0.5085239,0.5476257,-0.0198917
677.0137,-0.02367973,-0.3251862,0.2540917,-0.5085117,0.5353512,-0.01988978
677.0293,-0.02289128,-0.3252041,0.2626566,-0.5085121,0.5230342,-0.01988874
677.0452,-0.02211191,-0.3252217,0.2709322,-0.5085144,0.5108431,-0.01988805
677.0588,-0.02211191,-0.3252217,0.2709322,-0.5085144,0.5108431,-0.01988805
677.0731,-0.02134151,-0.3252392,0.2800037,-0.5085253,0.4974618,-0.0198841
677.0884,-0.02057998,-0.3252565,0.2891826,-0.5085557,0.4836363,-0.01988245
677.1033,-0.01982722,-0.3252736,0.2981408,-0.5085964,0.4697965,-0.01988169
677.118,-0.01982722,-0.3252736,0.2981408,-0.5085964,0.4697965,-0.01988169
677.1323,-0.01908313,-0.3252905,0.3078843,-0.5086493,0.4547237,-0.01987795
677.1477,-0.0183476,-0.3253073,0.3176917,-0.5087222,0.4392144,-0.01987654
677.1628,-0.01762055,-0.3253238,0.3272303,-0.5088034,0.4237167,-0.01987602
677.1775,-0.01762055,-0.3253238,0.3272303,-0.5088034,0.4237167,-0.01987602
677.1917,-0.01690187,-0.3253402,0.3364187,-0.508881,0.4084036,-0.01987588
677.2078,-0.01619146,-0.3253563,0.3463642,-0.5089601,0.3919366,-0.01987279
677.2221,-0.01548924,-0.3253723,0.3563641,-0.5090516,0.3750806,-0.01987188
677.237,-0.01548924,-0.3253723,0.3563641,-0.5090516,0.3750806,-0.01987188
677.251,-0.0147951,-0.3253882,0.3660909,-0.5091462,0.3582699,-0.0198718
677.2675,-0.01410895,-0.3254038,0.3754634,-0.5092334,0.3416709,-0.01987209
677.2811,-0.01343071,-0.3254193,0.3855965,-0.5093179,0.3239292,-0.01986978
677.2961,-0.01343071,-0.3254193,0.3855965,-0.5093179,0.3239292,-0.01986978
677.3102,-0.01276028,-0.3254346,0.3957743,-0.5094106,0.3058205,-0.01986944
677.3255,-0.01209757,-0.3254498,0.4056653,-0.5095024,0.2877825,-0.01986989
677.3405,-0.0114425,-0.3254648,0.4151888,-0.5095835,0.2699811,-0.01987067
677.3553,-0.0114425,-0.3254648,0.4151888,-0.5095835,0.2699811,-0.01987067
677.3695,-0.01079496,-0.3254795,0.4217605,-0.5096264,0.2557708,-0.01987705
677.3848,-0.01015487,-0.3254942,0.4271592,-0.5096029,0.2433775,-0.01987995
677.3997,-0.01015487,-0.3254942,0.4271592,-0.5096029,0.2433775,-0.01987995
677.414,-0.009522159,-0.3255086,0.4322568,-0.5095314,0.2317783,-0.01988171
677.4297,-0.008896734,-0.3255229,0.4373221,-0.5094326,0.2205716,-0.01988315
677.4444,-0.008278511,-0.3255371,0.4424058,-0.5093196,0.2096061,-0.01988458
677.4594,-0.008278511,-0.3255371,0.4424058,-0.5093196,0.2096061,-0.01988458
677.4734,-0.007667409,-0.3255511,0.4474894,-0.5091991,0.1988288,-0.01988606
677.4898,-0.007063343,-0.325565,0.45254,-0.5090742,0.188224,-0.01988762
677.5049,-0.00650482,-0.3381831,0.466992,-0.5126498,0.1650175,-0.01990766
677.5186,-0.00650482,-0.3381831,0.466992,-0.5126498,0.1650175,-0.01990766
677.5326,-0.005983317,-0.3585106,0.4813647,-0.5172853,0.1399837,-0.01992803
677.5479,-0.005488073,-0.3835016,0.4933916,-0.5218865,0.1163684,-0.01994423
677.5627,-0.005010255,-0.4112589,0.5031005,-0.5261,0.09476867,-0.01995623
677.5778,-0.005010255,-0.4112589,0.5031005,-0.5261,0.09476867,-0.01995623
677.5918,-0.004540775,-0.4398459,0.5105357,-0.5296461,0.07568955,-0.01996442
677.6075,-0.004077419,-0.4688177,0.5167642,-0.5327678,0.058164,-0.01997023
677.6224,-0.003618939,-0.497898,0.5223054,-0.535616,0.0416851,-0.01997435
677.6374,-0.003618939,-0.497898,0.5223054,-0.535616,0.0416851,-0.01997435
677.6514,-0.003161037,-0.5261538,0.5269172,-0.5380333,0.02666791,-0.01997693
677.6672,-0.002705713,-0.553774,0.5312296,-0.5402594,0.0123707,-0.01997849
677.6819,-0.002253976,-0.5808781,0.5354193,-0.5423952,-0.001475264,-0.01997919
677.6968,-0.002253976,-0.5808781,0.5354193,-0.5423952,-0.001475264,-0.01997919
677.7108,-0.001806308,-0.6075423,0.5395085,-0.5444803,-0.01495738,-0.01997911
677.7274,-0.001358356,-0.6330538,0.5430034,-0.5462743,-0.02743177,-0.01997842
677.7413,-0.0009132225,-0.6577388,0.5463691,-0.547969,-0.039471,-0.01997717
677.7561,-0.0009132225,-0.6577388,0.5463691,-0.547969,-0.039471,-0.01997717
677.77,-0.0004722358,-0.6818028,0.5496997,-0.5496327,-0.05124569,-0.01997537
677.7855,-3.587242E-05,-0.7053755,0.5529786,-0.5512841,-0.06278683,-0.01997302
677.8002,0.0004011596,-0.7277775,0.5557117,-0.5526662,-0.07343624,-0.01997054
677.8152,0.0004011596,-0.7277775,0.5557117,-0.5526662,-0.07343624,-0.01997054
677.8295,0.0008352635,-0.7493557,0.5583451,-0.5539651,-0.08373484,-0.01996776
677.8452,0.001265035,-0.7703285,0.5609662,-0.5552452,-0.09383605,-0.01996457
677.86,0.001690048,-0.7908335,0.5635576,-0.5565222,-0.1037618,-0.01996099
677.8749,0.001690048,-0.7908335,0.5635576,-0.5565222,-0.1037618,-0.01996099
677.8892,0.002116417,-0.810196,0.5656384,-0.5575347,-0.1128629,-0.01995768
677.905,0.002540134,-0.8287659,0.567646,-0.5584701,-0.1216676,-0.01995421
677.9196,0.002540134,-0.8287659,0.567646,-0.5584701,-0.1216676,-0.01995421
677.9357,0.002959682,-0.8467632,0.5696647,-0.5593926,-0.1303226,-0.01995046
677.9502,0.003381243,-0.8635645,0.5712367,-0.5600566,-0.1382191,-0.01994719
677.9639,0.003800462,-0.8795519,0.5727868,-0.5606552,-0.1458819,-0.01994384
677.9788,0.003800462,-0.8795519,0.5727868,-0.5606552,-0.1458819,-0.01994384
677.9928,0.004215706,-0.8949654,0.5743862,-0.5612532,-0.1534485,-0.01994024
678.0088,0.00462649,-0.9099555,0.5760079,-0.5618649,-0.1609295,-0.01993638
678.0236,0.005039978,-0.9238555,0.5771775,-0.5622244,-0.1676831,-0.01993323
678.0382,0.005039978,-0.9238555,0.5771775,-0.5622244,-0.1676831,-0.01993323
678.0521,0.005451782,-0.9370204,0.5783183,-0.5625205,-0.1742217,-0.0199301
678.0679,0.005860175,-0.9496726,0.5795078,-0.562817,-0.1806825,-0.01992678
678.0828,0.00626456,-0.9619521,0.5807259,-0.5631291,-0.187079,-0.01992325
678.0978,0.00626456,-0.9619521,0.5807259,-0.5631291,-0.187079,-0.01992325
678.1119,0.00667246,-0.9731848,0.5815061,-0.5631911,-0.192777,-0.01992062
678.1276,0.007079383,-0.9837214,0.5822715,-0.5631934,-0.1982875,-0.01991806
678.1423,0.00748345,-0.9937817,0.5830995,-0.5632009,-0.203747,-0.01991534
678.1581,0.00748345,-0.9937817,0.5830995,-0.5632009,-0.203747,-0.01991534
678.1725,0.007891851,-1.002741,0.5835398,-0.5629651,-0.2085548,-0.0199136
678.1868,0.008299944,-1.010982,0.5840067,-0.5626819,-0.2132227,-0.01991193
678.2018,0.008705671,-1.018744,0.5845664,-0.5624163,-0.2178805,-0.01991005
678.2163,0.008705671,-1.018744,0.5845664,-0.5624163,-0.2178805,-0.01991005
678.23,0.009108117,-1.026175,0.5851909,-0.5621824,-0.2225346,-0.01990795
678.2455,0.009515101,-1.032607,0.5854082,-0.5617131,-0.2265472,-0.01990697
678.2603,0.00992231,-1.038396,0.585637,-0.5611987,-0.2304244,-0.0199061
678.2756,0.00992231,-1.038396,0.585637,-0.5611987,-0.2304244,-0.0199061
678.29,0.01032764,-1.043762,0.5859521,-0.5607031,-0.2342983,-0.01990504
678.3053,0.01073002,-1.048844,0.5863324,-0.560241,-0.2381795,-0.01990378
678.3206,0.0111373,-1.052967,0.5863079,-0.5595464,-0.2414316,-0.01990374
678.3358,0.0111373,-1.052967,0.5863079,-0.5595464,-0.2414316,-0.01990374
678.3502,0.01154534,-1.05648,0.5863017,-0.5588104,-0.2445641,-0.01990382
678.3655,0.01195193,-1.059603,0.5863903,-0.5580975,-0.2477105,-0.01990372
678.3813,0.01235581,-1.062472,0.5865532,-0.5574228,-0.2508819,-0.01990339
678.3954,0.01235581,-1.062472,0.5865532,-0.5574228,-0.2508819,-0.01990339
678.4095,0.01276478,-1.06441,0.5863166,-0.5565208,-0.2534385,-0.01990436
678.4249,0.0131749,-1.065767,0.5861062,-0.5555829,-0.2558924,-0.01990545
678.4398,0.0131749,-1.065767,0.5861062,-0.5555829,-0.2558924,-0.01990545
678.4539,0.01358387,-1.06676,0.5859991,-0.5546734,-0.2583773,-0.01990633
678.4697,0.01399882,-1.066763,0.5855321,-0.5535443,-0.2602808,-0.0199085
678.4843,0.01441565,-1.066159,0.5851268,-0.5523919,-0.2621206,-0.01991074
678.4995,0.01441565,-1.066159,0.5851268,-0.5523919,-0.2621206,-0.01991074
678.5137,0.01482783,-1.065185,0.5848543,-0.5512788,-0.2640257,-0.01991269
678.5292,0.01523293,-1.063988,0.5846862,-0.5502186,-0.2660006,-0.01991436
678.5443,0.01563897,-1.061897,0.5841305,-0.5489461,-0.2673893,-0.01991738
678.5593,0.01563897,-1.061897,0.5841305,-0.5489461,-0.2673893,-0.01991738
678.5737,0.01603802,-1.059267,0.583622,-0.5476493,-0.2687094,-0.01992049
678.5898,0.01642767,-1.056316,0.5832373,-0.5463913,-0.2700937,-0.01992334
678.6046,0.01680791,-1.053183,0.5829532,-0.545187,-0.2715508,-0.0199259
678.6183,0.01680791,-1.053183,0.5829532,-0.545187,-0.2715508,-0.0199259
678.6324,0.01718804,-1.049188,0.5822732,-0.5437731,-0.2724201,-0.01992988
678.6479,0.01756074,-1.044683,0.581641,-0.5423377,-0.2732275,-0.01993394
678.6627,0.01792407,-1.039884,0.5811366,-0.5409442,-0.2741086,-0.01993773
678.6777,0.01792407,-1.039884,0.5811366,-0.5409442,-0.2741086,-0.01993773
678.6918,0.01828666,-1.034164,0.580272,-0.5393478,-0.2744288,-0.01994291
678.7074,0.01864108,-1.027904,0.5794889,-0.5377405,-0.2747205,-0.01994809
678.7221,0.01898563,-1.021339,0.5788579,-0.5361859,-0.2751151,-0.01995293
678.7369,0.01898563,-1.021339,0.5788579,-0.5361859,-0.2751151,-0.01995293
678.751,0.01932092,-1.014617,0.5783488,-0.5346979,-0.2756166,-0.01995738
678.7667,0.01965629,-1.007065,0.5774418,-0.5330144,-0.2755429,-0.01996329
678.7816,0.01998461,-0.9990384,0.5765915,-0.5313203,-0.2754293,-0.01996924
678.7962,0.01998461,-0.9990384,0.5765915,-0.5313203,-0.2754293,-0.01996924
678.8104,0.02030425,-0.9907548,0.5758798,-0.5296779,-0.2754132,-0.01997485
678.8268,0.02061572,-0.9823502,0.5752842,-0.5281017,-0.2755036,-0.01998008
678.8408,0.02092796,-0.9731464,0.5742784,-0.5263318,-0.2750113,-0.01998681
678.8555,0.02092796,-0.9731464,0.5742784,-0.5263318,-0.2750113,-0.01998681
678.8694,0.02123388,-0.9634929,0.5733284,-0.5245528,-0.274482,-0.01999357
678.8846,0.02153186,-0.9536058,0.5725203,-0.5228273,-0.2740571,-0.01999997
678.8997,0.02153186,-0.9536058,0.5725203,-0.5228273,-0.2740571,-0.01999997
678.9138,0.02182994,-0.9428571,0.5713355,-0.5209139,-0.273072,-0.02000781
678.9293,0.02212114,-0.931627,0.5702397,-0.5190011,-0.2720813,-0.0200156
678.9441,0.02240408,-0.9201508,0.5693102,-0.5171517,-0.2712224,-0.02002295
678.9605,0.02267944,-0.9085739,0.5685178,-0.5153794,-0.2705004,-0.02002983
678.974,0.02267944,-0.9085739,0.5685178,-0.5153794,-0.2705004,-0.02002983
678.9885,0.02294842,-0.8969863,0.5678184,-0.5136807,-0.2698877,-0.02003633
679.0037,0.02321213,-0.8854433,0.5671777,-0.5120476,-0.2693561,-0.02004252
679.0187,0.02321213,-0.8854433,0.5671777,-0.5120476,-0.2693561,-0.02004252
679.0327,0.02347146,-0.8739787,0.5665734,-0.510472,-0.2688846,-0.02004845
679.0494,0.02372704,-0.862613,0.565993,-0.5089472,-0.2684588,-0.02005417
679.063,0.02397254,-0.8521204,0.5659522,-0.5077218,-0.2687696,-0.0200578
679.0779,0.02397254,-0.8521204,0.5659522,-0.5077218,-0.2687696,-0.0200578
679.0922,0.02421505,-0.8422107,0.5659236,-0.5066037,-0.2692154,-0.02006096
679.1075,0.02445686,-0.8327033,0.5657907,-0.5055206,-0.2696242,-0.02006413
679.1223,0.02469832,-0.8234857,0.5655603,-0.5044494,-0.2699681,-0.02006739
679.1372,0.02469832,-0.8234857,0.5655603,-0.5044494,-0.2699681,-0.02006739
679.1512,0.02493269,-0.8152493,0.5657948,-0.5036397,-0.270967,-0.02006879
679.1668,0.02516554,-0.807653,0.5659931,-0.502905,-0.2720391,-0.02006988
679.1817,0.02539846,-0.8004842,0.566057,-0.5021797,-0.2730291,-0.02007112
679.1967,0.02539846,-0.8004842,0.566057,-0.5021797,-0.2730291,-0.02007112
679.211,0.02562523,-0.7943725,0.5665386,-0.5017001,-0.2746313,-0.02007058
679.2266,0.02585087,-0.7889385,0.5669442,-0.5012772,-0.2762633,-0.02006986
679.2416,0.02607675,-0.7839459,0.5671864,-0.5008472,-0.2777768,-0.02006939
679.2562,0.02607675,-0.7839459,0.5671864,-0.5008472,-0.2777768,-0.02006939
679.2725,0.02630283,-0.7792474,0.5672922,-0.5003951,-0.2791634,-0.0200692
679.2858,0.02652259,-0.7755129,0.5678431,-0.5001773,-0.2811623,-0.0200672
679.3006,0.02674038,-0.7723885,0.5683415,-0.500011,-0.283198,-0.02006499
679.3154,0.02674038,-0.7723885,0.5683415,-0.500011,-0.283198,-0.02006499
679.3295,0.0269576,-0.7696539,0.5686898,-0.4998342,-0.285118,-0.02006303
679.345,0.02717439,-0.7671716,0.5689068,-0.4996324,-0.2869091,-0.02006136
679.36,0.02717439,-0.7671716,0.5689068,-0.4996324,-0.2869091,-0.02006136
679.3741,0.02738453,-0.7656176,0.5695696,-0.4996615,-0.289307,-0.02005784
679.3895,0.02759214,-0.7646425,0.5701772,-0.4997377,-0.2917338,-0.02005412
679.4045,0.02779868,-0.7640284,0.5706294,-0.4997986,-0.2940349,-0.02005067
679.4195,0.02779868,-0.7640284,0.5706294,-0.4997986,-0.2940349,-0.02005067
679.4337,0.02799858,-0.7643985,0.5714781,-0.5000831,-0.2969043,-0.02004541
679.4493,0.02819532,-0.7653747,0.5722327,-0.500403,-0.2997652,-0.02004005
679.4641,0.02838965,-0.7667202,0.5728038,-0.5006958,-0.3024684,-0.02003505
679.479,0.02838965,-0.7667202,0.5728038,-0.5006958,-0.3024684,-0.02003505
679.4952,0.02858192,-0.7682872,0.5732173,-0.500948,-0.3050048,-0.02003047
679.5089,0.02876632,-0.7707458,0.5740519,-0.5014183,-0.3081103,-0.02002402
679.5234,0.02894601,-0.7737429,0.5748146,-0.501922,-0.3112146,-0.02001743
679.5381,0.02894601,-0.7737429,0.5748146,-0.501922,-0.3112146,-0.02001743
679.5521,0.02912265,-0.7770589,0.5754076,-0.5023981,-0.3141654,-0.02001121
679.5677,0.02929709,-0.7805567,0.5758491,-0.502833,-0.3169493,-0.02000539
679.5826,0.02946367,-0.7849127,0.5767088,-0.503485,-0.320294,-0.01999767
679.5974,0.02946367,-0.7849127,0.5767088,-0.503485,-0.320294,-0.01999767
679.6119,0.02962595,-0.7897787,0.577494,-0.5041679,-0.3236299,-0.01998981
679.6273,0.02978574,-0.7949376,0.5781056,-0.5048202,-0.3268039,-0.01998235
679.6422,0.02994385,-0.8002542,0.5785614,-0.505428,-0.3298016,-0.01997533
679.657,0.02994385,-0.8002542,0.5785614,-0.505428,-0.3298016,-0.01997533
679.6711,0.03009442,-0.806406,0.5794255,-0.5062497,-0.3333451,-0.01996639
679.6872,0.03024128,-0.8130458,0.5802093,-0.5070985,-0.3368688,-0.01995734
679.7018,0.03038626,-0.8199572,0.5808148,-0.5079128,-0.3402204,-0.01994872
679.7162,0.03038626,-0.8199572,0.5808148,-0.5079128,-0.3402204,-0.01994872
679.7314,0.03052374,-0.8277671,0.58178,-0.5089353,-0.3440798,-0.01993823
679.7457,0.03065805,-0.8360968,0.5826254,-0.5099745,-0.3478813,-0.01992774
679.7603,0.03079113,-0.8447102,0.5832648,-0.510969,-0.3514789,-0.01991779
679.7754,0.03079113,-0.8447102,0.5832648,-0.510969,-0.3514789,-0.01991779
679.7895,0.03092369,-0.8534604,0.5837255,-0.511906,-0.3548653,-0.01990842
679.8052,0.03104918,-0.8630175,0.5845661,-0.5130467,-0.3587555,-0.01989715
679.8199,0.03104918,-0.8630175,0.5845661,-0.5130467,-0.3587555,-0.01989715
679.834,0.03117211,-0.8730305,0.5853117,-0.5142039,-0.3625975,-0.01988585
679.8497,0.03129433,-0.8832803,0.5858696,-0.5153171,-0.3662443,-0.01987508
679.8644,0.03141628,-0.8936303,0.5862598,-0.516373,-0.3696842,-0.0198649
679.8794,0.03141628,-0.8936303,0.5862598,-0.516373,-0.3696842,-0.0198649
679.8934,0.03153083,-0.9047576,0.5870284,-0.5176321,-0.3736206,-0.01985279
679.9092,0.03164092,-0.9163138,0.5877041,-0.5189049,-0.3775043,-0.01984069
679.924,0.03174815,-0.9280822,0.5881942,-0.5201304,-0.3811884,-0.01982913
679.9388,0.03174815,-0.9280822,0.5881942,-0.5201304,-0.3811884,-0.01982913
679.9539,0.03184608,-0.9406903,0.5890163,-0.5215538,-0.385333,-0.01981573
679.9686,0.03193806,-0.9537586,0.5897096,-0.5229809,-0.3893893,-0.01980245
679.9829,0.03202605,-0.9670514,0.5901929,-0.5243512,-0.3932172,-0.01978985
679.9977,0.03202605,-0.9670514,0.5901929,-0.5243512,-0.3932172,-0.01978985
680.0118,0.03211129,-0.9804226,0.5904945,-0.5256532,-0.3968111,-0.01977796
680.0275,0.03218678,-0.9945436,0.59115,-0.5271496,-0.400864,-0.0197642
680.0421,0.0322556,-1.009062,0.5917041,-0.5286502,-0.4048411,-0.01975054
680.0569,0.0322556,-1.009062,0.5917041,-0.5286502,-0.4048411,-0.01975054
680.071,0.03231975,-1.02376,0.5920696,-0.5300953,-0.4086017,-0.01973754
680.0871,0.03238059,-1.038501,0.5922678,-0.5314729,-0.4121361,-0.01972525
680.1017,0.03243081,-1.053965,0.5928198,-0.5330451,-0.4161245,-0.01971108
680.1164,0.03243081,-1.053965,0.5928198,-0.5330451,-0.4161245,-0.01971108
680.1305,0.03247332,-1.069802,0.5932744,-0.5346199,-0.420036,-0.01969704
680.1462,0.03251019,-1.085798,0.5935451,-0.5361373,-0.4237301,-0.01968368
680.1611,0.03254301,-1.101818,0.5936521,-0.5375853,-0.4271968,-0.01967107
680.1758,0.03254301,-1.101818,0.5936521,-0.5375853,-0.4271968,-0.01967107
680.1907,0.03256571,-1.118542,0.5941051,-0.5392261,-0.4311059,-0.0196566
680.2053,0.03258641,-1.135624,0.5944538,-0.5408687,-0.4349302,-0.01964229
680.22,0.03260702,-1.152847,0.5946152,-0.542453,-0.4385326,-0.01962871
680.2346,0.03260702,-1.152847,0.5946152,-0.542453,-0.4385326,-0.01962871
680.2488,0.03262347,-1.170842,0.5950708,-0.5442262,-0.4425405,-0.01961338
680.2642,0.03264013,-1.189229,0.5953882,-0.545992,-0.4464312,-0.01959834
680.2791,0.03264013,-1.189229,0.5953882,-0.545992,-0.4464312,-0.01959834
680.2932,0.0326576,-1.207774,0.5954975,-0.54769,-0.4500748,-0.01958413
680.3088,0.03267577,-1.226333,0.5954304,-0.5493094,-0.4534694,-0.0195708
680.3237,0.0326897,-1.245579,0.5956823,-0.5511142,-0.4572723,-0.01955572
680.3386,0.0326897,-1.245579,0.5956823,-0.5511142,-0.4572723,-0.01955572
680.3526,0.03270389,-1.265159,0.5958248,-0.5529124,-0.460974,-0.01954089
680.3683,0.03271893,-1.284855,0.5957822,-0.5546447,-0.4644438,-0.01952687
680.3829,0.03273472,-1.304536,0.5955791,-0.5562997,-0.4676759,-0.01951373
680.3978,0.03273472,-1.304536,0.5955791,-0.5562997,-0.4676759,-0.01951373
680.4139,0.03274621,-1.324872,0.5956914,-0.5581378,-0.4713086,-0.01949885
680.4283,0.03275806,-1.345518,0.5956991,-0.5599679,-0.4748413,-0.01948425
680.4422,0.03277085,-1.366261,0.595528,-0.5617312,-0.478145,-0.01947047
680.4569,0.03277085,-1.366261,0.595528,-0.5617312,-0.478145,-0.01947047
680.4709,0.0329144,-1.374365,0.5880074,-0.5591431,-0.471108,-0.01949917
680.4863,0.03314954,-1.374669,0.5804988,-0.5555337,-0.4623899,-0.01953528
680.501,0.03341669,-1.370162,0.5746869,-0.551974,-0.4545425,-0.01956832
680.5159,0.03341669,-1.370162,0.5746869,-0.551974,-0.4545425,-0.01956832
680.53,0.03367087,-1.362719,0.5705051,-0.5487475,-0.4480102,-0.01959637
680.5457,0.03389556,-1.353505,0.5674794,-0.5458762,-0.4425944,-0.01962004
680.5604,0.03409157,-1.343244,0.5651674,-0.5433062,-0.4379833,-0.01964049
680.5756,0.03409157,-1.343244,0.5651674,-0.5433062,-0.4379833,-0.01964049
680.5896,0.03426532,-1.332384,0.5632598,-0.5409727,-0.433916,-0.01965869
680.6049,0.0344234,-1.321203,0.5615682,-0.5388199,-0.4302098,-0.01967536
680.6199,0.0344234,-1.321203,0.5615682,-0.5388199,-0.4302098,-0.01967536
680.6337,0.03457092,-1.309874,0.5674217,-0.5283492,-0.4333177,-0.03468992
680.6506,0.03471136,-1.298503,0.5707709,-0.5209599,-0.4344926,-0.04941001
680.6639,0.03484701,-1.287157,0.5728453,-0.5151458,-0.4346361,-0.06384163
680.6788,0.03484701,-1.287157,0.5728453,-0.5151458,-0.4346361,-0.06384163
680.6929,0.03497932,-1.275876,0.5725696,-0.5120408,-0.4327177,-0.07466514
680.7084,0.03510922,-1.264686,0.5726195,-0.5087537,-0.4310778,-0.08527637
680.7229,0.03523728,-1.2536,0.5728457,-0.5054319,-0.4296152,-0.09567944
680.7381,0.03523728,-1.2536,0.5728457,-0.5054319,-0.4296152,-0.09567944
680.7518,0.03536385,-1.242629,0.5731642,-0.502145,-0.4282692,-0.1058785
680.7673,0.03548914,-1.231776,0.5717711,-0.5008062,-0.425423,-0.1125444
680.7821,0.03561328,-1.221044,0.5710279,-0.4988892,-0.4231726,-0.1190794
680.7969,0.03561328,-1.221044,0.5710279,-0.4988892,-0.4231726,-0.1190794
680.8113,0.03573633,-1.210435,0.5706016,-0.4967279,-0.4212497,-0.1254861
680.8268,0.03585835,-1.199948,0.5703258,-0.4944842,-0.4195133,-0.1317671
680.8416,0.03597933,-1.189584,0.5683694,-0.4941239,-0.41631,-0.1345918
680.8566,0.03597933,-1.189584,0.5683694,-0.4941239,-0.41631,-0.1345918
680.8705,0.03609929,-1.17934,0.5670766,-0.4931345,-0.4137239,-0.1373609
680.887,0.03621823,-1.169217,0.5661092,-0.4918623,-0.4114765,-0.1400756
680.9008,0.03633614,-1.159212,0.5652996,-0.4904755,-0.4094224,-0.1427369
680.9155,0.03633614,-1.159212,0.5652996,-0.4904755,-0.4094224,-0.1427369
680.9296,0.03645299,-1.149326,0.5628439,-0.490952,-0.4059274,-0.1420128
680.9449,0.03656879,-1.139555,0.5610579,-0.4907704,-0.4030542,-0.1413028
680.9598,0.03656879,-1.139555,0.5610579,-0.4907704,-0.4030542,-0.1413028
680.9739,0.03668353,-1.1299,0.5596066,-0.4902795,-0.4005254,-0.1406065
680.9894,0.03679719,-1.120359,0.5566354,-0.4915527,-0.3966677,-0.1365906
681.0041,0.03690975,-1.11093,0.5543767,-0.4921028,-0.3934716,-0.1326532
681.0187,0.03690975,-1.11093,0.5543767,-0.4921028,-0.3934716,-0.1326532
681.0331,0.03702122,-1.101613,0.5524784,-0.4923011,-0.3906437,-0.1287929
681.0486,0.03713158,-1.092405,0.5507675,-0.4923287,-0.3880319,-0.125008
681.0634,0.03724082,-1.083306,0.5475294,-0.4941867,-0.3840829,-0.1179642
681.0797,0.03724082,-1.083306,0.5475294,-0.4941867,-0.3840829,-0.1179642
681.0925,0.03734892,-1.074315,0.5449642,-0.4953358,-0.3807546,-0.1110583
681.108,0.03745589,-1.065429,0.5427495,-0.4961297,-0.3777793,-0.1042875
681.1237,0.03756173,-1.056649,0.5407255,-0.4967412,-0.3750177,-0.09764942
681.1381,0.03756173,-1.056649,0.5407255,-0.4967412,-0.3750177,-0.09764942
681.1517,0.03766641,-1.047973,0.5372498,-0.4991775,-0.3709852,-0.0878082
681.1669,0.03776993,-1.039399,0.5344381,-0.5008846,-0.3675607,-0.07815976
681.1809,0.0378723,-1.030926,0.5319794,-0.5022173,-0.3644875,-0.06870031
681.1966,0.0378723,-1.030926,0.5319794,-0.5022173,-0.3644875,-0.06870031
681.211,0.0379735,-1.022553,0.5282121,-0.5052795,-0.3602745,-0.05609305
681.2263,0.03807354,-1.01428,0.525137,-0.507551,-0.3566952,-0.04373278
681.241,0.03817241,-1.006104,0.5224327,-0.509409,-0.3534839,-0.03161465
681.256,0.03817241,-1.006104,0.5224327,-0.509409,-0.3534839,-0.03161465
681.2702,0.03827012,-0.9980252,0.5199404,-0.5110382,-0.350502,-0.01973397
681.2856,0.03836666,-0.9900419,0.516157,-0.51447,-0.3463994,-0.004752949
681.3005,0.03846204,-0.9821529,0.513013,-0.5171301,-0.3428773,0.009934505
681.3158,0.03846204,-0.9821529,0.513013,-0.5171301,-0.3428773,0.009934505
681.3296,0.03855624,-0.9743574,0.5102204,-0.5193785,-0.3396997,0.02433416
681.345,0.03864929,-0.9666541,0.5076357,-0.5213915,-0.3367429,0.03845165
681.361,0.03874118,-0.9590421,0.5048692,-0.523719,-0.3336572,0.05308455
681.3749,0.03874118,-0.9590421,0.5048692,-0.523719,-0.3336572,0.05308455
681.3887,0.03883192,-0.9515201,0.5023279,-0.5257787,-0.3307957,0.06743068
681.4042,0.0389215,-0.9440873,0.4999354,-0.5276731,-0.3280931,0.08149564
681.4189,0.0389215,-0.9440873,0.4999354,-0.5276731,-0.3280931,0.08149564
681.4332,0.03900993,-0.9367425,0.4976538,-0.5294529,-0.325514,0.09528496
681.4489,0.03909722,-0.9294848,0.4954638,-0.5311437,-0.3230395,0.108804
681.4633,0.03918338,-0.922313,0.4933556,-0.5327586,-0.3206586,0.1220581
681.4782,0.03918338,-0.922313,0.4933556,-0.5327586,-0.3206586,0.1220581
681.4927,0.0392684,-0.9152263,0.4913237,-0.534305,-0.3183645,0.1350525
681.5083,0.0393523,-0.9082235,0.4896596,-0.5353209,-0.3164144,0.147
681.5228,0.03943508,-0.9013038,0.4879553,-0.5364389,-0.3144515,0.1587134
681.5376,0.03943508,-0.9013038,0.4879553,-0.5364389,-0.3144515,0.1587134
681.5518,0.03951674,-0.894466,0.4862634,-0.5375799,-0.3125158,0.1701972
681.5674,0.0395973,-0.8877094,0.4846092,-0.5387059,-0.3106272,0.181456
681.5832,0.03967677,-0.8810329,0.4842056,-0.5378324,-0.3098571,0.1891608
681.5969,0.03967677,-0.8810329,0.4842056,-0.5378324,-0.3098571,0.1891608
681.611,0.03975516,-0.8744357,0.4834127,-0.5376084,-0.3087825,0.1967146
681.6265,0.03983247,-0.8679166,0.4824512,-0.5376871,-0.3075728,0.2041203
681.6412,0.0399087,-0.861475,0.4814324,-0.5379003,-0.3063183,0.2113809
681.6561,0.0399087,-0.861475,0.4814324,-0.5379003,-0.3063183,0.2113809
681.6701,0.03998388,-0.8551098,0.4815952,-0.5361967,-0.3061138,0.2151659
681.6855,0.040058,-0.8488201,0.4813465,-0.5351982,-0.305579,0.2188768
681.7003,0.04013108,-0.8426052,0.4809117,-0.5345417,-0.3048893,0.2225149
681.7153,0.04013108,-0.8426052,0.4809117,-0.5345417,-0.3048893,0.2225149
681.7297,0.04020312,-0.836464,0.4815898,-0.5320802,-0.3051887,0.2227484
681.745,0.04027415,-0.8303957,0.4818212,-0.5303906,-0.3051232,0.2229773
681.7602,0.04034416,-0.8243995,0.4818441,-0.5290868,-0.3048803,0.2232018
681.7751,0.04034416,-0.8243995,0.4818441,-0.5290868,-0.3048803,0.2232018
681.7892,0.04041315,-0.8184745,0.4817775,-0.5279806,-0.3045594,0.2234219
681.8045,0.04048116,-0.8126199,0.482877,-0.5250093,-0.3052765,0.2203044
681.8204,0.04054819,-0.8068348,0.4835423,-0.5227916,-0.3056401,0.2172481
681.834,0.04054819,-0.8068348,0.4835423,-0.5227916,-0.3056401,0.2172481
681.8483,0.04061423,-0.8011185,0.4839986,-0.5209608,-0.3058276,0.2142517
681.8635,0.04067931,-0.7954701,0.4843593,-0.5193381,-0.3059333,0.2113141
681.8785,0.04067931,-0.7954701,0.4843593,-0.5193381,-0.3059333,0.2113141
681.8926,0.04074344,-0.7898888,0.4859015,-0.515866,-0.3070964,0.2051007
681.9083,0.04080663,-0.7843738,0.4869951,-0.5131639,-0.3078932,0.1990093
681.923,0.04086888,-0.7789244,0.487868,-0.510866,-0.3085036,0.1930372
681.938,0.04086888,-0.7789244,0.487868,-0.510866,-0.3085036,0.1930372
681.9522,0.04093022,-0.7735398,0.489887,-0.5068253,-0.3101445,0.183849
681.9677,0.04099065,-0.7682192,0.4914171,-0.5036143,-0.3113801,0.1748409
681.9824,0.04105018,-0.7629618,0.4927039,-0.5008456,-0.3124065,0.1660095
681.9972,0.04105018,-0.7629618,0.4927039,-0.5008456,-0.3124065,0.1660095
682.0117,0.04110882,-0.757767,0.4938714,-0.4983293,-0.3133279,0.1573512
682.0271,0.04116658,-0.7526339,0.4962817,-0.4940073,-0.3153707,0.1455294
682.0431,0.04122347,-0.7475619,0.4982083,-0.4904894,-0.3170113,0.1339394
682.0566,0.04122347,-0.7475619,0.4982083,-0.4904894,-0.3170113,0.1339394
682.0707,0.04127951,-0.7425503,0.4998906,-0.4874087,-0.3184418,0.1225766
682.0861,0.0413347,-0.7375982,0.5014495,-0.4845853,-0.319764,0.1114366
682.1009,0.04138906,-0.7327051,0.504309,-0.4799696,-0.3222674,0.09718186
682.1157,0.04138906,-0.7327051,0.504309,-0.4799696,-0.3222674,0.09718186
682.1301,0.04144259,-0.7278701,0.5066619,-0.476168,-0.3243457,0.08320655
682.1457,0.04149531,-0.7230927,0.5087565,-0.4728152,-0.3262,0.06950523
682.1602,0.04154723,-0.7183721,0.5107184,-0.4697317,-0.3279369,0.05607252
682.1754,0.04154723,-0.7183721,0.5107184,-0.4697317,-0.3279369,0.05607252
682.1894,0.04159836,-0.7137077,0.514048,-0.4648781,-0.330923,0.03957782
682.205,0.04164871,-0.7090989,0.5168447,-0.4608473,-0.3334571,0.02340649
682.2198,0.04164871,-0.7090989,0.5168447,-0.4608473,-0.3334571,0.02340649
682.2338,0.04169829,-0.7045448,0.5193681,-0.4572755,-0.3357515,0.00755219
682.2494,0.04174706,-0.700045,0.5149333,-0.462761,-0.3316712,0.007007834
682.2652,0.04179504,-0.6955987,0.5129176,-0.4653625,-0.3296874,0.006474433
682.2791,0.04179504,-0.6955987,0.5129176,-0.4653625,-0.3296874,0.006474433
682.2931,0.04184228,-0.6912054,0.5120405,-0.4665591,-0.3287309,0.005951735
682.3086,0.0418888,-0.6868643,0.5116963,-0.4670744,-0.3282873,0.005439465
682.3232,0.04193461,-0.6825749,0.5115948,-0.4672618,-0.3281024,0.004937362
682.3381,0.04193461,-0.6825749,0.5115948,-0.4672618,-0.3281024,0.004937362
682.3521,0.04197971,-0.6783366,0.5115985,-0.4672935,-0.3280495,0.004445186
682.3676,0.04202412,-0.6741488,0.5116438,-0.4672534,-0.3280658,0.003962717
682.3825,0.04206784,-0.6700108,0.5117027,-0.4671823,-0.3281205,0.003489757
682.3975,0.04206784,-0.6700108,0.5117027,-0.4671823,-0.3281205,0.003489757
682.4117,0.04211089,-0.6659221,0.5117652,-0.4671003,-0.3281955,0.003026103
682.4271,0.04215327,-0.6618821,0.5118286,-0.4670166,-0.3282855,0.00257158
682.4418,0.04219499,-0.6578902,0.511892,-0.4669355,-0.3283882,0.002126006
682.4567,0.04219499,-0.6578902,0.511892,-0.4669355,-0.3283882,0.002126006
682.4711,0.04223606,-0.6539459,0.5118163,-0.4668207,-0.3288054,0.001690189
682.4863,0.0422765,-0.6500485,0.5114866,-0.4666924,-0.3293426,0.001263228
682.5021,0.04231631,-0.6461976,0.5109189,-0.466565,-0.3298993,0.0008447011
682.5159,0.04231631,-0.6461976,0.5109189,-0.466565,-0.3298993,0.0008447011
682.5301,0.0423555,-0.6423925,0.5101635,-0.4664447,-0.3304428,0.0004343639
682.5454,0.04239408,-0.6386327,0.5091338,-0.4662951,-0.3312696,3.303276E-05
682.5601,0.04243206,-0.6349177,0.5077559,-0.4661361,-0.3321875,-0.0003601752
682.575,0.04243206,-0.6349177,0.5077559,-0.4661361,-0.3321875,-0.0003601752
682.5892,0.04246945,-0.631247,0.5060765,-0.4659812,-0.3331003,-0.0007456593
682.6045,0.04250626,-0.62762,0.504168,-0.465836,-0.3339795,-0.00112364
682.6193,0.04250626,-0.62762,0.504168,-0.465836,-0.3339795,-0.00112364
682.6334,0.04254249,-0.6240363,0.5019603,-0.4656636,-0.3351251,-0.001493264
682.6491,0.04257816,-0.6204953,0.4993899,-0.4654831,-0.3363476,-0.001855405
682.6639,0.04261327,-0.6169964,0.4965105,-0.465308,-0.3375527,-0.00221045
682.6789,0.04261327,-0.6169964,0.4965105,-0.465308,-0.3375527,-0.00221045
682.6932,0.04264783,-0.6135392,0.4932638,-0.4651046,-0.3390167,-0.002557583
682.7086,0.04268186,-0.6101232,0.4896035,-0.4648937,-0.3405432,-0.002897697
682.7234,0.04271536,-0.6067479,0.4855991,-0.4646896,-0.3420372,-0.003231171
682.7396,0.04271536,-0.6067479,0.4855991,-0.4646896,-0.3420372,-0.003231171
682.7532,0.04274833,-0.6034129,0.4813403,-0.4644977,-0.3434728,-0.003558193
682.7678,0.04278079,-0.6001176,0.4767713,-0.4642801,-0.345152,-0.003877859
682.7823,0.04281274,-0.5968615,0.4718376,-0.4640559,-0.3468879,-0.004191042
682.7972,0.04281274,-0.5968615,0.4718376,-0.4640559,-0.3468879,-0.004191042
682.8116,0.04284419,-0.5936443,0.4665985,-0.4638384,-0.3485882,-0.004498105
682.8269,0.04287515,-0.5904654,0.4611345,-0.4636333,-0.3502272,-0.004799227
682.8418,0.04290563,-0.5873244,0.4553846,-0.4634019,-0.3521055,-0.005093475
682.8567,0.04290563,-0.5873244,0.4553846,-0.4634019,-0.3521055,-0.005093475
682.8709,0.04293563,-0.5842209,0.4492895,-0.4631635,-0.3540363,-0.005381735
682.8864,0.04296516,-0.5811543,0.4429046,-0.4629317,-0.3559271,-0.005664362
682.901,0.04299423,-0.5781243,0.436308,-0.4627124,-0.3577516,-0.00594153
682.9163,0.04299423,-0.5781243,0.436308,-0.4627124,-0.3577516,-0.00594153
682.9302,0.04302285,-0.5751305,0.4294377,-0.4624663,-0.3598093,-0.00621227
682.9457,0.04305102,-0.5721723,0.4222335,-0.4622129,-0.3619142,-0.006477486
682.9616,0.04307875,-0.5692493,0.4147497,-0.4619663,-0.3639738,-0.00673752
682.9755,0.04307875,-0.5692493,0.4147497,-0.4619663,-0.3639738,-0.00673752
682.9898,0.04310605,-0.5663612,0.4069322,-0.4616909,-0.3662625,-0.006991454
683.0049,0.04313293,-0.5635076,0.3987358,-0.4614081,-0.3685873,-0.007240203
683.0195,0.04313293,-0.5635076,0.3987358,-0.4614081,-0.3685873,-0.007240203
683.0335,0.04315938,-0.5606879,0.3902287,-0.4611329,-0.3708549,-0.007484124
683.0491,0.04318543,-0.5579019,0.3814993,-0.4608716,-0.37304,-0.007723366
683.064,0.04321107,-0.555149,0.372495,-0.4605837,-0.375441,-0.007956905
683.0789,0.04321107,-0.555149,0.372495,-0.4605837,-0.375441,-0.007956905
683.093,0.0432363,-0.552429,0.3631622,-0.4602889,-0.3778751,-0.008185655
683.1089,0.04326115,-0.5497414,0.3535585,-0.4600017,-0.3802517,-0.008409957
683.1236,0.04328561,-0.5470859,0.3437629,-0.4597282,-0.3825455,-0.008629962
683.1385,0.04328561,-0.5470859,0.3437629,-0.4597282,-0.3825455,-0.008629962
683.1531,0.04330969,-0.5444621,0.3337171,-0.4594271,-0.3850527,-0.008844606
683.1685,0.0433334,-0.5418695,0.323363,-0.4591186,-0.3875912,-0.009054829
683.1829,0.04335673,-0.5393078,0.3127541,-0.4588174,-0.3900702,-0.00926097
683.199,0.04335673,-0.5393078,0.3127541,-0.4588174,-0.3900702,-0.00926097
683.2134,0.04337971,-0.5367767,0.3018386,-0.4584861,-0.3927602,-0.009462004
683.2274,0.04340233,-0.5342758,0.2905722,-0.4581472,-0.3954723,-0.009658897
683.2426,0.0434246,-0.5318047,0.2790217,-0.4578163,-0.3981145,-0.00985199
683.2571,0.0434246,-0.5318047,0.2790217,-0.4578163,-0.3981145,-0.00985199
683.2711,0.04344652,-0.529363,0.2672736,-0.4575002,-0.4006617,-0.01004141
683.2859,0.0434681,-0.5269505,0.2552775,-0.4571564,-0.4034078,-0.01022606
683.3011,0.04348935,-0.5245667,0.242981,-0.4568053,-0.4061744,-0.01040687
683.3163,0.04348935,-0.5245667,0.242981,-0.4568053,-0.4061744,-0.01040687
683.3305,0.04351027,-0.5222114,0.2304402,-0.4564624,-0.4088723,-0.0105842
683.3461,0.04353087,-0.5198841,0.2177321,-0.4561339,-0.4114764,-0.01075816
683.361,0.04355115,-0.5175846,0.2049261,-0.455822,-0.4139856,-0.01092881
683.3759,0.04355115,-0.5175846,0.2049261,-0.455822,-0.4139856,-0.01092881
683.3903,0.04357111,-0.5153126,0.1920763,-0.4555266,-0.4164062,-0.01109621
683.4056,0.04359077,-0.5130675,0.1792224,-0.4552469,-0.4187457,-0.0112604
683.4211,0.04361011,-0.5108493,0.1663925,-0.4549819,-0.4210108,-0.01142143
683.4351,0.04361011,-0.5108493,0.1663925,-0.4549819,-0.4210108,-0.01142143
683.449,0.04362916,-0.5086575,0.1536062,-0.4547306,-0.4232073,-0.01157934
683.4644,0.04364792,-0.5064919,0.1408766,-0.4544921,-0.4253395,-0.0117342
683.4792,0.04364792,-0.5064919,0.1408766,-0.4544921,-0.4253395,-0.0117342
683.4932,0.04366638,-0.5043521,0.1282125,-0.4542657,-0.4274111,-0.01188605
683.509,0.04368456,-0.5022378,0.1156197,-0.4540507,-0.4294249,-0.01203495
683.5236,0.04370246,-0.5001487,0.103102,-0.4538468,-0.4313831,-0.01218095
683.5388,0.04370246,-0.5001487,0.103102,-0.4538468,-0.4313831,-0.01218095
683.5526,0.04372008,-0.4980846,0.09066156,-0.4536533,-0.4332878,-0.01232411
683.5683,0.04373743,-0.4960451,0.07829979,-0.4534701,-0.4351405,-0.01246449
683.5831,0.04375451,-0.4940298,0.06601735,-0.4532966,-0.4369428,-0.01260215
683.5978,0.04375451,-0.4940298,0.06601735,-0.4532966,-0.4369428,-0.01260215
683.6122,0.04377133,-0.4920387,0.05381449,-0.4531327,-0.4386961,-0.01273713
683.6277,0.04378789,-0.4900712,0.04169112,-0.452978,-0.4404014,-0.01286948
683.6436,0.04380419,-0.4881273,0.02964703,-0.4528323,-0.4420601,-0.01299927
683.6574,0.04380419,-0.4881273,0.02964703,-0.4528323,-0.4420601,-0.01299927
683.6715,0.04382024,-0.4862065,0.0176818,-0.4526953,-0.4436731,-0.01312653
683.687,0.04383605,-0.4843087,0.005795011,-0.4525668,-0.4452415,-0.01325132
683.7014,0.04385161,-0.4824334,-0.006013857,-0.4524466,-0.4467664,-0.01337369
683.7162,0.04385161,-0.4824334,-0.006013857,-0.4524466,-0.4467664,-0.01337369
683.7305,0.04386693,-0.4805806,-0.01774533,-0.4523343,-0.4482486,-0.0134937
683.746,0.04388202,-0.4787498,-0.02939997,-0.4522298,-0.4496891,-0.01361137
683.761,0.04389687,-0.4769409,-0.04097834,-0.4521329,-0.4510889,-0.01372677
683.776,0.04389687,-0.4769409,-0.04097834,-0.4521329,-0.4510889,-0.01372677
683.7902,0.0439115,-0.4751536,-0.05248099,-0.4520434,-0.4524487,-0.01383994
683.8057,0.0439259,-0.4733875,-0.0639085,-0.451961,-0.4537695,-0.01395092
683.8204,0.04394007,-0.4716426,-0.07526139,-0.4518856,-0.4550521,-0.01405975
683.8352,0.04394007,-0.4716426,-0.07526139,-0.4518856,-0.4550521,-0.01405975
683.8497,0.04395403,-0.4699184,-0.08654024,-0.451817,-0.4562972,-0.01416648
683.8648,0.04396778,-0.4682148,-0.09774558,-0.4517549,-0.4575057,-0.01427115
683.8804,0.04398131,-0.4665316,-0.1088779,-0.4516992,-0.4586784,-0.0143738
683.8947,0.04398131,-0.4665316,-0.1088779,-0.4516992,-0.4586784,-0.0143738
683.9087,0.04399464,-0.4648684,-0.1199378,-0.4516497,-0.4598159,-0.01447448
683.9238,0.04400776,-0.4632251,-0.1309258,-0.4516062,-0.4609191,-0.01457321
683.9386,0.04400776,-0.4632251,-0.1309258,-0.4516062,-0.4609191,-0.01457321
683.9527,0.04402068,-0.4616013,-0.1418422,-0.4515686,-0.4619887,-0.01467005
683.9682,0.0440334,-0.4599969,-0.1526878,-0.4515366,-0.4630252,-0.01476502
683.9829,0.04404593,-0.4584117,-0.1634628,-0.4515101,-0.4640295,-0.01485816
683.9977,0.04404593,-0.4584117,-0.1634628,-0.4515101,-0.4640295,-0.01485816
684.012,0.04405826,-0.4568454,-0.1741679,-0.4514889,-0.4650021,-0.01494951
684.0278,0.0440704,-0.4552978,-0.1848035,-0.4514729,-0.4659438,-0.01503911
684.0423,0.04408236,-0.4537686,-0.1953699,-0.4514619,-0.4668552,-0.01512699
684.0573,0.04408236,-0.4537686,-0.1953699,-0.4514619,-0.4668552,-0.01512699
684.0715,0.04409414,-0.4522577,-0.2058678,-0.4514558,-0.4677368,-0.01521319
684.087,0.04410573,-0.4507648,-0.2162975,-0.4514543,-0.4685893,-0.01529774
684.1017,0.04411715,-0.4492897,-0.2266595,-0.4514574,-0.4694132,-0.01538066
684.1175,0.04411715,-0.4492897,-0.2266595,-0.4514574,-0.4694132,-0.01538066
684.1316,0.04412838,-0.4478322,-0.2369542,-0.4514649,-0.4702092,-0.015462
684.1461,0.04413945,-0.4463921,-0.247182,-0.4514766,-0.4709778,-0.01554179
684.1607,0.04415035,-0.4449692,-0.2573433,-0.4514925,-0.4717196,-0.01562005
684.1757,0.04415035,-0.4449692,-0.2573433,-0.4514925,-0.4717196,-0.01562005
684.1896,0.04416109,-0.4435632,-0.2674386,-0.4515124,-0.472435,-0.01569682
684.2051,0.04417165,-0.442174,-0.2774682,-0.4515361,-0.4731247,-0.01577212
684.2201,0.04418206,-0.4408014,-0.2874326,-0.4515636,-0.4737891,-0.015846
684.2348,0.04418206,-0.4408014,-0.2874326,-0.4515636,-0.4737891,-0.015846
684.2493,0.0441923,-0.4394452,-0.2973321,-0.4515946,-0.4744288,-0.01591846
684.2645,0.04420239,-0.4381051,-0.3071672,-0.4516292,-0.4750441,-0.01598954
684.2796,0.04420239,-0.4381051,-0.3071672,-0.4516292,-0.4750441,-0.01598954
684.2937,0.04421233,-0.4367811,-0.3169382,-0.4516671,-0.4756357,-0.01605928
684.3092,0.04422211,-0.4354728,-0.3266454,-0.4517082,-0.4762039,-0.0161277
684.324,0.04423174,-0.4341802,-0.3362893,-0.4517525,-0.4767493,-0.01619481
684.34,0.04423174,-0.4341802,-0.3362893,-0.4517525,-0.4767493,-0.01619481
684.354,0.04424123,-0.4329029,-0.3458703,-0.4517998,-0.4772723,-0.01626066
684.3684,0.04425057,-0.4316409,-0.3553886,-0.45185,-0.4777733,-0.01632526
684.3832,0.04425976,-0.430394,-0.3648447,-0.4519031,-0.4782528,-0.01638863
684.3979,0.04425976,-0.430394,-0.3648447,-0.4519031,-0.4782528,-0.01638863
684.412,0.04426882,-0.4291619,-0.3742389,-0.4519588,-0.4787111,-0.01645081
684.4275,0.04427774,-0.4279446,-0.3835715,-0.4520172,-0.4791487,-0.01651182
684.4424,0.04428652,-0.4267417,-0.3928429,-0.4520781,-0.4795661,-0.01657167
684.4573,0.04428652,-0.4267417,-0.3928429,-0.4520781,-0.4795661,-0.01657167
684.4714,0.04429517,-0.4255532,-0.4020535,-0.4521414,-0.4799635,-0.0166304
684.4873,0.04430368,-0.4243789,-0.4112035,-0.452207,-0.4803414,-0.01668802
684.502,0.04431206,-0.4232186,-0.4202933,-0.4522749,-0.4807002,-0.01674456
684.5168,0.04431206,-0.4232186,-0.4202933,-0.4522749,-0.4807002,-0.01674456
684.5308,0.04432032,-0.4220722,-0.4293233,-0.452345,-0.4810403,-0.01680004
684.5465,0.04432844,-0.4209394,-0.4382937,-0.452417,-0.4813619,-0.01685447
684.5612,0.04433645,-0.4198201,-0.4472048,-0.4524911,-0.4816655,-0.01690789
684.577,0.04433645,-0.4198201,-0.4472048,-0.4524911,-0.4816655,-0.01690789
684.5902,0.04434433,-0.4187142,-0.4560571,-0.4525671,-0.4819514,-0.0169603
684.6057,0.04435209,-0.4176215,-0.4648508,-0.4526449,-0.48222,-0.01701174
684.6202,0.04435974,-0.4165418,-0.4735862,-0.4527245,-0.4824716,-0.01706221
684.6349,0.04435974,-0.4165418,-0.4735862,-0.4527245,-0.4824716,-0.01706221
684.6491,0.04436726,-0.4154751,-0.4822637,-0.4528058,-0.4827065,-0.01711174
684.6646,0.04437467,-0.414421,-0.4908835,-0.4528886,-0.4829251,-0.01716036
684.6794,0.04437467,-0.414421,-0.4908835,-0.4528886,-0.4829251,-0.01716036
684.6936,0.04438197,-0.4133795,-0.499446,-0.452973,-0.4831277,-0.01720807
684.7093,0.04438915,-0.4123505,-0.5079514,-0.4530589,-0.4833146,-0.01725489
684.724,0.04439623,-0.4113337,-0.5164002,-0.4531462,-0.483486,-0.01730084
684.739,0.04439623,-0.4113337,-0.5164002,-0.4531462,-0.483486,-0.01730084
684.7531,0.0444032,-0.4103291,-0.5247924,-0.4532348,-0.4836424,-0.01734593
684.7689,0.04441006,-0.4093364,-0.5331286,-0.4533247,-0.4837839,-0.0173902
684.7833,0.04441682,-0.4083556,-0.5414088,-0.4534158,-0.4839109,-0.01743364
684.7993,0.04441682,-0.4083556,-0.5414088,-0.4534158,-0.4839109,-0.01743364
684.8136,0.04442347,-0.4073865,-0.5496336,-0.4535081,-0.4840237,-0.01747628
684.8279,0.04443002,-0.406429,-0.557803,-0.4536015,-0.4841226,-0.01751813
684.8428,0.04443647,-0.4054829,-0.5659176,-0.453696,-0.4842078,-0.01755921
684.8574,0.04443647,-0.4054829,-0.5659176,-0.453696,-0.4842078,-0.01755921
684.8715,0.04444282,-0.404548,-0.5739774,-0.4537914,-0.4842796,-0.01759953
684.8872,0.04444908,-0.4036244,-0.5819827,-0.4538878,-0.4843383,-0.01763912
684.902,0.04445523,-0.4027117,-0.5899341,-0.453985,-0.484384,-0.01767797
684.9167,0.04445523,-0.4027117,-0.5899341,-0.453985,-0.484384,-0.01767797
684.9308,0.0444613,-0.4018099,-0.5978315,-0.4540831,-0.4844172,-0.01771612
684.9467,0.04446727,-0.4009189,-0.6056754,-0.4541821,-0.484438,-0.01775356
684.9614,0.04447315,-0.4000386,-0.613466,-0.4542817,-0.4844467,-0.01779032
684.9764,0.04447315,-0.4000386,-0.613466,-0.4542817,-0.4844467,-0.01779032
684.9906,0.04447894,-0.3991687,-0.6212036,-0.4543821,-0.4844435,-0.01782641
685.006,0.04448465,-0.3983092,-0.6288884,-0.4544831,-0.4844288,-0.01786185
685.022,0.04449026,-0.39746,-0.6365208,-0.4545848,-0.4844026,-0.01789664
685.0357,0.04449026,-0.39746,-0.6365208,-0.4545848,-0.4844026,-0.01789664
685.0497,0.04449579,-0.3966209,-0.644101,-0.454687,-0.4843652,-0.01793079
685.0652,0.04450123,-0.3957918,-0.6516293,-0.4547898,-0.4843169,-0.01796432
685.0801,0.04450659,-0.3949727,-0.659106,-0.454893,-0.4842579,-0.01799725
685.0946,0.04450659,-0.3949727,-0.659106,-0.454893,-0.4842579,-0.01799725
685.1089,0.04451187,-0.3941633,-0.6665312,-0.4549968,-0.4841884,-0.01802958
685.1243,0.04451707,-0.3933635,-0.6739054,-0.4551009,-0.4841086,-0.01806132
685.1393,0.04451707,-0.3933635,-0.6739054,-0.4551009,-0.4841086,-0.01806132
685.1533,0.04452218,-0.3925733,-0.6812287,-0.4552055,-0.4840187,-0.01809249
685.1688,0.04452723,-0.3917925,-0.6885014,-0.4553104,-0.4839191,-0.01812309
685.1837,0.04453219,-0.391021,-0.6957238,-0.4554157,-0.4838097,-0.01815315
685.1985,0.04453219,-0.391021,-0.6957238,-0.4554157,-0.4838097,-0.01815315
685.2128,0.04453707,-0.3902588,-0.7028962,-0.4555213,-0.4836909,-0.01818267
685.2285,0.04454188,-0.3895056,-0.7100188,-0.4556271,-0.4835629,-0.01821166
685.2432,0.04454662,-0.3887615,-0.7170918,-0.4557332,-0.4834258,-0.01824013
685.259,0.04454662,-0.3887615,-0.7170918,-0.4557332,-0.4834258,-0.01824013
685.2732,0.04455128,-0.3880262,-0.7241156,-0.4558394,-0.4832799,-0.01826808
685.2879,0.04455587,-0.3872997,-0.7310903,-0.4559459,-0.4831251,-0.01829555
685.3023,0.0445604,-0.3865818,-0.7380161,-0.4560525,-0.4829618,-0.01832251
685.317,0.0445604,-0.3865818,-0.7380161,-0.4560525,-0.4829618,-0.01832251
685.331,0.04456485,-0.3858725,-0.7448933,-0.4561593,-0.4827902,-0.018349
685.348,0.04456923,-0.3851717,-0.7517222,-0.4562662,-0.4826105,-0.01837502
685.3615,0.04457355,-0.3844792,-0.758381,-0.456424,-0.4821313,-0.01840197
685.3762,0.04457355,-0.3844792,-0.758381,-0.456424,-0.4821313,-0.01840197
685.3905,0.04457779,-0.383795,-0.7647604,-0.4566086,-0.4815326,-0.01842872
685.4062,0.04458197,-0.383119,-0.7708702,-0.4568014,-0.4809112,-0.01845499
685.421,0.04458609,-0.382451,-0.7767544,-0.4569939,-0.4803003,-0.01848073
685.436,0.04458609,-0.382451,-0.7767544,-0.4569939,-0.4803003,-0.01848073
685.4501,0.04459014,-0.381791,-0.7823368,-0.4572334,-0.4794155,-0.01850731
685.4654,0.04459413,-0.3811389,-0.7875457,-0.4574948,-0.4784368,-0.01853362
685.4813,0.04459806,-0.3804946,-0.7924205,-0.4577597,-0.4774576,-0.01855941
685.4953,0.04459806,-0.3804946,-0.7924205,-0.4577597,-0.4774576,-0.01855941
685.5095,0.04460192,-0.3798579,-0.7969038,-0.4580708,-0.476214,-0.01858602
685.5248,0.04460572,-0.3792289,-0.8009462,-0.4584009,-0.4748923,-0.0186123
685.5396,0.04460572,-0.3792289,-0.8009462,-0.4584009,-0.4748923,-0.0186123
685.5534,0.04460947,-0.3786073,-0.8046067,-0.4587312,-0.4735869,-0.01863802
685.5691,0.04461315,-0.3779932,-0.8079662,-0.4590538,-0.4723257,-0.01866314
685.5841,0.04461678,-0.3773864,-0.8109744,-0.4594167,-0.4708164,-0.01868905
685.5984,0.04461678,-0.3773864,-0.8109744,-0.4594167,-0.4708164,-0.01868905
685.613,0.04462035,-0.3767868,-0.8135769,-0.4597953,-0.4692371,-0.01871465
685.6283,0.04462386,-0.3761944,-0.8158264,-0.4601723,-0.4676791,-0.0187397
685.6432,0.04462732,-0.3756091,-0.8177979,-0.4605403,-0.46617,-0.01876416
685.6584,0.04462732,-0.3756091,-0.8177979,-0.4605403,-0.46617,-0.01876416
685.6723,0.04463072,-0.3750308,-0.8194354,-0.4609472,-0.4644152,-0.01878941
685.6879,0.04463407,-0.3744593,-0.82068,-0.4613684,-0.4625948,-0.01881436
685.7026,0.04463736,-0.3738947,-0.8215818,-0.4617867,-0.4608014,-0.01883877
685.7185,0.04463736,-0.3738947,-0.8215818,-0.4617867,-0.4608014,-0.01883877
685.7316,0.0446406,-0.3733368,-0.8220896,-0.4622446,-0.4587625,-0.01886395
685.7469,0.04464379,-0.3727856,-0.8221567,-0.4627154,-0.4566681,-0.0188888
685.7617,0.04464693,-0.372241,-0.8218468,-0.463181,-0.4546129,-0.01891308
685.7766,0.04464693,-0.372241,-0.8218468,-0.463181,-0.4546129,-0.01891308
685.7905,0.04465002,-0.3717028,-0.8212445,-0.463634,-0.4526241,-0.01893674
685.8062,0.04465306,-0.3711711,-0.8203,-0.4641217,-0.4504012,-0.01896116
685.8208,0.04465605,-0.3706457,-0.8189573,-0.4646199,-0.4481273,-0.01898526
685.8358,0.04465605,-0.3706457,-0.8189573,-0.4646199,-0.4481273,-0.01898526
685.8503,0.04465899,-0.3701266,-0.8172712,-0.4651117,-0.4458953,-0.01900881
685.8656,0.04466189,-0.3696137,-0.815319,-0.4655902,-0.4437323,-0.01903175
685.8804,0.04466473,-0.3691069,-0.8130438,-0.4661022,-0.441335,-0.01905544
685.8952,0.04466473,-0.3691069,-0.8130438,-0.4661022,-0.441335,-0.01905544
685.9096,0.04466753,-0.3686062,-0.810384,-0.4666237,-0.4388896,-0.01907882
685.9248,0.04467028,-0.3681114,-0.8073917,-0.4671378,-0.4364904,-0.01910167
685.9409,0.04467299,-0.3676226,-0.8041426,-0.4676378,-0.434165,-0.01912391
685.9546,0.04467299,-0.3676226,-0.8041426,-0.4676378,-0.434165,-0.01912391
685.9688,0.04467566,-0.3671396,-0.8005777,-0.4681698,-0.4316069,-0.01914688
685.9839,0.04467827,-0.3666623,-0.7966334,-0.4687099,-0.4290051,-0.01916956
685.9985,0.04467827,-0.3666623,-0.7966334,-0.4687099,-0.4290051,-0.01916956
686.0126,0.04468085,-0.3661908,-0.7923616,-0.4692416,-0.4264548,-0.01919168
686.0281,0.04468339,-0.3657248,-0.7877093,-0.4698059,-0.4236717,-0.01921451
686.0429,0.04468588,-0.3652645,-0.7826265,-0.4703768,-0.4208548,-0.019237
686.0577,0.04468588,-0.3652645,-0.7826265,-0.4703768,-0.4208548,-0.019237
686.072,0.04468833,-0.3648096,-0.7771796,-0.4709372,-0.4181015,-0.01925893
686.0877,0.04469074,-0.3643602,-0.771457,-0.4714803,-0.415439,-0.01928023
686.1026,0.0446931,-0.3639161,-0.7654071,-0.4720513,-0.412553,-0.01930219
686.1173,0.0446931,-0.3639161,-0.7654071,-0.4720513,-0.412553,-0.01930219
686.1315,0.04469543,-0.3634774,-0.7589703,-0.472627,-0.4096361,-0.01932384
686.147,0.04469772,-0.3630438,-0.7522038,-0.4731914,-0.4067843,-0.01934493
686.1619,0.04469997,-0.3626155,-0.7451885,-0.4737381,-0.4040248,-0.01936541
686.1787,0.04469997,-0.3626155,-0.7451885,-0.4737381,-0.4040248,-0.01936541
686.1911,0.04470218,-0.3621923,-0.7378367,-0.4745294,-0.4010824,-0.01938741
686.2067,0.04470436,-0.3617741,-0.7301164,-0.4754478,-0.3981123,-0.01940873
686.2212,0.0447065,-0.3613609,-0.7220877,-0.4764099,-0.3951997,-0.01942934
686.2359,0.0447065,-0.3613609,-0.7220877,-0.4764099,-0.3951997,-0.01942934
686.2501,0.0447086,-0.3609526,-0.7138259,-0.4773769,-0.3923717,-0.01944927
686.2654,0.04471067,-0.3605493,-0.7053984,-0.4783319,-0.3896328,-0.01946859
686.2804,0.0447127,-0.3601507,-0.6968584,-0.479268,-0.3869792,-0.01948733
686.2952,0.0447127,-0.3601507,-0.6968584,-0.479268,-0.3869792,-0.01948733
686.3095,0.04471469,-0.3597569,-0.6882458,-0.4801826,-0.384405,-0.01950553
686.3251,0.04471666,-0.3593678,-0.6795893,-0.4810754,-0.3819048,-0.01952324
686.3401,0.04471859,-0.3589834,-0.6709098,-0.4819468,-0.3794738,-0.01954046
686.3549,0.04471859,-0.3589834,-0.6709098,-0.4819468,-0.3794738,-0.01954046
686.369,0.04472048,-0.3586035,-0.6622217,-0.4827974,-0.3771082,-0.01955722
686.3844,0.04472234,-0.3582282,-0.6535357,-0.4836278,-0.3748051,-0.01957355
686.4003,0.04472418,-0.3578573,-0.6448591,-0.4844389,-0.372562,-0.01958944
686.4141,0.04472418,-0.3578573,-0.6448591,-0.4844389,-0.372562,-0.01958944
686.4283,0.04472598,-0.3574909,-0.6361976,-0.4852311,-0.3703771,-0.01960492
686.4436,0.04472775,-0.3571289,-0.627555,-0.486005,-0.3682488,-0.01961999
686.4583,0.04472775,-0.3571289,-0.627555,-0.486005,-0.3682488,-0.01961999
